; PROGRAM NAME: B12345660
; ORDER       : B123456
; OPER. NAME  : Contact Milling:176
; OPER. DESCR.: Contact Milling/podciecie_pod_ceche
; OPER. TYPE  : contactMill
; GEO. OPTION : 1
; MACHINE     : HSTM_500_SIM840D_Py
;             : HSTM500 - HAMUEL: 5-axis milling machine - SIM840D Traori PP_Script
; CONTROL     : SINUMERIK 840D
; created:   2023-06-06 12:08:36.806026
;-------DODATKOWE DANE-------------------
; PROGRAMISTA : Mariusz Malec
; PARTID      : 306T001953P1010_-
;  ap         : 1.0
;  ae         : 5.0
;  lean_angle : 0.01
;  tilt_angle : 0.0
;  fin_offset : -0.15
;----------------------------------------
;RAPORT("TB123456","Contact Milling:176")
N10 TRAFOOF
N11 D0
N12 G90 G94
N13 G0 G53 D0 Z550 B0
N14 STOPRE
M9 ; chlodziwo wyl
; --- Contact Milling:176 - Contact Milling/podciecie_pod_ceche ---
N16 ;ToolChange : concat=None ,current_tdmid=None, PP.tdmId=957453
N17 TRAFOOF
N18 G0 G53 D0 X-200 Y150 Z550 B0
N19 T="7757453"
;RAPORT("TB123456","ToolChangeStart 7757453")
N20 M6
;RAPORT("TB123456","ToolChangeEnd")
N21 STOPRE
N22 MSG(" TLID=957453 D=5.0 R=0.0 Ang=0.0 Len=109.0 ")
N23 ; (Preloading tool)
N24 T="7756910"
N25 S12095 M03
N26 STOPRE
N27 CYCLE832(0.01,1,1)
N28 G0 G53 A0.0000 B-0.0100
N29 TRAORI
N30 G54 D1
N31 D3 
N32 X-138.105 Y6.442 Z44.970 A0.0001 B-0.0100 
N33 M342 ; chlodziwo woda
N34 X-138.100 Y6.442 Z14.970 
N35 G01 X-138.099 Y6.442 Z8.970 F544 
N36 X-138.147 Y6.442 Z8.661 
N37 X-138.289 Y6.442 Z8.382 
N38 X-138.511 Y6.442 Z8.161 
N39 X-138.789 Y6.442 Z8.019 
N40 X-139.098 Y6.442 Z7.970 
N41 X-139.237 Y6.442 Z7.970 
N42 X-139.376 Y6.442 Z7.970 F543 
N43 X-139.515 Y6.442 Z7.970 F544 
N44 X-139.654 Y6.442 Z7.970 
N45 X-139.793 Y6.442 Z7.970 
N46 X-139.932 Y6.442 Z7.970 
N47 X-140.071 Y6.442 Z7.970 
N48 X-140.209 Y6.442 Z7.970 
N49 X-140.348 Y6.442 Z7.970 
N50 X-140.487 Y6.442 Z7.970 
N51 X-140.626 Y6.442 Z7.970 
N52 X-140.765 Y6.442 Z7.970 
N53 X-140.904 Y6.442 Z7.970 
N54 X-141.043 Y6.442 Z7.970 
N55 X-141.182 Y6.442 Z7.970 
N56 X-141.321 Y6.442 Z7.970 
N57 X-141.459 Y6.442 Z7.970 
N58 X-141.598 Y6.442 Z7.970 
N59 X-141.737 Y6.442 Z7.970 
N60 X-141.876 Y6.442 Z7.970 
N61 X-142.015 Y6.442 Z7.970 
N62 X-142.154 Y6.442 Z7.970 
N63 X-142.293 Y6.442 Z7.970 
N64 X-142.432 Y6.442 Z7.970 
N65 X-142.571 Y6.442 Z7.970 
N66 X-142.709 Y6.442 Z7.970 
N67 X-142.848 Y6.442 Z7.970 
N68 X-142.987 Y6.442 Z7.970 
N69 X-143.126 Y6.442 Z7.970 
N70 X-143.265 Y6.442 Z7.970 
N71 X-143.404 Y6.442 Z7.970 
N72 X-143.543 Y6.442 Z7.970 
N73 X-143.682 Y6.442 Z7.970 
N74 X-143.821 Y6.442 Z7.970 
N75 X-143.959 Y6.442 Z7.970 
N76 X-144.098 Y6.442 Z7.970 
N77 X-144.237 Y6.442 Z7.970 F543 
N78 X-144.376 Y6.442 Z7.970 F544 
N79 X-144.515 Y6.442 Z7.970 
N80 X-144.654 Y6.442 Z7.970 
N81 X-144.793 Y6.442 Z7.970 
N82 X-144.932 Y6.442 Z7.970 
N83 X-145.071 Y6.442 Z7.970 
N84 X-145.209 Y6.442 Z7.970 
N85 X-145.348 Y6.442 Z7.970 
N86 X-145.487 Y6.442 Z7.970 
N87 X-145.626 Y6.442 Z7.970 
N88 X-145.765 Y6.442 Z7.970 
N89 X-145.904 Y6.442 Z7.970 
N90 X-146.043 Y6.442 Z7.970 
N91 X-146.182 Y6.442 Z7.970 
N92 X-146.321 Y6.442 Z7.970 
N93 X-146.459 Y6.442 Z7.970 
N94 X-146.598 Y6.442 Z7.970 
N95 X-146.736 Y6.442 Z7.970 
N96 X-146.873 Y6.442 Z7.970 
N97 X-147.011 Y6.442 Z7.970 
N98 X-147.148 Y6.442 Z7.970 
N99 X-147.286 Y6.442 Z7.970 
N100 X-147.423 Y6.442 Z7.970 
N101 X-147.561 Y6.442 Z7.970 
N102 X-147.698 Y6.442 Z7.970 
N103 X-147.836 Y6.442 Z7.970 
N104 X-147.973 Y6.442 Z7.970 
N105 X-148.111 Y6.442 Z7.970 
N106 X-148.248 Y6.442 Z7.970 
N107 X-148.386 Y6.442 Z7.970 
N108 X-148.523 Y6.442 Z7.970 
N109 X-148.661 Y6.442 Z7.970 
N110 X-148.798 Y6.442 Z7.970 
N111 X-148.936 Y6.442 Z7.970 
N112 X-149.073 Y6.442 Z7.970 
N113 X-149.211 Y6.442 Z7.970 
N114 X-149.348 Y6.442 Z7.970 
N115 X-149.486 Y6.442 Z7.970 
N116 X-149.623 Y6.442 Z7.970 
N117 X-149.761 Y6.442 Z7.970 
N118 X-149.898 Y6.442 Z7.970 
N119 X-150.036 Y6.442 Z7.970 
N120 X-150.173 Y6.442 Z7.970 
N121 X-150.311 Y6.442 Z7.970 
N122 X-150.448 Y6.442 Z7.970 
N123 X-150.586 Y6.442 Z7.970 
N124 X-150.723 Y6.442 Z7.970 
N125 X-150.861 Y6.442 Z7.970 
N126 X-150.998 Y6.442 Z7.970 
N127 X-151.136 Y6.442 Z7.970 
N128 X-151.273 Y6.442 Z7.970 
N129 X-151.411 Y6.442 Z7.970 
N130 X-151.548 Y6.442 Z7.970 
N131 X-151.686 Y6.442 Z7.970 
N132 X-151.823 Y6.442 Z7.970 
N133 X-151.961 Y6.442 Z7.970 
N134 X-152.098 Y6.442 Z7.970 
N135 X-152.236 Y6.442 Z7.970 
N136 X-152.373 Y6.442 Z7.970 
N137 X-152.511 Y6.442 Z7.970 
N138 X-152.648 Y6.442 Z7.970 
N139 X-152.786 Y6.442 Z7.970 
N140 X-152.923 Y6.442 Z7.970 
N141 X-153.061 Y6.442 Z7.970 
N142 X-153.198 Y6.442 Z7.970 
N143 X-153.336 Y6.442 Z7.970 
N144 X-153.473 Y6.442 Z7.970 
N145 X-153.611 Y6.442 Z7.970 
N146 X-153.748 Y6.442 Z7.970 
N147 X-153.886 Y6.442 Z7.970 
N148 X-154.023 Y6.442 Z7.970 
N149 X-154.161 Y6.442 Z7.970 
N150 X-154.298 Y6.442 Z7.970 
N151 X-154.436 Y6.442 Z7.970 
N152 X-154.573 Y6.442 Z7.970 
N153 X-154.711 Y6.442 Z7.970 
N154 X-154.848 Y6.442 Z7.970 
N155 X-154.986 Y6.442 Z7.970 
N156 X-155.123 Y6.442 Z7.970 
N157 X-155.261 Y6.442 Z7.970 
N158 X-155.398 Y6.442 Z7.970 
N159 X-155.536 Y6.442 Z7.970 
N160 X-155.673 Y6.442 Z7.970 
N161 X-155.811 Y6.442 Z7.970 
N162 X-155.948 Y6.442 Z7.970 
N163 X-156.086 Y6.442 Z7.970 
N164 X-156.223 Y6.442 Z7.970 
N165 X-156.361 Y6.442 Z7.970 
N166 X-156.498 Y6.442 Z7.970 
N167 X-156.636 Y6.442 Z7.970 
N168 X-156.773 Y6.442 Z7.970 
N169 X-156.911 Y6.442 Z7.970 
N170 X-157.048 Y6.442 Z7.970 
N171 X-157.186 Y6.442 Z7.970 
N172 X-157.323 Y6.442 Z7.970 
N173 X-157.461 Y6.442 Z7.970 
N174 X-157.598 Y6.442 Z7.970 
N175 X-157.737 Y6.442 Z7.970 F543 
N176 X-157.876 Y6.442 Z7.970 F544 
N177 X-158.015 Y6.442 Z7.970 
N178 X-158.154 Y6.442 Z7.970 
N179 X-158.293 Y6.442 Z7.970 
N180 X-158.432 Y6.442 Z7.970 
N181 X-158.571 Y6.442 Z7.970 
N182 X-158.709 Y6.442 Z7.970 
N183 X-158.848 Y6.442 Z7.970 
N184 X-158.987 Y6.442 Z7.970 
N185 X-159.126 Y6.442 Z7.970 
N186 X-159.265 Y6.442 Z7.970 
N187 X-159.404 Y6.442 Z7.970 
N188 X-159.543 Y6.442 Z7.970 
N189 X-159.682 Y6.442 Z7.970 
N190 X-159.821 Y6.442 Z7.970 
N191 X-159.959 Y6.442 Z7.970 
N192 X-160.098 Y6.442 Z7.970 
N193 X-160.407 Y6.442 Z8.019 
N194 X-160.686 Y6.442 Z8.161 
N195 X-160.907 Y6.442 Z8.382 
N196 X-161.050 Y6.442 Z8.660 
N197 X-161.099 Y6.442 Z8.969 
N198 G00 X-161.107 Y6.442 Z58.969 
;RAPORT("TB123456","Contact Milling:176 End")
;trailer : concat=None
; points cnt = 163
N200 M9 ; chlodziwo wyl.
N201 MSG (" --- KONIEC PODPROGRAMU --- ")
N202 FGROUP()
N203 TRAFOOF
N204 STOPRE
N205 G0 G53 D0 Z550.0 M9 M5
N206 G0 G53 Y150 A0 B0
N207 M17
