; PROGRAM NAME: B12345637
; ORDER       : B123456
; OPER. NAME  : Side Milling:125
; OPER. DESCR.: Side Milling/BF_zgr
; OPER. TYPE  : sideMill
; GEO. OPTION : 1
; MACHINE     : HSTM_500_SIM840D_Py
;             : HSTM500 - HAMUEL: 5-axis milling machine - SIM840D Traori PP_Script
; CONTROL     : SINUMERIK 840D
; created:   2023-06-06 12:04:48.433872
;-------DODATKOWE DANE-------------------
; PROGRAMISTA : Mariusz Malec
; PARTID      : 306T001953P1010_-
;  ap         : 2.5
;  ae         : 17.0
;  lean_angle : 0.0
;  fin_offset : 0.5
;----------------------------------------
;RAPORT("TB123456","Side Milling:125")
N10 TRAFOOF
N11 D0
N12 G90 G94
N13 G0 G53 D0 Z550 B0
N14 STOPRE
M9 ; chlodziwo wyl
; --- Side Milling:125 - Side Milling/BF_zgr ---
N16 ;ToolChange : concat=None ,current_tdmid=None, PP.tdmId=941294
N17 TRAFOOF
N18 G0 G53 D0 X-200 Y150 Z550 B0
N19 T="7741294"
;RAPORT("TB123456","ToolChangeStart 7741294")
N20 M6
;RAPORT("TB123456","ToolChangeEnd")
N21 STOPRE
N22 MSG(" TLID=941294 D=32.0 R=5.0 Ang=0.0 Len=105.0 ")
N23 ; (Preloading tool)
N24 T="7740689"
N25 S2685 M03
N26 STOPRE
N27 CYCLE832(0.01,1,1)
N28 G0 G53 A47.0000 B0.0000
N29 TRAORI
N30 G54 D5
N31 D5 
N32 ; DELTA A > 40.1
N33 TRAFOOF
N34 D5
N35 STOPRE
N36 G00 G54 Z281.000
N37 G01 A47.0000 F10000
N38 TRAORI
N39 G54 D5
N40 STOPRE
N41 TRANS 
N42 G00 X-178.725 Y-78.156 Z6.842 A47.0000 
N43 M348 ; chlodziwo mgla
N44 X-178.725 Y-41.588 Z-27.258 
N45 G01 X-179.435 Y-34.785 Z-19.963 F2792 
N46 X-179.506 Y-34.105 Z-19.233 
N47 X-179.573 Y-33.465 Z-18.547 
N48 X-179.640 Y-32.825 Z-17.860 
N49 X-179.706 Y-32.184 Z-17.174 
N50 X-179.773 Y-31.544 Z-16.487 
N51 X-179.840 Y-30.904 Z-15.800 
N52 X-179.907 Y-30.263 Z-15.114 
N53 X-179.974 Y-29.623 Z-14.427 
N54 X-180.040 Y-28.983 Z-13.741 
N55 X-180.107 Y-28.343 Z-13.054 
N56 X-180.174 Y-27.702 Z-12.367 
N57 X-180.241 Y-27.062 Z-11.681 
N58 X-180.308 Y-26.422 Z-10.994 
N59 X-180.374 Y-25.782 Z-10.308 
N60 X-180.441 Y-25.141 Z-9.621 
N61 X-180.508 Y-24.501 Z-8.934 
N62 X-180.575 Y-23.861 Z-8.248 
N63 X-180.642 Y-23.221 Z-7.561 
N64 X-180.708 Y-22.585 Z-6.879 
N65 X-180.774 Y-21.949 Z-6.198 
N66 X-180.841 Y-21.313 Z-5.516 
N67 X-180.907 Y-20.677 Z-4.834 
N68 X-180.968 Y-20.041 Z-4.152 
N69 X-181.021 Y-19.405 Z-3.469 
N70 X-181.073 Y-18.769 Z-2.787 
N71 X-181.125 Y-18.132 Z-2.104 
N72 X-181.178 Y-17.496 Z-1.422 
N73 X-181.230 Y-16.859 Z-0.740 
N74 X-181.267 Y-16.222 Z-0.057 
N75 X-181.303 Y-15.585 Z0.626 
N76 X-181.338 Y-14.948 Z1.310 
N77 X-181.374 Y-14.312 Z1.993 
N78 X-181.410 Y-13.675 Z2.676 
N79 X-181.445 Y-13.038 Z3.359 
N80 X-181.477 Y-12.401 Z4.042 
N81 X-181.498 Y-11.763 Z4.725 
N82 X-181.519 Y-11.126 Z5.409 
N83 X-181.540 Y-10.489 Z6.092 
N84 X-181.557 Y-9.851 Z6.775 
N85 X-181.567 Y-9.214 Z7.459 
N86 X-181.576 Y-8.577 Z8.142 
N87 X-181.585 Y-7.939 Z8.826 
N88 X-181.595 Y-7.302 Z9.509 
N89 X-181.604 Y-6.660 Z10.198 
N90 X-181.614 Y-6.018 Z10.886 
N91 X-181.623 Y-5.376 Z11.574 
N92 X-181.633 Y-4.735 Z12.263 
N93 X-181.642 Y-4.093 Z12.951 
N94 X-181.652 Y-3.451 Z13.639 
N95 X-181.661 Y-2.809 Z14.328 
N96 X-181.671 Y-2.167 Z15.016 
N97 X-181.680 Y-1.525 Z15.704 
N98 X-181.690 Y-0.883 Z16.392 
N99 X-181.699 Y-0.242 Z17.081 
N100 X-181.709 Y0.400 Z17.769 
N101 X-181.718 Y1.042 Z18.457 
N102 X-181.728 Y1.684 Z19.146 
N103 X-181.737 Y2.326 Z19.834 
N104 X-181.747 Y2.968 Z20.522 
N105 X-181.756 Y3.609 Z21.210 
N106 X-181.765 Y4.071 Z22.069 F2920 
N107 X-181.775 Y4.433 Z23.072 F3306 
N108 X-181.786 Y4.759 Z24.273 F3949 
N109 X-181.795 Y5.018 Z25.760 F4849 
N110 X-181.791 Y5.027 Z27.622 F6007 
N111 X-181.691 Y4.023 Z29.631 F7421 
N112 X-181.304 Y1.323 Z30.035 F9029 
N113 X-180.704 Y-1.788 Z28.925 F10443 
N114 X-179.939 Y-5.016 Z27.054 F11601 
N115 X-179.032 Y-8.317 Z24.682 F12501 
N116 X-178.004 Y-11.654 Z21.952 F13144 
N117 X-176.884 Y-14.986 Z18.971 F13530 
N118 X-175.703 Y-18.273 Z15.829 F13658 
N119 X-174.538 Y-21.361 Z12.721 
N120 X-173.359 Y-24.378 Z9.551 
N121 X-172.175 Y-27.329 Z6.320 
N122 X-170.997 Y-30.210 Z3.025 
N123 X-169.791 Y-33.110 Z-0.469 F13530 
N124 X-168.635 Y-35.845 Z-3.995 F13144 
N125 X-167.561 Y-38.327 Z-7.506 F12501 
N126 X-166.598 Y-40.454 Z-10.955 F11601 
N127 X-165.773 Y-42.088 Z-14.295 F10443 
N128 X-165.115 Y-42.972 Z-17.466 F9029 
N129 X-164.712 Y-42.383 Z-20.129 F7421 
N130 X-164.682 Y-40.308 Z-20.995 F6007 
N131 X-164.765 Y-38.454 Z-20.858 F4849 
N132 X-164.852 Y-36.990 Z-20.499 F3949 
N133 X-164.930 Y-35.817 Z-20.091 F3306 
N134 X-164.999 Y-34.843 Z-19.662 F2920 
N135 X-165.066 Y-34.022 Z-19.144 F2792 
N136 X-165.137 Y-33.341 Z-18.414 
N137 X-165.204 Y-32.701 Z-17.728 
N138 X-165.271 Y-32.061 Z-17.041 
N139 X-165.337 Y-31.421 Z-16.355 
N140 X-165.404 Y-30.780 Z-15.668 
N141 X-165.471 Y-30.140 Z-14.981 
N142 X-165.538 Y-29.500 Z-14.295 
N143 X-165.605 Y-28.859 Z-13.608 
N144 X-165.671 Y-28.219 Z-12.922 
N145 X-165.738 Y-27.579 Z-12.235 
N146 X-165.805 Y-26.939 Z-11.548 
N147 X-165.872 Y-26.298 Z-10.862 
N148 X-165.939 Y-25.658 Z-10.175 
N149 X-166.005 Y-25.018 Z-9.489 
N150 X-166.072 Y-24.378 Z-8.802 
N151 X-166.139 Y-23.737 Z-8.115 
N152 X-166.206 Y-23.097 Z-7.429 
N153 X-166.273 Y-22.457 Z-6.742 
N154 X-166.339 Y-21.825 Z-6.064 
N155 X-166.405 Y-21.193 Z-5.387 
N156 X-166.471 Y-20.561 Z-4.709 
N157 X-166.536 Y-19.928 Z-4.031 
N158 X-166.595 Y-19.296 Z-3.353 
N159 X-166.647 Y-18.663 Z-2.674 
N160 X-166.699 Y-18.031 Z-1.996 
N161 X-166.751 Y-17.398 Z-1.317 
N162 X-166.803 Y-16.765 Z-0.639 
N163 X-166.850 Y-16.132 Z0.040 
N164 X-166.886 Y-15.499 Z0.719 
N165 X-166.921 Y-14.866 Z1.398 
N166 X-166.956 Y-14.233 Z2.077 
N167 X-166.992 Y-13.599 Z2.756 
N168 X-167.027 Y-12.966 Z3.435 
N169 X-167.062 Y-12.333 Z4.114 
N170 X-167.084 Y-11.699 Z4.794 
N171 X-167.105 Y-11.066 Z5.473 
N172 X-167.126 Y-10.432 Z6.153 
N173 X-167.145 Y-9.799 Z6.832 
N174 X-167.154 Y-9.165 Z7.511 
N175 X-167.164 Y-8.531 Z8.191 
N176 X-167.173 Y-7.898 Z8.870 
N177 X-167.182 Y-7.264 Z9.550 
N178 X-167.192 Y-6.622 Z10.238 
N179 X-167.201 Y-5.980 Z10.927 
N180 X-167.211 Y-5.339 Z11.615 
N181 X-167.220 Y-4.697 Z12.303 
N182 X-167.230 Y-4.055 Z12.991 
N183 X-167.239 Y-3.413 Z13.680 
N184 X-167.249 Y-2.771 Z14.368 
N185 X-167.258 Y-2.129 Z15.056 
N186 X-167.268 Y-1.487 Z15.745 
N187 X-167.277 Y-0.846 Z16.433 
N188 X-167.287 Y-0.204 Z17.121 
N189 X-167.296 Y0.438 Z17.810 
N190 X-167.306 Y1.080 Z18.498 
N191 X-167.315 Y1.722 Z19.186 
N192 X-167.325 Y2.364 Z19.874 
N193 X-167.334 Y3.005 Z20.563 
N194 X-167.344 Y3.647 Z21.251 
N195 X-167.444 Y10.467 Z28.564 
N196 G00 X-167.444 Y-26.101 Z62.664 
;RAPORT("TB123456","Side Milling:125 End")
;trailer : concat=None
; points cnt = 151
N198 MSG (" --- GROUPED OF SUBPROGRAM --- ")
N199 FGROUP()
N200 TRAFOOF
; PROGRAM NAME: B12345637
; ORDER       : B123456
; OPER. NAME  : Side Milling:126
; OPER. DESCR.: BF rough milling FEAB
; OPER. TYPE  : sideMill
; GEO. OPTION : 1
; MACHINE     : HSTM_500_SIM840D_Py
;             : HSTM500 - HAMUEL: 5-axis milling machine - SIM840D Traori PP_Script
; CONTROL     : SINUMERIK 840D
; created:   2023-06-06 12:04:51.978260
;-------DODATKOWE DANE-------------------
; PROGRAMISTA : Mariusz Malec
; PARTID      : 306T001953P1010_-
;  ap         : 2.5
;  ae         : 17.0
;  lean_angle : 0.0
;  fin_offset : 0.5
;----------------------------------------
;RAPORT("TB123456","Side Milling:126")
N10 TRAFOOF
N11 D0
N12 G90 G94
N13 G0 G53 D0 Z550 B0
N14 STOPRE
M9 ; chlodziwo wyl
; --- Side Milling:126 - BF rough milling FEAB ---
N16 ;ToolChange : concat=None ,current_tdmid=None, PP.tdmId=941294
N17 TRAFOOF
N18 G0 G53 D0 Z550 B0
N19 STOPRE
N20 MSG(" TLID=941294 D=32.0 R=5.0 Ang=0.0 Len=105.0 ")
N21 S2685 M03
N22 STOPRE
N23 CYCLE832(0.01,1,1)
N24 G0 G53 A227.0000 B-0.0000
N25 TRAORI
N26 G54 D6
N27 D6 
N28 ; DELTA A > 40.1
N29 TRAFOOF
N30 D6
N31 STOPRE
N32 G00 G54 Z281.000
N33 G01 A227.0000 F10000
N34 TRAORI
N35 G54 D6
N36 STOPRE
N37 TRANS 
N38 G00 X-178.847 Y80.706 Z-1.686 A227.0000 
N39 M348 ; chlodziwo mgla
N40 X-178.847 Y44.138 Z32.414 
N41 G01 X-179.534 Y37.334 Z25.118 F2792 
N42 X-179.602 Y36.654 Z24.388 
N43 X-179.667 Y36.013 Z23.701 
N44 X-179.731 Y35.373 Z23.015 
N45 X-179.796 Y34.733 Z22.328 
N46 X-179.861 Y34.092 Z21.641 
N47 X-179.925 Y33.452 Z20.954 
N48 X-179.990 Y32.812 Z20.268 
N49 X-180.055 Y32.171 Z19.581 
N50 X-180.119 Y31.531 Z18.894 
N51 X-180.184 Y30.890 Z18.208 
N52 X-180.248 Y30.250 Z17.521 
N53 X-180.313 Y29.610 Z16.834 
N54 X-180.378 Y28.969 Z16.147 
N55 X-180.442 Y28.329 Z15.461 
N56 X-180.507 Y27.689 Z14.774 
N57 X-180.571 Y27.048 Z14.087 
N58 X-180.636 Y26.408 Z13.401 
N59 X-180.701 Y25.767 Z12.714 
N60 X-180.765 Y25.132 Z12.032 
N61 X-180.829 Y24.496 Z11.350 
N62 X-180.893 Y23.860 Z10.669 
N63 X-180.957 Y23.225 Z9.987 
N64 X-181.015 Y22.589 Z9.305 
N65 X-181.066 Y21.952 Z8.623 
N66 X-181.116 Y21.316 Z7.940 
N67 X-181.166 Y20.680 Z7.258 
N68 X-181.217 Y20.043 Z6.576 
N69 X-181.267 Y19.407 Z5.893 
N70 X-181.300 Y18.770 Z5.210 
N71 X-181.334 Y18.133 Z4.527 
N72 X-181.367 Y17.497 Z3.844 
N73 X-181.401 Y16.860 Z3.162 
N74 X-181.435 Y16.223 Z2.479 
N75 X-181.468 Y15.586 Z1.796 
N76 X-181.497 Y14.949 Z1.113 
N77 X-181.516 Y14.312 Z0.430 
N78 X-181.534 Y13.675 Z-0.254 
N79 X-181.553 Y13.038 Z-0.937 
N80 X-181.568 Y12.401 Z-1.620 
N81 X-181.575 Y11.764 Z-2.303 
N82 X-181.582 Y11.126 Z-2.987 
N83 X-181.589 Y10.489 Z-3.670 
N84 X-181.597 Y9.852 Z-4.353 
N85 X-181.604 Y9.210 Z-5.042 
N86 X-181.611 Y8.568 Z-5.730 
N87 X-181.619 Y7.926 Z-6.418 
N88 X-181.626 Y7.284 Z-7.107 
N89 X-181.633 Y6.643 Z-7.795 
N90 X-181.640 Y6.001 Z-8.483 
N91 X-181.648 Y5.359 Z-9.172 
N92 X-181.655 Y4.717 Z-9.860 
N93 X-181.662 Y4.075 Z-10.548 
N94 X-181.669 Y3.433 Z-11.237 
N95 X-181.677 Y2.791 Z-11.925 
N96 X-181.684 Y2.150 Z-12.613 
N97 X-181.691 Y1.508 Z-13.302 
N98 X-181.699 Y0.866 Z-13.990 
N99 X-181.706 Y0.224 Z-14.678 
N100 X-181.713 Y-0.418 Z-15.366 
N101 X-181.720 Y-1.060 Z-16.055 
N102 X-181.728 Y-1.521 Z-16.913 F2920 
N103 X-181.735 Y-1.883 Z-17.917 F3306 
N104 X-181.743 Y-2.210 Z-19.117 F3949 
N105 X-181.749 Y-2.468 Z-20.605 F4849 
N106 X-181.742 Y-2.477 Z-22.466 F6006 
N107 X-181.640 Y-1.474 Z-24.475 F7421 
N108 X-181.257 Y1.227 Z-24.878 F9028 
N109 X-180.664 Y4.339 Z-23.768 F10443 
N110 X-179.908 Y7.568 Z-21.896 F11600 
N111 X-179.010 Y10.870 Z-19.523 F12500 
N112 X-177.992 Y14.208 Z-16.791 F13143 
N113 X-176.883 Y17.542 Z-13.808 F13529 
N114 X-175.712 Y20.831 Z-10.664 F13658 
N115 X-174.558 Y23.921 Z-7.555 
N116 X-173.389 Y26.939 Z-4.383 
N117 X-172.216 Y29.892 Z-1.150 
N118 X-171.048 Y32.775 Z2.147 
N119 X-169.853 Y35.676 Z5.643 F13529 
N120 X-168.708 Y38.413 Z9.171 F13143 
N121 X-167.643 Y40.896 Z12.683 F12500 
N122 X-166.690 Y43.025 Z16.134 F11600 
N123 X-165.873 Y44.660 Z19.475 F10443 
N124 X-165.222 Y45.545 Z22.647 F9028 
N125 X-164.823 Y44.956 Z25.311 F7421 
N126 X-164.791 Y42.881 Z26.176 F6006 
N127 X-164.871 Y41.027 Z26.039 F4849 
N128 X-164.955 Y39.563 Z25.680 F3949 
N129 X-165.030 Y38.390 Z25.271 F3306 
N130 X-165.097 Y37.416 Z24.842 F2920 
N131 X-165.162 Y36.594 Z24.324 F2792 
N132 X-165.231 Y35.914 Z23.595 
N133 X-165.295 Y35.274 Z22.908 
N134 X-165.360 Y34.633 Z22.221 
N135 X-165.424 Y33.993 Z21.534 
N136 X-165.489 Y33.352 Z20.848 
N137 X-165.554 Y32.712 Z20.161 
N138 X-165.618 Y32.072 Z19.474 
N139 X-165.683 Y31.431 Z18.788 
N140 X-165.747 Y30.791 Z18.101 
N141 X-165.812 Y30.151 Z17.414 
N142 X-165.877 Y29.510 Z16.728 
N143 X-165.941 Y28.870 Z16.041 
N144 X-166.006 Y28.230 Z15.354 
N145 X-166.070 Y27.589 Z14.667 
N146 X-166.135 Y26.949 Z13.981 
N147 X-166.200 Y26.308 Z13.294 
N148 X-166.264 Y25.668 Z12.607 
N149 X-166.329 Y25.028 Z11.921 
N150 X-166.393 Y24.396 Z11.243 
N151 X-166.456 Y23.764 Z10.565 
N152 X-166.520 Y23.132 Z9.887 
N153 X-166.584 Y22.500 Z9.210 
N154 X-166.640 Y21.867 Z8.531 
N155 X-166.690 Y21.235 Z7.853 
N156 X-166.740 Y20.602 Z7.175 
N157 X-166.790 Y19.969 Z6.496 
N158 X-166.840 Y19.337 Z5.818 
N159 X-166.883 Y18.704 Z5.139 
N160 X-166.916 Y18.071 Z4.460 
N161 X-166.949 Y17.438 Z3.781 
N162 X-166.983 Y16.805 Z3.103 
N163 X-167.016 Y16.172 Z2.424 
N164 X-167.050 Y15.539 Z1.745 
N165 X-167.083 Y14.905 Z1.066 
N166 X-167.102 Y14.272 Z0.387 
N167 X-167.120 Y13.639 Z-0.293 
N168 X-167.139 Y13.005 Z-0.972 
N169 X-167.155 Y12.372 Z-1.651 
N170 X-167.163 Y11.738 Z-2.330 
N171 X-167.170 Y11.105 Z-3.010 
N172 X-167.177 Y10.471 Z-3.689 
N173 X-167.184 Y9.838 Z-4.368 
N174 X-167.191 Y9.196 Z-5.057 
N175 X-167.199 Y8.554 Z-5.745 
N176 X-167.206 Y7.912 Z-6.433 
N177 X-167.213 Y7.270 Z-7.122 
N178 X-167.221 Y6.629 Z-7.810 
N179 X-167.228 Y5.987 Z-8.498 
N180 X-167.235 Y5.345 Z-9.187 
N181 X-167.242 Y4.703 Z-9.875 
N182 X-167.250 Y4.061 Z-10.563 
N183 X-167.257 Y3.419 Z-11.252 
N184 X-167.264 Y2.777 Z-11.940 
N185 X-167.271 Y2.136 Z-12.628 
N186 X-167.279 Y1.494 Z-13.317 
N187 X-167.286 Y0.852 Z-14.005 
N188 X-167.293 Y0.210 Z-14.693 
N189 X-167.301 Y-0.432 Z-15.381 
N190 X-167.308 Y-1.074 Z-16.070 
N191 X-167.385 Y-7.894 Z-23.383 
N192 G00 X-167.385 Y28.674 Z-57.483 
;RAPORT("TB123456","Side Milling:126 End")
;trailer : concat=None
; points cnt = 151
N194 M347 ; mgla wyl
N195 MSG (" --- KONIEC PODPROGRAMU --- ")
N196 FGROUP()
N197 TRAFOOF
N198 STOPRE
N199 G0 G53 D0 Z550.0 M9 M5
N200 G0 G53 Y150 A0 B0
N201 M17
