; PROGRAM NAME: B12345652
; ORDER       : B123456
; OPER. NAME  : Side Milling:170
; OPER. DESCR.: Side Milling/BH_wk
; OPER. TYPE  : sideMill
; GEO. OPTION : 1
; MACHINE     : HSTM_500_SIM840D_Py
;             : HSTM500 - HAMUEL: 5-axis milling machine - SIM840D Traori PP_Script
; CONTROL     : SINUMERIK 840D
; created:   2023-06-06 12:08:06.178627
;-------DODATKOWE DANE-------------------
; PROGRAMISTA : Mariusz Malec
; PARTID      : 306T001953P1010_-
;  ap         : 0.05
;  ae         : 10.0
;  lean_angle : 0.02
;  fin_offset : 0.0
;----------------------------------------
;RAPORT("TB123456","Side Milling:170")
N10 TRAFOOF
N11 D0
N12 G90 G94
N13 G0 G53 D0 Z550 B0
N14 STOPRE
M9 ; chlodziwo wyl
; --- Side Milling:170 - Side Milling/BH_wk ---
N16 ;ToolChange : concat=None ,current_tdmid=None, PP.tdmId=970367
N17 TRAFOOF
N18 G0 G53 D0 X-200 Y150 Z550 B0
N19 T="7770367"
;RAPORT("TB123456","ToolChangeStart 7770367")
N20 M6
;RAPORT("TB123456","ToolChangeEnd")
N21 STOPRE
N22 MSG(" TLID=970367 D=16.0 R=2.0 Ang=0.0 Len=130.0 ")
N23 ; (Preloading tool)
N24 T="7757773"
N25 S2984 M03
N26 STOPRE
N27 CYCLE832(0.01,1,1)
N28 G0 G53 A47.0200 B-0.0001
N29 TRAORI
N30 G54 D1
;tol5=0.03
N31 D1 
STOPRE
E_ZDARZ=300004
;ACS_FINISH_BH_C5=7770367
STOPRE
;UWAGA : ZMIENIONA TOLERANCJA OSI A i B, ruchy osi A i B beda usuniete : TOL5=0.03
N32 ; DELTA A > 40.1
N33 TRAFOOF
N34 D1
N35 STOPRE
N36 G00 G54 Z256.000
N37 G01 A47.0200 F10000
N38 TRAORI
N39 G54 D1
N40 STOPRE
N41 TRANS 
N42 G00 X-161.620 Y-32.490 Z50.757 A47.0200 
N43 M342 ; chlodziwo woda
N44 X-161.619 Y4.090 Z16.670 
N45 ;FSHE - BH od wlotu
N46 G01 G41 X-161.626 Y-1.366 Z10.819 F358 
N47 X-161.626 Y-1.451 Z10.728 
N48 X-161.626 Y-1.537 Z10.636 
N49 X-161.626 Y-1.622 Z10.545 
N50 X-161.626 Y-1.707 Z10.453 
N51 X-161.626 Y-1.792 Z10.362 
N52 X-161.627 Y-1.878 Z10.271 
N53 X-161.627 Y-1.963 Z10.179 
N54 X-161.627 Y-2.048 Z10.088 
N55 X-161.627 Y-2.126 Z10.004 
N56 X-161.627 Y-2.204 Z9.921 
N57 X-161.627 Y-2.282 Z9.837 
N58 X-161.627 Y-2.360 Z9.753 
N59 X-161.627 Y-2.438 Z9.670 
N60 X-161.627 Y-2.516 Z9.586 
N61 X-161.627 Y-2.594 Z9.503 
N62 X-161.627 Y-2.675 Z9.416 
N63 X-161.628 Y-2.756 Z9.328 
N64 X-161.628 Y-2.838 Z9.241 
N65 X-161.628 Y-2.919 Z9.154 
N66 X-161.628 Y-3.000 Z9.067 
N67 X-161.628 Y-3.081 Z8.980 
N68 X-161.628 Y-3.162 Z8.893 
N69 X-161.628 Y-3.244 Z8.806 
N70 X-161.628 Y-3.325 Z8.719 
N71 X-161.628 Y-3.406 Z8.632 
N72 X-161.628 Y-3.487 Z8.545 
N73 X-161.629 Y-3.569 Z8.457 
N74 X-161.629 Y-3.650 Z8.370 
N75 X-161.629 Y-3.731 Z8.283 
N76 X-161.629 Y-3.812 Z8.196 
N77 X-161.629 Y-3.893 Z8.109 
N78 X-161.629 Y-3.975 Z8.022 
N79 X-161.629 Y-4.056 Z7.935 
N80 X-161.629 Y-4.137 Z7.848 
N81 X-161.629 Y-4.218 Z7.761 
N82 X-161.629 Y-4.300 Z7.673 
N83 X-161.629 Y-4.381 Z7.586 
N84 X-161.630 Y-4.462 Z7.499 
N85 X-161.630 Y-4.543 Z7.412 
N86 X-161.630 Y-4.624 Z7.325 
N87 X-161.630 Y-4.706 Z7.238 
N88 X-161.630 Y-4.787 Z7.151 
N89 X-161.630 Y-4.868 Z7.064 
N90 X-161.630 Y-4.949 Z6.977 
N91 X-161.630 Y-5.031 Z6.890 
N92 X-161.629 Y-5.112 Z6.802 
N93 X-161.628 Y-5.193 Z6.715 
N94 X-161.627 Y-5.274 Z6.628 
N95 X-161.625 Y-5.356 Z6.541 
N96 X-161.624 Y-5.437 Z6.454 
N97 X-161.623 Y-5.518 Z6.367 
N98 X-161.621 Y-5.599 Z6.280 
N99 X-161.620 Y-5.680 Z6.193 
N100 X-161.619 Y-5.762 Z6.106 
N101 X-161.617 Y-5.843 Z6.019 
N102 X-161.616 Y-5.924 Z5.931 
N103 X-161.615 Y-6.005 Z5.844 
N104 X-161.614 Y-6.087 Z5.757 
N105 X-161.612 Y-6.168 Z5.670 
N106 X-161.611 Y-6.249 Z5.583 
N107 X-161.610 Y-6.330 Z5.496 
N108 X-161.608 Y-6.411 Z5.409 
N109 X-161.607 Y-6.493 Z5.322 
N110 X-161.606 Y-6.574 Z5.235 
N111 X-161.604 Y-6.655 Z5.148 
N112 X-161.603 Y-6.736 Z5.060 
N113 X-161.602 Y-6.818 Z4.973 
N114 X-161.600 Y-6.899 Z4.886 
N115 X-161.599 Y-6.980 Z4.799 
N116 X-161.598 Y-7.061 Z4.712 
N117 X-161.596 Y-7.142 Z4.625 
N118 X-161.595 Y-7.224 Z4.538 
N119 X-161.594 Y-7.305 Z4.451 
N120 X-161.592 Y-7.386 Z4.364 
N121 X-161.589 Y-7.467 Z4.277 
N122 X-161.586 Y-7.548 Z4.189 
N123 X-161.583 Y-7.630 Z4.102 
N124 X-161.580 Y-7.711 Z4.015 
N125 X-161.577 Y-7.792 Z3.928 
N126 X-161.574 Y-7.873 Z3.841 
N127 X-161.570 Y-7.954 Z3.754 
N128 X-161.567 Y-8.036 Z3.667 
N129 X-161.564 Y-8.117 Z3.580 
N130 X-161.561 Y-8.198 Z3.493 
N131 X-161.558 Y-8.279 Z3.406 
N132 X-161.555 Y-8.360 Z3.319 
N133 X-161.552 Y-8.442 Z3.232 
N134 X-161.548 Y-8.523 Z3.145 
N135 X-161.545 Y-8.604 Z3.058 
N136 X-161.542 Y-8.685 Z2.970 
N137 X-161.539 Y-8.766 Z2.883 
N138 X-161.536 Y-8.848 Z2.796 
N139 X-161.533 Y-8.929 Z2.709 
N140 X-161.530 Y-9.010 Z2.622 
N141 X-161.526 Y-9.091 Z2.535 
N142 X-161.523 Y-9.172 Z2.448 
N143 X-161.520 Y-9.254 Z2.361 
N144 X-161.517 Y-9.335 Z2.274 
N145 X-161.514 Y-9.416 Z2.187 
N146 X-161.511 Y-9.497 Z2.100 
N147 X-161.508 Y-9.578 Z2.013 
N148 X-161.504 Y-9.660 Z1.926 
N149 X-161.501 Y-9.741 Z1.838 
N150 X-161.498 Y-9.822 Z1.751 
N151 X-161.495 Y-9.903 Z1.664 
N152 X-161.492 Y-9.984 Z1.577 
N153 X-161.489 Y-10.066 Z1.490 
N154 X-161.486 Y-10.147 Z1.403 
N155 X-161.482 Y-10.228 Z1.316 
N156 X-161.479 Y-10.309 Z1.229 
N157 X-161.476 Y-10.390 Z1.142 
N158 X-161.473 Y-10.472 Z1.055 
N159 X-161.470 Y-10.553 Z0.968 
N160 X-161.467 Y-10.634 Z0.881 
N161 X-161.464 Y-10.715 Z0.794 
N162 X-161.460 Y-10.796 Z0.706 
N163 X-161.457 Y-10.878 Z0.619 
N164 X-161.454 Y-10.959 Z0.532 
N165 X-161.451 Y-11.040 Z0.445 
N166 X-161.448 Y-11.121 Z0.358 
N167 X-161.445 Y-11.202 Z0.271 
N168 X-161.439 Y-11.284 Z0.184 
N169 X-161.434 Y-11.365 Z0.097 
N170 X-161.429 Y-11.446 Z0.010 
N171 X-161.424 Y-11.527 Z-0.077 
N172 X-161.419 Y-11.608 Z-0.164 
N173 X-161.414 Y-11.689 Z-0.251 
N174 X-161.408 Y-11.770 Z-0.338 
N175 X-161.403 Y-11.852 Z-0.425 
N176 X-161.398 Y-11.933 Z-0.512 
N177 X-161.393 Y-12.014 Z-0.599 
N178 X-161.388 Y-12.095 Z-0.686 
N179 X-161.383 Y-12.176 Z-0.773 
N180 X-161.378 Y-12.257 Z-0.860 
N181 X-161.372 Y-12.338 Z-0.947 
N182 X-161.367 Y-12.420 Z-1.034 
N183 X-161.362 Y-12.501 Z-1.121 
N184 X-161.357 Y-12.582 Z-1.208 
N185 X-161.352 Y-12.663 Z-1.295 
N186 X-161.347 Y-12.744 Z-1.382 
N187 X-161.341 Y-12.825 Z-1.469 
N188 X-161.336 Y-12.907 Z-1.556 
N189 X-161.331 Y-12.988 Z-1.643 
N190 X-161.326 Y-13.069 Z-1.730 
N191 X-161.321 Y-13.150 Z-1.817 
N192 X-161.316 Y-13.231 Z-1.904 
N193 X-161.311 Y-13.312 Z-1.991 
N194 X-161.305 Y-13.393 Z-2.079 
N195 X-161.300 Y-13.475 Z-2.166 
N196 X-161.295 Y-13.556 Z-2.253 
N197 X-161.290 Y-13.637 Z-2.340 
N198 X-161.285 Y-13.718 Z-2.427 
N199 X-161.280 Y-13.799 Z-2.514 
N200 X-161.275 Y-13.880 Z-2.601 
N201 X-161.269 Y-13.962 Z-2.688 
N202 X-161.264 Y-14.043 Z-2.775 
N203 X-161.259 Y-14.124 Z-2.862 
N204 X-161.253 Y-14.205 Z-2.949 
N205 X-161.246 Y-14.286 Z-3.036 
N206 X-161.240 Y-14.367 Z-3.123 
N207 X-161.233 Y-14.448 Z-3.210 
N208 X-161.226 Y-14.529 Z-3.297 
N209 X-161.219 Y-14.610 Z-3.384 
N210 X-161.213 Y-14.692 Z-3.471 
N211 X-161.206 Y-14.773 Z-3.557 
N212 X-161.199 Y-14.854 Z-3.644 
N213 X-161.192 Y-14.935 Z-3.731 
N214 X-161.186 Y-15.016 Z-3.818 
N215 X-161.179 Y-15.097 Z-3.905 
N216 X-161.172 Y-15.178 Z-3.992 
N217 X-161.165 Y-15.259 Z-4.079 
N218 X-161.158 Y-15.340 Z-4.166 
N219 X-161.152 Y-15.421 Z-4.253 
N220 X-161.145 Y-15.502 Z-4.340 
N221 X-161.138 Y-15.584 Z-4.427 
N222 X-161.131 Y-15.665 Z-4.514 
N223 X-161.125 Y-15.746 Z-4.601 
N224 X-161.118 Y-15.827 Z-4.688 
N225 X-161.111 Y-15.908 Z-4.775 
N226 X-161.104 Y-15.989 Z-4.862 
N227 X-161.098 Y-16.070 Z-4.949 
N228 X-161.091 Y-16.151 Z-5.036 
N229 X-161.084 Y-16.232 Z-5.123 
N230 X-161.077 Y-16.313 Z-5.210 
N231 X-161.071 Y-16.395 Z-5.297 
N232 X-161.064 Y-16.476 Z-5.384 
N233 X-161.057 Y-16.557 Z-5.471 
N234 X-161.050 Y-16.638 Z-5.558 
N235 X-161.044 Y-16.716 Z-5.641 
N236 X-161.037 Y-16.793 Z-5.725 
N237 X-161.031 Y-16.871 Z-5.808 
N238 X-161.024 Y-16.949 Z-5.891 
N239 X-161.018 Y-17.027 Z-5.975 
N240 X-161.011 Y-17.105 Z-6.058 
N241 X-161.005 Y-17.183 Z-6.142 
N242 G40 X-160.551 Y-22.630 Z-11.983 F358
N243 X-160.551 Y-22.630 Z-11.983 
N244 G00 X-160.550 Y-33.604 Z-1.757 
N245 X-161.619 Y-6.848 Z26.862 
N246 X-161.619 Y4.126 Z16.636 
N247 ;FSHE - BH od wlotu
N248 G01 G41 X-161.626 Y-1.330 Z10.785 F358 
N249 X-161.626 Y-1.415 Z10.694 
N250 X-161.626 Y-1.500 Z10.602 
N251 X-161.626 Y-1.585 Z10.511 
N252 X-161.626 Y-1.671 Z10.419 
N253 X-161.626 Y-1.756 Z10.328 
N254 X-161.627 Y-1.841 Z10.237 
N255 X-161.627 Y-1.926 Z10.145 
N256 X-161.627 Y-2.012 Z10.054 
N257 X-161.627 Y-2.090 Z9.970 
N258 X-161.627 Y-2.168 Z9.887 
N259 X-161.627 Y-2.245 Z9.803 
N260 X-161.627 Y-2.323 Z9.719 
N261 X-161.627 Y-2.401 Z9.636 
N262 X-161.627 Y-2.479 Z9.552 
N263 X-161.627 Y-2.557 Z9.469 
N264 X-161.627 Y-2.638 Z9.381 
N265 X-161.628 Y-2.720 Z9.294 
N266 X-161.628 Y-2.801 Z9.207 
N267 X-161.628 Y-2.882 Z9.120 
N268 X-161.628 Y-2.963 Z9.033 
N269 X-161.628 Y-3.045 Z8.946 
N270 X-161.628 Y-3.126 Z8.859 
N271 X-161.628 Y-3.207 Z8.772 
N272 X-161.628 Y-3.288 Z8.685 
N273 X-161.628 Y-3.370 Z8.598 
N274 X-161.628 Y-3.451 Z8.510 
N275 X-161.629 Y-3.532 Z8.423 
N276 X-161.629 Y-3.613 Z8.336 
N277 X-161.629 Y-3.694 Z8.249 
N278 X-161.629 Y-3.776 Z8.162 
N279 X-161.629 Y-3.857 Z8.075 
N280 X-161.629 Y-3.938 Z7.988 
N281 X-161.629 Y-4.019 Z7.901 
N282 X-161.629 Y-4.101 Z7.814 
N283 X-161.629 Y-4.182 Z7.726 
N284 X-161.629 Y-4.263 Z7.639 
N285 X-161.629 Y-4.344 Z7.552 
N286 X-161.630 Y-4.425 Z7.465 
N287 X-161.630 Y-4.507 Z7.378 
N288 X-161.630 Y-4.588 Z7.291 
N289 X-161.630 Y-4.669 Z7.204 
N290 X-161.630 Y-4.750 Z7.117 
N291 X-161.630 Y-4.832 Z7.030 
N292 X-161.630 Y-4.913 Z6.943 
N293 X-161.630 Y-4.994 Z6.855 
N294 X-161.629 Y-5.075 Z6.768 
N295 X-161.628 Y-5.157 Z6.681 
N296 X-161.627 Y-5.238 Z6.594 
N297 X-161.625 Y-5.319 Z6.507 
N298 X-161.624 Y-5.400 Z6.420 
N299 X-161.623 Y-5.481 Z6.333 
N300 X-161.621 Y-5.563 Z6.246 
N301 X-161.620 Y-5.644 Z6.159 
N302 X-161.619 Y-5.725 Z6.072 
N303 X-161.617 Y-5.806 Z5.984 
N304 X-161.616 Y-5.887 Z5.897 
N305 X-161.615 Y-5.969 Z5.810 
N306 X-161.614 Y-6.050 Z5.723 
N307 X-161.612 Y-6.131 Z5.636 
N308 X-161.611 Y-6.212 Z5.549 
N309 X-161.610 Y-6.294 Z5.462 
N310 X-161.608 Y-6.375 Z5.375 
N311 X-161.607 Y-6.456 Z5.288 
N312 X-161.606 Y-6.537 Z5.201 
N313 X-161.604 Y-6.618 Z5.113 
N314 X-161.603 Y-6.700 Z5.026 
N315 X-161.602 Y-6.781 Z4.939 
N316 X-161.600 Y-6.862 Z4.852 
N317 X-161.599 Y-6.943 Z4.765 
N318 X-161.598 Y-7.025 Z4.678 
N319 X-161.596 Y-7.106 Z4.591 
N320 X-161.595 Y-7.187 Z4.504 
N321 X-161.594 Y-7.268 Z4.417 
N322 X-161.592 Y-7.349 Z4.330 
N323 X-161.589 Y-7.431 Z4.242 
N324 X-161.586 Y-7.512 Z4.155 
N325 X-161.583 Y-7.593 Z4.068 
N326 X-161.580 Y-7.674 Z3.981 
N327 X-161.577 Y-7.755 Z3.894 
N328 X-161.574 Y-7.837 Z3.807 
N329 X-161.570 Y-7.918 Z3.720 
N330 X-161.567 Y-7.999 Z3.633 
N331 X-161.564 Y-8.080 Z3.546 
N332 X-161.561 Y-8.161 Z3.459 
N333 X-161.558 Y-8.243 Z3.372 
N334 X-161.555 Y-8.324 Z3.285 
N335 X-161.552 Y-8.405 Z3.198 
N336 X-161.548 Y-8.486 Z3.110 
N337 X-161.545 Y-8.567 Z3.023 
N338 X-161.542 Y-8.649 Z2.936 
N339 X-161.539 Y-8.730 Z2.849 
N340 X-161.536 Y-8.811 Z2.762 
N341 X-161.533 Y-8.892 Z2.675 
N342 X-161.530 Y-8.973 Z2.588 
N343 X-161.526 Y-9.055 Z2.501 
N344 X-161.523 Y-9.136 Z2.414 
N345 X-161.520 Y-9.217 Z2.327 
N346 X-161.517 Y-9.298 Z2.240 
N347 X-161.514 Y-9.379 Z2.153 
N348 X-161.511 Y-9.461 Z2.066 
N349 X-161.508 Y-9.542 Z1.979 
N350 X-161.504 Y-9.623 Z1.891 
N351 X-161.501 Y-9.704 Z1.804 
N352 X-161.498 Y-9.785 Z1.717 
N353 X-161.495 Y-9.867 Z1.630 
N354 X-161.492 Y-9.948 Z1.543 
N355 X-161.489 Y-10.029 Z1.456 
N356 X-161.486 Y-10.110 Z1.369 
N357 X-161.482 Y-10.191 Z1.282 
N358 X-161.479 Y-10.273 Z1.195 
N359 X-161.476 Y-10.354 Z1.108 
N360 X-161.473 Y-10.435 Z1.021 
N361 X-161.470 Y-10.516 Z0.934 
N362 X-161.467 Y-10.597 Z0.847 
N363 X-161.464 Y-10.679 Z0.759 
N364 X-161.460 Y-10.760 Z0.672 
N365 X-161.457 Y-10.841 Z0.585 
N366 X-161.454 Y-10.922 Z0.498 
N367 X-161.451 Y-11.003 Z0.411 
N368 X-161.448 Y-11.085 Z0.324 
N369 X-161.445 Y-11.166 Z0.237 
N370 X-161.439 Y-11.247 Z0.150 
N371 X-161.434 Y-11.328 Z0.063 
N372 X-161.429 Y-11.409 Z-0.024 
N373 X-161.424 Y-11.490 Z-0.111 
N374 X-161.419 Y-11.572 Z-0.198 
N375 X-161.414 Y-11.653 Z-0.285 
N376 X-161.408 Y-11.734 Z-0.372 
N377 X-161.403 Y-11.815 Z-0.459 
N378 X-161.398 Y-11.896 Z-0.546 
N379 X-161.393 Y-11.977 Z-0.633 
N380 X-161.388 Y-12.058 Z-0.720 
N381 X-161.383 Y-12.140 Z-0.807 
N382 X-161.378 Y-12.221 Z-0.894 
N383 X-161.372 Y-12.302 Z-0.981 
N384 X-161.367 Y-12.383 Z-1.068 
N385 X-161.362 Y-12.464 Z-1.155 
N386 X-161.357 Y-12.545 Z-1.242 
N387 X-161.352 Y-12.627 Z-1.329 
N388 X-161.347 Y-12.708 Z-1.416 
N389 X-161.341 Y-12.789 Z-1.503 
N390 X-161.336 Y-12.870 Z-1.590 
N391 X-161.331 Y-12.951 Z-1.677 
N392 X-161.326 Y-13.032 Z-1.765 
N393 X-161.321 Y-13.113 Z-1.852 
N394 X-161.316 Y-13.195 Z-1.939 
N395 X-161.311 Y-13.276 Z-2.026 
N396 X-161.305 Y-13.357 Z-2.113 
N397 X-161.300 Y-13.438 Z-2.200 
N398 X-161.295 Y-13.519 Z-2.287 
N399 X-161.290 Y-13.600 Z-2.374 
N400 X-161.285 Y-13.681 Z-2.461 
N401 X-161.280 Y-13.763 Z-2.548 
N402 X-161.275 Y-13.844 Z-2.635 
N403 X-161.269 Y-13.925 Z-2.722 
N404 X-161.264 Y-14.006 Z-2.809 
N405 X-161.259 Y-14.087 Z-2.896 
N406 X-161.253 Y-14.168 Z-2.983 
N407 X-161.246 Y-14.249 Z-3.070 
N408 X-161.240 Y-14.331 Z-3.157 
N409 X-161.233 Y-14.412 Z-3.244 
N410 X-161.226 Y-14.493 Z-3.331 
N411 X-161.219 Y-14.574 Z-3.418 
N412 X-161.213 Y-14.655 Z-3.505 
N413 X-161.206 Y-14.736 Z-3.592 
N414 X-161.199 Y-14.817 Z-3.679 
N415 X-161.192 Y-14.898 Z-3.766 
N416 X-161.186 Y-14.979 Z-3.852 
N417 X-161.179 Y-15.060 Z-3.939 
N418 X-161.172 Y-15.142 Z-4.026 
N419 X-161.165 Y-15.223 Z-4.113 
N420 X-161.158 Y-15.304 Z-4.200 
N421 X-161.152 Y-15.385 Z-4.287 
N422 X-161.145 Y-15.466 Z-4.374 
N423 X-161.138 Y-15.547 Z-4.461 
N424 X-161.131 Y-15.628 Z-4.548 
N425 X-161.125 Y-15.709 Z-4.635 
N426 X-161.118 Y-15.790 Z-4.722 
N427 X-161.111 Y-15.871 Z-4.809 
N428 X-161.104 Y-15.952 Z-4.896 
N429 X-161.098 Y-16.034 Z-4.983 
N430 X-161.091 Y-16.115 Z-5.070 
N431 X-161.084 Y-16.196 Z-5.157 
N432 X-161.077 Y-16.277 Z-5.244 
N433 X-161.071 Y-16.358 Z-5.331 
N434 X-161.064 Y-16.439 Z-5.418 
N435 X-161.057 Y-16.520 Z-5.505 
N436 X-161.050 Y-16.601 Z-5.592 
N437 X-161.044 Y-16.679 Z-5.675 
N438 X-161.037 Y-16.757 Z-5.759 
N439 X-161.031 Y-16.835 Z-5.842 
N440 X-161.024 Y-16.913 Z-5.926 
N441 X-161.018 Y-16.990 Z-6.009 
N442 X-161.011 Y-17.068 Z-6.092 
N443 X-161.005 Y-17.146 Z-6.176 
N444 G40 X-160.551 Y-22.593 Z-12.017 F358
N445 X-160.551 Y-22.593 Z-12.017 
N446 G00 X-160.550 Y-33.567 Z-1.791 
;RAPORT("TB123456","Side Milling:170 End")
;trailer : concat=None
; points cnt = 394
N448 MSG (" --- GROUPED OF SUBPROGRAM --- ")
N449 FGROUP()
N450 TRAFOOF
; PROGRAM NAME: B12345652
; ORDER       : B123456
; OPER. NAME  : Side Milling:171
; OPER. DESCR.: BH Chamfer Finish milling MFBBE
; OPER. TYPE  : sideMill
; GEO. OPTION : 1
; MACHINE     : HSTM_500_SIM840D_Py
;             : HSTM500 - HAMUEL: 5-axis milling machine - SIM840D Traori PP_Script
; CONTROL     : SINUMERIK 840D
; created:   2023-06-06 12:08:12.676440
;-------DODATKOWE DANE-------------------
; PROGRAMISTA : Mariusz Malec
; PARTID      : 306T001953P1010_-
;  ap         : 0.05
;  ae         : 10.0
;  lean_angle : 0.02
;  fin_offset : 0.0
;----------------------------------------
;RAPORT("TB123456","Side Milling:171")
N10 TRAFOOF
N11 D0
N12 G90 G94
N13 G0 G53 D0 Z550 B0
N14 STOPRE
M9 ; chlodziwo wyl
; --- Side Milling:171 - BH Chamfer Finish milling MFBBE ---
N16 ;ToolChange : concat=None ,current_tdmid=None, PP.tdmId=970367
N17 TRAFOOF
N18 G0 G53 D0 Z550 B0
N19 STOPRE
N20 MSG(" TLID=970367 D=16.0 R=2.0 Ang=0.0 Len=130.0 ")
N21 S2984 M03
N22 STOPRE
N23 CYCLE832(0.01,1,1)
N24 G0 G53 A42.2151 B0.0000
N25 TRAORI
N26 G54 D3
;tol5=0.03
N27 D3 
STOPRE
E_ZDARZ=300004
;ACS_FINISH_BH_C5=7770367
STOPRE
;UWAGA : ZMIENIONA TOLERANCJA OSI A i B, ruchy osi A i B beda usuniete : TOL5=0.03
N28 ; DELTA A > 40.1
N29 TRAFOOF
N30 D3
N31 STOPRE
N32 G00 G54 Z256.000
N33 G01 A42.2151 F10000
N34 TRAORI
N35 G54 D3
N36 STOPRE
N37 TRANS 
N38 G00 X-161.633 Y-22.454 Z58.585 A42.2151 
N39 M342 ; chlodziwo woda
N40 X-161.633 Y11.142 Z21.554 
N41 ;MFBBE - faza na BH od wlotu
N42 G01 G41 X-161.633 Y5.215 Z16.180 F358 
N43 X-161.633 Y5.123 Z16.096 
N44 X-161.633 Y5.030 Z16.013 
N45 X-161.633 Y4.937 Z15.929 
N46 X-161.633 Y4.845 Z15.845 
N47 X-161.633 Y4.752 Z15.761 
N48 X-161.633 Y4.659 Z15.677 
N49 X-161.633 Y4.567 Z15.593 
N50 X-161.633 Y4.474 Z15.509 
N51 X-161.633 Y4.386 Z15.429 
N52 X-161.633 Y4.297 Z15.348 
N53 X-161.633 Y4.209 Z15.268 
N54 X-161.633 Y4.120 Z15.188 
N55 X-161.633 Y4.032 Z15.108 
N56 X-161.633 Y3.943 Z15.028 
N57 X-161.633 Y3.855 Z14.947 
N58 X-161.633 Y3.767 Z14.867 
N59 X-161.633 Y3.678 Z14.787 
N60 X-161.633 Y3.590 Z14.707 
N61 X-161.633 Y3.501 Z14.627 
N62 X-161.633 Y3.413 Z14.546 
N63 X-161.633 Y3.324 Z14.466 
N64 X-161.633 Y3.236 Z14.386 
N65 X-161.633 Y3.147 Z14.306 
N66 X-161.633 Y3.059 Z14.226 
N67 X-161.633 Y2.970 Z14.145 
N68 X-161.633 Y2.882 Z14.065 
N69 X-161.633 Y2.793 Z13.985 
N70 X-161.633 Y2.705 Z13.905 
N71 X-161.633 Y2.617 Z13.825 
N72 X-161.633 Y2.528 Z13.744 
N73 X-161.633 Y2.440 Z13.664 
N74 X-161.633 Y2.351 Z13.584 
N75 X-161.633 Y2.263 Z13.504 
N76 X-161.633 Y2.174 Z13.424 
N77 X-161.633 Y2.086 Z13.343 
N78 X-161.633 Y1.997 Z13.263 
N79 X-161.633 Y1.909 Z13.183 
N80 X-161.633 Y1.820 Z13.103 
N81 X-161.633 Y1.732 Z13.023 
N82 X-161.633 Y1.643 Z12.942 
N83 X-161.633 Y1.555 Z12.862 
N84 X-161.633 Y1.467 Z12.782 
N85 X-161.633 Y1.378 Z12.702 
N86 X-161.633 Y1.290 Z12.622 
N87 X-161.633 Y1.201 Z12.541 
N88 X-161.633 Y1.113 Z12.461 
N89 X-161.633 Y1.024 Z12.381 
N90 X-161.633 Y0.936 Z12.301 
N91 X-161.633 Y0.847 Z12.221 
N92 X-161.633 Y0.759 Z12.140 
N93 X-161.633 Y0.670 Z12.060 
N94 X-161.633 Y0.582 Z11.980 
N95 X-161.633 Y0.494 Z11.900 
N96 X-161.633 Y0.405 Z11.820 
N97 X-161.633 Y0.317 Z11.739 
N98 X-161.633 Y0.228 Z11.659 
N99 X-161.633 Y0.140 Z11.579 
N100 X-161.633 Y0.051 Z11.499 
N101 X-161.633 Y-0.037 Z11.419 
N102 X-161.633 Y-0.126 Z11.338 
N103 X-161.633 Y-0.214 Z11.258 
N104 X-161.633 Y-0.303 Z11.178 
N105 X-161.633 Y-0.391 Z11.098 
N106 X-161.633 Y-0.480 Z11.018 
N107 X-161.633 Y-0.568 Z10.938 
N108 X-161.633 Y-0.656 Z10.857 
N109 X-161.633 Y-0.745 Z10.777 
N110 X-161.633 Y-0.833 Z10.697 
N111 X-161.633 Y-0.922 Z10.617 
N112 X-161.633 Y-1.010 Z10.537 
N113 X-161.633 Y-1.099 Z10.456 
N114 X-161.633 Y-1.187 Z10.376 
N115 X-161.633 Y-1.276 Z10.296 
N116 X-161.633 Y-1.364 Z10.216 
N117 X-161.633 Y-1.453 Z10.136 
N118 X-161.633 Y-1.542 Z10.054 
N119 X-161.633 Y-1.632 Z9.973 
N120 X-161.633 Y-1.721 Z9.892 
N121 X-161.633 Y-1.811 Z9.811 
N122 X-161.633 Y-1.900 Z9.730 
N123 X-161.633 Y-1.990 Z9.649 
N124 X-161.633 Y-2.079 Z9.567 
N125 X-161.633 Y-2.169 Z9.486 
N126 X-161.633 Y-2.258 Z9.405 
N127 X-161.633 Y-2.348 Z9.324 
N128 X-161.633 Y-2.437 Z9.243 
N129 X-161.633 Y-2.527 Z9.162 
N130 X-161.633 Y-2.616 Z9.080 
N131 X-161.633 Y-2.706 Z8.999 
N132 X-161.633 Y-2.795 Z8.918 
N133 X-161.633 Y-2.885 Z8.837 
N134 X-161.633 Y-2.975 Z8.756 
N135 X-161.633 Y-3.064 Z8.675 
N136 X-161.633 Y-3.154 Z8.593 
N137 X-161.633 Y-3.243 Z8.512 
N138 X-161.633 Y-3.333 Z8.431 
N139 X-161.633 Y-3.422 Z8.350 
N140 X-161.633 Y-3.512 Z8.269 
N141 X-161.633 Y-3.601 Z8.188 
N142 X-161.633 Y-3.691 Z8.107 
N143 X-161.633 Y-3.780 Z8.025 
N144 X-161.633 Y-3.870 Z7.944 
N145 X-161.633 Y-3.959 Z7.863 
N146 X-161.633 Y-4.049 Z7.782 
N147 X-161.633 Y-4.138 Z7.701 
N148 X-161.633 Y-4.228 Z7.620 
N149 X-161.633 Y-4.317 Z7.538 
N150 X-161.633 Y-4.407 Z7.457 
N151 X-161.633 Y-4.496 Z7.376 
N152 X-161.633 Y-4.586 Z7.295 
N153 X-161.633 Y-4.675 Z7.214 
N154 X-161.633 Y-4.765 Z7.133 
N155 X-161.633 Y-4.854 Z7.051 
N156 X-161.633 Y-4.944 Z6.970 
N157 X-161.633 Y-5.035 Z6.888 
N158 X-161.633 Y-5.126 Z6.805 
N159 X-161.633 Y-5.218 Z6.722 
N160 X-161.633 Y-5.309 Z6.640 
N161 X-161.633 Y-5.400 Z6.557 
N162 X-161.633 Y-5.491 Z6.474 
N163 X-161.633 Y-5.582 Z6.392 
N164 X-161.633 Y-5.673 Z6.309 
N165 X-161.633 Y-5.765 Z6.226 
N166 X-161.633 Y-5.856 Z6.144 
N167 X-161.633 Y-5.947 Z6.061 
N168 X-161.633 Y-6.038 Z5.978 
N169 X-161.633 Y-6.129 Z5.896 
N170 G40 X-161.633 Y-6.870 Z5.224 F358
N171 X-161.633 Y-6.870 Z5.224 
N172 G00 X-161.633 Y-16.949 Z16.333 
;RAPORT("TB123456","Side Milling:171 End")
;trailer : concat=None
; points cnt = 129
N174 MSG (" --- GROUPED OF SUBPROGRAM --- ")
N175 FGROUP()
N176 TRAFOOF
; PROGRAM NAME: B12345652
; ORDER       : B123456
; OPER. NAME  : Side Milling:172
; OPER. DESCR.: BH Finish milling FSHA
; OPER. TYPE  : sideMill
; GEO. OPTION : 1
; MACHINE     : HSTM_500_SIM840D_Py
;             : HSTM500 - HAMUEL: 5-axis milling machine - SIM840D Traori PP_Script
; CONTROL     : SINUMERIK 840D
; created:   2023-06-06 12:08:16.193362
;-------DODATKOWE DANE-------------------
; PROGRAMISTA : Mariusz Malec
; PARTID      : 306T001953P1010_-
;  ap         : 0.05
;  ae         : 10.0
;  lean_angle : 0.02
;  fin_offset : 0.0
;----------------------------------------
;RAPORT("TB123456","Side Milling:172")
N10 TRAFOOF
N11 D0
N12 G90 G94
N13 G0 G53 D0 Z550 B0
N14 STOPRE
M9 ; chlodziwo wyl
; --- Side Milling:172 - BH Finish milling FSHA ---
N16 ;ToolChange : concat=None ,current_tdmid=None, PP.tdmId=970367
N17 TRAFOOF
N18 G0 G53 D0 Z550 B0
N19 STOPRE
N20 MSG(" TLID=970367 D=16.0 R=2.0 Ang=0.0 Len=130.0 ")
N21 S2984 M03
N22 STOPRE
N23 CYCLE832(0.01,1,1)
N24 G0 G53 A227.0200 B-0.0003
N25 TRAORI
N26 G54 D2
;tol5=0.03
N27 D2 
STOPRE
E_ZDARZ=300004
;ACS_FINISH_BH_C5=7770367
STOPRE
;UWAGA : ZMIENIONA TOLERANCJA OSI A i B, ruchy osi A i B beda usuniete : TOL5=0.03
N28 ; DELTA A > 40.1
N29 TRAFOOF
N30 D2
N31 STOPRE
N32 G00 G54 Z256.000
N33 G01 A227.0200 F10000
N34 TRAORI
N35 G54 D2
N36 STOPRE
N37 TRANS 
N38 G00 X-161.589 Y34.338 Z-46.354 A227.0200 
N39 M342 ; chlodziwo woda
N40 X-161.589 Y-2.242 Z-12.267 
N41 ;FSHA - BH od wylotu
N42 G01 G41 X-161.606 Y3.214 Z-6.416 F358 
N43 X-161.606 Y3.300 Z-6.324 
N44 X-161.606 Y3.385 Z-6.233 
N45 X-161.607 Y3.470 Z-6.142 
N46 X-161.607 Y3.555 Z-6.050 
N47 X-161.607 Y3.641 Z-5.959 
N48 X-161.607 Y3.726 Z-5.867 
N49 X-161.608 Y3.811 Z-5.776 
N50 X-161.608 Y3.896 Z-5.684 
N51 X-161.608 Y3.974 Z-5.601 
N52 X-161.608 Y4.052 Z-5.517 
N53 X-161.609 Y4.130 Z-5.434 
N54 X-161.609 Y4.208 Z-5.350 
N55 X-161.609 Y4.286 Z-5.267 
N56 X-161.609 Y4.364 Z-5.183 
N57 X-161.609 Y4.442 Z-5.099 
N58 X-161.610 Y4.523 Z-5.012 
N59 X-161.610 Y4.605 Z-4.924 
N60 X-161.610 Y4.687 Z-4.837 
N61 X-161.610 Y4.768 Z-4.750 
N62 X-161.611 Y4.850 Z-4.662 
N63 X-161.611 Y4.931 Z-4.575 
N64 X-161.611 Y5.013 Z-4.487 
N65 X-161.611 Y5.094 Z-4.400 
N66 X-161.612 Y5.176 Z-4.312 
N67 X-161.612 Y5.257 Z-4.225 
N68 X-161.612 Y5.339 Z-4.137 
N69 X-161.612 Y5.421 Z-4.050 
N70 X-161.613 Y5.502 Z-3.962 
N71 X-161.613 Y5.584 Z-3.875 
N72 X-161.613 Y5.665 Z-3.788 
N73 X-161.613 Y5.747 Z-3.700 
N74 X-161.614 Y5.828 Z-3.613 
N75 X-161.614 Y5.910 Z-3.525 
N76 X-161.614 Y5.991 Z-3.438 
N77 X-161.614 Y6.073 Z-3.350 
N78 X-161.615 Y6.155 Z-3.263 
N79 X-161.615 Y6.236 Z-3.175 
N80 X-161.615 Y6.318 Z-3.088 
N81 X-161.615 Y6.399 Z-3.000 
N82 X-161.616 Y6.481 Z-2.913 
N83 X-161.616 Y6.562 Z-2.826 
N84 X-161.616 Y6.644 Z-2.738 
N85 X-161.616 Y6.725 Z-2.651 
N86 X-161.617 Y6.807 Z-2.563 
N87 X-161.617 Y6.889 Z-2.476 
N88 X-161.617 Y6.970 Z-2.388 
N89 X-161.617 Y7.052 Z-2.301 
N90 X-161.618 Y7.133 Z-2.213 
N91 X-161.618 Y7.215 Z-2.126 
N92 X-161.618 Y7.296 Z-2.038 
N93 X-161.618 Y7.378 Z-1.951 
N94 X-161.619 Y7.459 Z-1.864 
N95 X-161.619 Y7.541 Z-1.776 
N96 X-161.619 Y7.622 Z-1.689 
N97 X-161.619 Y7.704 Z-1.601 
N98 X-161.620 Y7.786 Z-1.514 
N99 X-161.620 Y7.867 Z-1.426 
N100 X-161.620 Y7.949 Z-1.339 
N101 X-161.620 Y8.030 Z-1.251 
N102 X-161.621 Y8.112 Z-1.164 
N103 X-161.621 Y8.193 Z-1.076 
N104 X-161.621 Y8.275 Z-0.989 
N105 X-161.621 Y8.356 Z-0.902 
N106 X-161.622 Y8.438 Z-0.814 
N107 X-161.622 Y8.520 Z-0.727 
N108 X-161.622 Y8.601 Z-0.639 
N109 X-161.622 Y8.683 Z-0.552 
N110 X-161.623 Y8.764 Z-0.464 
N111 X-161.623 Y8.846 Z-0.377 
N112 X-161.621 Y8.927 Z-0.289 
N113 X-161.618 Y9.009 Z-0.202 
N114 X-161.616 Y9.090 Z-0.114 
N115 X-161.614 Y9.172 Z-0.027 
N116 X-161.612 Y9.253 Z0.060 
N117 X-161.609 Y9.335 Z0.148 
N118 X-161.607 Y9.417 Z0.235 
N119 X-161.605 Y9.498 Z0.323 
N120 X-161.603 Y9.580 Z0.410 
N121 X-161.601 Y9.661 Z0.498 
N122 X-161.598 Y9.743 Z0.585 
N123 X-161.596 Y9.824 Z0.672 
N124 X-161.594 Y9.906 Z0.760 
N125 X-161.592 Y9.987 Z0.847 
N126 X-161.589 Y10.069 Z0.935 
N127 X-161.587 Y10.150 Z1.022 
N128 X-161.585 Y10.232 Z1.110 
N129 X-161.583 Y10.313 Z1.197 
N130 X-161.580 Y10.395 Z1.285 
N131 X-161.578 Y10.477 Z1.372 
N132 X-161.576 Y10.558 Z1.459 
N133 X-161.574 Y10.640 Z1.547 
N134 X-161.572 Y10.721 Z1.634 
N135 X-161.569 Y10.803 Z1.722 
N136 X-161.567 Y10.884 Z1.809 
N137 X-161.565 Y10.966 Z1.897 
N138 X-161.563 Y11.047 Z1.984 
N139 X-161.560 Y11.129 Z2.071 
N140 X-161.558 Y11.210 Z2.159 
N141 X-161.556 Y11.292 Z2.246 
N142 X-161.554 Y11.373 Z2.334 
N143 X-161.552 Y11.455 Z2.421 
N144 X-161.549 Y11.537 Z2.509 
N145 X-161.547 Y11.618 Z2.596 
N146 X-161.545 Y11.700 Z2.684 
N147 X-161.543 Y11.781 Z2.771 
N148 X-161.540 Y11.863 Z2.858 
N149 X-161.538 Y11.944 Z2.946 
N150 X-161.536 Y12.026 Z3.033 
N151 X-161.534 Y12.107 Z3.121 
N152 X-161.532 Y12.189 Z3.208 
N153 X-161.529 Y12.270 Z3.296 
N154 X-161.527 Y12.352 Z3.383 
N155 X-161.525 Y12.433 Z3.471 
N156 X-161.523 Y12.515 Z3.558 
N157 X-161.520 Y12.597 Z3.645 
N158 X-161.518 Y12.678 Z3.733 
N159 X-161.516 Y12.760 Z3.820 
N160 X-161.511 Y12.841 Z3.908 
N161 X-161.507 Y12.923 Z3.995 
N162 X-161.503 Y13.004 Z4.082 
N163 X-161.499 Y13.086 Z4.170 
N164 X-161.494 Y13.167 Z4.257 
N165 X-161.490 Y13.249 Z4.345 
N166 X-161.486 Y13.330 Z4.432 
N167 X-161.481 Y13.412 Z4.519 
N168 X-161.477 Y13.493 Z4.607 
N169 X-161.473 Y13.575 Z4.694 
N170 X-161.468 Y13.656 Z4.782 
N171 X-161.464 Y13.738 Z4.869 
N172 X-161.460 Y13.819 Z4.956 
N173 X-161.455 Y13.901 Z5.044 
N174 X-161.451 Y13.982 Z5.131 
N175 X-161.447 Y14.064 Z5.219 
N176 X-161.442 Y14.145 Z5.306 
N177 X-161.438 Y14.227 Z5.393 
N178 X-161.434 Y14.308 Z5.481 
N179 X-161.429 Y14.390 Z5.568 
N180 X-161.425 Y14.471 Z5.656 
N181 X-161.421 Y14.553 Z5.743 
N182 X-161.416 Y14.634 Z5.830 
N183 X-161.412 Y14.716 Z5.918 
N184 X-161.408 Y14.797 Z6.005 
N185 X-161.403 Y14.879 Z6.093 
N186 X-161.399 Y14.960 Z6.180 
N187 X-161.395 Y15.042 Z6.267 
N188 X-161.390 Y15.123 Z6.355 
N189 X-161.386 Y15.205 Z6.442 
N190 X-161.382 Y15.286 Z6.530 
N191 X-161.377 Y15.368 Z6.617 
N192 X-161.373 Y15.449 Z6.704 
N193 X-161.369 Y15.531 Z6.792 
N194 X-161.364 Y15.612 Z6.879 
N195 X-161.360 Y15.694 Z6.967 
N196 X-161.356 Y15.775 Z7.054 
N197 X-161.351 Y15.857 Z7.141 
N198 X-161.346 Y15.938 Z7.229 
N199 X-161.340 Y16.020 Z7.316 
N200 X-161.334 Y16.101 Z7.403 
N201 X-161.328 Y16.182 Z7.491 
N202 X-161.322 Y16.264 Z7.578 
N203 X-161.316 Y16.345 Z7.665 
N204 X-161.310 Y16.427 Z7.753 
N205 X-161.304 Y16.508 Z7.840 
N206 X-161.298 Y16.590 Z7.927 
N207 X-161.292 Y16.671 Z8.015 
N208 X-161.286 Y16.753 Z8.102 
N209 X-161.280 Y16.834 Z8.190 
N210 X-161.274 Y16.915 Z8.277 
N211 X-161.268 Y16.997 Z8.364 
N212 X-161.262 Y17.078 Z8.452 
N213 X-161.256 Y17.160 Z8.539 
N214 X-161.250 Y17.241 Z8.626 
N215 X-161.244 Y17.323 Z8.714 
N216 X-161.238 Y17.404 Z8.801 
N217 X-161.231 Y17.486 Z8.888 
N218 X-161.225 Y17.567 Z8.976 
N219 X-161.219 Y17.648 Z9.063 
N220 X-161.213 Y17.730 Z9.150 
N221 X-161.207 Y17.811 Z9.238 
N222 X-161.201 Y17.893 Z9.325 
N223 X-161.195 Y17.974 Z9.412 
N224 X-161.189 Y18.056 Z9.500 
N225 X-161.183 Y18.137 Z9.587 
N226 X-161.177 Y18.219 Z9.674 
N227 X-161.171 Y18.300 Z9.762 
N228 X-161.165 Y18.382 Z9.849 
N229 X-161.159 Y18.463 Z9.936 
N230 X-161.153 Y18.544 Z10.024 
N231 X-161.147 Y18.622 Z10.107 
N232 X-161.141 Y18.700 Z10.191 
N233 X-161.136 Y18.778 Z10.274 
N234 X-161.130 Y18.856 Z10.358 
N235 X-161.124 Y18.934 Z10.441 
N236 X-161.118 Y19.011 Z10.525 
N237 X-161.112 Y19.089 Z10.608 
N238 G40 X-160.708 Y24.538 Z16.451 F358
N239 X-160.708 Y24.538 Z16.451 
N240 G00 X-160.708 Y35.512 Z6.225 
N241 X-161.589 Y8.696 Z-22.459 
N242 X-161.589 Y-2.278 Z-12.232 
N243 ;FSHA - BH od wylotu
N244 G01 G41 X-161.606 Y3.178 Z-6.382 F358 
N245 X-161.606 Y3.263 Z-6.290 
N246 X-161.606 Y3.348 Z-6.199 
N247 X-161.607 Y3.434 Z-6.107 
N248 X-161.607 Y3.519 Z-6.016 
N249 X-161.607 Y3.604 Z-5.925 
N250 X-161.607 Y3.689 Z-5.833 
N251 X-161.608 Y3.775 Z-5.742 
N252 X-161.608 Y3.860 Z-5.650 
N253 X-161.608 Y3.938 Z-5.567 
N254 X-161.608 Y4.016 Z-5.483 
N255 X-161.609 Y4.094 Z-5.400 
N256 X-161.609 Y4.172 Z-5.316 
N257 X-161.609 Y4.249 Z-5.232 
N258 X-161.609 Y4.327 Z-5.149 
N259 X-161.609 Y4.405 Z-5.065 
N260 X-161.610 Y4.487 Z-4.978 
N261 X-161.610 Y4.568 Z-4.890 
N262 X-161.610 Y4.650 Z-4.803 
N263 X-161.610 Y4.732 Z-4.715 
N264 X-161.611 Y4.813 Z-4.628 
N265 X-161.611 Y4.895 Z-4.541 
N266 X-161.611 Y4.976 Z-4.453 
N267 X-161.611 Y5.058 Z-4.366 
N268 X-161.612 Y5.139 Z-4.278 
N269 X-161.612 Y5.221 Z-4.191 
N270 X-161.612 Y5.302 Z-4.103 
N271 X-161.612 Y5.384 Z-4.016 
N272 X-161.613 Y5.466 Z-3.928 
N273 X-161.613 Y5.547 Z-3.841 
N274 X-161.613 Y5.629 Z-3.753 
N275 X-161.613 Y5.710 Z-3.666 
N276 X-161.614 Y5.792 Z-3.579 
N277 X-161.614 Y5.873 Z-3.491 
N278 X-161.614 Y5.955 Z-3.404 
N279 X-161.614 Y6.036 Z-3.316 
N280 X-161.615 Y6.118 Z-3.229 
N281 X-161.615 Y6.200 Z-3.141 
N282 X-161.615 Y6.281 Z-3.054 
N283 X-161.615 Y6.363 Z-2.966 
N284 X-161.616 Y6.444 Z-2.879 
N285 X-161.616 Y6.526 Z-2.791 
N286 X-161.616 Y6.607 Z-2.704 
N287 X-161.616 Y6.689 Z-2.617 
N288 X-161.617 Y6.770 Z-2.529 
N289 X-161.617 Y6.852 Z-2.442 
N290 X-161.617 Y6.934 Z-2.354 
N291 X-161.617 Y7.015 Z-2.267 
N292 X-161.618 Y7.097 Z-2.179 
N293 X-161.618 Y7.178 Z-2.092 
N294 X-161.618 Y7.260 Z-2.004 
N295 X-161.618 Y7.341 Z-1.917 
N296 X-161.619 Y7.423 Z-1.829 
N297 X-161.619 Y7.504 Z-1.742 
N298 X-161.619 Y7.586 Z-1.655 
N299 X-161.619 Y7.667 Z-1.567 
N300 X-161.620 Y7.749 Z-1.480 
N301 X-161.620 Y7.831 Z-1.392 
N302 X-161.620 Y7.912 Z-1.305 
N303 X-161.620 Y7.994 Z-1.217 
N304 X-161.621 Y8.075 Z-1.130 
N305 X-161.621 Y8.157 Z-1.042 
N306 X-161.621 Y8.238 Z-0.955 
N307 X-161.621 Y8.320 Z-0.867 
N308 X-161.622 Y8.401 Z-0.780 
N309 X-161.622 Y8.483 Z-0.693 
N310 X-161.622 Y8.565 Z-0.605 
N311 X-161.622 Y8.646 Z-0.518 
N312 X-161.623 Y8.728 Z-0.430 
N313 X-161.623 Y8.809 Z-0.343 
N314 X-161.621 Y8.891 Z-0.255 
N315 X-161.618 Y8.972 Z-0.168 
N316 X-161.616 Y9.054 Z-0.080 
N317 X-161.614 Y9.135 Z0.007 
N318 X-161.612 Y9.217 Z0.094 
N319 X-161.609 Y9.298 Z0.182 
N320 X-161.607 Y9.380 Z0.269 
N321 X-161.605 Y9.462 Z0.357 
N322 X-161.603 Y9.543 Z0.444 
N323 X-161.601 Y9.625 Z0.532 
N324 X-161.598 Y9.706 Z0.619 
N325 X-161.596 Y9.788 Z0.707 
N326 X-161.594 Y9.869 Z0.794 
N327 X-161.592 Y9.951 Z0.881 
N328 X-161.589 Y10.032 Z0.969 
N329 X-161.587 Y10.114 Z1.056 
N330 X-161.585 Y10.195 Z1.144 
N331 X-161.583 Y10.277 Z1.231 
N332 X-161.580 Y10.358 Z1.319 
N333 X-161.578 Y10.440 Z1.406 
N334 X-161.576 Y10.522 Z1.494 
N335 X-161.574 Y10.603 Z1.581 
N336 X-161.572 Y10.685 Z1.668 
N337 X-161.569 Y10.766 Z1.756 
N338 X-161.567 Y10.848 Z1.843 
N339 X-161.565 Y10.929 Z1.931 
N340 X-161.563 Y11.011 Z2.018 
N341 X-161.560 Y11.092 Z2.106 
N342 X-161.558 Y11.174 Z2.193 
N343 X-161.556 Y11.255 Z2.280 
N344 X-161.554 Y11.337 Z2.368 
N345 X-161.552 Y11.418 Z2.455 
N346 X-161.549 Y11.500 Z2.543 
N347 X-161.547 Y11.582 Z2.630 
N348 X-161.545 Y11.663 Z2.718 
N349 X-161.543 Y11.745 Z2.805 
N350 X-161.540 Y11.826 Z2.893 
N351 X-161.538 Y11.908 Z2.980 
N352 X-161.536 Y11.989 Z3.067 
N353 X-161.534 Y12.071 Z3.155 
N354 X-161.532 Y12.152 Z3.242 
N355 X-161.529 Y12.234 Z3.330 
N356 X-161.527 Y12.315 Z3.417 
N357 X-161.525 Y12.397 Z3.505 
N358 X-161.523 Y12.478 Z3.592 
N359 X-161.520 Y12.560 Z3.679 
N360 X-161.518 Y12.642 Z3.767 
N361 X-161.516 Y12.723 Z3.854 
N362 X-161.511 Y12.805 Z3.942 
N363 X-161.507 Y12.886 Z4.029 
N364 X-161.503 Y12.968 Z4.117 
N365 X-161.499 Y13.049 Z4.204 
N366 X-161.494 Y13.131 Z4.291 
N367 X-161.490 Y13.212 Z4.379 
N368 X-161.486 Y13.294 Z4.466 
N369 X-161.481 Y13.375 Z4.554 
N370 X-161.477 Y13.457 Z4.641 
N371 X-161.473 Y13.538 Z4.728 
N372 X-161.468 Y13.620 Z4.816 
N373 X-161.464 Y13.701 Z4.903 
N374 X-161.460 Y13.783 Z4.991 
N375 X-161.455 Y13.864 Z5.078 
N376 X-161.451 Y13.946 Z5.165 
N377 X-161.447 Y14.027 Z5.253 
N378 X-161.442 Y14.109 Z5.340 
N379 X-161.438 Y14.190 Z5.428 
N380 X-161.434 Y14.272 Z5.515 
N381 X-161.429 Y14.353 Z5.602 
N382 X-161.425 Y14.435 Z5.690 
N383 X-161.421 Y14.516 Z5.777 
N384 X-161.416 Y14.598 Z5.865 
N385 X-161.412 Y14.679 Z5.952 
N386 X-161.408 Y14.761 Z6.039 
N387 X-161.403 Y14.842 Z6.127 
N388 X-161.399 Y14.924 Z6.214 
N389 X-161.395 Y15.005 Z6.301 
N390 X-161.390 Y15.087 Z6.389 
N391 X-161.386 Y15.168 Z6.476 
N392 X-161.382 Y15.250 Z6.564 
N393 X-161.377 Y15.331 Z6.651 
N394 X-161.373 Y15.413 Z6.738 
N395 X-161.369 Y15.494 Z6.826 
N396 X-161.364 Y15.576 Z6.913 
N397 X-161.360 Y15.657 Z7.001 
N398 X-161.356 Y15.739 Z7.088 
N399 X-161.351 Y15.820 Z7.175 
N400 X-161.346 Y15.901 Z7.263 
N401 X-161.340 Y15.983 Z7.350 
N402 X-161.334 Y16.064 Z7.438 
N403 X-161.328 Y16.146 Z7.525 
N404 X-161.322 Y16.227 Z7.612 
N405 X-161.316 Y16.309 Z7.700 
N406 X-161.310 Y16.390 Z7.787 
N407 X-161.304 Y16.472 Z7.874 
N408 X-161.298 Y16.553 Z7.962 
N409 X-161.292 Y16.635 Z8.049 
N410 X-161.286 Y16.716 Z8.136 
N411 X-161.280 Y16.797 Z8.224 
N412 X-161.274 Y16.879 Z8.311 
N413 X-161.268 Y16.960 Z8.398 
N414 X-161.262 Y17.042 Z8.486 
N415 X-161.256 Y17.123 Z8.573 
N416 X-161.250 Y17.205 Z8.660 
N417 X-161.244 Y17.286 Z8.748 
N418 X-161.238 Y17.368 Z8.835 
N419 X-161.231 Y17.449 Z8.922 
N420 X-161.225 Y17.530 Z9.010 
N421 X-161.219 Y17.612 Z9.097 
N422 X-161.213 Y17.693 Z9.184 
N423 X-161.207 Y17.775 Z9.272 
N424 X-161.201 Y17.856 Z9.359 
N425 X-161.195 Y17.938 Z9.446 
N426 X-161.189 Y18.019 Z9.534 
N427 X-161.183 Y18.101 Z9.621 
N428 X-161.177 Y18.182 Z9.708 
N429 X-161.171 Y18.263 Z9.796 
N430 X-161.165 Y18.345 Z9.883 
N431 X-161.159 Y18.426 Z9.970 
N432 X-161.153 Y18.508 Z10.058 
N433 X-161.147 Y18.586 Z10.141 
N434 X-161.141 Y18.664 Z10.225 
N435 X-161.136 Y18.741 Z10.308 
N436 X-161.130 Y18.819 Z10.392 
N437 X-161.124 Y18.897 Z10.475 
N438 X-161.118 Y18.975 Z10.559 
N439 X-161.112 Y19.053 Z10.642 
N440 G40 X-160.708 Y24.502 Z16.485 F358
N441 X-160.708 Y24.502 Z16.485 
N442 G00 X-160.708 Y35.476 Z6.259 
;RAPORT("TB123456","Side Milling:172 End")
;trailer : concat=None
; points cnt = 394
N444 MSG (" --- GROUPED OF SUBPROGRAM --- ")
N445 FGROUP()
N446 TRAFOOF
; PROGRAM NAME: B12345652
; ORDER       : B123456
; OPER. NAME  : Side Milling:173
; OPER. DESCR.: BH Chamfer Finish milling MFBBA
; OPER. TYPE  : sideMill
; GEO. OPTION : 1
; MACHINE     : HSTM_500_SIM840D_Py
;             : HSTM500 - HAMUEL: 5-axis milling machine - SIM840D Traori PP_Script
; CONTROL     : SINUMERIK 840D
; created:   2023-06-06 12:08:21.088396
;-------DODATKOWE DANE-------------------
; PROGRAMISTA : Mariusz Malec
; PARTID      : 306T001953P1010_-
;  ap         : 0.05
;  ae         : 10.0
;  lean_angle : 0.02
;  fin_offset : 0.0
;----------------------------------------
;RAPORT("TB123456","Side Milling:173")
N10 TRAFOOF
N11 D0
N12 G90 G94
N13 G0 G53 D0 Z550 B0
N14 STOPRE
M9 ; chlodziwo wyl
; --- Side Milling:173 - BH Chamfer Finish milling MFBBA ---
N16 ;ToolChange : concat=None ,current_tdmid=None, PP.tdmId=970367
N17 TRAFOOF
N18 G0 G53 D0 Z550 B0
N19 STOPRE
N20 MSG(" TLID=970367 D=16.0 R=2.0 Ang=0.0 Len=130.0 ")
N21 S2984 M03
N22 STOPRE
N23 CYCLE832(0.01,1,1)
N24 G0 G53 A222.2151 B-0.0000
N25 TRAORI
N26 G54 D4
;tol5=0.03
N27 D4 
STOPRE
E_ZDARZ=300004
;ACS_FINISH_BH_C5=7770367
STOPRE
;UWAGA : ZMIENIONA TOLERANCJA OSI A i B, ruchy osi A i B beda usuniete : TOL5=0.03
N28 ; DELTA A > 40.1
N29 TRAFOOF
N30 D4
N31 STOPRE
N32 G00 G54 Z256.000
N33 G01 A222.2151 F10000
N34 TRAORI
N35 G54 D4
N36 STOPRE
N37 TRANS 
N38 G00 X-161.633 Y24.347 Z-54.145 A222.2151 
N39 M342 ; chlodziwo woda
N40 X-161.633 Y-9.249 Z-17.113 
N41 ;MFBBA - faza na BH od wylotu
N42 G01 G41 X-161.633 Y-3.322 Z-11.740 F358 
N43 X-161.633 Y-3.229 Z-11.656 
N44 X-161.633 Y-3.136 Z-11.572 
N45 X-161.633 Y-3.044 Z-11.488 
N46 X-161.633 Y-2.951 Z-11.404 
N47 X-161.633 Y-2.859 Z-11.320 
N48 X-161.633 Y-2.766 Z-11.236 
N49 X-161.633 Y-2.673 Z-11.152 
N50 X-161.633 Y-2.581 Z-11.068 
N51 X-161.633 Y-2.492 Z-10.988 
N52 X-161.633 Y-2.404 Z-10.908 
N53 X-161.633 Y-2.315 Z-10.828 
N54 X-161.633 Y-2.227 Z-10.748 
N55 X-161.633 Y-2.138 Z-10.667 
N56 X-161.633 Y-2.050 Z-10.587 
N57 X-161.633 Y-1.962 Z-10.507 
N58 X-161.633 Y-1.873 Z-10.427 
N59 X-161.633 Y-1.785 Z-10.347 
N60 X-161.633 Y-1.696 Z-10.266 
N61 X-161.633 Y-1.608 Z-10.186 
N62 X-161.633 Y-1.519 Z-10.106 
N63 X-161.633 Y-1.431 Z-10.026 
N64 X-161.633 Y-1.342 Z-9.946 
N65 X-161.633 Y-1.254 Z-9.865 
N66 X-161.633 Y-1.165 Z-9.785 
N67 X-161.633 Y-1.077 Z-9.705 
N68 X-161.633 Y-0.988 Z-9.625 
N69 X-161.633 Y-0.900 Z-9.545 
N70 X-161.633 Y-0.812 Z-9.464 
N71 X-161.633 Y-0.723 Z-9.384 
N72 X-161.633 Y-0.635 Z-9.304 
N73 X-161.633 Y-0.546 Z-9.224 
N74 X-161.633 Y-0.458 Z-9.144 
N75 X-161.633 Y-0.369 Z-9.063 
N76 X-161.633 Y-0.281 Z-8.983 
N77 X-161.633 Y-0.192 Z-8.903 
N78 X-161.633 Y-0.104 Z-8.823 
N79 X-161.633 Y-0.015 Z-8.743 
N80 X-161.633 Y0.073 Z-8.662 
N81 X-161.633 Y0.162 Z-8.582 
N82 X-161.633 Y0.250 Z-8.502 
N83 X-161.633 Y0.338 Z-8.422 
N84 X-161.633 Y0.427 Z-8.342 
N85 X-161.633 Y0.515 Z-8.261 
N86 X-161.633 Y0.604 Z-8.181 
N87 X-161.633 Y0.692 Z-8.101 
N88 X-161.633 Y0.781 Z-8.021 
N89 X-161.633 Y0.869 Z-7.941 
N90 X-161.633 Y0.958 Z-7.860 
N91 X-161.633 Y1.046 Z-7.780 
N92 X-161.633 Y1.135 Z-7.700 
N93 X-161.633 Y1.223 Z-7.620 
N94 X-161.633 Y1.312 Z-7.540 
N95 X-161.633 Y1.400 Z-7.460 
N96 X-161.633 Y1.488 Z-7.379 
N97 X-161.633 Y1.577 Z-7.299 
N98 X-161.633 Y1.665 Z-7.219 
N99 X-161.633 Y1.754 Z-7.139 
N100 X-161.633 Y1.842 Z-7.059 
N101 X-161.633 Y1.931 Z-6.978 
N102 X-161.633 Y2.019 Z-6.898 
N103 X-161.633 Y2.108 Z-6.818 
N104 X-161.633 Y2.196 Z-6.738 
N105 X-161.633 Y2.285 Z-6.658 
N106 X-161.633 Y2.373 Z-6.577 
N107 X-161.633 Y2.462 Z-6.497 
N108 X-161.633 Y2.550 Z-6.417 
N109 X-161.633 Y2.638 Z-6.337 
N110 X-161.633 Y2.727 Z-6.257 
N111 X-161.633 Y2.815 Z-6.176 
N112 X-161.633 Y2.904 Z-6.096 
N113 X-161.633 Y2.992 Z-6.016 
N114 X-161.633 Y3.081 Z-5.936 
N115 X-161.633 Y3.169 Z-5.856 
N116 X-161.633 Y3.258 Z-5.775 
N117 X-161.633 Y3.346 Z-5.695 
N118 X-161.633 Y3.434 Z-5.616 
N119 X-161.633 Y3.522 Z-5.536 
N120 X-161.633 Y3.609 Z-5.457 
N121 X-161.633 Y3.697 Z-5.377 
N122 X-161.633 Y3.785 Z-5.297 
N123 X-161.633 Y3.872 Z-5.218 
N124 X-161.633 Y3.960 Z-5.138 
N125 X-161.633 Y4.048 Z-5.059 
N126 X-161.633 Y4.136 Z-4.979 
N127 X-161.633 Y4.223 Z-4.900 
N128 X-161.633 Y4.311 Z-4.820 
N129 X-161.633 Y4.399 Z-4.741 
N130 X-161.633 Y4.487 Z-4.661 
N131 X-161.633 Y4.574 Z-4.582 
N132 X-161.633 Y4.662 Z-4.502 
N133 X-161.633 Y4.750 Z-4.423 
N134 X-161.633 Y4.837 Z-4.343 
N135 X-161.633 Y4.925 Z-4.264 
N136 X-161.633 Y5.013 Z-4.184 
N137 X-161.633 Y5.101 Z-4.105 
N138 X-161.633 Y5.188 Z-4.025 
N139 X-161.633 Y5.276 Z-3.945 
N140 X-161.633 Y5.364 Z-3.866 
N141 X-161.633 Y5.452 Z-3.786 
N142 X-161.633 Y5.539 Z-3.707 
N143 X-161.633 Y5.627 Z-3.627 
N144 X-161.633 Y5.715 Z-3.548 
N145 X-161.633 Y5.802 Z-3.468 
N146 X-161.633 Y5.890 Z-3.389 
N147 X-161.633 Y5.978 Z-3.309 
N148 X-161.633 Y6.066 Z-3.230 
N149 X-161.633 Y6.153 Z-3.150 
N150 X-161.633 Y6.241 Z-3.071 
N151 X-161.633 Y6.329 Z-2.991 
N152 X-161.633 Y6.417 Z-2.912 
N153 X-161.633 Y6.504 Z-2.832 
N154 X-161.633 Y6.592 Z-2.752 
N155 X-161.633 Y6.680 Z-2.673 
N156 X-161.633 Y6.767 Z-2.593 
N157 X-161.633 Y6.859 Z-2.511 
N158 X-161.633 Y6.950 Z-2.428 
N159 X-161.633 Y7.041 Z-2.345 
N160 X-161.633 Y7.132 Z-2.263 
N161 X-161.633 Y7.223 Z-2.180 
N162 X-161.633 Y7.315 Z-2.097 
N163 X-161.633 Y7.406 Z-2.015 
N164 X-161.633 Y7.497 Z-1.932 
N165 X-161.633 Y7.588 Z-1.849 
N166 X-161.633 Y7.679 Z-1.767 
N167 X-161.633 Y7.770 Z-1.684 
N168 X-161.633 Y7.862 Z-1.601 
N169 X-161.633 Y7.953 Z-1.519 
N170 G40 X-161.633 Y8.694 Z-0.847 F358
N171 X-161.633 Y8.694 Z-0.847 
N172 G00 X-161.633 Y18.772 Z-11.957 
;RAPORT("TB123456","Side Milling:173 End")
;trailer : concat=None
; points cnt = 129
N174 M9 ; chlodziwo wyl.
N175 MSG (" --- KONIEC PODPROGRAMU --- ")
N176 FGROUP()
N177 TRAFOOF
N178 STOPRE
N179 G0 G53 D0 Z550.0 M9 M5
N180 G0 G53 Y150 A0 B0
N181 M17
