; PROGRAM NAME: B12345651
; ORDER       : B123456
; OPER. NAME  : Slot Finishing:162
; OPER. DESCR.: Finishing slot/fazy_wk
; OPER. TYPE  : slotMillFinish
; GEO. OPTION : 1
; MACHINE     : HSTM_500_SIM840D_Py
;             : HSTM500 - HAMUEL: 5-axis milling machine - SIM840D Traori PP_Script
; CONTROL     : SINUMERIK 840D
; created:   2023-06-06 12:07:11.502161
;-------DODATKOWE DANE-------------------
; PROGRAMISTA : Mariusz Malec
; PARTID      : 306T001953P1010_-
;  ap         : 5.0
;  ae         : 0.5
;  lean_angle : 0.0
;  rad_Offset : 2.0
;  fin_Offset : 1.0
;----------------------------------------
;RAPORT("TB123456","Slot Finishing:162")
N10 TRAFOOF
N11 D0
N12 G90 G94
N13 G0 G53 D0 Z550 B0
N14 STOPRE
M9 ; chlodziwo wyl
; --- Slot Finishing:162 - Finishing slot/fazy_wk ---
N16 ;ToolChange : concat=None ,current_tdmid=None, PP.tdmId=956976
N17 TRAFOOF
N18 G0 G53 D0 X-200 Y150 Z550 B0
N19 T="7756976"
;RAPORT("TB123456","ToolChangeStart 7756976")
N20 M6
;RAPORT("TB123456","ToolChangeEnd")
N21 STOPRE
N22 MSG(" TLID=956976 D=6.0 R=0.0 Ang=31.0 Len=124.0 ")
N23 ; (Preloading tool)
N24 T="7770367"
N25 S6366 M03
N26 STOPRE
N27 CYCLE832(0.01,1,1)
N28 G0 G53 A47.0080 B-14.0000
N29 TRAORI
N30 G54 D1
N31 D1 
N32 TRANS  X=R18 B=R39
STOPRE
E_ZDARZ=300006
;ACS_FINISH_ROOT_BETE=7756976
STOPRE
N33 ; DELTA A > 40.1
N34 TRAFOOF
N35 D1
N36 STOPRE
N37 G00 G54 Z262.000
N38 G01 A47.0080 F10000
N39 TRAORI
N40 G54 D1
N41 STOPRE
N42 TRANS  X=R18 B=R39
N43 G00 X-177.657 Y-33.037 Z50.446 A47.0080 B-14.0000 
N44 M342 ; chlodziwo woda
N45 X-165.561 Y2.449 Z17.364 
N46 G01 X-165.459 Y-4.371 Z10.051 F763 
N47 X-165.457 Y-4.541 Z9.868 
N48 X-165.454 Y-4.712 Z9.685 
N49 X-165.452 Y-4.882 Z9.503 
N50 X-165.449 Y-5.053 Z9.320 
N51 X-165.446 Y-5.292 Z9.064 
N52 X-165.443 Y-5.464 Z8.879 A47.0199 B-13.9999 
N53 X-165.441 Y-5.636 Z8.694 A47.0319 B-13.9998 
N54 X-165.438 Y-5.809 Z8.509 A47.0439 B-13.9996 
N55 X-165.435 Y-5.981 Z8.324 A47.0559 B-13.9995 
N56 X-165.433 Y-6.154 Z8.139 A47.0679 B-13.9994 
N57 X-165.430 Y-6.326 Z7.954 A47.0799 B-13.9993 
N58 X-165.428 Y-6.498 Z7.770 A47.0919 B-13.9992 
N59 X-165.425 Y-6.671 Z7.585 A47.1039 B-13.9990 
N60 X-165.423 Y-6.843 Z7.400 A47.1159 B-13.9989 
N61 X-165.420 Y-7.016 Z7.215 A47.1279 B-13.9988 
N62 X-165.417 Y-7.188 Z7.030 A47.1399 B-13.9987 
N63 X-165.415 Y-7.361 Z6.845 A47.1519 B-13.9986 
N64 X-165.412 Y-7.533 Z6.660 A47.1639 B-13.9984 
N65 X-165.410 Y-7.705 Z6.475 A47.1759 B-13.9983 
N66 X-165.407 Y-7.878 Z6.290 A47.1879 B-13.9982 
N67 X-165.405 Y-8.050 Z6.106 A47.1998 B-13.9981 
N68 X-165.402 Y-8.223 Z5.921 A47.2118 B-13.9979 
N69 X-165.399 Y-8.395 Z5.736 A47.2238 B-13.9978 
N70 X-165.397 Y-8.567 Z5.551 A47.2358 B-13.9977 
N71 X-165.394 Y-8.740 Z5.366 A47.2478 B-13.9976 
N72 X-165.392 Y-8.912 Z5.181 A47.2598 B-13.9974 
N73 X-165.389 Y-9.085 Z4.996 A47.2718 B-13.9973 
N74 X-165.386 Y-9.257 Z4.811 A47.2838 B-13.9972 
N75 X-165.380 Y-9.429 Z4.627 A47.2959 B-13.9969 
N76 X-165.373 Y-9.602 Z4.442 A47.3080 B-13.9965 
N77 X-165.365 Y-9.774 Z4.257 A47.3201 B-13.9962 
N78 X-165.358 Y-9.946 Z4.072 A47.3322 B-13.9958 
N79 X-165.351 Y-10.119 Z3.887 A47.3442 B-13.9955 
N80 X-165.344 Y-10.291 Z3.702 A47.3563 B-13.9951 
N81 X-165.336 Y-10.463 Z3.518 A47.3684 B-13.9948 
N82 X-165.329 Y-10.636 Z3.333 A47.3805 B-13.9945 
N83 X-165.322 Y-10.808 Z3.148 A47.3926 B-13.9941 
N84 X-165.315 Y-10.980 Z2.963 A47.4047 B-13.9938 
N85 X-165.307 Y-11.153 Z2.778 A47.4168 B-13.9934 
N86 X-165.300 Y-11.325 Z2.594 A47.4289 B-13.9931 
N87 X-165.293 Y-11.498 Z2.409 A47.4410 B-13.9927 
N88 X-165.286 Y-11.670 Z2.224 A47.4531 B-13.9924 
N89 X-165.278 Y-11.842 Z2.039 A47.4652 B-13.9920 
N90 X-165.271 Y-12.015 Z1.854 A47.4773 B-13.9917 
N91 X-165.264 Y-12.187 Z1.669 A47.4893 B-13.9913 
N92 X-165.257 Y-12.359 Z1.485 A47.5014 B-13.9910 
N93 X-165.250 Y-12.532 Z1.300 A47.5135 B-13.9906 
N94 X-165.242 Y-12.704 Z1.115 A47.5256 B-13.9903 
N95 X-165.233 Y-12.876 Z0.930 A47.5377 B-13.9898 
N96 X-165.222 Y-13.049 Z0.745 A47.5498 B-13.9893 
N97 X-165.211 Y-13.221 Z0.561 A47.5619 B-13.9888 
N98 X-165.199 Y-13.393 Z0.376 A47.5740 B-13.9882 
N99 X-165.188 Y-13.565 Z0.191 A47.5860 B-13.9877 
N100 X-165.177 Y-13.737 Z0.007 A47.5981 B-13.9872 
N101 X-165.165 Y-13.910 Z-0.178 A47.6102 B-13.9866 
N102 X-165.154 Y-14.082 Z-0.363 A47.6223 B-13.9861 
N103 X-165.143 Y-14.254 Z-0.547 A47.6344 B-13.9855 
N104 X-165.131 Y-14.426 Z-0.732 A47.6465 B-13.9850 
N105 X-165.120 Y-14.599 Z-0.917 A47.6585 B-13.9844 
N106 X-165.109 Y-14.771 Z-1.102 A47.6706 B-13.9839 
N107 X-165.097 Y-14.943 Z-1.286 A47.6827 B-13.9834 
N108 X-165.086 Y-15.115 Z-1.471 A47.6948 B-13.9828 
N109 X-165.075 Y-15.288 Z-1.656 A47.7069 B-13.9823 
N110 X-165.063 Y-15.460 Z-1.840 A47.7190 B-13.9817 
N111 X-165.052 Y-15.632 Z-2.025 A47.7310 B-13.9812 
N112 X-165.041 Y-15.804 Z-2.210 A47.7431 B-13.9806 
N113 X-165.027 Y-15.977 Z-2.394 A47.7551 B-13.9800 
N114 X-165.012 Y-16.149 Z-2.579 A47.7670 B-13.9793 
N115 X-164.997 Y-16.321 Z-2.764 A47.7790 B-13.9786 
N116 X-164.982 Y-16.493 Z-2.948 A47.7909 B-13.9779 
N117 X-164.968 Y-16.665 Z-3.133 A47.8028 B-13.9772 
N118 X-164.953 Y-16.837 Z-3.317 A47.8147 B-13.9765 
N119 X-164.938 Y-17.009 Z-3.502 A47.8266 B-13.9758 
N120 X-164.923 Y-17.181 Z-3.687 A47.8386 B-13.9751 
N121 X-164.908 Y-17.354 Z-3.871 A47.8505 B-13.9744 
N122 X-164.893 Y-17.526 Z-4.056 A47.8624 B-13.9737 
N123 X-164.878 Y-17.698 Z-4.240 A47.8743 B-13.9730 
N124 X-164.863 Y-17.870 Z-4.425 A47.8862 B-13.9723 
N125 X-164.848 Y-18.042 Z-4.609 A47.8982 B-13.9716 
N126 X-164.833 Y-18.214 Z-4.794 A47.9101 B-13.9708 
N127 X-164.819 Y-18.386 Z-4.979 A47.9220 B-13.9701 
N128 X-164.804 Y-18.558 Z-5.163 A47.9339 B-13.9694 
N129 X-164.783 Y-18.797 Z-5.419 
N130 X-164.194 Y-25.605 Z-12.719 
N131 G00 X-170.229 Y-43.615 Z3.535 
N132 X-172.246 Y-15.295 Z33.905 A47.0080 B-14.0000 
N133 X-166.198 Y2.448 Z17.364 
N134 G01 X-166.096 Y-4.371 Z10.051 F763 
N135 X-166.093 Y-4.542 Z9.868 
N136 X-166.091 Y-4.712 Z9.685 
N137 X-166.088 Y-4.883 Z9.502 
N138 X-166.086 Y-5.053 Z9.319 
N139 X-166.082 Y-5.292 Z9.063 
N140 X-166.080 Y-5.465 Z8.878 A47.0199 B-13.9999 
N141 X-166.077 Y-5.637 Z8.693 A47.0319 B-13.9998 
N142 X-166.074 Y-5.810 Z8.508 A47.0439 B-13.9996 
N143 X-166.072 Y-5.983 Z8.322 A47.0559 B-13.9995 
N144 X-166.069 Y-6.156 Z8.137 A47.0679 B-13.9994 
N145 X-166.067 Y-6.328 Z7.952 A47.0799 B-13.9993 
N146 X-166.064 Y-6.501 Z7.767 A47.0919 B-13.9992 
N147 X-166.061 Y-6.674 Z7.581 A47.1039 B-13.9990 
N148 X-166.059 Y-6.847 Z7.396 A47.1159 B-13.9989 
N149 X-166.056 Y-7.020 Z7.211 A47.1279 B-13.9988 
N150 X-166.054 Y-7.192 Z7.025 A47.1399 B-13.9987 
N151 X-166.051 Y-7.365 Z6.840 A47.1519 B-13.9986 
N152 X-166.049 Y-7.538 Z6.655 A47.1639 B-13.9984 
N153 X-166.046 Y-7.711 Z6.470 A47.1759 B-13.9983 
N154 X-166.043 Y-7.883 Z6.284 A47.1879 B-13.9982 
N155 X-166.041 Y-8.056 Z6.099 A47.1998 B-13.9981 
N156 X-166.038 Y-8.229 Z5.914 A47.2118 B-13.9979 
N157 X-166.036 Y-8.402 Z5.728 A47.2238 B-13.9978 
N158 X-166.033 Y-8.575 Z5.543 A47.2358 B-13.9977 
N159 X-166.030 Y-8.747 Z5.358 A47.2478 B-13.9976 
N160 X-166.028 Y-8.920 Z5.173 A47.2598 B-13.9974 
N161 X-166.025 Y-9.093 Z4.987 A47.2718 B-13.9973 
N162 X-166.023 Y-9.266 Z4.802 A47.2838 B-13.9972 
N163 X-166.016 Y-9.438 Z4.617 A47.2959 B-13.9969 
N164 X-166.009 Y-9.611 Z4.432 A47.3080 B-13.9965 
N165 X-166.002 Y-9.784 Z4.246 A47.3201 B-13.9962 
N166 X-165.994 Y-9.957 Z4.061 A47.3322 B-13.9958 
N167 X-165.987 Y-10.129 Z3.876 A47.3442 B-13.9955 
N168 X-165.980 Y-10.302 Z3.691 A47.3563 B-13.9951 
N169 X-165.973 Y-10.475 Z3.506 A47.3684 B-13.9948 
N170 X-165.965 Y-10.647 Z3.320 A47.3805 B-13.9945 
N171 X-165.958 Y-10.820 Z3.135 A47.3926 B-13.9941 
N172 X-165.951 Y-10.993 Z2.950 A47.4047 B-13.9938 
N173 X-165.944 Y-11.166 Z2.765 A47.4168 B-13.9934 
N174 X-165.936 Y-11.338 Z2.580 A47.4289 B-13.9931 
N175 X-165.929 Y-11.511 Z2.394 A47.4410 B-13.9927 
N176 X-165.922 Y-11.684 Z2.209 A47.4531 B-13.9924 
N177 X-165.915 Y-11.856 Z2.024 A47.4652 B-13.9920 
N178 X-165.907 Y-12.029 Z1.839 A47.4773 B-13.9917 
N179 X-165.900 Y-12.202 Z1.653 A47.4893 B-13.9913 
N180 X-165.893 Y-12.374 Z1.468 A47.5014 B-13.9910 
N181 X-165.885 Y-12.547 Z1.283 A47.5135 B-13.9906 
N182 X-165.878 Y-12.720 Z1.098 A47.5256 B-13.9903 
N183 X-165.869 Y-12.893 Z0.913 A47.5377 B-13.9898 
N184 X-165.858 Y-13.065 Z0.728 A47.5498 B-13.9893 
N185 X-165.847 Y-13.238 Z0.542 A47.5619 B-13.9888 
N186 X-165.835 Y-13.410 Z0.357 A47.5740 B-13.9882 
N187 X-165.824 Y-13.583 Z0.172 A47.5860 B-13.9877 
N188 X-165.813 Y-13.756 Z-0.013 A47.5981 B-13.9872 
N189 X-165.801 Y-13.928 Z-0.198 A47.6102 B-13.9866 
N190 X-165.790 Y-14.101 Z-0.383 A47.6223 B-13.9861 
N191 X-165.779 Y-14.273 Z-0.568 A47.6344 B-13.9855 
N192 X-165.767 Y-14.446 Z-0.753 A47.6465 B-13.9850 
N193 X-165.756 Y-14.619 Z-0.938 A47.6585 B-13.9844 
N194 X-165.744 Y-14.791 Z-1.123 A47.6706 B-13.9839 
N195 X-165.733 Y-14.964 Z-1.309 A47.6827 B-13.9834 
N196 X-165.722 Y-15.137 Z-1.494 A47.6948 B-13.9828 
N197 X-165.710 Y-15.309 Z-1.679 A47.7069 B-13.9823 
N198 X-165.699 Y-15.482 Z-1.864 A47.7190 B-13.9817 
N199 X-165.688 Y-15.654 Z-2.049 A47.7310 B-13.9812 
N200 X-165.676 Y-15.827 Z-2.234 A47.7431 B-13.9806 
N201 X-165.663 Y-15.999 Z-2.419 A47.7551 B-13.9800 
N202 X-165.648 Y-16.172 Z-2.604 A47.7670 B-13.9793 
N203 X-165.633 Y-16.344 Z-2.789 A47.7790 B-13.9786 
N204 X-165.618 Y-16.517 Z-2.974 A47.7909 B-13.9779 
N205 X-165.603 Y-16.689 Z-3.159 A47.8028 B-13.9772 
N206 X-165.588 Y-16.862 Z-3.344 A47.8147 B-13.9765 
N207 X-165.573 Y-17.034 Z-3.529 A47.8266 B-13.9758 
N208 X-165.558 Y-17.207 Z-3.714 A47.8386 B-13.9751 
N209 X-165.543 Y-17.379 Z-3.899 A47.8505 B-13.9744 
N210 X-165.528 Y-17.552 Z-4.084 A47.8624 B-13.9737 
N211 X-165.513 Y-17.724 Z-4.269 A47.8743 B-13.9730 
N212 X-165.498 Y-17.897 Z-4.454 A47.8862 B-13.9723 
N213 X-165.484 Y-18.069 Z-4.639 A47.8982 B-13.9716 
N214 X-165.469 Y-18.242 Z-4.824 A47.9101 B-13.9708 
N215 X-165.454 Y-18.414 Z-5.009 A47.9220 B-13.9701 
N216 X-165.439 Y-18.587 Z-5.194 A47.9339 B-13.9694 
N217 X-165.418 Y-18.825 Z-5.449 
N218 X-164.829 Y-25.633 Z-12.750 
N219 G00 X-176.899 Y-61.654 Z19.759 
;RAPORT("TB123456","Slot Finishing:162 End")
;trailer : concat=None
; points cnt = 170
N221 MSG (" --- GROUPED OF SUBPROGRAM --- ")
N222 FGROUP()
N223 TRAFOOF
; PROGRAM NAME: B12345651
; ORDER       : B123456
; OPER. NAME  : Slot Finishing:163
; OPER. DESCR.: finishing root chamfer BETE SFSE
; OPER. TYPE  : slotMillFinish
; GEO. OPTION : 1
; MACHINE     : HSTM_500_SIM840D_Py
;             : HSTM500 - HAMUEL: 5-axis milling machine - SIM840D Traori PP_Script
; CONTROL     : SINUMERIK 840D
; created:   2023-06-06 12:07:18.272916
;-------DODATKOWE DANE-------------------
; PROGRAMISTA : Mariusz Malec
; PARTID      : 306T001953P1010_-
;  ap         : 5.0
;  ae         : 1.0
;  lean_angle : 0.0
;  rad_Offset : 2.0
;  fin_Offset : 1.0
;----------------------------------------
;RAPORT("TB123456","Slot Finishing:163")
N10 TRAFOOF
N11 D0
N12 G90 G94
N13 G0 G53 D0 Z550 B0
N14 STOPRE
M9 ; chlodziwo wyl
; --- Slot Finishing:163 - finishing root chamfer BETE SFSE ---
N16 ;ToolChange : concat=None ,current_tdmid=None, PP.tdmId=956976
N17 TRAFOOF
N18 G0 G53 D0 Z550 B0
N19 STOPRE
N20 MSG(" TLID=956976 D=6.0 R=0.0 Ang=31.0 Len=124.0 ")
N21 S6366 M03
N22 STOPRE
N23 CYCLE832(0.01,1,1)
N24 G0 G53 A47.0080 B-14.0000
N25 TRAORI
N26 G54 D1
N27 D1 
N28 TRANS  X=R18 B=R39
STOPRE
E_ZDARZ=300006
;ACS_FINISH_ROOT_BETE=7756976
STOPRE
N29 ; DELTA A > 40.1
N30 TRAFOOF
N31 D1
N32 STOPRE
N33 G00 G54 Z262.000
N34 G01 A47.0080 F10000
N35 TRAORI
N36 G54 D1
N37 STOPRE
N38 TRANS  X=R18 B=R39
N39 G00 X-178.435 Y-33.038 Z50.446 A47.0080 B-14.0000 
N40 M342 ; chlodziwo woda
N41 X-166.339 Y2.448 Z17.364 
N42 G01 X-166.237 Y-4.371 Z10.051 F763 
N43 X-166.235 Y-4.542 Z9.868 
N44 X-166.232 Y-4.712 Z9.685 
N45 X-166.230 Y-4.883 Z9.502 
N46 X-166.227 Y-5.053 Z9.319 
N47 X-166.224 Y-5.292 Z9.063 
N48 X-166.221 Y-5.465 Z8.878 A47.0199 B-13.9999 
N49 X-166.218 Y-5.638 Z8.693 A47.0319 B-13.9998 
N50 X-166.216 Y-5.810 Z8.507 A47.0439 B-13.9996 
N51 X-166.213 Y-5.983 Z8.322 A47.0559 B-13.9995 
N52 X-166.211 Y-6.156 Z8.137 A47.0679 B-13.9994 
N53 X-166.208 Y-6.329 Z7.951 A47.0799 B-13.9993 
N54 X-166.205 Y-6.502 Z7.766 A47.0919 B-13.9992 
N55 X-166.203 Y-6.675 Z7.581 A47.1039 B-13.9990 
N56 X-166.200 Y-6.848 Z7.395 A47.1159 B-13.9989 
N57 X-166.198 Y-7.020 Z7.210 A47.1279 B-13.9988 
N58 X-166.195 Y-7.193 Z7.024 A47.1399 B-13.9987 
N59 X-166.193 Y-7.366 Z6.839 A47.1519 B-13.9986 
N60 X-166.190 Y-7.539 Z6.654 A47.1639 B-13.9984 
N61 X-166.187 Y-7.712 Z6.468 A47.1759 B-13.9983 
N62 X-166.185 Y-7.885 Z6.283 A47.1879 B-13.9982 
N63 X-166.182 Y-8.058 Z6.098 A47.1998 B-13.9981 
N64 X-166.180 Y-8.230 Z5.912 A47.2118 B-13.9979 
N65 X-166.177 Y-8.403 Z5.727 A47.2238 B-13.9978 
N66 X-166.174 Y-8.576 Z5.541 A47.2358 B-13.9977 
N67 X-166.172 Y-8.749 Z5.356 A47.2478 B-13.9976 
N68 X-166.169 Y-8.922 Z5.171 A47.2598 B-13.9974 
N69 X-166.167 Y-9.095 Z4.985 A47.2718 B-13.9973 
N70 X-166.164 Y-9.268 Z4.800 A47.2838 B-13.9972 
N71 X-166.158 Y-9.440 Z4.615 A47.2959 B-13.9969 
N72 X-166.150 Y-9.613 Z4.429 A47.3080 B-13.9965 
N73 X-166.143 Y-9.786 Z4.244 A47.3201 B-13.9962 
N74 X-166.136 Y-9.959 Z4.059 A47.3322 B-13.9958 
N75 X-166.129 Y-10.132 Z3.874 A47.3442 B-13.9955 
N76 X-166.121 Y-10.304 Z3.688 A47.3563 B-13.9951 
N77 X-166.114 Y-10.477 Z3.503 A47.3684 B-13.9948 
N78 X-166.107 Y-10.650 Z3.318 A47.3805 B-13.9945 
N79 X-166.099 Y-10.823 Z3.132 A47.3926 B-13.9941 
N80 X-166.092 Y-10.996 Z2.947 A47.4047 B-13.9938 
N81 X-166.085 Y-11.168 Z2.762 A47.4168 B-13.9934 
N82 X-166.078 Y-11.341 Z2.576 A47.4289 B-13.9931 
N83 X-166.070 Y-11.514 Z2.391 A47.4410 B-13.9927 
N84 X-166.063 Y-11.687 Z2.206 A47.4531 B-13.9924 
N85 X-166.056 Y-11.859 Z2.021 A47.4652 B-13.9920 
N86 X-166.049 Y-12.032 Z1.835 A47.4773 B-13.9917 
N87 X-166.041 Y-12.205 Z1.650 A47.4893 B-13.9913 
N88 X-166.034 Y-12.378 Z1.465 A47.5014 B-13.9910 
N89 X-166.027 Y-12.551 Z1.279 A47.5135 B-13.9906 
N90 X-166.020 Y-12.723 Z1.094 A47.5256 B-13.9903 
N91 X-166.011 Y-12.896 Z0.909 A47.5377 B-13.9898 
N92 X-165.999 Y-13.069 Z0.724 A47.5498 B-13.9893 
N93 X-165.988 Y-13.242 Z0.538 A47.5619 B-13.9888 
N94 X-165.977 Y-13.414 Z0.353 A47.5740 B-13.9882 
N95 X-165.965 Y-13.587 Z0.168 A47.5860 B-13.9877 
N96 X-165.954 Y-13.760 Z-0.017 A47.5981 B-13.9872 
N97 X-165.943 Y-13.932 Z-0.202 A47.6102 B-13.9866 
N98 X-165.931 Y-14.105 Z-0.388 A47.6223 B-13.9861 
N99 X-165.920 Y-14.278 Z-0.573 A47.6344 B-13.9855 
N100 X-165.908 Y-14.450 Z-0.758 A47.6465 B-13.9850 
N101 X-165.897 Y-14.623 Z-0.943 A47.6585 B-13.9844 
N102 X-165.886 Y-14.796 Z-1.128 A47.6706 B-13.9839 
N103 X-165.874 Y-14.969 Z-1.313 A47.6827 B-13.9834 
N104 X-165.863 Y-15.141 Z-1.499 A47.6948 B-13.9828 
N105 X-165.852 Y-15.314 Z-1.684 A47.7069 B-13.9823 
N106 X-165.840 Y-15.487 Z-1.869 A47.7190 B-13.9817 
N107 X-165.829 Y-15.659 Z-2.054 A47.7310 B-13.9812 
N108 X-165.818 Y-15.832 Z-2.239 A47.7431 B-13.9806 
N109 X-165.804 Y-16.005 Z-2.425 A47.7551 B-13.9800 
N110 X-165.789 Y-16.177 Z-2.610 A47.7670 B-13.9793 
N111 X-165.774 Y-16.350 Z-2.795 A47.7790 B-13.9786 
N112 X-165.759 Y-16.522 Z-2.980 A47.7909 B-13.9779 
N113 X-165.744 Y-16.695 Z-3.165 A47.8028 B-13.9772 
N114 X-165.729 Y-16.867 Z-3.350 A47.8147 B-13.9765 
N115 X-165.714 Y-17.040 Z-3.535 A47.8266 B-13.9758 
N116 X-165.699 Y-17.213 Z-3.720 A47.8386 B-13.9751 
N117 X-165.684 Y-17.385 Z-3.905 A47.8505 B-13.9744 
N118 X-165.669 Y-17.558 Z-4.090 A47.8624 B-13.9737 
N119 X-165.655 Y-17.730 Z-4.275 A47.8743 B-13.9730 
N120 X-165.640 Y-17.903 Z-4.460 A47.8862 B-13.9723 
N121 X-165.625 Y-18.075 Z-4.645 A47.8982 B-13.9716 
N122 X-165.610 Y-18.248 Z-4.830 A47.9101 B-13.9708 
N123 X-165.595 Y-18.420 Z-5.015 A47.9220 B-13.9701 
N124 X-165.580 Y-18.593 Z-5.200 A47.9339 B-13.9694 
N125 X-165.559 Y-18.831 Z-5.456 
N126 X-164.970 Y-25.639 Z-12.757 
N127 G00 X-177.040 Y-61.660 Z19.752 
;RAPORT("TB123456","Slot Finishing:163 End")
;trailer : concat=None
; points cnt = 85
N129 MSG (" --- GROUPED OF SUBPROGRAM --- ")
N130 FGROUP()
N131 TRAFOOF
; PROGRAM NAME: B12345651
; ORDER       : B123456
; OPER. NAME  : Slot Finishing:164
; OPER. DESCR.: finishing root chamfer FSFSE
; OPER. TYPE  : slotMillFinish
; GEO. OPTION : 3
; MACHINE     : HSTM_500_SIM840D_Py
;             : HSTM500 - HAMUEL: 5-axis milling machine - SIM840D Traori PP_Script
; CONTROL     : SINUMERIK 840D
; created:   2023-06-06 12:07:26.947994
;-------DODATKOWE DANE-------------------
; PROGRAMISTA : Mariusz Malec
; PARTID      : 306T001953P1010_-
;  ap         : 100.0
;  ae         : 1.502828854314
;  lean_angle : 0.0
;  rad_Offset : 2.0
;  fin_Offset : -0.5
;----------------------------------------
;RAPORT("TB123456","Slot Finishing:164")
N10 TRAFOOF
N11 D0
N12 G90 G94
N13 G0 G53 D0 Z550 B0
N14 STOPRE
M9 ; chlodziwo wyl
; --- Slot Finishing:164 - finishing root chamfer FSFSE ---
N16 ;ToolChange : concat=None ,current_tdmid=None, PP.tdmId=956976
N17 TRAFOOF
N18 G0 G53 D0 Z550 B0
N19 STOPRE
N20 MSG(" TLID=956976 D=6.0 R=0.0 Ang=31.0 Len=124.0 ")
N21 S6366 M03
N22 STOPRE
N23 CYCLE832(0.01,1,1)
N24 G0 G53 A46.4851 B-13.9907
N25 TRAORI
N26 G54 D1
N27 D1 
N28 TRANS  X=R19
STOPRE
E_ZDARZ=300008
;ACS_FINISH_ROOT_FRONT_CHAMFER=7756976
STOPRE
N29 ; DELTA A > 40.1
N30 TRAFOOF
N31 D1
N32 STOPRE
N33 G00 G54 Z262.000
N34 G01 A46.4851 F10000
N35 TRAORI
N36 G54 D1
N37 STOPRE
N38 TRANS  X=R19
N39 G00 X-147.662 Y-27.985 Z59.787 A46.4851 B-13.9907 
N40 M342 ; chlodziwo woda
N41 X-135.573 Y7.199 Z26.381 
N42 G01 X-135.929 Y0.383 Z19.072 F763 
N43 X-135.938 Y0.213 Z18.889 
N44 X-135.946 Y0.043 Z18.706 
N45 X-135.955 Y-0.128 Z18.524 
N46 X-135.964 Y-0.298 Z18.341 
N47 X-135.977 Y-0.537 Z18.085 
N48 X-135.986 Y-0.710 Z17.899 A46.4986 B-13.9912 
N49 X-135.995 Y-0.884 Z17.713 A46.5120 B-13.9917 
N50 X-136.003 Y-1.057 Z17.527 A46.5255 B-13.9921 
N51 X-136.011 Y-1.231 Z17.341 A46.5390 B-13.9926 
N52 X-136.020 Y-1.404 Z17.155 A46.5525 B-13.9930 
N53 X-136.027 Y-1.577 Z16.969 A46.5659 B-13.9934 
N54 X-136.035 Y-1.751 Z16.783 A46.5794 B-13.9938 
N55 X-136.042 Y-1.924 Z16.597 A46.5929 B-13.9942 
N56 X-136.050 Y-2.098 Z16.411 A46.6064 B-13.9946 
N57 X-136.057 Y-2.271 Z16.225 A46.6199 B-13.9949 
N58 X-136.063 Y-2.445 Z16.039 A46.6333 B-13.9953 
N59 X-136.070 Y-2.618 Z15.853 A46.6468 B-13.9956 
N60 X-136.076 Y-2.792 Z15.667 A46.6603 B-13.9960 
N61 X-136.082 Y-2.965 Z15.481 A46.6738 B-13.9963 
N62 X-136.087 Y-3.139 Z15.295 A46.6872 B-13.9966 
N63 X-136.093 Y-3.312 Z15.109 A46.7007 B-13.9969 
N64 X-136.098 Y-3.486 Z14.923 A46.7142 B-13.9971 
N65 X-136.103 Y-3.659 Z14.737 A46.7277 B-13.9974 
N66 X-136.108 Y-3.833 Z14.551 A46.7412 B-13.9977 
N67 X-136.112 Y-4.006 Z14.365 A46.7547 B-13.9979 
N68 X-136.117 Y-4.180 Z14.179 A46.7681 B-13.9981 
N69 X-136.121 Y-4.353 Z13.993 A46.7816 B-13.9983 
N70 X-136.124 Y-4.527 Z13.806 A46.7951 B-13.9985 
N71 X-136.128 Y-4.700 Z13.620 A46.8086 B-13.9987 
N72 X-136.131 Y-4.874 Z13.434 A46.8221 B-13.9989 
N73 X-136.134 Y-5.047 Z13.248 A46.8355 B-13.9991 
N74 X-136.137 Y-5.221 Z13.062 A46.8490 B-13.9992 
N75 X-136.140 Y-5.394 Z12.876 A46.8625 B-13.9993 
N76 X-136.142 Y-5.568 Z12.690 A46.8760 B-13.9995 
N77 X-136.144 Y-5.741 Z12.504 A46.8895 B-13.9996 
N78 X-136.146 Y-5.915 Z12.318 A46.9030 B-13.9997 
N79 X-136.148 Y-6.088 Z12.132 A46.9164 B-13.9998 
N80 X-136.149 Y-6.262 Z11.946 A46.9299 B-13.9998 
N81 X-136.150 Y-6.435 Z11.759 A46.9434 B-13.9999 
N82 X-136.151 Y-6.609 Z11.573 A46.9569 B-13.9999 
N83 X-136.152 Y-6.783 Z11.387 A46.9704 B-14.0000 
N84 X-136.152 Y-6.956 Z11.201 A46.9839 B-14.0000 
N85 X-136.152 Y-7.130 Z11.015 A46.9973 B-14.0000 
N86 X-136.152 Y-7.303 Z10.829 A47.0108 B-14.0000 
N87 X-136.152 Y-7.477 Z10.643 A47.0243 B-14.0000 
N88 X-136.151 Y-7.650 Z10.457 A47.0378 B-13.9999 
N89 X-136.151 Y-7.824 Z10.271 A47.0513 B-13.9999 
N90 X-136.150 Y-7.997 Z10.085 A47.0648 B-13.9999 
N91 X-136.148 Y-8.171 Z9.899 A47.0782 B-13.9998 
N92 X-136.147 Y-8.344 Z9.712 A47.0917 B-13.9997 
N93 X-136.145 Y-8.518 Z9.526 A47.1052 B-13.9996 
N94 X-136.143 Y-8.691 Z9.340 A47.1187 B-13.9995 
N95 X-136.141 Y-8.865 Z9.154 A47.1322 B-13.9994 
N96 X-136.138 Y-9.038 Z8.968 A47.1457 B-13.9993 
N97 X-136.136 Y-9.212 Z8.782 A47.1591 B-13.9991 
N98 X-136.133 Y-9.385 Z8.596 A47.1726 B-13.9990 
N99 X-136.129 Y-9.559 Z8.410 A47.1861 B-13.9988 
N100 X-136.126 Y-9.733 Z8.224 A47.1996 B-13.9986 
N101 X-136.122 Y-9.906 Z8.038 A47.2131 B-13.9984 
N102 X-136.118 Y-10.080 Z7.852 A47.2265 B-13.9982 
N103 X-136.114 Y-10.253 Z7.666 A47.2400 B-13.9980 
N104 X-136.110 Y-10.427 Z7.480 A47.2535 B-13.9977 
N105 X-136.105 Y-10.600 Z7.293 A47.2670 B-13.9975 
N106 X-136.100 Y-10.774 Z7.107 A47.2805 B-13.9972 
N107 X-136.095 Y-10.947 Z6.921 A47.2940 B-13.9970 
N108 X-136.090 Y-11.121 Z6.735 A47.3074 B-13.9967 
N109 X-136.084 Y-11.294 Z6.549 A47.3209 B-13.9964 
N110 X-136.078 Y-11.468 Z6.363 A47.3344 B-13.9961 
N111 X-136.072 Y-11.641 Z6.177 A47.3479 B-13.9958 
N112 X-136.066 Y-11.814 Z5.991 A47.3613 B-13.9954 
N113 X-136.059 Y-11.988 Z5.805 A47.3748 B-13.9951 
N114 X-136.053 Y-12.161 Z5.619 A47.3883 B-13.9947 
N115 X-136.046 Y-12.335 Z5.433 A47.4018 B-13.9943 
N116 X-136.038 Y-12.508 Z5.247 A47.4153 B-13.9940 
N117 X-136.031 Y-12.682 Z5.061 A47.4287 B-13.9936 
N118 X-136.023 Y-12.855 Z4.875 A47.4422 B-13.9932 
N119 X-136.015 Y-13.029 Z4.689 A47.4557 B-13.9927 
N120 X-136.007 Y-13.202 Z4.503 A47.4692 B-13.9923 
N121 X-135.998 Y-13.376 Z4.317 A47.4826 B-13.9918 
N122 X-135.990 Y-13.549 Z4.131 A47.4961 B-13.9914 
N123 X-135.981 Y-13.722 Z3.945 A47.5096 B-13.9909 
N124 X-135.971 Y-13.896 Z3.759 A47.5231 B-13.9904 
N125 X-135.962 Y-14.069 Z3.573 A47.5365 B-13.9899 
N126 X-135.952 Y-14.243 Z3.387 A47.5500 B-13.9894 
N127 X-135.942 Y-14.416 Z3.201 A47.5635 B-13.9889 
N128 X-135.932 Y-14.590 Z3.015 A47.5769 B-13.9883 
N129 X-135.922 Y-14.763 Z2.829 A47.5904 B-13.9878 
N130 X-135.911 Y-14.936 Z2.643 A47.6039 B-13.9872 
N131 X-135.900 Y-15.110 Z2.458 A47.6174 B-13.9867 
N132 X-135.889 Y-15.283 Z2.272 A47.6308 B-13.9861 
N133 X-135.878 Y-15.456 Z2.086 A47.6443 B-13.9855 
N134 X-135.866 Y-15.630 Z1.900 A47.6578 B-13.9848 
N135 X-135.854 Y-15.803 Z1.714 A47.6712 B-13.9842 
N136 X-135.842 Y-15.976 Z1.528 A47.6847 B-13.9836 
N137 X-135.830 Y-16.150 Z1.342 A47.6982 B-13.9829 
N138 X-135.817 Y-16.323 Z1.156 A47.7116 B-13.9823 
N139 X-135.805 Y-16.496 Z0.970 A47.7251 B-13.9816 
N140 X-135.792 Y-16.670 Z0.785 A47.7386 B-13.9809 
N141 X-135.778 Y-16.843 Z0.599 A47.7520 B-13.9802 
N142 X-135.765 Y-17.016 Z0.413 A47.7655 B-13.9795 
N143 X-135.751 Y-17.190 Z0.227 A47.7789 B-13.9787 
N144 X-135.737 Y-17.363 Z0.041 A47.7924 B-13.9780 
N145 X-135.723 Y-17.536 Z-0.145 A47.8059 B-13.9772 
N146 X-135.708 Y-17.709 Z-0.330 A47.8193 B-13.9765 
N147 X-135.694 Y-17.883 Z-0.516 A47.8328 B-13.9757 
N148 X-135.679 Y-18.056 Z-0.702 A47.8462 B-13.9749 
N149 X-135.663 Y-18.229 Z-0.888 A47.8597 B-13.9741 
N150 X-135.648 Y-18.402 Z-1.073 A47.8731 B-13.9733 
N151 X-135.632 Y-18.576 Z-1.259 A47.8866 B-13.9725 
N152 X-135.616 Y-18.749 Z-1.445 A47.9001 B-13.9716 
N153 X-135.600 Y-18.922 Z-1.631 A47.9135 B-13.9708 
N154 X-135.584 Y-19.095 Z-1.816 A47.9270 B-13.9699 
N155 X-135.567 Y-19.268 Z-2.002 A47.9404 B-13.9690 
N156 X-135.550 Y-19.441 Z-2.188 A47.9539 B-13.9681 
N157 X-135.533 Y-19.615 Z-2.373 A47.9673 B-13.9672 
N158 X-135.516 Y-19.788 Z-2.559 A47.9808 B-13.9663 
N159 X-135.498 Y-19.961 Z-2.745 A47.9942 B-13.9654 
N160 X-135.480 Y-20.134 Z-2.930 A48.0077 B-13.9644 
N161 X-135.462 Y-20.307 Z-3.116 A48.0211 B-13.9635 
N162 X-135.444 Y-20.480 Z-3.301 A48.0345 B-13.9625 
N163 X-135.425 Y-20.653 Z-3.487 A48.0480 B-13.9615 
N164 X-135.407 Y-20.826 Z-3.673 A48.0614 B-13.9605 
N165 X-135.388 Y-20.999 Z-3.858 A48.0749 B-13.9595 
N166 X-135.368 Y-21.172 Z-4.044 A48.0883 B-13.9585 
N167 X-135.349 Y-21.345 Z-4.229 A48.1017 B-13.9574 
N168 X-135.329 Y-21.518 Z-4.415 A48.1152 B-13.9564 
N169 X-135.309 Y-21.691 Z-4.600 A48.1286 B-13.9553 
N170 X-135.289 Y-21.864 Z-4.786 A48.1421 B-13.9543 
N171 X-135.268 Y-22.037 Z-4.971 A48.1555 B-13.9532 
N172 X-135.248 Y-22.210 Z-5.157 A48.1689 B-13.9521 
N173 X-135.227 Y-22.383 Z-5.342 A48.1824 B-13.9510 
N174 X-135.205 Y-22.556 Z-5.528 A48.1958 B-13.9499 
N175 X-135.184 Y-22.729 Z-5.713 A48.2092 B-13.9487 
N176 X-135.162 Y-22.902 Z-5.899 A48.2226 B-13.9476 
N177 X-135.140 Y-23.075 Z-6.084 A48.2361 B-13.9464 
N178 X-135.118 Y-23.248 Z-6.269 A48.2495 B-13.9452 
N179 X-135.096 Y-23.421 Z-6.455 A48.2629 B-13.9441 
N180 X-135.073 Y-23.593 Z-6.640 A48.2763 B-13.9429 
N181 X-135.050 Y-23.766 Z-6.825 A48.2898 B-13.9416 
N182 X-135.027 Y-23.939 Z-7.011 A48.3032 B-13.9404 
N183 X-135.004 Y-24.112 Z-7.196 A48.3166 B-13.9392 
N184 X-134.980 Y-24.285 Z-7.381 A48.3300 B-13.9379 
N185 X-134.956 Y-24.457 Z-7.567 A48.3434 B-13.9367 
N186 X-134.932 Y-24.630 Z-7.752 A48.3569 B-13.9354 
N187 X-134.908 Y-24.803 Z-7.937 A48.3703 B-13.9341 
N188 X-134.883 Y-24.976 Z-8.122 A48.3837 B-13.9328 
N189 X-134.859 Y-25.148 Z-8.307 A48.3971 B-13.9315 
N190 X-134.834 Y-25.321 Z-8.493 A48.4105 B-13.9302 
N191 X-134.808 Y-25.494 Z-8.678 A48.4239 B-13.9288 
N192 X-134.783 Y-25.666 Z-8.863 A48.4373 B-13.9275 
N193 X-134.757 Y-25.839 Z-9.048 A48.4507 B-13.9261 
N194 X-134.722 Y-26.077 Z-9.303 
N195 X-133.714 Y-32.862 Z-16.579 
N196 G00 X-139.730 Y-51.022 Z-0.485 
N197 X-141.617 Y-9.202 Z41.973 A46.4851 B-13.9907 
N198 X-135.573 Y8.390 Z25.270 
N199 G01 X-135.929 Y1.575 Z17.961 F763 
N200 X-135.938 Y1.404 Z17.778 
N201 X-135.946 Y1.234 Z17.595 
N202 X-135.955 Y1.064 Z17.413 
N203 X-135.964 Y0.893 Z17.230 
N204 X-135.977 Y0.655 Z16.974 
N205 X-135.986 Y0.481 Z16.788 A46.4986 B-13.9912 
N206 X-135.995 Y0.308 Z16.602 A46.5120 B-13.9917 
N207 X-136.003 Y0.134 Z16.416 A46.5255 B-13.9921 
N208 X-136.011 Y-0.039 Z16.230 A46.5390 B-13.9926 
N209 X-136.020 Y-0.213 Z16.044 A46.5525 B-13.9930 
N210 X-136.027 Y-0.386 Z15.858 A46.5659 B-13.9934 
N211 X-136.035 Y-0.559 Z15.672 A46.5794 B-13.9938 
N212 X-136.042 Y-0.733 Z15.486 A46.5929 B-13.9942 
N213 X-136.050 Y-0.906 Z15.300 A46.6064 B-13.9946 
N214 X-136.057 Y-1.080 Z15.114 A46.6199 B-13.9949 
N215 X-136.063 Y-1.253 Z14.928 A46.6333 B-13.9953 
N216 X-136.070 Y-1.427 Z14.742 A46.6468 B-13.9956 
N217 X-136.076 Y-1.600 Z14.556 A46.6603 B-13.9960 
N218 X-136.082 Y-1.774 Z14.370 A46.6738 B-13.9963 
N219 X-136.087 Y-1.947 Z14.184 A46.6872 B-13.9966 
N220 X-136.093 Y-2.121 Z13.998 A46.7007 B-13.9969 
N221 X-136.098 Y-2.294 Z13.812 A46.7142 B-13.9971 
N222 X-136.103 Y-2.468 Z13.626 A46.7277 B-13.9974 
N223 X-136.108 Y-2.641 Z13.440 A46.7412 B-13.9977 
N224 X-136.112 Y-2.815 Z13.254 A46.7547 B-13.9979 
N225 X-136.117 Y-2.988 Z13.068 A46.7681 B-13.9981 
N226 X-136.121 Y-3.162 Z12.882 A46.7816 B-13.9983 
N227 X-136.124 Y-3.335 Z12.695 A46.7951 B-13.9985 
N228 X-136.128 Y-3.509 Z12.509 A46.8086 B-13.9987 
N229 X-136.131 Y-3.682 Z12.323 A46.8221 B-13.9989 
N230 X-136.134 Y-3.856 Z12.137 A46.8355 B-13.9991 
N231 X-136.137 Y-4.029 Z11.951 A46.8490 B-13.9992 
N232 X-136.140 Y-4.203 Z11.765 A46.8625 B-13.9993 
N233 X-136.142 Y-4.376 Z11.579 A46.8760 B-13.9995 
N234 X-136.144 Y-4.550 Z11.393 A46.8895 B-13.9996 
N235 X-136.146 Y-4.723 Z11.207 A46.9030 B-13.9997 
N236 X-136.148 Y-4.897 Z11.021 A46.9164 B-13.9998 
N237 X-136.149 Y-5.071 Z10.835 A46.9299 B-13.9998 
N238 X-136.150 Y-5.244 Z10.649 A46.9434 B-13.9999 
N239 X-136.151 Y-5.418 Z10.462 A46.9569 B-13.9999 
N240 X-136.152 Y-5.591 Z10.276 A46.9704 B-14.0000 
N241 X-136.152 Y-5.765 Z10.090 A46.9839 B-14.0000 
N242 X-136.152 Y-5.938 Z9.904 A46.9973 B-14.0000 
N243 X-136.152 Y-6.112 Z9.718 A47.0108 B-14.0000 
N244 X-136.152 Y-6.285 Z9.532 A47.0243 B-14.0000 
N245 X-136.151 Y-6.459 Z9.346 A47.0378 B-13.9999 
N246 X-136.151 Y-6.632 Z9.160 A47.0513 B-13.9999 
N247 X-136.150 Y-6.806 Z8.974 A47.0648 B-13.9999 
N248 X-136.148 Y-6.979 Z8.788 A47.0782 B-13.9998 
N249 X-136.147 Y-7.153 Z8.601 A47.0917 B-13.9997 
N250 X-136.145 Y-7.326 Z8.415 A47.1052 B-13.9996 
N251 X-136.143 Y-7.500 Z8.229 A47.1187 B-13.9995 
N252 X-136.141 Y-7.674 Z8.043 A47.1322 B-13.9994 
N253 X-136.138 Y-7.847 Z7.857 A47.1457 B-13.9993 
N254 X-136.136 Y-8.021 Z7.671 A47.1591 B-13.9991 
N255 X-136.133 Y-8.194 Z7.485 A47.1726 B-13.9990 
N256 X-136.129 Y-8.368 Z7.299 A47.1861 B-13.9988 
N257 X-136.126 Y-8.541 Z7.113 A47.1996 B-13.9986 
N258 X-136.122 Y-8.715 Z6.927 A47.2131 B-13.9984 
N259 X-136.118 Y-8.888 Z6.741 A47.2265 B-13.9982 
N260 X-136.114 Y-9.062 Z6.555 A47.2400 B-13.9980 
N261 X-136.110 Y-9.235 Z6.369 A47.2535 B-13.9977 
N262 X-136.105 Y-9.409 Z6.182 A47.2670 B-13.9975 
N263 X-136.100 Y-9.582 Z5.996 A47.2805 B-13.9972 
N264 X-136.095 Y-9.756 Z5.810 A47.2940 B-13.9970 
N265 X-136.090 Y-9.929 Z5.624 A47.3074 B-13.9967 
N266 X-136.084 Y-10.103 Z5.438 A47.3209 B-13.9964 
N267 X-136.078 Y-10.276 Z5.252 A47.3344 B-13.9961 
N268 X-136.072 Y-10.450 Z5.066 A47.3479 B-13.9958 
N269 X-136.066 Y-10.623 Z4.880 A47.3613 B-13.9954 
N270 X-136.059 Y-10.797 Z4.694 A47.3748 B-13.9951 
N271 X-136.053 Y-10.970 Z4.508 A47.3883 B-13.9947 
N272 X-136.046 Y-11.144 Z4.322 A47.4018 B-13.9943 
N273 X-136.038 Y-11.317 Z4.136 A47.4153 B-13.9940 
N274 X-136.031 Y-11.490 Z3.950 A47.4287 B-13.9936 
N275 X-136.023 Y-11.664 Z3.764 A47.4422 B-13.9932 
N276 X-136.015 Y-11.837 Z3.578 A47.4557 B-13.9927 
N277 X-136.007 Y-12.011 Z3.392 A47.4692 B-13.9923 
N278 X-135.998 Y-12.184 Z3.206 A47.4826 B-13.9918 
N279 X-135.990 Y-12.358 Z3.020 A47.4961 B-13.9914 
N280 X-135.981 Y-12.531 Z2.834 A47.5096 B-13.9909 
N281 X-135.971 Y-12.705 Z2.648 A47.5231 B-13.9904 
N282 X-135.962 Y-12.878 Z2.462 A47.5365 B-13.9899 
N283 X-135.952 Y-13.051 Z2.276 A47.5500 B-13.9894 
N284 X-135.942 Y-13.225 Z2.090 A47.5635 B-13.9889 
N285 X-135.932 Y-13.398 Z1.904 A47.5769 B-13.9883 
N286 X-135.922 Y-13.572 Z1.718 A47.5904 B-13.9878 
N287 X-135.911 Y-13.745 Z1.532 A47.6039 B-13.9872 
N288 X-135.900 Y-13.918 Z1.347 A47.6174 B-13.9867 
N289 X-135.889 Y-14.092 Z1.161 A47.6308 B-13.9861 
N290 X-135.878 Y-14.265 Z0.975 A47.6443 B-13.9855 
N291 X-135.866 Y-14.438 Z0.789 A47.6578 B-13.9848 
N292 X-135.854 Y-14.612 Z0.603 A47.6712 B-13.9842 
N293 X-135.842 Y-14.785 Z0.417 A47.6847 B-13.9836 
N294 X-135.830 Y-14.958 Z0.231 A47.6982 B-13.9829 
N295 X-135.817 Y-15.132 Z0.045 A47.7116 B-13.9823 
N296 X-135.805 Y-15.305 Z-0.141 A47.7251 B-13.9816 
N297 X-135.792 Y-15.478 Z-0.326 A47.7386 B-13.9809 
N298 X-135.778 Y-15.652 Z-0.512 A47.7520 B-13.9802 
N299 X-135.765 Y-15.825 Z-0.698 A47.7655 B-13.9795 
N300 X-135.751 Y-15.998 Z-0.884 A47.7789 B-13.9787 
N301 X-135.737 Y-16.172 Z-1.070 A47.7924 B-13.9780 
N302 X-135.723 Y-16.345 Z-1.256 A47.8059 B-13.9772 
N303 X-135.708 Y-16.518 Z-1.441 A47.8193 B-13.9765 
N304 X-135.694 Y-16.691 Z-1.627 A47.8328 B-13.9757 
N305 X-135.679 Y-16.865 Z-1.813 A47.8462 B-13.9749 
N306 X-135.663 Y-17.038 Z-1.999 A47.8597 B-13.9741 
N307 X-135.648 Y-17.211 Z-2.184 A47.8731 B-13.9733 
N308 X-135.632 Y-17.384 Z-2.370 A47.8866 B-13.9725 
N309 X-135.616 Y-17.557 Z-2.556 A47.9001 B-13.9716 
N310 X-135.600 Y-17.731 Z-2.742 A47.9135 B-13.9708 
N311 X-135.584 Y-17.904 Z-2.927 A47.9270 B-13.9699 
N312 X-135.567 Y-18.077 Z-3.113 A47.9404 B-13.9690 
N313 X-135.550 Y-18.250 Z-3.299 A47.9539 B-13.9681 
N314 X-135.533 Y-18.423 Z-3.484 A47.9673 B-13.9672 
N315 X-135.516 Y-18.596 Z-3.670 A47.9808 B-13.9663 
N316 X-135.498 Y-18.769 Z-3.856 A47.9942 B-13.9654 
N317 X-135.480 Y-18.943 Z-4.041 A48.0077 B-13.9644 
N318 X-135.462 Y-19.116 Z-4.227 A48.0211 B-13.9635 
N319 X-135.444 Y-19.289 Z-4.412 A48.0345 B-13.9625 
N320 X-135.425 Y-19.462 Z-4.598 A48.0480 B-13.9615 
N321 X-135.407 Y-19.635 Z-4.784 A48.0614 B-13.9605 
N322 X-135.388 Y-19.808 Z-4.969 A48.0749 B-13.9595 
N323 X-135.368 Y-19.981 Z-5.155 A48.0883 B-13.9585 
N324 X-135.349 Y-20.154 Z-5.340 A48.1017 B-13.9574 
N325 X-135.329 Y-20.327 Z-5.526 A48.1152 B-13.9564 
N326 X-135.309 Y-20.500 Z-5.711 A48.1286 B-13.9553 
N327 X-135.289 Y-20.673 Z-5.897 A48.1421 B-13.9543 
N328 X-135.268 Y-20.846 Z-6.082 A48.1555 B-13.9532 
N329 X-135.248 Y-21.019 Z-6.268 A48.1689 B-13.9521 
N330 X-135.227 Y-21.192 Z-6.453 A48.1824 B-13.9510 
N331 X-135.205 Y-21.365 Z-6.639 A48.1958 B-13.9499 
N332 X-135.184 Y-21.538 Z-6.824 A48.2092 B-13.9487 
N333 X-135.162 Y-21.711 Z-7.010 A48.2226 B-13.9476 
N334 X-135.140 Y-21.884 Z-7.195 A48.2361 B-13.9464 
N335 X-135.118 Y-22.056 Z-7.380 A48.2495 B-13.9452 
N336 X-135.096 Y-22.229 Z-7.566 A48.2629 B-13.9441 
N337 X-135.073 Y-22.402 Z-7.751 A48.2763 B-13.9429 
N338 X-135.050 Y-22.575 Z-7.936 A48.2898 B-13.9416 
N339 X-135.027 Y-22.748 Z-8.122 A48.3032 B-13.9404 
N340 X-135.004 Y-22.921 Z-8.307 A48.3166 B-13.9392 
N341 X-134.980 Y-23.093 Z-8.492 A48.3300 B-13.9379 
N342 X-134.956 Y-23.266 Z-8.678 A48.3434 B-13.9367 
N343 X-134.932 Y-23.439 Z-8.863 A48.3569 B-13.9354 
N344 X-134.908 Y-23.612 Z-9.048 A48.3703 B-13.9341 
N345 X-134.883 Y-23.784 Z-9.233 A48.3837 B-13.9328 
N346 X-134.859 Y-23.957 Z-9.418 A48.3971 B-13.9315 
N347 X-134.834 Y-24.130 Z-9.604 A48.4105 B-13.9302 
N348 X-134.808 Y-24.302 Z-9.789 A48.4239 B-13.9288 
N349 X-134.783 Y-24.475 Z-9.974 A48.4373 B-13.9275 
N350 X-134.757 Y-24.648 Z-10.159 A48.4507 B-13.9261 
N351 X-134.722 Y-24.885 Z-10.414 
N352 X-133.714 Y-31.671 Z-17.690 
N353 G00 X-139.730 Y-49.830 Z-1.596 
N354 X-141.617 Y-8.010 Z40.862 A46.4851 B-13.9907 
N355 X-135.573 Y9.582 Z24.159 
N356 G01 X-135.929 Y2.766 Z16.850 F763 
N357 X-135.938 Y2.596 Z16.667 
N358 X-135.946 Y2.425 Z16.484 
N359 X-135.955 Y2.255 Z16.302 
N360 X-135.964 Y2.085 Z16.119 
N361 X-135.977 Y1.846 Z15.863 
N362 X-135.986 Y1.673 Z15.677 A46.4986 B-13.9912 
N363 X-135.995 Y1.499 Z15.491 A46.5120 B-13.9917 
N364 X-136.003 Y1.326 Z15.305 A46.5255 B-13.9921 
N365 X-136.011 Y1.152 Z15.119 A46.5390 B-13.9926 
N366 X-136.020 Y0.979 Z14.933 A46.5525 B-13.9930 
N367 X-136.027 Y0.805 Z14.747 A46.5659 B-13.9934 
N368 X-136.035 Y0.632 Z14.561 A46.5794 B-13.9938 
N369 X-136.042 Y0.458 Z14.375 A46.5929 B-13.9942 
N370 X-136.050 Y0.285 Z14.189 A46.6064 B-13.9946 
N371 X-136.057 Y0.112 Z14.003 A46.6199 B-13.9949 
N372 X-136.063 Y-0.062 Z13.817 A46.6333 B-13.9953 
N373 X-136.070 Y-0.235 Z13.631 A46.6468 B-13.9956 
N374 X-136.076 Y-0.409 Z13.445 A46.6603 B-13.9960 
N375 X-136.082 Y-0.582 Z13.259 A46.6738 B-13.9963 
N376 X-136.087 Y-0.756 Z13.073 A46.6872 B-13.9966 
N377 X-136.093 Y-0.929 Z12.887 A46.7007 B-13.9969 
N378 X-136.098 Y-1.103 Z12.701 A46.7142 B-13.9971 
N379 X-136.103 Y-1.276 Z12.515 A46.7277 B-13.9974 
N380 X-136.108 Y-1.450 Z12.329 A46.7412 B-13.9977 
N381 X-136.112 Y-1.623 Z12.143 A46.7547 B-13.9979 
N382 X-136.117 Y-1.797 Z11.957 A46.7681 B-13.9981 
N383 X-136.121 Y-1.970 Z11.771 A46.7816 B-13.9983 
N384 X-136.124 Y-2.144 Z11.584 A46.7951 B-13.9985 
N385 X-136.128 Y-2.317 Z11.398 A46.8086 B-13.9987 
N386 X-136.131 Y-2.491 Z11.212 A46.8221 B-13.9989 
N387 X-136.134 Y-2.664 Z11.026 A46.8355 B-13.9991 
N388 X-136.137 Y-2.838 Z10.840 A46.8490 B-13.9992 
N389 X-136.140 Y-3.011 Z10.654 A46.8625 B-13.9993 
N390 X-136.142 Y-3.185 Z10.468 A46.8760 B-13.9995 
N391 X-136.144 Y-3.359 Z10.282 A46.8895 B-13.9996 
N392 X-136.146 Y-3.532 Z10.096 A46.9030 B-13.9997 
N393 X-136.148 Y-3.706 Z9.910 A46.9164 B-13.9998 
N394 X-136.149 Y-3.879 Z9.724 A46.9299 B-13.9998 
N395 X-136.150 Y-4.053 Z9.538 A46.9434 B-13.9999 
N396 X-136.151 Y-4.226 Z9.351 A46.9569 B-13.9999 
N397 X-136.152 Y-4.400 Z9.165 A46.9704 B-14.0000 
N398 X-136.152 Y-4.573 Z8.979 A46.9839 B-14.0000 
N399 X-136.152 Y-4.747 Z8.793 A46.9973 B-14.0000 
N400 X-136.152 Y-4.920 Z8.607 A47.0108 B-14.0000 
N401 X-136.152 Y-5.094 Z8.421 A47.0243 B-14.0000 
N402 X-136.151 Y-5.267 Z8.235 A47.0378 B-13.9999 
N403 X-136.151 Y-5.441 Z8.049 A47.0513 B-13.9999 
N404 X-136.150 Y-5.614 Z7.863 A47.0648 B-13.9999 
N405 X-136.148 Y-5.788 Z7.677 A47.0782 B-13.9998 
N406 X-136.147 Y-5.962 Z7.491 A47.0917 B-13.9997 
N407 X-136.145 Y-6.135 Z7.304 A47.1052 B-13.9996 
N408 X-136.143 Y-6.309 Z7.118 A47.1187 B-13.9995 
N409 X-136.141 Y-6.482 Z6.932 A47.1322 B-13.9994 
N410 X-136.138 Y-6.656 Z6.746 A47.1457 B-13.9993 
N411 X-136.136 Y-6.829 Z6.560 A47.1591 B-13.9991 
N412 X-136.133 Y-7.003 Z6.374 A47.1726 B-13.9990 
N413 X-136.129 Y-7.176 Z6.188 A47.1861 B-13.9988 
N414 X-136.126 Y-7.350 Z6.002 A47.1996 B-13.9986 
N415 X-136.122 Y-7.523 Z5.816 A47.2131 B-13.9984 
N416 X-136.118 Y-7.697 Z5.630 A47.2265 B-13.9982 
N417 X-136.114 Y-7.870 Z5.444 A47.2400 B-13.9980 
N418 X-136.110 Y-8.044 Z5.258 A47.2535 B-13.9977 
N419 X-136.105 Y-8.217 Z5.072 A47.2670 B-13.9975 
N420 X-136.100 Y-8.391 Z4.885 A47.2805 B-13.9972 
N421 X-136.095 Y-8.564 Z4.699 A47.2940 B-13.9970 
N422 X-136.090 Y-8.738 Z4.513 A47.3074 B-13.9967 
N423 X-136.084 Y-8.911 Z4.327 A47.3209 B-13.9964 
N424 X-136.078 Y-9.085 Z4.141 A47.3344 B-13.9961 
N425 X-136.072 Y-9.258 Z3.955 A47.3479 B-13.9958 
N426 X-136.066 Y-9.432 Z3.769 A47.3613 B-13.9954 
N427 X-136.059 Y-9.605 Z3.583 A47.3748 B-13.9951 
N428 X-136.053 Y-9.779 Z3.397 A47.3883 B-13.9947 
N429 X-136.046 Y-9.952 Z3.211 A47.4018 B-13.9943 
N430 X-136.038 Y-10.126 Z3.025 A47.4153 B-13.9940 
N431 X-136.031 Y-10.299 Z2.839 A47.4287 B-13.9936 
N432 X-136.023 Y-10.473 Z2.653 A47.4422 B-13.9932 
N433 X-136.015 Y-10.646 Z2.467 A47.4557 B-13.9927 
N434 X-136.007 Y-10.819 Z2.281 A47.4692 B-13.9923 
N435 X-135.998 Y-10.993 Z2.095 A47.4826 B-13.9918 
N436 X-135.990 Y-11.166 Z1.909 A47.4961 B-13.9914 
N437 X-135.981 Y-11.340 Z1.723 A47.5096 B-13.9909 
N438 X-135.971 Y-11.513 Z1.537 A47.5231 B-13.9904 
N439 X-135.962 Y-11.687 Z1.351 A47.5365 B-13.9899 
N440 X-135.952 Y-11.860 Z1.165 A47.5500 B-13.9894 
N441 X-135.942 Y-12.033 Z0.979 A47.5635 B-13.9889 
N442 X-135.932 Y-12.207 Z0.793 A47.5769 B-13.9883 
N443 X-135.922 Y-12.380 Z0.607 A47.5904 B-13.9878 
N444 X-135.911 Y-12.554 Z0.421 A47.6039 B-13.9872 
N445 X-135.900 Y-12.727 Z0.236 A47.6174 B-13.9867 
N446 X-135.889 Y-12.900 Z0.050 A47.6308 B-13.9861 
N447 X-135.878 Y-13.074 Z-0.136 A47.6443 B-13.9855 
N448 X-135.866 Y-13.247 Z-0.322 A47.6578 B-13.9848 
N449 X-135.854 Y-13.420 Z-0.508 A47.6712 B-13.9842 
N450 X-135.842 Y-13.594 Z-0.694 A47.6847 B-13.9836 
N451 X-135.830 Y-13.767 Z-0.880 A47.6982 B-13.9829 
N452 X-135.817 Y-13.940 Z-1.066 A47.7116 B-13.9823 
N453 X-135.805 Y-14.114 Z-1.252 A47.7251 B-13.9816 
N454 X-135.792 Y-14.287 Z-1.437 A47.7386 B-13.9809 
N455 X-135.778 Y-14.460 Z-1.623 A47.7520 B-13.9802 
N456 X-135.765 Y-14.634 Z-1.809 A47.7655 B-13.9795 
N457 X-135.751 Y-14.807 Z-1.995 A47.7789 B-13.9787 
N458 X-135.737 Y-14.980 Z-2.181 A47.7924 B-13.9780 
N459 X-135.723 Y-15.153 Z-2.366 A47.8059 B-13.9772 
N460 X-135.708 Y-15.327 Z-2.552 A47.8193 B-13.9765 
N461 X-135.694 Y-15.500 Z-2.738 A47.8328 B-13.9757 
N462 X-135.679 Y-15.673 Z-2.924 A47.8462 B-13.9749 
N463 X-135.663 Y-15.846 Z-3.110 A47.8597 B-13.9741 
N464 X-135.648 Y-16.020 Z-3.295 A47.8731 B-13.9733 
N465 X-135.632 Y-16.193 Z-3.481 A47.8866 B-13.9725 
N466 X-135.616 Y-16.366 Z-3.667 A47.9001 B-13.9716 
N467 X-135.600 Y-16.539 Z-3.853 A47.9135 B-13.9708 
N468 X-135.584 Y-16.712 Z-4.038 A47.9270 B-13.9699 
N469 X-135.567 Y-16.886 Z-4.224 A47.9404 B-13.9690 
N470 X-135.550 Y-17.059 Z-4.410 A47.9539 B-13.9681 
N471 X-135.533 Y-17.232 Z-4.595 A47.9673 B-13.9672 
N472 X-135.516 Y-17.405 Z-4.781 A47.9808 B-13.9663 
N473 X-135.498 Y-17.578 Z-4.967 A47.9942 B-13.9654 
N474 X-135.480 Y-17.751 Z-5.152 A48.0077 B-13.9644 
N475 X-135.462 Y-17.924 Z-5.338 A48.0211 B-13.9635 
N476 X-135.444 Y-18.097 Z-5.523 A48.0345 B-13.9625 
N477 X-135.425 Y-18.270 Z-5.709 A48.0480 B-13.9615 
N478 X-135.407 Y-18.443 Z-5.895 A48.0614 B-13.9605 
N479 X-135.388 Y-18.617 Z-6.080 A48.0749 B-13.9595 
N480 X-135.368 Y-18.790 Z-6.266 A48.0883 B-13.9585 
N481 X-135.349 Y-18.963 Z-6.451 A48.1017 B-13.9574 
N482 X-135.329 Y-19.136 Z-6.637 A48.1152 B-13.9564 
N483 X-135.309 Y-19.309 Z-6.822 A48.1286 B-13.9553 
N484 X-135.289 Y-19.482 Z-7.008 A48.1421 B-13.9543 
N485 X-135.268 Y-19.655 Z-7.193 A48.1555 B-13.9532 
N486 X-135.248 Y-19.828 Z-7.379 A48.1689 B-13.9521 
N487 X-135.227 Y-20.000 Z-7.564 A48.1824 B-13.9510 
N488 X-135.205 Y-20.173 Z-7.750 A48.1958 B-13.9499 
N489 X-135.184 Y-20.346 Z-7.935 A48.2092 B-13.9487 
N490 X-135.162 Y-20.519 Z-8.121 A48.2226 B-13.9476 
N491 X-135.140 Y-20.692 Z-8.306 A48.2361 B-13.9464 
N492 X-135.118 Y-20.865 Z-8.491 A48.2495 B-13.9452 
N493 X-135.096 Y-21.038 Z-8.677 A48.2629 B-13.9441 
N494 X-135.073 Y-21.211 Z-8.862 A48.2763 B-13.9429 
N495 X-135.050 Y-21.384 Z-9.047 A48.2898 B-13.9416 
N496 X-135.027 Y-21.556 Z-9.233 A48.3032 B-13.9404 
N497 X-135.004 Y-21.729 Z-9.418 A48.3166 B-13.9392 
N498 X-134.980 Y-21.902 Z-9.603 A48.3300 B-13.9379 
N499 X-134.956 Y-22.075 Z-9.789 A48.3434 B-13.9367 
N500 X-134.932 Y-22.248 Z-9.974 A48.3569 B-13.9354 
N501 X-134.908 Y-22.420 Z-10.159 A48.3703 B-13.9341 
N502 X-134.883 Y-22.593 Z-10.344 A48.3837 B-13.9328 
N503 X-134.859 Y-22.766 Z-10.529 A48.3971 B-13.9315 
N504 X-134.834 Y-22.938 Z-10.715 A48.4105 B-13.9302 
N505 X-134.808 Y-23.111 Z-10.900 A48.4239 B-13.9288 
N506 X-134.783 Y-23.284 Z-11.085 A48.4373 B-13.9275 
N507 X-134.757 Y-23.456 Z-11.270 A48.4507 B-13.9261 
N508 X-134.722 Y-23.694 Z-11.525 
N509 X-133.714 Y-30.479 Z-18.801 
N510 G00 X-145.747 Y-66.799 Z13.388 
;RAPORT("TB123456","Slot Finishing:164 End")
;trailer : concat=None
; points cnt = 462
N512 MSG (" --- GROUPED OF SUBPROGRAM --- ")
N513 FGROUP()
N514 TRAFOOF
; PROGRAM NAME: B12345651
; ORDER       : B123456
; OPER. NAME  : Slot Finishing:165
; OPER. DESCR.: Finishing slot
; OPER. TYPE  : slotMillFinish
; GEO. OPTION : 3
; MACHINE     : HSTM_500_SIM840D_Py
;             : HSTM500 - HAMUEL: 5-axis milling machine - SIM840D Traori PP_Script
; CONTROL     : SINUMERIK 840D
; created:   2023-06-06 12:07:33.943784
;-------DODATKOWE DANE-------------------
; PROGRAMISTA : Mariusz Malec
; PARTID      : 306T001953P1010_-
;  ap         : 100.0
;  ae         : 2.0
;  lean_angle : 0.0
;  rad_Offset : 2.0
;  fin_Offset : -0.5
;----------------------------------------
;RAPORT("TB123456","Slot Finishing:165")
N10 TRAFOOF
N11 D0
N12 G90 G94
N13 G0 G53 D0 Z550 B0
N14 STOPRE
M9 ; chlodziwo wyl
; --- Slot Finishing:165 - Finishing slot ---
N16 ;ToolChange : concat=None ,current_tdmid=None, PP.tdmId=956976
N17 TRAFOOF
N18 G0 G53 D0 Z550 B0
N19 STOPRE
N20 MSG(" TLID=956976 D=6.0 R=0.0 Ang=31.0 Len=124.0 ")
N21 S6366 M03
N22 STOPRE
N23 CYCLE832(0.01,1,1)
N24 G0 G53 A46.4851 B-13.9907
N25 TRAORI
N26 G54 D1
N27 D1 
N28 TRANS  X=R19
STOPRE
E_ZDARZ=300008
;ACS_FINISH_ROOT_FRONT_CHAMFER=7756976
STOPRE
N29 ; DELTA A > 40.1
N30 TRAFOOF
N31 D1
N32 STOPRE
N33 G00 G54 Z262.000
N34 G01 A46.4851 F10000
N35 TRAORI
N36 G54 D1
N37 STOPRE
N38 TRANS  X=R19
N39 G00 X-147.662 Y-25.292 Z57.275 A46.4851 B-13.9907 
N40 M342 ; chlodziwo woda
N41 X-135.573 Y9.892 Z23.870 
N42 G01 X-135.929 Y3.076 Z16.561 F763 
N43 X-135.938 Y2.906 Z16.378 
N44 X-135.946 Y2.736 Z16.195 
N45 X-135.955 Y2.565 Z16.012 
N46 X-135.964 Y2.395 Z15.830 
N47 X-135.977 Y2.156 Z15.574 
N48 X-135.986 Y1.983 Z15.388 A46.4986 B-13.9912 
N49 X-135.995 Y1.809 Z15.202 A46.5120 B-13.9917 
N50 X-136.003 Y1.636 Z15.016 A46.5255 B-13.9921 
N51 X-136.011 Y1.463 Z14.830 A46.5390 B-13.9926 
N52 X-136.020 Y1.289 Z14.644 A46.5525 B-13.9930 
N53 X-136.027 Y1.116 Z14.458 A46.5659 B-13.9934 
N54 X-136.035 Y0.942 Z14.272 A46.5794 B-13.9938 
N55 X-136.042 Y0.769 Z14.086 A46.5929 B-13.9942 
N56 X-136.050 Y0.595 Z13.900 A46.6064 B-13.9946 
N57 X-136.057 Y0.422 Z13.714 A46.6199 B-13.9949 
N58 X-136.063 Y0.248 Z13.528 A46.6333 B-13.9953 
N59 X-136.070 Y0.075 Z13.342 A46.6468 B-13.9956 
N60 X-136.076 Y-0.099 Z13.156 A46.6603 B-13.9960 
N61 X-136.082 Y-0.272 Z12.970 A46.6738 B-13.9963 
N62 X-136.087 Y-0.446 Z12.784 A46.6872 B-13.9966 
N63 X-136.093 Y-0.619 Z12.598 A46.7007 B-13.9969 
N64 X-136.098 Y-0.793 Z12.412 A46.7142 B-13.9971 
N65 X-136.103 Y-0.966 Z12.225 A46.7277 B-13.9974 
N66 X-136.108 Y-1.140 Z12.039 A46.7412 B-13.9977 
N67 X-136.112 Y-1.313 Z11.853 A46.7547 B-13.9979 
N68 X-136.117 Y-1.487 Z11.667 A46.7681 B-13.9981 
N69 X-136.121 Y-1.660 Z11.481 A46.7816 B-13.9983 
N70 X-136.124 Y-1.834 Z11.295 A46.7951 B-13.9985 
N71 X-136.128 Y-2.007 Z11.109 A46.8086 B-13.9987 
N72 X-136.131 Y-2.181 Z10.923 A46.8221 B-13.9989 
N73 X-136.134 Y-2.354 Z10.737 A46.8355 B-13.9991 
N74 X-136.137 Y-2.528 Z10.551 A46.8490 B-13.9992 
N75 X-136.140 Y-2.701 Z10.365 A46.8625 B-13.9993 
N76 X-136.142 Y-2.875 Z10.179 A46.8760 B-13.9995 
N77 X-136.144 Y-3.048 Z9.993 A46.8895 B-13.9996 
N78 X-136.146 Y-3.222 Z9.806 A46.9030 B-13.9997 
N79 X-136.148 Y-3.395 Z9.620 A46.9164 B-13.9998 
N80 X-136.149 Y-3.569 Z9.434 A46.9299 B-13.9998 
N81 X-136.150 Y-3.742 Z9.248 A46.9434 B-13.9999 
N82 X-136.151 Y-3.916 Z9.062 A46.9569 B-13.9999 
N83 X-136.152 Y-4.089 Z8.876 A46.9704 B-14.0000 
N84 X-136.152 Y-4.263 Z8.690 A46.9839 B-14.0000 
N85 X-136.152 Y-4.437 Z8.504 A46.9973 B-14.0000 
N86 X-136.152 Y-4.610 Z8.318 A47.0108 B-14.0000 
N87 X-136.152 Y-4.784 Z8.132 A47.0243 B-14.0000 
N88 X-136.151 Y-4.957 Z7.946 A47.0378 B-13.9999 
N89 X-136.151 Y-5.131 Z7.759 A47.0513 B-13.9999 
N90 X-136.150 Y-5.304 Z7.573 A47.0648 B-13.9999 
N91 X-136.148 Y-5.478 Z7.387 A47.0782 B-13.9998 
N92 X-136.147 Y-5.651 Z7.201 A47.0917 B-13.9997 
N93 X-136.145 Y-5.825 Z7.015 A47.1052 B-13.9996 
N94 X-136.143 Y-5.998 Z6.829 A47.1187 B-13.9995 
N95 X-136.141 Y-6.172 Z6.643 A47.1322 B-13.9994 
N96 X-136.138 Y-6.345 Z6.457 A47.1457 B-13.9993 
N97 X-136.136 Y-6.519 Z6.271 A47.1591 B-13.9991 
N98 X-136.133 Y-6.692 Z6.085 A47.1726 B-13.9990 
N99 X-136.129 Y-6.866 Z5.899 A47.1861 B-13.9988 
N100 X-136.126 Y-7.039 Z5.713 A47.1996 B-13.9986 
N101 X-136.122 Y-7.213 Z5.526 A47.2131 B-13.9984 
N102 X-136.118 Y-7.386 Z5.340 A47.2265 B-13.9982 
N103 X-136.114 Y-7.560 Z5.154 A47.2400 B-13.9980 
N104 X-136.110 Y-7.733 Z4.968 A47.2535 B-13.9977 
N105 X-136.105 Y-7.907 Z4.782 A47.2670 B-13.9975 
N106 X-136.100 Y-8.081 Z4.596 A47.2805 B-13.9972 
N107 X-136.095 Y-8.254 Z4.410 A47.2940 B-13.9970 
N108 X-136.090 Y-8.427 Z4.224 A47.3074 B-13.9967 
N109 X-136.084 Y-8.601 Z4.038 A47.3209 B-13.9964 
N110 X-136.078 Y-8.774 Z3.852 A47.3344 B-13.9961 
N111 X-136.072 Y-8.948 Z3.666 A47.3479 B-13.9958 
N112 X-136.066 Y-9.121 Z3.480 A47.3613 B-13.9954 
N113 X-136.059 Y-9.295 Z3.294 A47.3748 B-13.9951 
N114 X-136.053 Y-9.468 Z3.108 A47.3883 B-13.9947 
N115 X-136.046 Y-9.642 Z2.922 A47.4018 B-13.9943 
N116 X-136.038 Y-9.815 Z2.736 A47.4153 B-13.9940 
N117 X-136.031 Y-9.989 Z2.550 A47.4287 B-13.9936 
N118 X-136.023 Y-10.162 Z2.364 A47.4422 B-13.9932 
N119 X-136.015 Y-10.336 Z2.178 A47.4557 B-13.9927 
N120 X-136.007 Y-10.509 Z1.992 A47.4692 B-13.9923 
N121 X-135.998 Y-10.683 Z1.806 A47.4826 B-13.9918 
N122 X-135.990 Y-10.856 Z1.620 A47.4961 B-13.9914 
N123 X-135.981 Y-11.029 Z1.434 A47.5096 B-13.9909 
N124 X-135.971 Y-11.203 Z1.248 A47.5231 B-13.9904 
N125 X-135.962 Y-11.376 Z1.062 A47.5365 B-13.9899 
N126 X-135.952 Y-11.550 Z0.876 A47.5500 B-13.9894 
N127 X-135.942 Y-11.723 Z0.690 A47.5635 B-13.9889 
N128 X-135.932 Y-11.896 Z0.504 A47.5769 B-13.9883 
N129 X-135.922 Y-12.070 Z0.318 A47.5904 B-13.9878 
N130 X-135.911 Y-12.243 Z0.132 A47.6039 B-13.9872 
N131 X-135.900 Y-12.417 Z-0.054 A47.6174 B-13.9867 
N132 X-135.889 Y-12.590 Z-0.240 A47.6308 B-13.9861 
N133 X-135.878 Y-12.763 Z-0.426 A47.6443 B-13.9855 
N134 X-135.866 Y-12.937 Z-0.612 A47.6578 B-13.9848 
N135 X-135.854 Y-13.110 Z-0.797 A47.6712 B-13.9842 
N136 X-135.842 Y-13.283 Z-0.983 A47.6847 B-13.9836 
N137 X-135.830 Y-13.457 Z-1.169 A47.6982 B-13.9829 
N138 X-135.817 Y-13.630 Z-1.355 A47.7116 B-13.9823 
N139 X-135.805 Y-13.803 Z-1.541 A47.7251 B-13.9816 
N140 X-135.792 Y-13.977 Z-1.727 A47.7386 B-13.9809 
N141 X-135.778 Y-14.150 Z-1.913 A47.7520 B-13.9802 
N142 X-135.765 Y-14.323 Z-2.098 A47.7655 B-13.9795 
N143 X-135.751 Y-14.497 Z-2.284 A47.7789 B-13.9787 
N144 X-135.737 Y-14.670 Z-2.470 A47.7924 B-13.9780 
N145 X-135.723 Y-14.843 Z-2.656 A47.8059 B-13.9772 
N146 X-135.708 Y-15.016 Z-2.842 A47.8193 B-13.9765 
N147 X-135.694 Y-15.190 Z-3.027 A47.8328 B-13.9757 
N148 X-135.679 Y-15.363 Z-3.213 A47.8462 B-13.9749 
N149 X-135.663 Y-15.536 Z-3.399 A47.8597 B-13.9741 
N150 X-135.648 Y-15.709 Z-3.585 A47.8731 B-13.9733 
N151 X-135.632 Y-15.882 Z-3.770 A47.8866 B-13.9725 
N152 X-135.616 Y-16.056 Z-3.956 A47.9001 B-13.9716 
N153 X-135.600 Y-16.229 Z-4.142 A47.9135 B-13.9708 
N154 X-135.584 Y-16.402 Z-4.328 A47.9270 B-13.9699 
N155 X-135.567 Y-16.575 Z-4.513 A47.9404 B-13.9690 
N156 X-135.550 Y-16.748 Z-4.699 A47.9539 B-13.9681 
N157 X-135.533 Y-16.922 Z-4.885 A47.9673 B-13.9672 
N158 X-135.516 Y-17.095 Z-5.070 A47.9808 B-13.9663 
N159 X-135.498 Y-17.268 Z-5.256 A47.9942 B-13.9654 
N160 X-135.480 Y-17.441 Z-5.442 A48.0077 B-13.9644 
N161 X-135.462 Y-17.614 Z-5.627 A48.0211 B-13.9635 
N162 X-135.444 Y-17.787 Z-5.813 A48.0345 B-13.9625 
N163 X-135.425 Y-17.960 Z-5.998 A48.0480 B-13.9615 
N164 X-135.407 Y-18.133 Z-6.184 A48.0614 B-13.9605 
N165 X-135.388 Y-18.306 Z-6.370 A48.0749 B-13.9595 
N166 X-135.368 Y-18.479 Z-6.555 A48.0883 B-13.9585 
N167 X-135.349 Y-18.652 Z-6.741 A48.1017 B-13.9574 
N168 X-135.329 Y-18.825 Z-6.926 A48.1152 B-13.9564 
N169 X-135.309 Y-18.998 Z-7.112 A48.1286 B-13.9553 
N170 X-135.289 Y-19.171 Z-7.297 A48.1421 B-13.9543 
N171 X-135.268 Y-19.344 Z-7.483 A48.1555 B-13.9532 
N172 X-135.248 Y-19.517 Z-7.668 A48.1689 B-13.9521 
N173 X-135.227 Y-19.690 Z-7.854 A48.1824 B-13.9510 
N174 X-135.205 Y-19.863 Z-8.039 A48.1958 B-13.9499 
N175 X-135.184 Y-20.036 Z-8.224 A48.2092 B-13.9487 
N176 X-135.162 Y-20.209 Z-8.410 A48.2226 B-13.9476 
N177 X-135.140 Y-20.382 Z-8.595 A48.2361 B-13.9464 
N178 X-135.118 Y-20.555 Z-8.781 A48.2495 B-13.9452 
N179 X-135.096 Y-20.728 Z-8.966 A48.2629 B-13.9441 
N180 X-135.073 Y-20.900 Z-9.151 A48.2763 B-13.9429 
N181 X-135.050 Y-21.073 Z-9.337 A48.2898 B-13.9416 
N182 X-135.027 Y-21.246 Z-9.522 A48.3032 B-13.9404 
N183 X-135.004 Y-21.419 Z-9.707 A48.3166 B-13.9392 
N184 X-134.980 Y-21.592 Z-9.893 A48.3300 B-13.9379 
N185 X-134.956 Y-21.764 Z-10.078 A48.3434 B-13.9367 
N186 X-134.932 Y-21.937 Z-10.263 A48.3569 B-13.9354 
N187 X-134.908 Y-22.110 Z-10.448 A48.3703 B-13.9341 
N188 X-134.883 Y-22.283 Z-10.634 A48.3837 B-13.9328 
N189 X-134.859 Y-22.455 Z-10.819 A48.3971 B-13.9315 
N190 X-134.834 Y-22.628 Z-11.004 A48.4105 B-13.9302 
N191 X-134.808 Y-22.801 Z-11.189 A48.4239 B-13.9288 
N192 X-134.783 Y-22.973 Z-11.374 A48.4373 B-13.9275 
N193 X-134.757 Y-23.146 Z-11.559 A48.4507 B-13.9261 
N194 X-134.722 Y-23.384 Z-11.814 
N195 X-133.714 Y-30.169 Z-19.090 
N196 G00 X-145.747 Y-66.488 Z13.098 
;RAPORT("TB123456","Slot Finishing:165 End")
;trailer : concat=None
; points cnt = 154
N198 MSG (" --- GROUPED OF SUBPROGRAM --- ")
N199 FGROUP()
N200 TRAFOOF
; PROGRAM NAME: B12345651
; ORDER       : B123456
; OPER. NAME  : Slot Finishing:166
; OPER. DESCR.: semi finish and finishing root chamfer BETE SFSA
; OPER. TYPE  : slotMillFinish
; GEO. OPTION : 1
; MACHINE     : HSTM_500_SIM840D_Py
;             : HSTM500 - HAMUEL: 5-axis milling machine - SIM840D Traori PP_Script
; CONTROL     : SINUMERIK 840D
; created:   2023-06-06 12:07:39.549205
;-------DODATKOWE DANE-------------------
; PROGRAMISTA : Mariusz Malec
; PARTID      : 306T001953P1010_-
;  ap         : 5.0
;  ae         : 0.5
;  lean_angle : 0.0
;  rad_Offset : 2.0
;  fin_Offset : 1.0
;----------------------------------------
;RAPORT("TB123456","Slot Finishing:166")
N10 TRAFOOF
N11 D0
N12 G90 G94
N13 G0 G53 D0 Z550 B0
N14 STOPRE
M9 ; chlodziwo wyl
; --- Slot Finishing:166 - semi finish and finishing root chamfer BETE SFSA ---
N16 ;ToolChange : concat=None ,current_tdmid=None, PP.tdmId=956976
N17 TRAFOOF
N18 G0 G53 D0 Z550 B0
N19 STOPRE
N20 MSG(" TLID=956976 D=6.0 R=0.0 Ang=31.0 Len=124.0 ")
N21 S6366 M03
N22 STOPRE
N23 CYCLE832(0.01,1,1)
N24 G0 G53 A226.9203 B-13.9998
N25 TRAORI
N26 G54 D2
N27 D2 
N28 TRANS  X=R20 B=R38
STOPRE
E_ZDARZ=300006
;ACS_FINISH_ROOT_BETA=7756976
STOPRE
N29 ; DELTA A > 40.1
N30 TRAFOOF
N31 D2
N32 STOPRE
N33 G00 G54 Z262.000
N34 G01 A226.9203 F10000
N35 TRAORI
N36 G54 D2
N37 STOPRE
N38 TRANS  X=R20 B=R38
N39 G00 X-177.585 Y34.807 Z-46.127 A226.9203 B-13.9998 
N40 M342 ; chlodziwo woda
N41 X-165.489 Y-0.629 Z-12.991 
N42 G01 X-165.447 Y6.191 Z-5.677 F763 
N43 X-165.445 Y6.362 Z-5.495 
N44 X-165.444 Y6.532 Z-5.312 
N45 X-165.443 Y6.703 Z-5.129 
N46 X-165.442 Y6.873 Z-4.946 
N47 X-165.441 Y7.112 Z-4.690 
N48 X-165.440 Y7.286 Z-4.504 A226.9324 B-13.9997 
N49 X-165.439 Y7.460 Z-4.317 A226.9445 B-13.9997 
N50 X-165.438 Y7.634 Z-4.131 A226.9566 B-13.9996 
N51 X-165.436 Y7.808 Z-3.944 A226.9687 B-13.9996 
N52 X-165.435 Y7.981 Z-3.758 A226.9808 B-13.9995 
N53 X-165.434 Y8.155 Z-3.571 A226.9929 B-13.9995 
N54 X-165.433 Y8.329 Z-3.385 A227.0050 B-13.9994 
N55 X-165.432 Y8.503 Z-3.198 A227.0171 B-13.9994 
N56 X-165.431 Y8.677 Z-3.012 A227.0292 B-13.9993 
N57 X-165.430 Y8.851 Z-2.825 A227.0413 B-13.9993 
N58 X-165.429 Y9.025 Z-2.639 A227.0534 B-13.9992 
N59 X-165.428 Y9.199 Z-2.452 A227.0655 B-13.9992 
N60 X-165.427 Y9.373 Z-2.266 A227.0776 B-13.9991 
N61 X-165.426 Y9.546 Z-2.080 A227.0897 B-13.9991 
N62 X-165.425 Y9.720 Z-1.893 A227.1018 B-13.9990 
N63 X-165.424 Y9.894 Z-1.707 A227.1139 B-13.9990 
N64 X-165.422 Y10.068 Z-1.520 A227.1260 B-13.9989 
N65 X-165.421 Y10.242 Z-1.334 A227.1380 B-13.9989 
N66 X-165.420 Y10.416 Z-1.147 A227.1501 B-13.9988 
N67 X-165.419 Y10.590 Z-0.961 A227.1622 B-13.9988 
N68 X-165.418 Y10.764 Z-0.774 A227.1743 B-13.9987 
N69 X-165.417 Y10.937 Z-0.588 A227.1864 B-13.9986 
N70 X-165.416 Y11.111 Z-0.401 A227.1985 B-13.9986 
N71 X-165.412 Y11.285 Z-0.215 A227.2107 B-13.9984 
N72 X-165.406 Y11.459 Z-0.028 A227.2229 B-13.9981 
N73 X-165.400 Y11.633 Z0.158 A227.2351 B-13.9978 
N74 X-165.394 Y11.807 Z0.344 A227.2473 B-13.9976 
N75 X-165.389 Y11.981 Z0.531 A227.2595 B-13.9973 
N76 X-165.383 Y12.154 Z0.717 A227.2717 B-13.9970 
N77 X-165.377 Y12.328 Z0.904 A227.2839 B-13.9967 
N78 X-165.371 Y12.502 Z1.090 A227.2961 B-13.9965 
N79 X-165.365 Y12.676 Z1.276 A227.3083 B-13.9962 
N80 X-165.359 Y12.850 Z1.463 A227.3205 B-13.9959 
N81 X-165.353 Y13.024 Z1.649 A227.3327 B-13.9956 
N82 X-165.347 Y13.197 Z1.836 A227.3449 B-13.9953 
N83 X-165.342 Y13.371 Z2.022 A227.3571 B-13.9950 
N84 X-165.336 Y13.545 Z2.209 A227.3693 B-13.9948 
N85 X-165.330 Y13.719 Z2.395 A227.3815 B-13.9945 
N86 X-165.324 Y13.893 Z2.581 A227.3936 B-13.9942 
N87 X-165.318 Y14.067 Z2.768 A227.4058 B-13.9939 
N88 X-165.312 Y14.241 Z2.954 A227.4180 B-13.9936 
N89 X-165.306 Y14.414 Z3.141 A227.4302 B-13.9933 
N90 X-165.301 Y14.588 Z3.327 A227.4424 B-13.9931 
N91 X-165.294 Y14.762 Z3.514 A227.4546 B-13.9928 
N92 X-165.284 Y14.936 Z3.700 A227.4668 B-13.9923 
N93 X-165.274 Y15.110 Z3.886 A227.4790 B-13.9918 
N94 X-165.264 Y15.283 Z4.072 A227.4912 B-13.9913 
N95 X-165.254 Y15.457 Z4.259 A227.5034 B-13.9909 
N96 X-165.244 Y15.631 Z4.445 A227.5156 B-13.9904 
N97 X-165.235 Y15.805 Z4.631 A227.5278 B-13.9899 
N98 X-165.225 Y15.978 Z4.818 A227.5400 B-13.9894 
N99 X-165.215 Y16.152 Z5.004 A227.5522 B-13.9890 
N100 X-165.205 Y16.326 Z5.190 A227.5643 B-13.9885 
N101 X-165.195 Y16.500 Z5.377 A227.5765 B-13.9880 
N102 X-165.185 Y16.673 Z5.563 A227.5887 B-13.9875 
N103 X-165.175 Y16.847 Z5.749 A227.6009 B-13.9871 
N104 X-165.165 Y17.021 Z5.936 A227.6131 B-13.9866 
N105 X-165.155 Y17.195 Z6.122 A227.6253 B-13.9861 
N106 X-165.145 Y17.368 Z6.308 A227.6375 B-13.9856 
N107 X-165.135 Y17.542 Z6.495 A227.6497 B-13.9851 
N108 X-165.125 Y17.716 Z6.681 A227.6619 B-13.9846 
N109 X-165.112 Y17.889 Z6.867 A227.6739 B-13.9840 
N110 X-165.098 Y18.063 Z7.053 A227.6859 B-13.9834 
N111 X-165.085 Y18.237 Z7.240 A227.6979 B-13.9828 
N112 X-165.071 Y18.410 Z7.426 A227.7100 B-13.9821 
N113 X-165.058 Y18.584 Z7.612 A227.7220 B-13.9815 
N114 X-165.045 Y18.758 Z7.798 A227.7340 B-13.9809 
N115 X-165.031 Y18.931 Z7.985 A227.7460 B-13.9802 
N116 X-165.018 Y19.105 Z8.171 A227.7580 B-13.9796 
N117 X-165.004 Y19.279 Z8.357 A227.7701 B-13.9790 
N118 X-164.991 Y19.452 Z8.543 A227.7821 B-13.9783 
N119 X-164.977 Y19.626 Z8.729 A227.7941 B-13.9777 
N120 X-164.964 Y19.800 Z8.916 A227.8061 B-13.9771 
N121 X-164.950 Y19.973 Z9.102 A227.8182 B-13.9764 
N122 X-164.937 Y20.147 Z9.288 A227.8302 B-13.9758 
N123 X-164.923 Y20.320 Z9.474 A227.8422 B-13.9752 
N124 X-164.905 Y20.559 Z9.730 
N125 X-164.377 Y27.369 Z17.033 
N126 G00 X-170.415 Y45.353 Z0.750 
N127 X-172.173 Y17.087 Z-29.562 A226.9203 B-13.9998 
N128 X-166.125 Y-0.631 Z-12.993 
N129 G01 X-166.083 Y6.189 Z-5.680 F763 
N130 X-166.082 Y6.359 Z-5.497 
N131 X-166.081 Y6.530 Z-5.314 
N132 X-166.080 Y6.700 Z-5.131 
N133 X-166.079 Y6.871 Z-4.949 
N134 X-166.077 Y7.110 Z-4.693 
N135 X-166.076 Y7.284 Z-4.506 A226.9324 B-13.9997 
N136 X-166.075 Y7.458 Z-4.319 A226.9445 B-13.9997 
N137 X-166.074 Y7.632 Z-4.132 A226.9566 B-13.9996 
N138 X-166.073 Y7.807 Z-3.945 A226.9687 B-13.9996 
N139 X-166.072 Y7.981 Z-3.758 A226.9808 B-13.9995 
N140 X-166.071 Y8.155 Z-3.571 A226.9929 B-13.9995 
N141 X-166.070 Y8.329 Z-3.385 A227.0050 B-13.9994 
N142 X-166.069 Y8.504 Z-3.198 A227.0171 B-13.9994 
N143 X-166.067 Y8.678 Z-3.011 A227.0292 B-13.9993 
N144 X-166.066 Y8.852 Z-2.824 A227.0413 B-13.9993 
N145 X-166.065 Y9.026 Z-2.637 A227.0534 B-13.9992 
N146 X-166.064 Y9.201 Z-2.450 A227.0655 B-13.9992 
N147 X-166.063 Y9.375 Z-2.263 A227.0776 B-13.9991 
N148 X-166.062 Y9.549 Z-2.077 A227.0897 B-13.9991 
N149 X-166.061 Y9.723 Z-1.890 A227.1018 B-13.9990 
N150 X-166.060 Y9.898 Z-1.703 A227.1139 B-13.9990 
N151 X-166.059 Y10.072 Z-1.516 A227.1260 B-13.9989 
N152 X-166.058 Y10.246 Z-1.329 A227.1381 B-13.9989 
N153 X-166.057 Y10.420 Z-1.142 A227.1501 B-13.9988 
N154 X-166.056 Y10.595 Z-0.955 A227.1622 B-13.9988 
N155 X-166.054 Y10.769 Z-0.769 A227.1743 B-13.9987 
N156 X-166.053 Y10.943 Z-0.582 A227.1864 B-13.9986 
N157 X-166.052 Y11.117 Z-0.395 A227.1985 B-13.9986 
N158 X-166.048 Y11.292 Z-0.208 A227.2107 B-13.9984 
N159 X-166.042 Y11.466 Z-0.021 A227.2229 B-13.9981 
N160 X-166.037 Y11.640 Z0.166 A227.2351 B-13.9978 
N161 X-166.031 Y11.814 Z0.352 A227.2473 B-13.9976 
N162 X-166.025 Y11.988 Z0.539 A227.2595 B-13.9973 
N163 X-166.019 Y12.163 Z0.726 A227.2717 B-13.9970 
N164 X-166.013 Y12.337 Z0.913 A227.2839 B-13.9967 
N165 X-166.007 Y12.511 Z1.100 A227.2961 B-13.9965 
N166 X-166.001 Y12.685 Z1.287 A227.3083 B-13.9962 
N167 X-165.995 Y12.860 Z1.473 A227.3205 B-13.9959 
N168 X-165.990 Y13.034 Z1.660 A227.3327 B-13.9956 
N169 X-165.984 Y13.208 Z1.847 A227.3449 B-13.9953 
N170 X-165.978 Y13.382 Z2.034 A227.3571 B-13.9950 
N171 X-165.972 Y13.556 Z2.221 A227.3693 B-13.9948 
N172 X-165.966 Y13.731 Z2.407 A227.3815 B-13.9945 
N173 X-165.960 Y13.905 Z2.594 A227.3936 B-13.9942 
N174 X-165.954 Y14.079 Z2.781 A227.4058 B-13.9939 
N175 X-165.948 Y14.253 Z2.968 A227.4180 B-13.9936 
N176 X-165.943 Y14.427 Z3.155 A227.4302 B-13.9933 
N177 X-165.937 Y14.602 Z3.342 A227.4424 B-13.9931 
N178 X-165.930 Y14.776 Z3.528 A227.4546 B-13.9928 
N179 X-165.920 Y14.950 Z3.715 A227.4668 B-13.9923 
N180 X-165.910 Y15.124 Z3.902 A227.4790 B-13.9918 
N181 X-165.900 Y15.298 Z4.088 A227.4912 B-13.9913 
N182 X-165.890 Y15.472 Z4.275 A227.5034 B-13.9909 
N183 X-165.880 Y15.646 Z4.462 A227.5156 B-13.9904 
N184 X-165.870 Y15.821 Z4.649 A227.5278 B-13.9899 
N185 X-165.860 Y15.995 Z4.835 A227.5400 B-13.9894 
N186 X-165.851 Y16.169 Z5.022 A227.5521 B-13.9890 
N187 X-165.841 Y16.343 Z5.209 A227.5643 B-13.9885 
N188 X-165.831 Y16.517 Z5.396 A227.5765 B-13.9880 
N189 X-165.821 Y16.691 Z5.582 A227.5887 B-13.9875 
N190 X-165.811 Y16.865 Z5.769 A227.6009 B-13.9871 
N191 X-165.801 Y17.039 Z5.956 A227.6131 B-13.9866 
N192 X-165.791 Y17.214 Z6.142 A227.6253 B-13.9861 
N193 X-165.781 Y17.388 Z6.329 A227.6375 B-13.9856 
N194 X-165.771 Y17.562 Z6.516 A227.6497 B-13.9851 
N195 X-165.761 Y17.736 Z6.703 A227.6619 B-13.9846 
N196 X-165.748 Y17.910 Z6.889 A227.6739 B-13.9840 
N197 X-165.734 Y18.084 Z7.076 A227.6859 B-13.9834 
N198 X-165.721 Y18.258 Z7.262 A227.6979 B-13.9828 
N199 X-165.707 Y18.432 Z7.449 A227.7100 B-13.9821 
N200 X-165.694 Y18.606 Z7.636 A227.7220 B-13.9815 
N201 X-165.680 Y18.780 Z7.822 A227.7340 B-13.9809 
N202 X-165.667 Y18.954 Z8.009 A227.7460 B-13.9802 
N203 X-165.653 Y19.128 Z8.195 A227.7580 B-13.9796 
N204 X-165.640 Y19.302 Z8.382 A227.7701 B-13.9790 
N205 X-165.626 Y19.476 Z8.569 A227.7821 B-13.9783 
N206 X-165.613 Y19.650 Z8.755 A227.7941 B-13.9777 
N207 X-165.599 Y19.824 Z8.942 A227.8061 B-13.9771 
N208 X-165.586 Y19.998 Z9.128 A227.8182 B-13.9764 
N209 X-165.572 Y20.172 Z9.315 A227.8302 B-13.9758 
N210 X-165.559 Y20.346 Z9.502 A227.8422 B-13.9752 
N211 X-165.540 Y20.584 Z9.757 
N212 X-165.012 Y27.395 Z17.061 
N213 G00 X-177.088 Y63.363 Z-15.505 
;RAPORT("TB123456","Slot Finishing:166 End")
;trailer : concat=None
; points cnt = 168
N215 MSG (" --- GROUPED OF SUBPROGRAM --- ")
N216 FGROUP()
N217 TRAFOOF
; PROGRAM NAME: B12345651
; ORDER       : B123456
; OPER. NAME  : Slot Finishing:167
; OPER. DESCR.: finishing root chamfer BETE SFSA
; OPER. TYPE  : slotMillFinish
; GEO. OPTION : 1
; MACHINE     : HSTM_500_SIM840D_Py
;             : HSTM500 - HAMUEL: 5-axis milling machine - SIM840D Traori PP_Script
; CONTROL     : SINUMERIK 840D
; created:   2023-06-06 12:07:45.335756
;-------DODATKOWE DANE-------------------
; PROGRAMISTA : Mariusz Malec
; PARTID      : 306T001953P1010_-
;  ap         : 5.0
;  ae         : 1.0
;  lean_angle : 0.0
;  rad_Offset : 2.0
;  fin_Offset : 1.0
;----------------------------------------
;RAPORT("TB123456","Slot Finishing:167")
N10 TRAFOOF
N11 D0
N12 G90 G94
N13 G0 G53 D0 Z550 B0
N14 STOPRE
M9 ; chlodziwo wyl
; --- Slot Finishing:167 - finishing root chamfer BETE SFSA ---
N16 ;ToolChange : concat=None ,current_tdmid=None, PP.tdmId=956976
N17 TRAFOOF
N18 G0 G53 D0 Z550 B0
N19 STOPRE
N20 MSG(" TLID=956976 D=6.0 R=0.0 Ang=31.0 Len=124.0 ")
N21 S6366 M03
N22 STOPRE
N23 CYCLE832(0.01,1,1)
N24 G0 G53 A226.9203 B-13.9998
N25 TRAORI
N26 G54 D2
N27 D2 
N28 TRANS  X=R20 B=R38
STOPRE
E_ZDARZ=300006
;ACS_FINISH_ROOT_BETA=7756976
STOPRE
N29 ; DELTA A > 40.1
N30 TRAFOOF
N31 D2
N32 STOPRE
N33 G00 G54 Z262.000
N34 G01 A226.9203 F10000
N35 TRAORI
N36 G54 D2
N37 STOPRE
N38 TRANS  X=R20 B=R38
N39 G00 X-178.363 Y34.804 Z-46.130 A226.9203 B-13.9998 
N40 M342 ; chlodziwo woda
N41 X-166.267 Y-0.632 Z-12.994 
N42 G01 X-166.224 Y6.188 Z-5.681 F763 
N43 X-166.223 Y6.359 Z-5.498 
N44 X-166.222 Y6.529 Z-5.315 
N45 X-166.221 Y6.700 Z-5.132 
N46 X-166.220 Y6.870 Z-4.949 
N47 X-166.219 Y7.109 Z-4.693 
N48 X-166.218 Y7.283 Z-4.506 A226.9324 B-13.9997 
N49 X-166.216 Y7.458 Z-4.319 A226.9445 B-13.9997 
N50 X-166.215 Y7.632 Z-4.132 A226.9566 B-13.9996 
N51 X-166.214 Y7.806 Z-3.945 A226.9687 B-13.9996 
N52 X-166.213 Y7.981 Z-3.758 A226.9808 B-13.9995 
N53 X-166.212 Y8.155 Z-3.572 A226.9929 B-13.9995 
N54 X-166.211 Y8.329 Z-3.385 A227.0050 B-13.9994 
N55 X-166.210 Y8.504 Z-3.198 A227.0171 B-13.9994 
N56 X-166.209 Y8.678 Z-3.011 A227.0292 B-13.9993 
N57 X-166.208 Y8.852 Z-2.824 A227.0413 B-13.9993 
N58 X-166.207 Y9.027 Z-2.637 A227.0534 B-13.9992 
N59 X-166.206 Y9.201 Z-2.450 A227.0655 B-13.9992 
N60 X-166.205 Y9.375 Z-2.263 A227.0776 B-13.9991 
N61 X-166.203 Y9.550 Z-2.076 A227.0897 B-13.9991 
N62 X-166.202 Y9.724 Z-1.889 A227.1018 B-13.9990 
N63 X-166.201 Y9.898 Z-1.702 A227.1139 B-13.9990 
N64 X-166.200 Y10.073 Z-1.515 A227.1260 B-13.9989 
N65 X-166.199 Y10.247 Z-1.328 A227.1381 B-13.9989 
N66 X-166.198 Y10.421 Z-1.141 A227.1501 B-13.9988 
N67 X-166.197 Y10.596 Z-0.954 A227.1622 B-13.9988 
N68 X-166.196 Y10.770 Z-0.767 A227.1743 B-13.9987 
N69 X-166.195 Y10.944 Z-0.580 A227.1864 B-13.9986 
N70 X-166.194 Y11.119 Z-0.393 A227.1985 B-13.9986 
N71 X-166.190 Y11.293 Z-0.206 A227.2107 B-13.9984 
N72 X-166.184 Y11.467 Z-0.020 A227.2229 B-13.9981 
N73 X-166.178 Y11.642 Z0.167 A227.2351 B-13.9978 
N74 X-166.172 Y11.816 Z0.354 A227.2473 B-13.9976 
N75 X-166.166 Y11.990 Z0.541 A227.2595 B-13.9973 
N76 X-166.160 Y12.165 Z0.728 A227.2717 B-13.9970 
N77 X-166.154 Y12.339 Z0.915 A227.2839 B-13.9967 
N78 X-166.149 Y12.513 Z1.102 A227.2961 B-13.9965 
N79 X-166.143 Y12.687 Z1.289 A227.3083 B-13.9962 
N80 X-166.137 Y12.862 Z1.476 A227.3205 B-13.9959 
N81 X-166.131 Y13.036 Z1.663 A227.3327 B-13.9956 
N82 X-166.125 Y13.210 Z1.849 A227.3449 B-13.9953 
N83 X-166.119 Y13.385 Z2.036 A227.3571 B-13.9950 
N84 X-166.113 Y13.559 Z2.223 A227.3693 B-13.9948 
N85 X-166.107 Y13.733 Z2.410 A227.3815 B-13.9945 
N86 X-166.102 Y13.907 Z2.597 A227.3936 B-13.9942 
N87 X-166.096 Y14.082 Z2.784 A227.4058 B-13.9939 
N88 X-166.090 Y14.256 Z2.971 A227.4180 B-13.9936 
N89 X-166.084 Y14.430 Z3.158 A227.4302 B-13.9933 
N90 X-166.078 Y14.605 Z3.345 A227.4424 B-13.9931 
N91 X-166.072 Y14.779 Z3.532 A227.4546 B-13.9928 
N92 X-166.062 Y14.953 Z3.718 A227.4668 B-13.9923 
N93 X-166.052 Y15.127 Z3.905 A227.4790 B-13.9918 
N94 X-166.042 Y15.301 Z4.092 A227.4912 B-13.9913 
N95 X-166.032 Y15.476 Z4.279 A227.5034 B-13.9909 
N96 X-166.022 Y15.650 Z4.466 A227.5156 B-13.9904 
N97 X-166.012 Y15.824 Z4.652 A227.5278 B-13.9899 
N98 X-166.002 Y15.998 Z4.839 A227.5400 B-13.9894 
N99 X-165.992 Y16.173 Z5.026 A227.5521 B-13.9890 
N100 X-165.982 Y16.347 Z5.213 A227.5643 B-13.9885 
N101 X-165.972 Y16.521 Z5.400 A227.5765 B-13.9880 
N102 X-165.962 Y16.695 Z5.587 A227.5887 B-13.9875 
N103 X-165.952 Y16.869 Z5.773 A227.6009 B-13.9871 
N104 X-165.942 Y17.044 Z5.960 A227.6131 B-13.9866 
N105 X-165.932 Y17.218 Z6.147 A227.6253 B-13.9861 
N106 X-165.922 Y17.392 Z6.334 A227.6375 B-13.9856 
N107 X-165.912 Y17.566 Z6.521 A227.6497 B-13.9851 
N108 X-165.902 Y17.740 Z6.707 A227.6619 B-13.9846 
N109 X-165.889 Y17.914 Z6.894 A227.6739 B-13.9840 
N110 X-165.875 Y18.089 Z7.081 A227.6859 B-13.9834 
N111 X-165.862 Y18.263 Z7.267 A227.6979 B-13.9828 
N112 X-165.848 Y18.437 Z7.454 A227.7100 B-13.9821 
N113 X-165.835 Y18.611 Z7.641 A227.7220 B-13.9815 
N114 X-165.821 Y18.785 Z7.828 A227.7340 B-13.9809 
N115 X-165.808 Y18.959 Z8.014 A227.7460 B-13.9802 
N116 X-165.794 Y19.133 Z8.201 A227.7580 B-13.9796 
N117 X-165.781 Y19.307 Z8.388 A227.7701 B-13.9790 
N118 X-165.767 Y19.481 Z8.574 A227.7821 B-13.9783 
N119 X-165.754 Y19.655 Z8.761 A227.7941 B-13.9777 
N120 X-165.740 Y19.829 Z8.948 A227.8061 B-13.9771 
N121 X-165.727 Y20.004 Z9.134 A227.8182 B-13.9764 
N122 X-165.713 Y20.178 Z9.321 A227.8302 B-13.9758 
N123 X-165.700 Y20.352 Z9.508 A227.8422 B-13.9752 
N124 X-165.681 Y20.590 Z9.763 
N125 X-165.154 Y27.401 Z17.067 
N126 G00 X-177.229 Y63.368 Z-15.499 
;RAPORT("TB123456","Slot Finishing:167 End")
;trailer : concat=None
; points cnt = 84
N128 MSG (" --- GROUPED OF SUBPROGRAM --- ")
N129 FGROUP()
N130 TRAFOOF
; PROGRAM NAME: B12345651
; ORDER       : B123456
; OPER. NAME  : Slot Finishing:168
; OPER. DESCR.: finishing root chamfer FSFSA
; OPER. TYPE  : slotMillFinish
; GEO. OPTION : 3
; MACHINE     : HSTM_500_SIM840D_Py
;             : HSTM500 - HAMUEL: 5-axis milling machine - SIM840D Traori PP_Script
; CONTROL     : SINUMERIK 840D
; created:   2023-06-06 12:07:52.949182
;-------DODATKOWE DANE-------------------
; PROGRAMISTA : Mariusz Malec
; PARTID      : 306T001953P1010_-
;  ap         : 100.0
;  ae         : 1.502828854314
;  lean_angle : 0.0
;  rad_Offset : 2.0
;  fin_Offset : -0.5
;----------------------------------------
;RAPORT("TB123456","Slot Finishing:168")
N10 TRAFOOF
N11 D0
N12 G90 G94
N13 G0 G53 D0 Z550 B0
N14 STOPRE
M9 ; chlodziwo wyl
; --- Slot Finishing:168 - finishing root chamfer FSFSA ---
N16 ;ToolChange : concat=None ,current_tdmid=None, PP.tdmId=956976
N17 TRAFOOF
N18 G0 G53 D0 Z550 B0
N19 STOPRE
N20 MSG(" TLID=956976 D=6.0 R=0.0 Ang=31.0 Len=124.0 ")
N21 S6366 M03
N22 STOPRE
N23 CYCLE832(0.01,1,1)
N24 G0 G53 A226.4861 B-13.9908
N25 TRAORI
N26 G54 D2
N27 D2 
N28 TRANS  X=R21
STOPRE
E_ZDARZ=300008
;ACS_FINISH_ROOT_FRONT_CHAMFER=7756976
STOPRE
N29 ; DELTA A > 40.1
N30 TRAFOOF
N31 D2
N32 STOPRE
N33 G00 G54 Z262.000
N34 G01 A226.4861 F10000
N35 TRAORI
N36 G54 D2
N37 STOPRE
N38 TRANS  X=R21
N39 G00 X-147.663 Y31.069 Z-54.059 A226.4861 B-13.9908 
N40 M342 ; chlodziwo woda
N41 X-135.575 Y-4.116 Z-20.653 
N42 G01 X-135.930 Y2.700 Z-13.344 F763 
N43 X-135.938 Y2.870 Z-13.162 
N44 X-135.947 Y3.040 Z-12.979 
N45 X-135.956 Y3.211 Z-12.796 
N46 X-135.965 Y3.381 Z-12.613 
N47 X-135.977 Y3.620 Z-12.358 
N48 X-135.986 Y3.793 Z-12.172 A226.4996 B-13.9912 
N49 X-135.995 Y3.967 Z-11.986 A226.5131 B-13.9917 
N50 X-136.004 Y4.140 Z-11.800 A226.5265 B-13.9921 
N51 X-136.012 Y4.313 Z-11.614 A226.5400 B-13.9926 
N52 X-136.020 Y4.487 Z-11.428 A226.5535 B-13.9930 
N53 X-136.028 Y4.660 Z-11.242 A226.5670 B-13.9934 
N54 X-136.036 Y4.834 Z-11.056 A226.5804 B-13.9938 
N55 X-136.043 Y5.007 Z-10.870 A226.5939 B-13.9942 
N56 X-136.050 Y5.181 Z-10.684 A226.6074 B-13.9946 
N57 X-136.057 Y5.354 Z-10.498 A226.6209 B-13.9950 
N58 X-136.064 Y5.528 Z-10.312 A226.6343 B-13.9953 
N59 X-136.070 Y5.701 Z-10.126 A226.6478 B-13.9957 
N60 X-136.076 Y5.874 Z-9.940 A226.6613 B-13.9960 
N61 X-136.082 Y6.048 Z-9.754 A226.6748 B-13.9963 
N62 X-136.088 Y6.221 Z-9.568 A226.6882 B-13.9966 
N63 X-136.093 Y6.395 Z-9.382 A226.7017 B-13.9969 
N64 X-136.098 Y6.568 Z-9.196 A226.7152 B-13.9972 
N65 X-136.103 Y6.742 Z-9.010 A226.7287 B-13.9974 
N66 X-136.108 Y6.915 Z-8.823 A226.7422 B-13.9977 
N67 X-136.113 Y7.089 Z-8.637 A226.7556 B-13.9979 
N68 X-136.117 Y7.262 Z-8.451 A226.7691 B-13.9981 
N69 X-136.121 Y7.436 Z-8.265 A226.7826 B-13.9983 
N70 X-136.125 Y7.609 Z-8.079 A226.7961 B-13.9985 
N71 X-136.128 Y7.783 Z-7.893 A226.8096 B-13.9987 
N72 X-136.131 Y7.956 Z-7.707 A226.8230 B-13.9989 
N73 X-136.135 Y8.130 Z-7.521 A226.8365 B-13.9991 
N74 X-136.137 Y8.303 Z-7.335 A226.8500 B-13.9992 
N75 X-136.140 Y8.477 Z-7.149 A226.8635 B-13.9993 
N76 X-136.142 Y8.650 Z-6.963 A226.8770 B-13.9995 
N77 X-136.144 Y8.824 Z-6.777 A226.8904 B-13.9996 
N78 X-136.146 Y8.997 Z-6.591 A226.9039 B-13.9997 
N79 X-136.148 Y9.171 Z-6.405 A226.9174 B-13.9998 
N80 X-136.149 Y9.344 Z-6.219 A226.9309 B-13.9998 
N81 X-136.150 Y9.518 Z-6.033 A226.9444 B-13.9999 
N82 X-136.151 Y9.691 Z-5.847 A226.9579 B-13.9999 
N83 X-136.152 Y9.865 Z-5.660 A226.9713 B-14.0000 
N84 X-136.152 Y10.038 Z-5.474 A226.9848 B-14.0000 
N85 X-136.152 Y10.212 Z-5.288 A226.9983 B-14.0000 
N86 X-136.152 Y10.385 Z-5.102 A227.0118 B-14.0000 
N87 X-136.152 Y10.559 Z-4.916 A227.0253 B-14.0000 
N88 X-136.151 Y10.732 Z-4.730 A227.0387 B-13.9999 
N89 X-136.150 Y10.906 Z-4.544 A227.0522 B-13.9999 
N90 X-136.149 Y11.079 Z-4.358 A227.0657 B-13.9998 
N91 X-136.148 Y11.253 Z-4.172 A227.0792 B-13.9998 
N92 X-136.147 Y11.426 Z-3.986 A227.0927 B-13.9997 
N93 X-136.145 Y11.600 Z-3.800 A227.1062 B-13.9996 
N94 X-136.143 Y11.773 Z-3.614 A227.1196 B-13.9995 
N95 X-136.141 Y11.947 Z-3.428 A227.1331 B-13.9994 
N96 X-136.138 Y12.120 Z-3.242 A227.1466 B-13.9992 
N97 X-136.135 Y12.294 Z-3.055 A227.1601 B-13.9991 
N98 X-136.132 Y12.467 Z-2.869 A227.1736 B-13.9989 
N99 X-136.129 Y12.641 Z-2.683 A227.1870 B-13.9988 
N100 X-136.126 Y12.814 Z-2.497 A227.2005 B-13.9986 
N101 X-136.122 Y12.988 Z-2.311 A227.2140 B-13.9984 
N102 X-136.118 Y13.161 Z-2.125 A227.2275 B-13.9982 
N103 X-136.114 Y13.335 Z-1.939 A227.2410 B-13.9980 
N104 X-136.110 Y13.508 Z-1.753 A227.2544 B-13.9977 
N105 X-136.105 Y13.682 Z-1.567 A227.2679 B-13.9975 
N106 X-136.100 Y13.855 Z-1.381 A227.2814 B-13.9972 
N107 X-136.095 Y14.029 Z-1.195 A227.2949 B-13.9970 
N108 X-136.089 Y14.202 Z-1.009 A227.3084 B-13.9967 
N109 X-136.084 Y14.376 Z-0.823 A227.3218 B-13.9964 
N110 X-136.078 Y14.549 Z-0.637 A227.3353 B-13.9961 
N111 X-136.072 Y14.723 Z-0.451 A227.3488 B-13.9957 
N112 X-136.066 Y14.896 Z-0.265 A227.3623 B-13.9954 
N113 X-136.059 Y15.070 Z-0.079 A227.3757 B-13.9951 
N114 X-136.052 Y15.243 Z0.107 A227.3892 B-13.9947 
N115 X-136.045 Y15.417 Z0.293 A227.4027 B-13.9943 
N116 X-136.038 Y15.590 Z0.479 A227.4162 B-13.9939 
N117 X-136.030 Y15.763 Z0.665 A227.4296 B-13.9935 
N118 X-136.023 Y15.937 Z0.851 A227.4431 B-13.9931 
N119 X-136.015 Y16.110 Z1.037 A227.4566 B-13.9927 
N120 X-136.006 Y16.284 Z1.223 A227.4701 B-13.9923 
N121 X-135.998 Y16.457 Z1.409 A227.4835 B-13.9918 
N122 X-135.989 Y16.631 Z1.595 A227.4970 B-13.9914 
N123 X-135.980 Y16.804 Z1.781 A227.5105 B-13.9909 
N124 X-135.971 Y16.977 Z1.967 A227.5240 B-13.9904 
N125 X-135.961 Y17.151 Z2.153 A227.5374 B-13.9899 
N126 X-135.952 Y17.324 Z2.339 A227.5509 B-13.9894 
N127 X-135.942 Y17.498 Z2.525 A227.5644 B-13.9888 
N128 X-135.932 Y17.671 Z2.711 A227.5778 B-13.9883 
N129 X-135.921 Y17.844 Z2.897 A227.5913 B-13.9878 
N130 X-135.911 Y18.018 Z3.082 A227.6048 B-13.9872 
N131 X-135.900 Y18.191 Z3.268 A227.6183 B-13.9866 
N132 X-135.888 Y18.364 Z3.454 A227.6317 B-13.9860 
N133 X-135.877 Y18.538 Z3.640 A227.6452 B-13.9854 
N134 X-135.865 Y18.711 Z3.826 A227.6587 B-13.9848 
N135 X-135.854 Y18.884 Z4.012 A227.6721 B-13.9842 
N136 X-135.842 Y19.058 Z4.198 A227.6856 B-13.9835 
N137 X-135.829 Y19.231 Z4.384 A227.6990 B-13.9829 
N138 X-135.817 Y19.404 Z4.569 A227.7125 B-13.9822 
N139 X-135.804 Y19.578 Z4.755 A227.7260 B-13.9815 
N140 X-135.791 Y19.751 Z4.941 A227.7394 B-13.9808 
N141 X-135.777 Y19.924 Z5.127 A227.7529 B-13.9801 
N142 X-135.764 Y20.097 Z5.313 A227.7664 B-13.9794 
N143 X-135.750 Y20.271 Z5.498 A227.7798 B-13.9787 
N144 X-135.736 Y20.444 Z5.684 A227.7933 B-13.9780 
N145 X-135.722 Y20.617 Z5.870 A227.8067 B-13.9772 
N146 X-135.707 Y20.790 Z6.056 A227.8202 B-13.9764 
N147 X-135.693 Y20.964 Z6.242 A227.8336 B-13.9757 
N148 X-135.678 Y21.137 Z6.427 A227.8471 B-13.9749 
N149 X-135.662 Y21.310 Z6.613 A227.8606 B-13.9741 
N150 X-135.647 Y21.483 Z6.799 A227.8740 B-13.9732 
N151 X-135.631 Y21.656 Z6.984 A227.8875 B-13.9724 
N152 X-135.615 Y21.830 Z7.170 A227.9009 B-13.9716 
N153 X-135.599 Y22.003 Z7.356 A227.9144 B-13.9707 
N154 X-135.583 Y22.176 Z7.542 A227.9278 B-13.9698 
N155 X-135.566 Y22.349 Z7.727 A227.9413 B-13.9690 
N156 X-135.549 Y22.522 Z7.913 A227.9547 B-13.9681 
N157 X-135.532 Y22.695 Z8.099 A227.9682 B-13.9671 
N158 X-135.515 Y22.868 Z8.284 A227.9816 B-13.9662 
N159 X-135.497 Y23.042 Z8.470 A227.9951 B-13.9653 
N160 X-135.479 Y23.215 Z8.655 A228.0085 B-13.9644 
N161 X-135.461 Y23.388 Z8.841 A228.0219 B-13.9634 
N162 X-135.443 Y23.561 Z9.027 A228.0354 B-13.9624 
N163 X-135.424 Y23.734 Z9.212 A228.0488 B-13.9614 
N164 X-135.405 Y23.907 Z9.398 A228.0623 B-13.9604 
N165 X-135.386 Y24.080 Z9.583 A228.0757 B-13.9594 
N166 X-135.367 Y24.253 Z9.769 A228.0891 B-13.9584 
N167 X-135.348 Y24.426 Z9.954 A228.1026 B-13.9574 
N168 X-135.328 Y24.599 Z10.140 A228.1160 B-13.9563 
N169 X-135.308 Y24.772 Z10.325 A228.1295 B-13.9553 
N170 X-135.287 Y24.945 Z10.511 A228.1429 B-13.9542 
N171 X-135.267 Y25.118 Z10.696 A228.1563 B-13.9531 
N172 X-135.246 Y25.291 Z10.882 A228.1697 B-13.9520 
N173 X-135.225 Y25.464 Z11.067 A228.1832 B-13.9509 
N174 X-135.204 Y25.637 Z11.253 A228.1966 B-13.9498 
N175 X-135.183 Y25.810 Z11.438 A228.2100 B-13.9486 
N176 X-135.161 Y25.982 Z11.623 A228.2235 B-13.9475 
N177 X-135.139 Y26.155 Z11.809 A228.2369 B-13.9463 
N178 X-135.117 Y26.328 Z11.994 A228.2503 B-13.9452 
N179 X-135.094 Y26.501 Z12.179 A228.2637 B-13.9440 
N180 X-135.072 Y26.674 Z12.365 A228.2772 B-13.9428 
N181 X-135.049 Y26.847 Z12.550 A228.2906 B-13.9416 
N182 X-135.026 Y27.019 Z12.735 A228.3040 B-13.9403 
N183 X-135.002 Y27.192 Z12.921 A228.3174 B-13.9391 
N184 X-134.979 Y27.365 Z13.106 A228.3308 B-13.9379 
N185 X-134.955 Y27.538 Z13.291 A228.3442 B-13.9366 
N186 X-134.931 Y27.710 Z13.476 A228.3577 B-13.9353 
N187 X-134.906 Y27.883 Z13.662 A228.3711 B-13.9340 
N188 X-134.882 Y28.056 Z13.847 A228.3845 B-13.9327 
N189 X-134.857 Y28.229 Z14.032 A228.3979 B-13.9314 
N190 X-134.832 Y28.401 Z14.217 A228.4113 B-13.9301 
N191 X-134.807 Y28.574 Z14.402 A228.4247 B-13.9288 
N192 X-134.781 Y28.747 Z14.587 A228.4381 B-13.9274 
N193 X-134.756 Y28.919 Z14.773 A228.4515 B-13.9260 
N194 X-134.720 Y29.157 Z15.027 
N195 X-133.711 Y35.942 Z22.303 
N196 G00 X-139.728 Y54.102 Z6.209 
N197 X-141.619 Y12.285 Z-36.245 A226.4861 B-13.9908 
N198 X-135.575 Y-5.307 Z-19.542 
N199 G01 X-135.930 Y1.508 Z-12.233 F763 
N200 X-135.938 Y1.679 Z-12.051 
N201 X-135.947 Y1.849 Z-11.868 
N202 X-135.956 Y2.019 Z-11.685 
N203 X-135.965 Y2.190 Z-11.502 
N204 X-135.977 Y2.428 Z-11.247 
N205 X-135.986 Y2.602 Z-11.061 A226.4996 B-13.9912 
N206 X-135.995 Y2.775 Z-10.875 A226.5131 B-13.9917 
N207 X-136.004 Y2.949 Z-10.689 A226.5265 B-13.9921 
N208 X-136.012 Y3.122 Z-10.503 A226.5400 B-13.9926 
N209 X-136.020 Y3.295 Z-10.317 A226.5535 B-13.9930 
N210 X-136.028 Y3.469 Z-10.131 A226.5670 B-13.9934 
N211 X-136.036 Y3.642 Z-9.945 A226.5804 B-13.9938 
N212 X-136.043 Y3.816 Z-9.759 A226.5939 B-13.9942 
N213 X-136.050 Y3.989 Z-9.573 A226.6074 B-13.9946 
N214 X-136.057 Y4.163 Z-9.387 A226.6209 B-13.9950 
N215 X-136.064 Y4.336 Z-9.201 A226.6343 B-13.9953 
N216 X-136.070 Y4.510 Z-9.015 A226.6478 B-13.9957 
N217 X-136.076 Y4.683 Z-8.829 A226.6613 B-13.9960 
N218 X-136.082 Y4.857 Z-8.643 A226.6748 B-13.9963 
N219 X-136.088 Y5.030 Z-8.457 A226.6882 B-13.9966 
N220 X-136.093 Y5.203 Z-8.271 A226.7017 B-13.9969 
N221 X-136.098 Y5.377 Z-8.085 A226.7152 B-13.9972 
N222 X-136.103 Y5.550 Z-7.899 A226.7287 B-13.9974 
N223 X-136.108 Y5.724 Z-7.713 A226.7422 B-13.9977 
N224 X-136.113 Y5.897 Z-7.526 A226.7556 B-13.9979 
N225 X-136.117 Y6.071 Z-7.340 A226.7691 B-13.9981 
N226 X-136.121 Y6.244 Z-7.154 A226.7826 B-13.9983 
N227 X-136.125 Y6.418 Z-6.968 A226.7961 B-13.9985 
N228 X-136.128 Y6.591 Z-6.782 A226.8096 B-13.9987 
N229 X-136.131 Y6.765 Z-6.596 A226.8230 B-13.9989 
N230 X-136.135 Y6.938 Z-6.410 A226.8365 B-13.9991 
N231 X-136.137 Y7.112 Z-6.224 A226.8500 B-13.9992 
N232 X-136.140 Y7.285 Z-6.038 A226.8635 B-13.9993 
N233 X-136.142 Y7.459 Z-5.852 A226.8770 B-13.9995 
N234 X-136.144 Y7.632 Z-5.666 A226.8904 B-13.9996 
N235 X-136.146 Y7.806 Z-5.480 A226.9039 B-13.9997 
N236 X-136.148 Y7.979 Z-5.294 A226.9174 B-13.9998 
N237 X-136.149 Y8.153 Z-5.108 A226.9309 B-13.9998 
N238 X-136.150 Y8.326 Z-4.922 A226.9444 B-13.9999 
N239 X-136.151 Y8.500 Z-4.736 A226.9579 B-13.9999 
N240 X-136.152 Y8.673 Z-4.549 A226.9713 B-14.0000 
N241 X-136.152 Y8.847 Z-4.363 A226.9848 B-14.0000 
N242 X-136.152 Y9.020 Z-4.177 A226.9983 B-14.0000 
N243 X-136.152 Y9.194 Z-3.991 A227.0118 B-14.0000 
N244 X-136.152 Y9.367 Z-3.805 A227.0253 B-14.0000 
N245 X-136.151 Y9.541 Z-3.619 A227.0387 B-13.9999 
N246 X-136.150 Y9.715 Z-3.433 A227.0522 B-13.9999 
N247 X-136.149 Y9.888 Z-3.247 A227.0657 B-13.9998 
N248 X-136.148 Y10.062 Z-3.061 A227.0792 B-13.9998 
N249 X-136.147 Y10.235 Z-2.875 A227.0927 B-13.9997 
N250 X-136.145 Y10.409 Z-2.689 A227.1062 B-13.9996 
N251 X-136.143 Y10.582 Z-2.503 A227.1196 B-13.9995 
N252 X-136.141 Y10.756 Z-2.317 A227.1331 B-13.9994 
N253 X-136.138 Y10.929 Z-2.131 A227.1466 B-13.9992 
N254 X-136.135 Y11.103 Z-1.945 A227.1601 B-13.9991 
N255 X-136.132 Y11.276 Z-1.758 A227.1736 B-13.9989 
N256 X-136.129 Y11.450 Z-1.572 A227.1870 B-13.9988 
N257 X-136.126 Y11.623 Z-1.386 A227.2005 B-13.9986 
N258 X-136.122 Y11.797 Z-1.200 A227.2140 B-13.9984 
N259 X-136.118 Y11.970 Z-1.014 A227.2275 B-13.9982 
N260 X-136.114 Y12.144 Z-0.828 A227.2410 B-13.9980 
N261 X-136.110 Y12.317 Z-0.642 A227.2544 B-13.9977 
N262 X-136.105 Y12.491 Z-0.456 A227.2679 B-13.9975 
N263 X-136.100 Y12.664 Z-0.270 A227.2814 B-13.9972 
N264 X-136.095 Y12.838 Z-0.084 A227.2949 B-13.9970 
N265 X-136.089 Y13.011 Z0.102 A227.3084 B-13.9967 
N266 X-136.084 Y13.184 Z0.288 A227.3218 B-13.9964 
N267 X-136.078 Y13.358 Z0.474 A227.3353 B-13.9961 
N268 X-136.072 Y13.531 Z0.660 A227.3488 B-13.9957 
N269 X-136.066 Y13.705 Z0.846 A227.3623 B-13.9954 
N270 X-136.059 Y13.878 Z1.032 A227.3757 B-13.9951 
N271 X-136.052 Y14.052 Z1.218 A227.3892 B-13.9947 
N272 X-136.045 Y14.225 Z1.404 A227.4027 B-13.9943 
N273 X-136.038 Y14.399 Z1.590 A227.4162 B-13.9939 
N274 X-136.030 Y14.572 Z1.776 A227.4296 B-13.9935 
N275 X-136.023 Y14.746 Z1.962 A227.4431 B-13.9931 
N276 X-136.015 Y14.919 Z2.148 A227.4566 B-13.9927 
N277 X-136.006 Y15.092 Z2.334 A227.4701 B-13.9923 
N278 X-135.998 Y15.266 Z2.520 A227.4835 B-13.9918 
N279 X-135.989 Y15.439 Z2.706 A227.4970 B-13.9914 
N280 X-135.980 Y15.613 Z2.892 A227.5105 B-13.9909 
N281 X-135.971 Y15.786 Z3.078 A227.5240 B-13.9904 
N282 X-135.961 Y15.959 Z3.264 A227.5374 B-13.9899 
N283 X-135.952 Y16.133 Z3.450 A227.5509 B-13.9894 
N284 X-135.942 Y16.306 Z3.636 A227.5644 B-13.9888 
N285 X-135.932 Y16.480 Z3.822 A227.5778 B-13.9883 
N286 X-135.921 Y16.653 Z4.008 A227.5913 B-13.9878 
N287 X-135.911 Y16.826 Z4.193 A227.6048 B-13.9872 
N288 X-135.900 Y17.000 Z4.379 A227.6183 B-13.9866 
N289 X-135.888 Y17.173 Z4.565 A227.6317 B-13.9860 
N290 X-135.877 Y17.346 Z4.751 A227.6452 B-13.9854 
N291 X-135.865 Y17.520 Z4.937 A227.6587 B-13.9848 
N292 X-135.854 Y17.693 Z5.123 A227.6721 B-13.9842 
N293 X-135.842 Y17.866 Z5.309 A227.6856 B-13.9835 
N294 X-135.829 Y18.040 Z5.495 A227.6990 B-13.9829 
N295 X-135.817 Y18.213 Z5.680 A227.7125 B-13.9822 
N296 X-135.804 Y18.386 Z5.866 A227.7260 B-13.9815 
N297 X-135.791 Y18.560 Z6.052 A227.7394 B-13.9808 
N298 X-135.777 Y18.733 Z6.238 A227.7529 B-13.9801 
N299 X-135.764 Y18.906 Z6.424 A227.7664 B-13.9794 
N300 X-135.750 Y19.079 Z6.609 A227.7798 B-13.9787 
N301 X-135.736 Y19.253 Z6.795 A227.7933 B-13.9780 
N302 X-135.722 Y19.426 Z6.981 A227.8067 B-13.9772 
N303 X-135.707 Y19.599 Z7.167 A227.8202 B-13.9764 
N304 X-135.693 Y19.772 Z7.353 A227.8336 B-13.9757 
N305 X-135.678 Y19.946 Z7.538 A227.8471 B-13.9749 
N306 X-135.662 Y20.119 Z7.724 A227.8606 B-13.9741 
N307 X-135.647 Y20.292 Z7.910 A227.8740 B-13.9732 
N308 X-135.631 Y20.465 Z8.095 A227.8875 B-13.9724 
N309 X-135.615 Y20.638 Z8.281 A227.9009 B-13.9716 
N310 X-135.599 Y20.811 Z8.467 A227.9144 B-13.9707 
N311 X-135.583 Y20.985 Z8.653 A227.9278 B-13.9698 
N312 X-135.566 Y21.158 Z8.838 A227.9413 B-13.9690 
N313 X-135.549 Y21.331 Z9.024 A227.9547 B-13.9681 
N314 X-135.532 Y21.504 Z9.210 A227.9682 B-13.9671 
N315 X-135.515 Y21.677 Z9.395 A227.9816 B-13.9662 
N316 X-135.497 Y21.850 Z9.581 A227.9951 B-13.9653 
N317 X-135.479 Y22.023 Z9.766 A228.0085 B-13.9644 
N318 X-135.461 Y22.196 Z9.952 A228.0219 B-13.9634 
N319 X-135.443 Y22.369 Z10.138 A228.0354 B-13.9624 
N320 X-135.424 Y22.543 Z10.323 A228.0488 B-13.9614 
N321 X-135.405 Y22.716 Z10.509 A228.0623 B-13.9604 
N322 X-135.386 Y22.889 Z10.694 A228.0757 B-13.9594 
N323 X-135.367 Y23.062 Z10.880 A228.0891 B-13.9584 
N324 X-135.348 Y23.235 Z11.065 A228.1026 B-13.9574 
N325 X-135.328 Y23.408 Z11.251 A228.1160 B-13.9563 
N326 X-135.308 Y23.581 Z11.436 A228.1295 B-13.9553 
N327 X-135.287 Y23.754 Z11.622 A228.1429 B-13.9542 
N328 X-135.267 Y23.926 Z11.807 A228.1563 B-13.9531 
N329 X-135.246 Y24.099 Z11.993 A228.1697 B-13.9520 
N330 X-135.225 Y24.272 Z12.178 A228.1832 B-13.9509 
N331 X-135.204 Y24.445 Z12.364 A228.1966 B-13.9498 
N332 X-135.183 Y24.618 Z12.549 A228.2100 B-13.9486 
N333 X-135.161 Y24.791 Z12.734 A228.2235 B-13.9475 
N334 X-135.139 Y24.964 Z12.920 A228.2369 B-13.9463 
N335 X-135.117 Y25.137 Z13.105 A228.2503 B-13.9452 
N336 X-135.094 Y25.310 Z13.290 A228.2637 B-13.9440 
N337 X-135.072 Y25.482 Z13.476 A228.2772 B-13.9428 
N338 X-135.049 Y25.655 Z13.661 A228.2906 B-13.9416 
N339 X-135.026 Y25.828 Z13.846 A228.3040 B-13.9403 
N340 X-135.002 Y26.001 Z14.032 A228.3174 B-13.9391 
N341 X-134.979 Y26.174 Z14.217 A228.3308 B-13.9379 
N342 X-134.955 Y26.346 Z14.402 A228.3442 B-13.9366 
N343 X-134.931 Y26.519 Z14.587 A228.3577 B-13.9353 
N344 X-134.906 Y26.692 Z14.773 A228.3711 B-13.9340 
N345 X-134.882 Y26.865 Z14.958 A228.3845 B-13.9327 
N346 X-134.857 Y27.037 Z15.143 A228.3979 B-13.9314 
N347 X-134.832 Y27.210 Z15.328 A228.4113 B-13.9301 
N348 X-134.807 Y27.383 Z15.513 A228.4247 B-13.9288 
N349 X-134.781 Y27.555 Z15.698 A228.4381 B-13.9274 
N350 X-134.756 Y27.728 Z15.884 A228.4515 B-13.9260 
N351 X-134.720 Y27.965 Z16.138 
N352 X-133.711 Y34.751 Z23.414 
N353 G00 X-139.728 Y52.911 Z7.320 
N354 X-141.619 Y11.094 Z-35.134 A226.4861 B-13.9908 
N355 X-135.575 Y-6.499 Z-18.431 
N356 G01 X-135.930 Y0.317 Z-11.122 F763 
N357 X-135.938 Y0.487 Z-10.940 
N358 X-135.947 Y0.658 Z-10.757 
N359 X-135.956 Y0.828 Z-10.574 
N360 X-135.965 Y0.998 Z-10.391 
N361 X-135.977 Y1.237 Z-10.136 
N362 X-135.986 Y1.410 Z-9.950 A226.4996 B-13.9912 
N363 X-135.995 Y1.584 Z-9.764 A226.5131 B-13.9917 
N364 X-136.004 Y1.757 Z-9.578 A226.5265 B-13.9921 
N365 X-136.012 Y1.931 Z-9.392 A226.5400 B-13.9926 
N366 X-136.020 Y2.104 Z-9.206 A226.5535 B-13.9930 
N367 X-136.028 Y2.278 Z-9.020 A226.5670 B-13.9934 
N368 X-136.036 Y2.451 Z-8.834 A226.5804 B-13.9938 
N369 X-136.043 Y2.624 Z-8.648 A226.5939 B-13.9942 
N370 X-136.050 Y2.798 Z-8.462 A226.6074 B-13.9946 
N371 X-136.057 Y2.971 Z-8.276 A226.6209 B-13.9950 
N372 X-136.064 Y3.145 Z-8.090 A226.6343 B-13.9953 
N373 X-136.070 Y3.318 Z-7.904 A226.6478 B-13.9957 
N374 X-136.076 Y3.492 Z-7.718 A226.6613 B-13.9960 
N375 X-136.082 Y3.665 Z-7.532 A226.6748 B-13.9963 
N376 X-136.088 Y3.839 Z-7.346 A226.6882 B-13.9966 
N377 X-136.093 Y4.012 Z-7.160 A226.7017 B-13.9969 
N378 X-136.098 Y4.186 Z-6.974 A226.7152 B-13.9972 
N379 X-136.103 Y4.359 Z-6.788 A226.7287 B-13.9974 
N380 X-136.108 Y4.533 Z-6.602 A226.7422 B-13.9977 
N381 X-136.113 Y4.706 Z-6.416 A226.7556 B-13.9979 
N382 X-136.117 Y4.879 Z-6.229 A226.7691 B-13.9981 
N383 X-136.121 Y5.053 Z-6.043 A226.7826 B-13.9983 
N384 X-136.125 Y5.226 Z-5.857 A226.7961 B-13.9985 
N385 X-136.128 Y5.400 Z-5.671 A226.8096 B-13.9987 
N386 X-136.131 Y5.573 Z-5.485 A226.8230 B-13.9989 
N387 X-136.135 Y5.747 Z-5.299 A226.8365 B-13.9991 
N388 X-136.137 Y5.920 Z-5.113 A226.8500 B-13.9992 
N389 X-136.140 Y6.094 Z-4.927 A226.8635 B-13.9993 
N390 X-136.142 Y6.267 Z-4.741 A226.8770 B-13.9995 
N391 X-136.144 Y6.441 Z-4.555 A226.8904 B-13.9996 
N392 X-136.146 Y6.614 Z-4.369 A226.9039 B-13.9997 
N393 X-136.148 Y6.788 Z-4.183 A226.9174 B-13.9998 
N394 X-136.149 Y6.962 Z-3.997 A226.9309 B-13.9998 
N395 X-136.150 Y7.135 Z-3.811 A226.9444 B-13.9999 
N396 X-136.151 Y7.309 Z-3.625 A226.9579 B-13.9999 
N397 X-136.152 Y7.482 Z-3.438 A226.9713 B-14.0000 
N398 X-136.152 Y7.656 Z-3.252 A226.9848 B-14.0000 
N399 X-136.152 Y7.829 Z-3.066 A226.9983 B-14.0000 
N400 X-136.152 Y8.003 Z-2.880 A227.0118 B-14.0000 
N401 X-136.152 Y8.176 Z-2.694 A227.0253 B-14.0000 
N402 X-136.151 Y8.350 Z-2.508 A227.0387 B-13.9999 
N403 X-136.150 Y8.523 Z-2.322 A227.0522 B-13.9999 
N404 X-136.149 Y8.697 Z-2.136 A227.0657 B-13.9998 
N405 X-136.148 Y8.870 Z-1.950 A227.0792 B-13.9998 
N406 X-136.147 Y9.044 Z-1.764 A227.0927 B-13.9997 
N407 X-136.145 Y9.217 Z-1.578 A227.1062 B-13.9996 
N408 X-136.143 Y9.391 Z-1.392 A227.1196 B-13.9995 
N409 X-136.141 Y9.564 Z-1.206 A227.1331 B-13.9994 
N410 X-136.138 Y9.738 Z-1.020 A227.1466 B-13.9992 
N411 X-136.135 Y9.911 Z-0.834 A227.1601 B-13.9991 
N412 X-136.132 Y10.085 Z-0.647 A227.1736 B-13.9989 
N413 X-136.129 Y10.258 Z-0.461 A227.1870 B-13.9988 
N414 X-136.126 Y10.432 Z-0.275 A227.2005 B-13.9986 
N415 X-136.122 Y10.605 Z-0.089 A227.2140 B-13.9984 
N416 X-136.118 Y10.779 Z0.097 A227.2275 B-13.9982 
N417 X-136.114 Y10.952 Z0.283 A227.2410 B-13.9980 
N418 X-136.110 Y11.126 Z0.469 A227.2544 B-13.9977 
N419 X-136.105 Y11.299 Z0.655 A227.2679 B-13.9975 
N420 X-136.100 Y11.473 Z0.841 A227.2814 B-13.9972 
N421 X-136.095 Y11.646 Z1.027 A227.2949 B-13.9970 
N422 X-136.089 Y11.820 Z1.213 A227.3084 B-13.9967 
N423 X-136.084 Y11.993 Z1.399 A227.3218 B-13.9964 
N424 X-136.078 Y12.167 Z1.585 A227.3353 B-13.9961 
N425 X-136.072 Y12.340 Z1.771 A227.3488 B-13.9957 
N426 X-136.066 Y12.513 Z1.957 A227.3623 B-13.9954 
N427 X-136.059 Y12.687 Z2.143 A227.3757 B-13.9951 
N428 X-136.052 Y12.860 Z2.329 A227.3892 B-13.9947 
N429 X-136.045 Y13.034 Z2.515 A227.4027 B-13.9943 
N430 X-136.038 Y13.207 Z2.701 A227.4162 B-13.9939 
N431 X-136.030 Y13.381 Z2.887 A227.4296 B-13.9935 
N432 X-136.023 Y13.554 Z3.073 A227.4431 B-13.9931 
N433 X-136.015 Y13.728 Z3.259 A227.4566 B-13.9927 
N434 X-136.006 Y13.901 Z3.445 A227.4701 B-13.9923 
N435 X-135.998 Y14.074 Z3.631 A227.4835 B-13.9918 
N436 X-135.989 Y14.248 Z3.817 A227.4970 B-13.9914 
N437 X-135.980 Y14.421 Z4.003 A227.5105 B-13.9909 
N438 X-135.971 Y14.595 Z4.189 A227.5240 B-13.9904 
N439 X-135.961 Y14.768 Z4.375 A227.5374 B-13.9899 
N440 X-135.952 Y14.941 Z4.561 A227.5509 B-13.9894 
N441 X-135.942 Y15.115 Z4.747 A227.5644 B-13.9888 
N442 X-135.932 Y15.288 Z4.933 A227.5778 B-13.9883 
N443 X-135.921 Y15.462 Z5.118 A227.5913 B-13.9878 
N444 X-135.911 Y15.635 Z5.304 A227.6048 B-13.9872 
N445 X-135.900 Y15.808 Z5.490 A227.6183 B-13.9866 
N446 X-135.888 Y15.982 Z5.676 A227.6317 B-13.9860 
N447 X-135.877 Y16.155 Z5.862 A227.6452 B-13.9854 
N448 X-135.865 Y16.328 Z6.048 A227.6587 B-13.9848 
N449 X-135.854 Y16.502 Z6.234 A227.6721 B-13.9842 
N450 X-135.842 Y16.675 Z6.420 A227.6856 B-13.9835 
N451 X-135.829 Y16.848 Z6.606 A227.6990 B-13.9829 
N452 X-135.817 Y17.022 Z6.791 A227.7125 B-13.9822 
N453 X-135.804 Y17.195 Z6.977 A227.7260 B-13.9815 
N454 X-135.791 Y17.368 Z7.163 A227.7394 B-13.9808 
N455 X-135.777 Y17.541 Z7.349 A227.7529 B-13.9801 
N456 X-135.764 Y17.715 Z7.535 A227.7664 B-13.9794 
N457 X-135.750 Y17.888 Z7.720 A227.7798 B-13.9787 
N458 X-135.736 Y18.061 Z7.906 A227.7933 B-13.9780 
N459 X-135.722 Y18.234 Z8.092 A227.8067 B-13.9772 
N460 X-135.707 Y18.408 Z8.278 A227.8202 B-13.9764 
N461 X-135.693 Y18.581 Z8.464 A227.8336 B-13.9757 
N462 X-135.678 Y18.754 Z8.649 A227.8471 B-13.9749 
N463 X-135.662 Y18.927 Z8.835 A227.8606 B-13.9741 
N464 X-135.647 Y19.101 Z9.021 A227.8740 B-13.9732 
N465 X-135.631 Y19.274 Z9.206 A227.8875 B-13.9724 
N466 X-135.615 Y19.447 Z9.392 A227.9009 B-13.9716 
N467 X-135.599 Y19.620 Z9.578 A227.9144 B-13.9707 
N468 X-135.583 Y19.793 Z9.764 A227.9278 B-13.9698 
N469 X-135.566 Y19.966 Z9.949 A227.9413 B-13.9690 
N470 X-135.549 Y20.140 Z10.135 A227.9547 B-13.9681 
N471 X-135.532 Y20.313 Z10.321 A227.9682 B-13.9671 
N472 X-135.515 Y20.486 Z10.506 A227.9816 B-13.9662 
N473 X-135.497 Y20.659 Z10.692 A227.9951 B-13.9653 
N474 X-135.479 Y20.832 Z10.877 A228.0085 B-13.9644 
N475 X-135.461 Y21.005 Z11.063 A228.0219 B-13.9634 
N476 X-135.443 Y21.178 Z11.249 A228.0354 B-13.9624 
N477 X-135.424 Y21.351 Z11.434 A228.0488 B-13.9614 
N478 X-135.405 Y21.524 Z11.620 A228.0623 B-13.9604 
N479 X-135.386 Y21.697 Z11.805 A228.0757 B-13.9594 
N480 X-135.367 Y21.870 Z11.991 A228.0891 B-13.9584 
N481 X-135.348 Y22.043 Z12.176 A228.1026 B-13.9574 
N482 X-135.328 Y22.216 Z12.362 A228.1160 B-13.9563 
N483 X-135.308 Y22.389 Z12.547 A228.1295 B-13.9553 
N484 X-135.287 Y22.562 Z12.733 A228.1429 B-13.9542 
N485 X-135.267 Y22.735 Z12.918 A228.1563 B-13.9531 
N486 X-135.246 Y22.908 Z13.104 A228.1697 B-13.9520 
N487 X-135.225 Y23.081 Z13.289 A228.1832 B-13.9509 
N488 X-135.204 Y23.254 Z13.475 A228.1966 B-13.9498 
N489 X-135.183 Y23.427 Z13.660 A228.2100 B-13.9486 
N490 X-135.161 Y23.600 Z13.845 A228.2235 B-13.9475 
N491 X-135.139 Y23.773 Z14.031 A228.2369 B-13.9463 
N492 X-135.117 Y23.945 Z14.216 A228.2503 B-13.9452 
N493 X-135.094 Y24.118 Z14.401 A228.2637 B-13.9440 
N494 X-135.072 Y24.291 Z14.587 A228.2772 B-13.9428 
N495 X-135.049 Y24.464 Z14.772 A228.2906 B-13.9416 
N496 X-135.026 Y24.637 Z14.957 A228.3040 B-13.9403 
N497 X-135.002 Y24.810 Z15.143 A228.3174 B-13.9391 
N498 X-134.979 Y24.982 Z15.328 A228.3308 B-13.9379 
N499 X-134.955 Y25.155 Z15.513 A228.3442 B-13.9366 
N500 X-134.931 Y25.328 Z15.698 A228.3577 B-13.9353 
N501 X-134.906 Y25.500 Z15.884 A228.3711 B-13.9340 
N502 X-134.882 Y25.673 Z16.069 A228.3845 B-13.9327 
N503 X-134.857 Y25.846 Z16.254 A228.3979 B-13.9314 
N504 X-134.832 Y26.019 Z16.439 A228.4113 B-13.9301 
N505 X-134.807 Y26.191 Z16.624 A228.4247 B-13.9288 
N506 X-134.781 Y26.364 Z16.809 A228.4381 B-13.9274 
N507 X-134.756 Y26.536 Z16.995 A228.4515 B-13.9260 
N508 X-134.720 Y26.774 Z17.249 
N509 X-133.711 Y33.559 Z24.525 
N510 G00 X-145.745 Y69.879 Z-7.663 
;RAPORT("TB123456","Slot Finishing:168 End")
;trailer : concat=None
; points cnt = 462
N512 MSG (" --- GROUPED OF SUBPROGRAM --- ")
N513 FGROUP()
N514 TRAFOOF
; PROGRAM NAME: B12345651
; ORDER       : B123456
; OPER. NAME  : Slot Finishing:169
; OPER. DESCR.: finishing root chamfer FSFSA
; OPER. TYPE  : slotMillFinish
; GEO. OPTION : 3
; MACHINE     : HSTM_500_SIM840D_Py
;             : HSTM500 - HAMUEL: 5-axis milling machine - SIM840D Traori PP_Script
; CONTROL     : SINUMERIK 840D
; created:   2023-06-06 12:08:00.355657
;-------DODATKOWE DANE-------------------
; PROGRAMISTA : Mariusz Malec
; PARTID      : 306T001953P1010_-
;  ap         : 100.0
;  ae         : 2.0
;  lean_angle : 0.0
;  rad_Offset : 2.0
;  fin_Offset : -0.5
;----------------------------------------
;RAPORT("TB123456","Slot Finishing:169")
N10 TRAFOOF
N11 D0
N12 G90 G94
N13 G0 G53 D0 Z550 B0
N14 STOPRE
M9 ; chlodziwo wyl
; --- Slot Finishing:169 - finishing root chamfer FSFSA ---
N16 ;ToolChange : concat=None ,current_tdmid=None, PP.tdmId=956976
N17 TRAFOOF
N18 G0 G53 D0 Z550 B0
N19 STOPRE
N20 MSG(" TLID=956976 D=6.0 R=0.0 Ang=31.0 Len=124.0 ")
N21 S6366 M03
N22 STOPRE
N23 CYCLE832(0.01,1,1)
N24 G0 G53 A226.4861 B-13.9908
N25 TRAORI
N26 G54 D2
N27 D2 
N28 TRANS  X=R21
STOPRE
E_ZDARZ=300008
;ACS_FINISH_ROOT_FRONT_CHAMFER=7756976
STOPRE
N29 ; DELTA A > 40.1
N30 TRAFOOF
N31 D2
N32 STOPRE
N33 G00 G54 Z262.000
N34 G01 A226.4861 F10000
N35 TRAORI
N36 G54 D2
N37 STOPRE
N38 TRANS  X=R21
N39 G00 X-147.663 Y28.376 Z-51.547 A226.4861 B-13.9908 
N40 M342 ; chlodziwo woda
N41 X-135.575 Y-6.809 Z-18.142 
N42 G01 X-135.930 Y0.007 Z-10.833 F763 
N43 X-135.938 Y0.177 Z-10.650 
N44 X-135.947 Y0.347 Z-10.468 
N45 X-135.956 Y0.518 Z-10.285 
N46 X-135.965 Y0.688 Z-10.102 
N47 X-135.977 Y0.927 Z-9.846 
N48 X-135.986 Y1.100 Z-9.660 A226.4996 B-13.9912 
N49 X-135.995 Y1.274 Z-9.474 A226.5131 B-13.9917 
N50 X-136.004 Y1.447 Z-9.288 A226.5265 B-13.9921 
N51 X-136.012 Y1.620 Z-9.102 A226.5400 B-13.9926 
N52 X-136.020 Y1.794 Z-8.916 A226.5535 B-13.9930 
N53 X-136.028 Y1.967 Z-8.730 A226.5670 B-13.9934 
N54 X-136.036 Y2.141 Z-8.544 A226.5804 B-13.9938 
N55 X-136.043 Y2.314 Z-8.358 A226.5939 B-13.9942 
N56 X-136.050 Y2.488 Z-8.172 A226.6074 B-13.9946 
N57 X-136.057 Y2.661 Z-7.986 A226.6209 B-13.9950 
N58 X-136.064 Y2.834 Z-7.800 A226.6343 B-13.9953 
N59 X-136.070 Y3.008 Z-7.614 A226.6478 B-13.9957 
N60 X-136.076 Y3.181 Z-7.428 A226.6613 B-13.9960 
N61 X-136.082 Y3.355 Z-7.242 A226.6748 B-13.9963 
N62 X-136.088 Y3.528 Z-7.056 A226.6882 B-13.9966 
N63 X-136.093 Y3.702 Z-6.870 A226.7017 B-13.9969 
N64 X-136.098 Y3.875 Z-6.684 A226.7152 B-13.9972 
N65 X-136.103 Y4.049 Z-6.498 A226.7287 B-13.9974 
N66 X-136.108 Y4.222 Z-6.312 A226.7422 B-13.9977 
N67 X-136.113 Y4.396 Z-6.126 A226.7556 B-13.9979 
N68 X-136.117 Y4.569 Z-5.940 A226.7691 B-13.9981 
N69 X-136.121 Y4.743 Z-5.754 A226.7826 B-13.9983 
N70 X-136.125 Y4.916 Z-5.568 A226.7961 B-13.9985 
N71 X-136.128 Y5.090 Z-5.382 A226.8096 B-13.9987 
N72 X-136.131 Y5.263 Z-5.196 A226.8230 B-13.9989 
N73 X-136.135 Y5.437 Z-5.010 A226.8365 B-13.9991 
N74 X-136.137 Y5.610 Z-4.824 A226.8500 B-13.9992 
N75 X-136.140 Y5.784 Z-4.638 A226.8635 B-13.9993 
N76 X-136.142 Y5.957 Z-4.452 A226.8770 B-13.9995 
N77 X-136.144 Y6.131 Z-4.266 A226.8904 B-13.9996 
N78 X-136.146 Y6.304 Z-4.080 A226.9039 B-13.9997 
N79 X-136.148 Y6.478 Z-3.893 A226.9174 B-13.9998 
N80 X-136.149 Y6.651 Z-3.707 A226.9309 B-13.9998 
N81 X-136.150 Y6.825 Z-3.521 A226.9444 B-13.9999 
N82 X-136.151 Y6.998 Z-3.335 A226.9579 B-13.9999 
N83 X-136.152 Y7.172 Z-3.149 A226.9713 B-14.0000 
N84 X-136.152 Y7.345 Z-2.963 A226.9848 B-14.0000 
N85 X-136.152 Y7.519 Z-2.777 A226.9983 B-14.0000 
N86 X-136.152 Y7.692 Z-2.591 A227.0118 B-14.0000 
N87 X-136.152 Y7.866 Z-2.405 A227.0253 B-14.0000 
N88 X-136.151 Y8.039 Z-2.219 A227.0387 B-13.9999 
N89 X-136.150 Y8.213 Z-2.033 A227.0522 B-13.9999 
N90 X-136.149 Y8.386 Z-1.847 A227.0657 B-13.9998 
N91 X-136.148 Y8.560 Z-1.661 A227.0792 B-13.9998 
N92 X-136.147 Y8.733 Z-1.474 A227.0927 B-13.9997 
N93 X-136.145 Y8.907 Z-1.288 A227.1062 B-13.9996 
N94 X-136.143 Y9.080 Z-1.102 A227.1196 B-13.9995 
N95 X-136.141 Y9.254 Z-0.916 A227.1331 B-13.9994 
N96 X-136.138 Y9.427 Z-0.730 A227.1466 B-13.9992 
N97 X-136.135 Y9.601 Z-0.544 A227.1601 B-13.9991 
N98 X-136.132 Y9.774 Z-0.358 A227.1736 B-13.9989 
N99 X-136.129 Y9.948 Z-0.172 A227.1870 B-13.9988 
N100 X-136.126 Y10.121 Z0.014 A227.2005 B-13.9986 
N101 X-136.122 Y10.295 Z0.200 A227.2140 B-13.9984 
N102 X-136.118 Y10.468 Z0.386 A227.2275 B-13.9982 
N103 X-136.114 Y10.642 Z0.572 A227.2410 B-13.9980 
N104 X-136.110 Y10.815 Z0.758 A227.2544 B-13.9977 
N105 X-136.105 Y10.989 Z0.944 A227.2679 B-13.9975 
N106 X-136.100 Y11.162 Z1.130 A227.2814 B-13.9972 
N107 X-136.095 Y11.336 Z1.316 A227.2949 B-13.9970 
N108 X-136.089 Y11.509 Z1.502 A227.3084 B-13.9967 
N109 X-136.084 Y11.683 Z1.688 A227.3218 B-13.9964 
N110 X-136.078 Y11.856 Z1.874 A227.3353 B-13.9961 
N111 X-136.072 Y12.030 Z2.060 A227.3488 B-13.9957 
N112 X-136.066 Y12.203 Z2.246 A227.3623 B-13.9954 
N113 X-136.059 Y12.377 Z2.432 A227.3757 B-13.9951 
N114 X-136.052 Y12.550 Z2.618 A227.3892 B-13.9947 
N115 X-136.045 Y12.724 Z2.804 A227.4027 B-13.9943 
N116 X-136.038 Y12.897 Z2.990 A227.4162 B-13.9939 
N117 X-136.030 Y13.070 Z3.176 A227.4296 B-13.9935 
N118 X-136.023 Y13.244 Z3.362 A227.4431 B-13.9931 
N119 X-136.015 Y13.417 Z3.548 A227.4566 B-13.9927 
N120 X-136.006 Y13.591 Z3.734 A227.4701 B-13.9923 
N121 X-135.998 Y13.764 Z3.920 A227.4835 B-13.9918 
N122 X-135.989 Y13.938 Z4.106 A227.4970 B-13.9914 
N123 X-135.980 Y14.111 Z4.292 A227.5105 B-13.9909 
N124 X-135.971 Y14.284 Z4.478 A227.5240 B-13.9904 
N125 X-135.961 Y14.458 Z4.664 A227.5374 B-13.9899 
N126 X-135.952 Y14.631 Z4.850 A227.5509 B-13.9894 
N127 X-135.942 Y14.805 Z5.036 A227.5644 B-13.9888 
N128 X-135.932 Y14.978 Z5.222 A227.5778 B-13.9883 
N129 X-135.921 Y15.151 Z5.408 A227.5913 B-13.9878 
N130 X-135.911 Y15.325 Z5.594 A227.6048 B-13.9872 
N131 X-135.900 Y15.498 Z5.780 A227.6183 B-13.9866 
N132 X-135.888 Y15.671 Z5.966 A227.6317 B-13.9860 
N133 X-135.877 Y15.845 Z6.151 A227.6452 B-13.9854 
N134 X-135.865 Y16.018 Z6.337 A227.6587 B-13.9848 
N135 X-135.854 Y16.191 Z6.523 A227.6721 B-13.9842 
N136 X-135.842 Y16.365 Z6.709 A227.6856 B-13.9835 
N137 X-135.829 Y16.538 Z6.895 A227.6990 B-13.9829 
N138 X-135.817 Y16.711 Z7.081 A227.7125 B-13.9822 
N139 X-135.804 Y16.885 Z7.267 A227.7260 B-13.9815 
N140 X-135.791 Y17.058 Z7.452 A227.7394 B-13.9808 
N141 X-135.777 Y17.231 Z7.638 A227.7529 B-13.9801 
N142 X-135.764 Y17.404 Z7.824 A227.7664 B-13.9794 
N143 X-135.750 Y17.578 Z8.010 A227.7798 B-13.9787 
N144 X-135.736 Y17.751 Z8.196 A227.7933 B-13.9780 
N145 X-135.722 Y17.924 Z8.381 A227.8067 B-13.9772 
N146 X-135.707 Y18.097 Z8.567 A227.8202 B-13.9764 
N147 X-135.693 Y18.271 Z8.753 A227.8336 B-13.9757 
N148 X-135.678 Y18.444 Z8.939 A227.8471 B-13.9749 
N149 X-135.662 Y18.617 Z9.124 A227.8606 B-13.9741 
N150 X-135.647 Y18.790 Z9.310 A227.8740 B-13.9732 
N151 X-135.631 Y18.963 Z9.496 A227.8875 B-13.9724 
N152 X-135.615 Y19.137 Z9.682 A227.9009 B-13.9716 
N153 X-135.599 Y19.310 Z9.867 A227.9144 B-13.9707 
N154 X-135.583 Y19.483 Z10.053 A227.9278 B-13.9698 
N155 X-135.566 Y19.656 Z10.239 A227.9413 B-13.9690 
N156 X-135.549 Y19.829 Z10.424 A227.9547 B-13.9681 
N157 X-135.532 Y20.002 Z10.610 A227.9682 B-13.9671 
N158 X-135.515 Y20.175 Z10.796 A227.9816 B-13.9662 
N159 X-135.497 Y20.349 Z10.981 A227.9951 B-13.9653 
N160 X-135.479 Y20.522 Z11.167 A228.0085 B-13.9644 
N161 X-135.461 Y20.695 Z11.352 A228.0219 B-13.9634 
N162 X-135.443 Y20.868 Z11.538 A228.0354 B-13.9624 
N163 X-135.424 Y21.041 Z11.724 A228.0488 B-13.9614 
N164 X-135.405 Y21.214 Z11.909 A228.0623 B-13.9604 
N165 X-135.386 Y21.387 Z12.095 A228.0757 B-13.9594 
N166 X-135.367 Y21.560 Z12.280 A228.0891 B-13.9584 
N167 X-135.348 Y21.733 Z12.466 A228.1026 B-13.9574 
N168 X-135.328 Y21.906 Z12.651 A228.1160 B-13.9563 
N169 X-135.308 Y22.079 Z12.837 A228.1295 B-13.9553 
N170 X-135.287 Y22.252 Z13.022 A228.1429 B-13.9542 
N171 X-135.267 Y22.425 Z13.208 A228.1563 B-13.9531 
N172 X-135.246 Y22.598 Z13.393 A228.1697 B-13.9520 
N173 X-135.225 Y22.771 Z13.579 A228.1832 B-13.9509 
N174 X-135.204 Y22.944 Z13.764 A228.1966 B-13.9498 
N175 X-135.183 Y23.117 Z13.949 A228.2100 B-13.9486 
N176 X-135.161 Y23.289 Z14.135 A228.2235 B-13.9475 
N177 X-135.139 Y23.462 Z14.320 A228.2369 B-13.9463 
N178 X-135.117 Y23.635 Z14.505 A228.2503 B-13.9452 
N179 X-135.094 Y23.808 Z14.691 A228.2637 B-13.9440 
N180 X-135.072 Y23.981 Z14.876 A228.2772 B-13.9428 
N181 X-135.049 Y24.154 Z15.061 A228.2906 B-13.9416 
N182 X-135.026 Y24.326 Z15.247 A228.3040 B-13.9403 
N183 X-135.002 Y24.499 Z15.432 A228.3174 B-13.9391 
N184 X-134.979 Y24.672 Z15.617 A228.3308 B-13.9379 
N185 X-134.955 Y24.845 Z15.803 A228.3442 B-13.9366 
N186 X-134.931 Y25.017 Z15.988 A228.3577 B-13.9353 
N187 X-134.906 Y25.190 Z16.173 A228.3711 B-13.9340 
N188 X-134.882 Y25.363 Z16.358 A228.3845 B-13.9327 
N189 X-134.857 Y25.536 Z16.543 A228.3979 B-13.9314 
