; PROGRAM NAME: B12345633
; ORDER       : B123456
; OPER. NAME  : Flank Milling Transition:157
; OPER. DESCR.: finish flank root/promienie_przejsc_wk
; OPER. TYPE  : preFinFlank
; GEO. OPTION : 2
; MACHINE     : HSTM_500_SIM840D_Py
;             : HSTM500 - HAMUEL: 5-axis milling machine - SIM840D Traori PP_Script
; CONTROL     : SINUMERIK 840D
; created:   2023-06-06 12:06:28.511230
;-------DODATKOWE DANE-------------------
; PROGRAMISTA : Mariusz Malec
; PARTID      : 306T001953P1010_-
;  dec_value  : 0.7
;  lean_angle : 24.0
;  tilt_angle : 0.0
;  airf_offset: 0.05
;  firstoffset: 1.5
;----------------------------------------
;RAPORT("TB123456","Flank Milling Transition:157")
N10 TRAFOOF
N11 D0
N12 G90 G94
N13 G0 G53 D0 Z550 B0
N14 STOPRE
M9 ; chlodziwo wyl
; --- Flank Milling Transition:157 - finish flank root/promienie_przejsc_wk ---
N16 ;ToolChange : concat=None ,current_tdmid=None, PP.tdmId=970356
N17 TRAFOOF
N18 G0 G53 D0 X-200 Y150 Z550 B0
N19 T="7770356"
;RAPORT("TB123456","ToolChangeStart 7770356")
N20 M6
;RAPORT("TB123456","ToolChangeEnd")
N21 STOPRE
N22 MSG(" TLID=970356 D=3.86 R=2.3 Ang=10.0 Len=170.0 ")
N23 ; (Preloading tool)
N24 T="7741084"
N25 S9978 M03
N26 STOPRE
N27 CYCLE832(0.01,1,1)
N28 G0 G53 A198.4038 B-12.1108
N29 TRAORI
N30 G54 D3
N31 D3 
N32 TRANS  X=R9 A=R25
STOPRE
E_ZDARZ=300017
;ACS_FINISH_UBG_PLATFORM_XLB_ROOT=7770356
STOPRE
N33 ; DELTA A > 40.1
N34 TRAFOOF
N35 D3
N36 STOPRE
N37 G00 G54 Z216.000
N38 G01 A198.4038 F10000
N39 TRAORI
N40 G54 D3
N41 STOPRE
N42 TRANS  X=R9 A=R25
N43 G00 X-191.956 Y48.663 Z-39.879 A198.4038 B-12.1108 
N44 M340 ; chlodziwo centralne
N45 X-181.466 Y33.229 Z6.508 
N46 G01 X-181.523 Y30.799 Z8.478 F878 
N47 X-181.689 Y27.885 Z9.604 
N48 X-181.948 Y24.772 Z9.776 
N49 X-182.273 Y21.764 Z8.977 
N50 X-182.634 Y19.157 Z7.286 
N51 X-182.656 Y19.088 Z7.177 A196.1393 B-12.1596 
N52 X-182.684 Y18.931 Z7.040 A195.8518 B-12.1473 
N53 X-182.715 Y18.750 Z6.891 A195.8097 B-12.1262 
N54 X-182.746 Y18.555 Z6.729 A195.7658 B-12.1034 
N55 X-182.779 Y18.345 Z6.556 A195.7144 B-12.0789 
N56 X-182.814 Y18.120 Z6.371 A195.6567 B-12.0527 
N57 X-182.849 Y17.881 Z6.174 A195.5925 B-12.0248 
N58 X-182.885 Y17.628 Z5.966 A195.5199 B-11.9953 
N59 X-182.922 Y17.362 Z5.747 A195.4361 B-11.9643 
N60 X-182.958 Y17.085 Z5.520 A195.3378 B-11.9320 
N61 X-182.995 Y16.796 Z5.284 A195.2218 B-11.8986 
N62 X-183.030 Y16.499 Z5.041 A195.0865 B-11.8641 
N63 X-183.065 Y16.193 Z4.792 A194.9313 B-11.8288 
N64 X-183.099 Y15.881 Z4.539 A194.7568 B-11.7926 
N65 X-183.131 Y15.563 Z4.283 A194.5634 B-11.7557 
N66 X-183.162 Y15.240 Z4.024 A194.3515 B-11.7182 
N67 X-183.191 Y14.914 Z3.765 A194.1211 B-11.6800 
N68 X-183.218 Y14.586 Z3.505 A193.8726 B-11.6413 
N69 X-183.242 Y14.256 Z3.245 A193.6060 B-11.6021 
N70 X-183.264 Y13.924 Z2.987 A193.3201 B-11.5624 
N71 X-183.284 Y13.593 Z2.730 A193.0128 B-11.5222 
N72 X-183.300 Y13.261 Z2.476 A192.6808 B-11.4816 
N73 X-183.314 Y12.929 Z2.224 A192.3217 B-11.4406 
N74 X-183.324 Y12.598 Z1.976 A191.9345 B-11.3990 
N75 X-183.331 Y12.268 Z1.731 A191.5193 B-11.3569 
N76 X-183.338 Y11.939 Z1.490 A191.0771 B-11.3122 
N77 X-183.344 Y11.611 Z1.253 A190.6080 B-11.2652 
N78 X-183.350 Y11.285 Z1.021 A190.1119 B-11.2173 
N79 X-183.355 Y10.960 Z0.793 A189.5883 B-11.1682 
N80 X-183.360 Y10.637 Z0.570 A189.0363 B-11.1180 
N81 X-183.364 Y10.316 Z0.353 A188.4556 B-11.0664 
N82 X-183.367 Y9.997 Z0.141 A187.8453 B-11.0136 
N83 X-183.369 Y9.681 Z-0.066 A187.2051 B-10.9593 
N84 X-183.372 Y9.367 Z-0.266 A186.5343 B-10.9034 
N85 X-183.374 Y9.056 Z-0.460 A185.8326 B-10.8459 
N86 X-183.376 Y8.748 Z-0.648 A185.0993 B-10.7946 
N87 X-183.376 Y8.443 Z-0.829 A184.3337 B-10.7489 
N88 X-183.376 Y8.142 Z-1.004 A183.5342 B-10.7023 
N89 X-183.376 Y7.844 Z-1.172 A182.6985 B-10.6547 
N90 X-183.375 Y7.551 Z-1.333 A181.8243 B-10.6060 
N91 X-183.374 Y7.261 Z-1.487 A180.9102 B-10.5563 
N92 X-183.372 Y6.975 Z-1.634 A179.9563 B-10.5054 
N93 X-183.371 Y6.693 Z-1.774 A178.9643 B-10.4535 
N94 X-183.368 Y6.415 Z-1.907 A177.9370 B-10.3990 
N95 X-183.367 Y6.141 Z-2.033 A176.8774 B-10.3383 
N96 X-183.361 Y5.871 Z-2.153 A175.7876 B-10.2767 
N97 X-183.349 Y5.604 Z-2.265 A174.6688 B-10.2141 
N98 X-183.334 Y5.341 Z-2.371 A173.5211 B-10.1506 
N99 X-183.315 Y5.082 Z-2.470 A172.3438 B-10.0863 
N100 X-183.294 Y4.827 Z-2.562 A171.1359 B-10.0213 
N101 X-183.272 Y4.575 Z-2.648 A169.8967 B-9.9554 
N102 X-183.249 Y4.326 Z-2.728 A168.6261 B-9.8889 
N103 X-183.226 Y4.081 Z-2.801 A167.3243 B-9.8217 
N104 X-183.203 Y3.840 Z-2.868 A165.9912 B-9.7541 
N105 X-183.182 Y3.602 Z-2.929 A164.6274 B-9.6860 
N106 X-183.162 Y3.367 Z-2.985 A163.2335 B-9.6176 
N107 X-183.144 Y3.136 Z-3.034 A161.8106 B-9.5490 
N108 X-183.129 Y2.907 Z-3.078 A160.3600 B-9.4805 
N109 X-183.117 Y2.682 Z-3.116 A158.8830 B-9.4120 
N110 X-183.108 Y2.460 Z-3.148 A157.3813 B-9.3439 
N111 X-183.102 Y2.240 Z-3.174 A155.8563 B-9.2762 
N112 X-183.099 Y2.024 Z-3.195 A154.3096 B-9.2092 
N113 X-183.100 Y1.810 Z-3.211 A152.7426 B-9.1431 
N114 X-183.105 Y1.598 Z-3.221 A151.1574 B-9.0779 
N115 X-183.110 Y1.389 Z-3.226 A149.5556 B-9.0140 
N116 X-183.119 Y1.183 Z-3.225 A147.9393 B-8.9513 
N117 X-183.130 Y0.978 Z-3.219 A146.3104 B-8.8903 
N118 X-183.142 Y0.776 Z-3.208 A144.6706 B-8.8309 
N119 X-183.156 Y0.575 Z-3.191 A143.0217 B-8.7734 
N120 X-183.171 Y0.376 Z-3.169 A141.3651 B-8.7178 
N121 X-183.186 Y0.179 Z-3.142 A139.7021 B-8.6644 
N122 X-183.200 Y-0.017 Z-3.109 A138.0340 B-8.6132 
N123 X-183.213 Y-0.211 Z-3.071 A136.3622 B-8.5643 
N124 X-183.223 Y-0.404 Z-3.027 A134.6881 B-8.5179 
N125 X-183.231 Y-0.597 Z-2.977 A133.0137 B-8.4741 
N126 X-183.235 Y-0.788 Z-2.921 A131.3408 B-8.4329 
N127 X-183.234 Y-0.978 Z-2.859 A129.6721 B-8.3944 
N128 X-183.230 Y-1.167 Z-2.792 A128.0109 B-8.3588 
N129 X-183.225 Y-1.356 Z-2.717 A126.3643 B-8.3143 
N130 X-183.221 Y-1.544 Z-2.636 A124.7493 B-8.2636 
N131 X-183.218 Y-1.733 Z-2.546 A123.2013 B-8.2140 
N132 X-183.214 Y-1.923 Z-2.445 A121.7800 B-8.1659 
N133 X-183.210 Y-2.115 Z-2.331 A120.5612 B-8.1201 
N134 X-183.206 Y-2.311 Z-2.201 A119.6124 B-8.0769 
N135 X-183.203 Y-2.510 Z-2.054 A118.9624 B-8.0368 
N136 X-183.199 Y-2.712 Z-1.890 A118.5868 B-7.9996 
N137 X-183.195 Y-2.914 Z-1.712 A118.4224 B-7.9648 
N138 X-183.192 Y-3.116 Z-1.522 A118.3971 B-7.9318 
N139 X-183.189 Y-3.315 Z-1.323 A118.4546 B-7.9001 
N140 X-183.185 Y-3.512 Z-1.115 A118.5610 B-7.8694 
N141 X-183.182 Y-3.706 Z-0.900 A118.6965 B-7.8395 
N142 X-183.179 Y-3.895 Z-0.679 A118.8416 B-7.8045 
N143 X-183.180 Y-4.079 Z-0.453 A118.9625 B-7.6771 
N144 X-183.186 Y-4.257 Z-0.224 A119.0022 B-7.4392 
N145 X-183.196 Y-4.428 Z0.005 A118.8870 B-7.0908 
N146 X-183.212 Y-4.588 Z0.231 A118.5510 B-6.6167 
N147 X-183.234 Y-4.740 Z0.453 A117.9649 B-5.9926 
N148 X-183.256 Y-4.892 Z0.686 A117.0757 B-5.2900 
N149 X-183.279 Y-5.039 Z0.921 A116.0191 B-4.4728 
N150 X-183.301 Y-5.178 Z1.156 A114.8763 B-3.5124 
N151 X-183.326 Y-5.313 Z1.392 A113.6892 B-2.3935 
N152 X-183.352 Y-5.442 Z1.629 A112.4810 B-1.0945 
N153 X-183.382 Y-5.567 Z1.868 A111.2702 B0.4107 
N154 X-183.366 Y-5.684 Z2.104 A109.9397 B0.8895 
N155 X-183.347 Y-5.797 Z2.340 A108.5975 B1.3971 
N156 X-183.325 Y-5.905 Z2.577 A107.2634 B1.9262 
N157 X-183.299 Y-6.008 Z2.815 A105.9500 B2.4711 
N158 X-183.270 Y-6.105 Z3.054 A104.6592 B3.0287 
N159 X-183.237 Y-6.198 Z3.293 A103.3839 B3.5987 
N160 X-183.203 Y-6.285 Z3.530 A102.1119 B4.1823 
N161 X-183.166 Y-6.367 Z3.764 A100.8305 B4.7813 
N162 X-183.127 Y-6.442 Z3.995 A99.5313 B5.3959 
N163 X-183.087 Y-6.511 Z4.222 A98.2100 B6.0252 
N164 X-183.046 Y-6.574 Z4.443 A96.8640 B6.6676 
N165 X-183.005 Y-6.630 Z4.659 A95.4899 B7.3214 
N166 X-182.964 Y-6.680 Z4.867 A94.0760 B7.9875 
N167 X-182.924 Y-6.722 Z5.066 A92.6003 B8.6694 
N168 X-182.886 Y-6.759 Z5.255 A91.0559 B9.3655 
N169 X-182.849 Y-6.789 Z5.434 A89.4596 B10.0672 
N170 X-182.815 Y-6.813 Z5.603 A87.8208 B10.7681 
N171 X-182.783 Y-6.831 Z5.761 A86.1052 B11.4740 
N172 X-182.754 Y-6.845 Z5.904 A84.2633 B12.1932 
N173 X-182.730 Y-6.853 Z6.032 A82.2753 B12.9244 
N174 X-182.710 Y-6.858 Z6.143 A80.1255 B13.6632 
N175 X-182.695 Y-6.861 Z6.237 A77.7953 B14.4046 
N176 X-182.683 Y-6.863 Z6.315 A75.2744 B15.1396 
N177 X-182.676 Y-6.865 Z6.375 A72.5685 B15.8542 
N178 X-182.672 Y-6.870 Z6.421 A69.6969 B16.5321 
N179 X-182.671 Y-6.877 Z6.454 A66.6810 B17.1569 
N180 X-182.675 Y-6.888 Z6.476 A63.5618 B17.7997 
N181 X-182.684 Y-6.905 Z6.491 A60.3715 B18.4926 
N182 X-182.691 Y-6.925 Z6.499 A57.1105 B19.0378 
N183 X-182.694 Y-6.950 Z6.501 A53.8016 B19.4421 
N184 X-182.694 Y-6.978 Z6.499 A50.4617 B19.7120 
N185 X-182.692 Y-7.009 Z6.494 A47.1044 B19.8534 
N186 X-182.687 Y-7.044 Z6.489 A43.7418 B19.8721 
N187 X-182.680 Y-7.082 Z6.483 A40.3841 B19.7733 
N188 X-182.669 Y-7.122 Z6.478 A37.0400 B19.5617 
N189 X-182.655 Y-7.165 Z6.475 A33.7166 B19.2417 
N190 X-182.638 Y-7.209 Z6.473 A30.4195 B18.8169 
N191 X-182.618 Y-7.254 Z6.475 A27.1539 B18.2908 
N192 X-182.595 Y-7.299 Z6.481 A23.9245 B17.6664 
N193 X-182.570 Y-7.343 Z6.491 A20.7357 B16.9464 
N194 X-182.541 Y-7.386 Z6.505 A17.5917 B16.1331 
N195 X-182.511 Y-7.427 Z6.525 A14.4960 B15.2289 
N196 X-182.477 Y-7.465 Z6.549 A11.4511 B14.2352 
N197 X-182.440 Y-7.500 Z6.579 A8.4586 B13.1528 
N198 X-182.400 Y-7.529 Z6.614 A5.5182 B11.9814 
N199 X-182.355 Y-7.553 Z6.654 A2.6262 B10.7281 
N200 X-182.308 Y-7.572 Z6.700 A359.7721 B9.4298 
N201 X-182.259 Y-7.583 Z6.751 A356.9566 B8.0998 
N202 X-182.212 Y-7.586 Z6.807 A354.1840 B6.7492 
N203 X-182.167 Y-7.580 Z6.867 A351.4617 B5.3909 
N204 X-182.125 Y-7.563 Z6.931 A348.8047 B4.0413 
N205 X-182.088 Y-7.533 Z6.997 A346.2380 B2.7204 
N206 X-182.058 Y-7.489 Z7.064 A343.7877 B1.4490 
N207 X-182.036 Y-7.428 Z7.130 A341.4715 B0.2434 
N208 X-182.023 Y-7.351 Z7.193 A339.2997 B-0.8856 
N209 X-182.019 Y-7.258 Z7.252 A337.2694 B-1.9345 
N210 X-182.025 Y-7.148 Z7.304 A335.3703 B-2.9041 
N211 X-182.040 Y-7.022 Z7.350 A333.5836 B-3.7998 
N212 X-182.065 Y-6.882 Z7.388 A331.9079 B-4.6210 
N213 X-182.098 Y-6.728 Z7.417 A330.3388 B-5.3685 
N214 X-182.141 Y-6.559 Z7.436 A328.8779 B-6.0415 
N215 X-182.190 Y-6.378 Z7.445 A327.5094 B-6.6469 
N216 X-182.245 Y-6.184 Z7.446 A326.1956 B-7.1993 
N217 X-182.305 Y-5.981 Z7.437 A324.9203 B-7.7042 
N218 X-182.369 Y-5.766 Z7.419 A323.7044 B-8.1545 
N219 X-182.436 Y-5.540 Z7.390 A322.5737 B-8.5432 
N220 X-182.506 Y-5.303 Z7.351 A321.5288 B-8.8728 
N221 X-182.577 Y-5.055 Z7.301 A320.5567 B-9.1500 
N222 X-182.648 Y-4.798 Z7.241 A319.6538 B-9.3787 
N223 X-182.717 Y-4.531 Z7.172 A318.8236 B-9.5609 
N224 X-182.783 Y-4.255 Z7.093 A318.0723 B-9.6987 
N225 X-182.845 Y-3.969 Z7.004 A317.4058 B-9.7945 
N226 X-182.902 Y-3.673 Z6.908 A316.8216 B-9.8532 
N227 X-182.954 Y-3.370 Z6.802 A316.3123 B-9.8802 
N228 X-183.003 Y-3.058 Z6.690 A315.8699 B-9.8811 
N229 X-183.047 Y-2.740 Z6.571 A315.4853 B-9.8548 
N230 X-183.087 Y-2.414 Z6.448 A315.1531 B-9.8018 
N231 X-183.121 Y-2.082 Z6.319 A314.8753 B-9.7339 
N232 X-183.149 Y-1.744 Z6.186 A314.6563 B-9.6540 
N233 X-183.171 Y-1.400 Z6.050 A314.5029 B-9.5659 
N234 X-183.186 Y-1.051 Z5.910 A314.4227 B-9.4736 
N235 X-183.193 Y-0.711 Z5.772 A314.5535 B-9.4194 
N236 X-183.199 Y-0.374 Z5.634 A314.8408 B-9.3743 
N237 X-183.206 Y-0.032 Z5.495 A315.2323 B-9.3275 
N238 X-183.212 Y0.313 Z5.356 A315.7355 B-9.2792 
N239 X-183.218 Y0.662 Z5.217 A316.3549 B-9.2294 
N240 X-183.224 Y1.014 Z5.079 A317.0903 B-9.1784 
N241 X-183.230 Y1.368 Z4.945 A317.9369 B-9.1262 
N242 X-183.236 Y1.725 Z4.814 A318.8873 B-9.0733 
N243 X-183.242 Y2.082 Z4.688 A319.9336 B-9.0198 
N244 X-183.247 Y2.441 Z4.568 A321.0694 B-8.9660 
N245 X-183.252 Y2.801 Z4.454 A322.2885 B-8.9121 
N246 X-183.257 Y3.162 Z4.348 A323.5840 B-8.8582 
N247 X-183.262 Y3.523 Z4.249 A324.9457 B-8.8046 
N248 X-183.266 Y3.884 Z4.158 A326.3612 B-8.7516 
N249 X-183.270 Y4.245 Z4.077 A327.8160 B-8.6994 
N250 X-183.273 Y4.606 Z4.004 A329.2975 B-8.6481 
N251 X-183.277 Y4.966 Z3.941 A330.7953 B-8.5980 
N252 X-183.279 Y5.327 Z3.888 A332.3017 B-8.5490 
N253 X-183.282 Y5.687 Z3.844 A333.8104 B-8.5012 
N254 X-183.284 Y6.048 Z3.810 A335.3161 B-8.4548 
N255 X-183.286 Y6.409 Z3.785 A336.8133 B-8.4096 
N256 X-183.288 Y6.770 Z3.770 A338.2966 B-8.3658 
N257 X-183.289 Y7.132 Z3.765 A339.7608 B-8.3233 
N258 X-183.289 Y7.494 Z3.770 A341.2011 B-8.2820 
N259 X-183.289 Y7.858 Z3.784 A342.6136 B-8.2421 
N260 X-183.288 Y8.222 Z3.808 A343.9944 B-8.2034 
N261 X-183.287 Y8.587 Z3.842 A345.3402 B-8.1659 
N262 X-183.286 Y8.952 Z3.884 A346.6475 B-8.1295 
N263 X-183.284 Y9.318 Z3.937 A347.9128 B-8.0941 
N264 X-183.282 Y9.685 Z3.998 A349.1330 B-8.0598 
N265 X-183.279 Y10.052 Z4.068 A350.3052 B-8.0263 
N266 X-183.275 Y10.419 Z4.147 A351.4277 B-7.9937 
N267 X-183.271 Y10.785 Z4.234 A352.5003 B-7.9619 
N268 X-183.267 Y11.151 Z4.329 A353.5234 B-7.9308 
N269 X-183.262 Y11.515 Z4.432 A354.4979 B-7.9004 
N270 X-183.256 Y11.878 Z4.541 A355.4247 B-7.8706 
N271 X-183.250 Y12.238 Z4.657 A356.3044 B-7.8416 
N272 X-183.244 Y12.595 Z4.778 A357.1379 B-7.8132 
N273 X-183.237 Y12.947 Z4.904 A357.9271 B-7.7855 
N274 X-183.229 Y13.294 Z5.034 A358.6748 B-7.7586 
N275 X-183.222 Y13.635 Z5.167 A359.3844 B-7.7325 
N276 X-183.213 Y13.968 Z5.303 A0.0551 B-7.7073 
N277 X-183.205 Y14.292 Z5.439 A0.6795 B-7.6830 
N278 X-183.196 Y14.605 Z5.576 A1.2480 B-7.6593 
N279 X-183.188 Y14.907 Z5.712 A1.7534 B-7.6362 
N280 X-183.179 Y15.196 Z5.846 A2.1957 B-7.6099 
N281 X-183.170 Y15.471 Z5.977 A2.5832 B-7.5823 
N282 X-183.160 Y15.733 Z6.103 A2.9277 B-7.5558 
N283 X-183.144 Y15.981 Z6.225 A3.2410 B-7.5307 
N284 X-183.122 Y16.215 Z6.342 A3.5329 B-7.5071 
N285 X-183.095 Y16.435 Z6.453 A3.8096 B-7.4852 
N286 X-183.064 Y16.641 Z6.559 A4.0742 B-7.4651 
N287 X-183.030 Y16.834 Z6.658 A4.3345 B-7.4467 
N288 X-182.994 Y17.014 Z6.752 A4.5758 B-7.4297 
N289 X-182.957 Y17.160 Z6.837 A4.2459 B-7.4007 
N290 X-182.923 Y17.218 Z6.908 A1.9102 B-7.3267 
N291 X-182.891 Y17.236 Z6.969 A358.7156 B-7.2397 
N292 X-182.863 Y17.245 Z7.026 A355.4367 B-7.1595 
N293 X-182.839 Y17.253 Z7.080 A352.2339 B-7.0897 
N294 X-182.819 Y17.261 Z7.131 A349.1400 B-7.0304 
N295 X-182.802 Y17.269 Z7.180 A346.1559 B-6.9811 
N296 X-182.790 Y17.279 Z7.226 A343.2720 B-6.9413 
N297 X-182.781 Y17.291 Z7.271 A340.4751 B-6.9100 
N298 X-182.776 Y17.304 Z7.314 A337.7510 B-6.8869 
N299 X-182.773 Y17.318 Z7.355 A335.0863 B-6.8714 
N300 X-182.774 Y17.333 Z7.396 A332.4683 B-6.8632 
N301 X-182.778 Y17.350 Z7.435 A329.8864 B-6.8620 
N302 X-182.784 Y17.368 Z7.473 A327.3313 B-6.8676 
N303 X-182.793 Y17.388 Z7.510 A324.7953 B-6.8799 
N304 X-182.804 Y17.410 Z7.547 A322.2724 B-6.8990 
N305 X-182.817 Y17.433 Z7.582 A319.7582 B-6.9246 
N306 X-182.832 Y17.457 Z7.616 A317.2490 B-6.9570 
N307 X-182.848 Y17.483 Z7.649 A314.7423 B-6.9959 
N308 X-182.866 Y17.511 Z7.682 A312.2361 B-7.0415 
N309 X-182.884 Y17.540 Z7.713 A309.7291 B-7.0937 
N310 X-182.903 Y17.571 Z7.743 A307.2207 B-7.1524 
N311 X-182.923 Y17.603 Z7.771 A304.7101 B-7.2177 
N312 X-182.942 Y17.637 Z7.799 A302.1972 B-7.2893 
N313 X-182.960 Y17.672 Z7.824 A299.6817 B-7.3672 
N314 X-182.977 Y17.708 Z7.849 A297.1637 B-7.4513 
N315 X-182.993 Y17.746 Z7.872 A294.6434 B-7.5413 
N316 X-183.008 Y17.785 Z7.893 A292.1211 B-7.6370 
N317 X-183.021 Y17.824 Z7.912 A289.5968 B-7.7383 
N318 X-183.031 Y17.865 Z7.930 A287.0706 B-7.8449 
N319 X-183.038 Y17.907 Z7.946 A284.5433 B-7.9564 
N320 X-183.042 Y17.950 Z7.960 A282.0165 B-8.0725 
N321 X-183.044 Y17.994 Z7.972 A279.4924 B-8.1928 
N322 X-183.045 Y18.038 Z7.982 A276.9720 B-8.3115 
N323 X-183.044 Y18.082 Z7.990 A274.4559 B-8.4370 
N324 X-183.041 Y18.127 Z7.996 A271.9440 B-8.5742 
N325 X-183.039 Y18.173 Z8.000 A269.4345 B-8.7071 
N326 X-183.037 Y18.218 Z8.002 A266.9263 B-8.8423 
N327 X-183.033 Y18.264 Z8.002 A264.4173 B-8.9796 
N328 X-183.027 Y18.310 Z8.000 A261.9058 B-9.1186 
N329 X-183.017 Y18.356 Z7.995 A259.3921 B-9.2589 
N330 X-183.004 Y18.402 Z7.989 A256.8769 B-9.4002 
N331 X-182.987 Y18.447 Z7.981 A254.3597 B-9.5421 
N332 X-182.969 Y18.491 Z7.970 A251.8385 B-9.6843 
N333 X-182.948 Y18.536 Z7.957 A249.3110 B-9.8265 
N334 X-182.926 Y18.581 Z7.943 A246.7751 B-9.9686 
N335 X-182.903 Y18.625 Z7.926 A244.2289 B-10.1101 
N336 X-182.878 Y18.668 Z7.907 A241.6694 B-10.2510 
N337 X-182.853 Y18.711 Z7.886 A239.0926 B-10.3910 
N338 X-182.827 Y18.753 Z7.863 A236.4924 B-10.5301 
N339 X-182.800 Y18.795 Z7.837 A233.8605 B-10.6682 
N340 X-182.774 Y18.836 Z7.809 A231.1862 B-10.8055 
N341 X-182.748 Y18.876 Z7.778 A228.4557 B-10.9420 
N342 X-182.722 Y18.916 Z7.745 A225.6518 B-11.0780 
N343 X-182.698 Y18.955 Z7.707 A222.7539 B-11.2137 
N344 X-182.676 Y18.994 Z7.666 A219.7379 B-11.3494 
N345 X-182.656 Y19.031 Z7.620 A216.5783 B-11.4849 
N346 X-182.639 Y19.067 Z7.569 A213.2494 B-11.6198 
N347 X-182.626 Y19.101 Z7.512 A209.7293 B-11.7533 
N348 X-182.620 Y19.132 Z7.446 A206.0122 B-11.8835 
N349 X-182.622 Y19.154 Z7.372 A202.1473 B-12.0060 
N350 X-182.634 Y19.157 Z7.286 A198.4038 B-12.1108 
N351 X-184.732 Y22.244 Z-1.991 
N352 G00 X-189.977 Y29.961 Z-25.185 
N353 X-191.257 Y48.641 Z-39.899 
N354 X-180.767 Y33.207 Z6.488 
N355 G01 X-180.824 Y30.777 Z8.458 F878 
N356 X-180.990 Y27.862 Z9.584 
N357 X-181.248 Y24.749 Z9.756 
N358 X-181.574 Y21.742 Z8.957 
N359 X-181.935 Y19.134 Z7.266 
N360 X-181.957 Y19.066 Z7.158 A196.1393 B-12.1596 
N361 X-181.985 Y18.909 Z7.022 A195.8518 B-12.1473 
N362 X-182.015 Y18.728 Z6.873 A195.8097 B-12.1262 
N363 X-182.047 Y18.533 Z6.712 A195.7658 B-12.1034 
N364 X-182.080 Y18.324 Z6.539 A195.7144 B-12.0789 
N365 X-182.114 Y18.100 Z6.354 A195.6567 B-12.0527 
N366 X-182.149 Y17.861 Z6.158 A195.5925 B-12.0248 
N367 X-182.185 Y17.609 Z5.950 A195.5199 B-11.9953 
N368 X-182.222 Y17.344 Z5.732 A195.4361 B-11.9643 
N369 X-182.259 Y17.067 Z5.505 A195.3378 B-11.9320 
N370 X-182.295 Y16.779 Z5.270 A195.2218 B-11.8986 
N371 X-182.331 Y16.482 Z5.027 A195.0865 B-11.8641 
N372 X-182.365 Y16.177 Z4.779 A194.9313 B-11.8288 
N373 X-182.399 Y15.865 Z4.527 A194.7568 B-11.7926 
N374 X-182.431 Y15.548 Z4.271 A194.5634 B-11.7557 
N375 X-182.462 Y15.226 Z4.014 A194.3515 B-11.7182 
N376 X-182.491 Y14.901 Z3.754 A194.1211 B-11.6800 
N377 X-182.518 Y14.574 Z3.495 A193.8726 B-11.6413 
N378 X-182.542 Y14.244 Z3.236 A193.6060 B-11.6021 
N379 X-182.564 Y13.913 Z2.979 A193.3201 B-11.5624 
N380 X-182.584 Y13.582 Z2.723 A193.0128 B-11.5222 
N381 X-182.600 Y13.251 Z2.469 A192.6808 B-11.4816 
N382 X-182.614 Y12.920 Z2.218 A192.3217 B-11.4406 
N383 X-182.624 Y12.590 Z1.970 A191.9345 B-11.3990 
N384 X-182.631 Y12.261 Z1.726 A191.5193 B-11.3569 
N385 X-182.638 Y11.933 Z1.485 A191.0771 B-11.3122 
N386 X-182.644 Y11.606 Z1.249 A190.6080 B-11.2652 
N387 X-182.650 Y11.280 Z1.017 A190.1119 B-11.2173 
N388 X-182.655 Y10.956 Z0.790 A189.5883 B-11.1682 
N389 X-182.659 Y10.634 Z0.568 A189.0363 B-11.1180 
N390 X-182.663 Y10.314 Z0.351 A188.4556 B-11.0664 
N391 X-182.667 Y9.996 Z0.140 A187.8453 B-11.0136 
N392 X-182.669 Y9.680 Z-0.066 A187.2051 B-10.9593 
N393 X-182.671 Y9.367 Z-0.266 A186.5343 B-10.9034 
N394 X-182.674 Y9.057 Z-0.460 A185.8326 B-10.8459 
N395 X-182.676 Y8.750 Z-0.647 A185.0993 B-10.7946 
N396 X-182.676 Y8.446 Z-0.828 A184.3337 B-10.7489 
N397 X-182.676 Y8.145 Z-1.002 A183.5342 B-10.7023 
N398 X-182.676 Y7.848 Z-1.170 A182.6985 B-10.6547 
N399 X-182.675 Y7.555 Z-1.331 A181.8243 B-10.6060 
N400 X-182.674 Y7.267 Z-1.484 A180.9102 B-10.5563 
N401 X-182.672 Y6.982 Z-1.631 A179.9563 B-10.5054 
N402 X-182.670 Y6.701 Z-1.771 A178.9643 B-10.4535 
N403 X-182.668 Y6.424 Z-1.904 A177.9370 B-10.3990 
N404 X-182.667 Y6.150 Z-2.030 A176.8774 B-10.3383 
N405 X-182.661 Y5.881 Z-2.149 A175.7876 B-10.2767 
N406 X-182.649 Y5.615 Z-2.261 A174.6688 B-10.2141 
N407 X-182.634 Y5.353 Z-2.367 A173.5211 B-10.1506 
N408 X-182.615 Y5.094 Z-2.466 A172.3438 B-10.0863 
N409 X-182.594 Y4.839 Z-2.559 A171.1359 B-10.0213 
N410 X-182.572 Y4.588 Z-2.645 A169.8967 B-9.9554 
N411 X-182.549 Y4.340 Z-2.724 A168.6261 B-9.8889 
N412 X-182.526 Y4.096 Z-2.798 A167.3243 B-9.8217 
N413 X-182.503 Y3.855 Z-2.866 A165.9912 B-9.7541 
N414 X-182.482 Y3.618 Z-2.927 A164.6274 B-9.6860 
N415 X-182.462 Y3.384 Z-2.983 A163.2335 B-9.6176 
N416 X-182.444 Y3.152 Z-3.032 A161.8106 B-9.5490 
N417 X-182.429 Y2.925 Z-3.076 A160.3600 B-9.4805 
N418 X-182.417 Y2.700 Z-3.115 A158.8830 B-9.4120 
N419 X-182.408 Y2.478 Z-3.147 A157.3813 B-9.3439 
N420 X-182.402 Y2.258 Z-3.174 A155.8563 B-9.2762 
N421 X-182.399 Y2.042 Z-3.196 A154.3096 B-9.2092 
N422 X-182.401 Y1.828 Z-3.212 A152.7426 B-9.1431 
N423 X-182.405 Y1.617 Z-3.223 A151.1574 B-9.0779 
N424 X-182.411 Y1.408 Z-3.228 A149.5556 B-9.0140 
N425 X-182.419 Y1.201 Z-3.228 A147.9393 B-8.9513 
N426 X-182.430 Y0.997 Z-3.222 A146.3104 B-8.8903 
N427 X-182.443 Y0.794 Z-3.212 A144.6706 B-8.8309 
N428 X-182.457 Y0.593 Z-3.196 A143.0217 B-8.7734 
N429 X-182.471 Y0.394 Z-3.174 A141.3651 B-8.7178 
N430 X-182.486 Y0.197 Z-3.147 A139.7021 B-8.6644 
N431 X-182.500 Y0.001 Z-3.115 A138.0340 B-8.6132 
N432 X-182.513 Y-0.194 Z-3.077 A136.3622 B-8.5643 
N433 X-182.523 Y-0.388 Z-3.033 A134.6881 B-8.5179 
N434 X-182.531 Y-0.580 Z-2.984 A133.0137 B-8.4741 
N435 X-182.535 Y-0.772 Z-2.928 A131.3408 B-8.4329 
N436 X-182.534 Y-0.963 Z-2.867 A129.6721 B-8.3944 
N437 X-182.530 Y-1.153 Z-2.799 A128.0109 B-8.3588 
N438 X-182.525 Y-1.342 Z-2.725 A126.3643 B-8.3143 
N439 X-182.521 Y-1.531 Z-2.644 A124.7493 B-8.2636 
N440 X-182.518 Y-1.720 Z-2.554 A123.2013 B-8.2140 
N441 X-182.514 Y-1.910 Z-2.454 A121.7800 B-8.1659 
N442 X-182.510 Y-2.104 Z-2.340 A120.5612 B-8.1201 
N443 X-182.506 Y-2.300 Z-2.210 A119.6124 B-8.0769 
N444 X-182.503 Y-2.500 Z-2.062 A118.9624 B-8.0368 
N445 X-182.499 Y-2.702 Z-1.899 A118.5868 B-7.9996 
N446 X-182.495 Y-2.905 Z-1.720 A118.4224 B-7.9648 
N447 X-182.492 Y-3.107 Z-1.530 A118.3971 B-7.9318 
N448 X-182.488 Y-3.307 Z-1.331 A118.4546 B-7.9001 
N449 X-182.485 Y-3.505 Z-1.123 A118.5610 B-7.8694 
N450 X-182.482 Y-3.699 Z-0.908 A118.6965 B-7.8395 
N451 X-182.479 Y-3.889 Z-0.687 A118.8416 B-7.8045 
N452 X-182.480 Y-4.074 Z-0.460 A118.9625 B-7.6771 
N453 X-182.486 Y-4.252 Z-0.231 A119.0022 B-7.4392 
N454 X-182.496 Y-4.422 Z-0.002 A118.8870 B-7.0908 
N455 X-182.512 Y-4.584 Z0.225 A118.5510 B-6.6167 
N456 X-182.533 Y-4.735 Z0.447 A117.9649 B-5.9926 
N457 X-182.556 Y-4.883 Z0.672 A117.0757 B-5.2900 
N458 X-182.579 Y-5.024 Z0.897 A116.0191 B-4.4728 
N459 X-182.602 Y-5.158 Z1.121 A114.8763 B-3.5124 
N460 X-182.627 Y-5.288 Z1.347 A113.6892 B-2.3935 
N461 X-182.654 Y-5.413 Z1.574 A112.4810 B-1.0945 
N462 X-182.685 Y-5.534 Z1.802 A111.2702 B0.4107 
N463 X-182.670 Y-5.649 Z2.028 A109.9397 B0.8895 
N464 X-182.651 Y-5.759 Z2.254 A108.5975 B1.3971 
N465 X-182.630 Y-5.865 Z2.481 A107.2634 B1.9262 
N466 X-182.605 Y-5.966 Z2.710 A105.9500 B2.4711 
N467 X-182.576 Y-6.063 Z2.939 A104.6592 B3.0287 
N468 X-182.545 Y-6.155 Z3.168 A103.3839 B3.5987 
N469 X-182.511 Y-6.242 Z3.396 A102.1119 B4.1823 
N470 X-182.475 Y-6.324 Z3.621 A100.8305 B4.7813 
N471 X-182.437 Y-6.399 Z3.844 A99.5313 B5.3959 
N472 X-182.397 Y-6.469 Z4.063 A98.2100 B6.0252 
N473 X-182.357 Y-6.534 Z4.276 A96.8640 B6.6676 
N474 X-182.315 Y-6.593 Z4.484 A95.4899 B7.3214 
N475 X-182.274 Y-6.646 Z4.685 A94.0760 B7.9875 
N476 X-182.234 Y-6.692 Z4.878 A92.6003 B8.6694 
N477 X-182.195 Y-6.733 Z5.062 A91.0559 B9.3655 
N478 X-182.157 Y-6.768 Z5.237 A89.4596 B10.0672 
N479 X-182.120 Y-6.798 Z5.403 A87.8208 B10.7681 
N480 X-182.086 Y-6.823 Z5.558 A86.1052 B11.4740 
N481 X-182.055 Y-6.844 Z5.699 A84.2633 B12.1932 
N482 X-182.027 Y-6.860 Z5.827 A82.2753 B12.9244 
N483 X-182.003 Y-6.873 Z5.940 A80.1255 B13.6632 
N484 X-181.983 Y-6.884 Z6.038 A77.7953 B14.4046 
N485 X-181.966 Y-6.894 Z6.121 A75.2744 B15.1396 
N486 X-181.953 Y-6.904 Z6.189 A72.5685 B15.8542 
N487 X-181.943 Y-6.915 Z6.244 A69.6969 B16.5321 
N488 X-181.935 Y-6.928 Z6.287 A66.6810 B17.1569 
N489 X-181.931 Y-6.943 Z6.321 A63.5618 B17.7997 
N490 X-181.933 Y-6.962 Z6.349 A60.3715 B18.4926 
N491 X-181.932 Y-6.983 Z6.371 A57.1105 B19.0378 
N492 X-181.929 Y-7.006 Z6.388 A53.8016 B19.4421 
N493 X-181.924 Y-7.031 Z6.401 A50.4617 B19.7120 
N494 X-181.916 Y-7.059 Z6.412 A47.1044 B19.8534 
N495 X-181.907 Y-7.088 Z6.421 A43.7418 B19.8721 
N496 X-181.895 Y-7.119 Z6.431 A40.3841 B19.7733 
N497 X-181.882 Y-7.150 Z6.441 A37.0400 B19.5617 
N498 X-181.866 Y-7.183 Z6.452 A33.7166 B19.2417 
N499 X-181.848 Y-7.216 Z6.465 A30.4195 B18.8169 
N500 X-181.827 Y-7.249 Z6.480 A27.1539 B18.2908 
N501 X-181.805 Y-7.281 Z6.499 A23.9245 B17.6664 
N502 X-181.781 Y-7.312 Z6.520 A20.7357 B16.9464 
N503 X-181.756 Y-7.342 Z6.545 A17.5917 B16.1331 
N504 X-181.728 Y-7.368 Z6.573 A14.4960 B15.2289 
N505 X-181.699 Y-7.392 Z6.605 A11.4511 B14.2352 
N506 X-181.668 Y-7.411 Z6.641 A8.4586 B13.1528 
N507 X-181.633 Y-7.426 Z6.681 A5.5182 B11.9814 
N508 X-181.594 Y-7.436 Z6.724 A2.6262 B10.7281 
N509 X-181.553 Y-7.440 Z6.772 A359.7721 B9.4298 
N510 X-181.512 Y-7.438 Z6.823 A356.9566 B8.0998 
N511 X-181.472 Y-7.428 Z6.878 A354.1840 B6.7492 
N512 X-181.434 Y-7.410 Z6.935 A351.4617 B5.3909 
N513 X-181.399 Y-7.381 Z6.994 A348.8047 B4.0413 
N514 X-181.369 Y-7.341 Z7.055 A346.2380 B2.7204 
N515 X-181.346 Y-7.288 Z7.114 A343.7877 B1.4490 
N516 X-181.330 Y-7.221 Z7.172 A341.4715 B0.2434 
N517 X-181.322 Y-7.138 Z7.226 A339.2997 B-0.8856 
N518 X-181.323 Y-7.041 Z7.275 A337.2694 B-1.9345 
N519 X-181.334 Y-6.929 Z7.318 A335.3703 B-2.9041 
N520 X-181.351 Y-6.803 Z7.355 A333.5836 B-3.7998 
N521 X-181.379 Y-6.664 Z7.384 A331.9079 B-4.6210 
N522 X-181.415 Y-6.512 Z7.404 A330.3388 B-5.3685 
N523 X-181.458 Y-6.347 Z7.416 A328.8779 B-6.0415 
N524 X-181.508 Y-6.170 Z7.419 A327.5094 B-6.6469 
N525 X-181.563 Y-5.983 Z7.414 A326.1956 B-7.1993 
N526 X-181.623 Y-5.786 Z7.400 A324.9203 B-7.7042 
N527 X-181.687 Y-5.579 Z7.378 A323.7044 B-8.1545 
N528 X-181.754 Y-5.361 Z7.347 A322.5737 B-8.5432 
N529 X-181.823 Y-5.133 Z7.305 A321.5288 B-8.8728 
N530 X-181.893 Y-4.895 Z7.254 A320.5567 B-9.1500 
N531 X-181.962 Y-4.647 Z7.195 A319.6538 B-9.3787 
N532 X-182.029 Y-4.390 Z7.126 A318.8236 B-9.5609 
N533 X-182.094 Y-4.124 Z7.048 A318.0723 B-9.6987 
N534 X-182.155 Y-3.849 Z6.962 A317.4058 B-9.7945 
N535 X-182.210 Y-3.565 Z6.867 A316.8216 B-9.8532 
N536 X-182.261 Y-3.273 Z6.765 A316.3123 B-9.8802 
N537 X-182.308 Y-2.973 Z6.656 A315.8699 B-9.8811 
N538 X-182.351 Y-2.666 Z6.542 A315.4853 B-9.8548 
N539 X-182.390 Y-2.352 Z6.423 A315.1531 B-9.8018 
N540 X-182.423 Y-2.032 Z6.299 A314.8753 B-9.7339 
N541 X-182.450 Y-1.707 Z6.171 A314.6563 B-9.6540 
N542 X-182.471 Y-1.375 Z6.040 A314.5029 B-9.5659 
N543 X-182.486 Y-1.038 Z5.905 A314.4227 B-9.4736 
N544 X-182.493 Y-0.703 Z5.769 A314.5535 B-9.4194 
N545 X-182.499 Y-0.365 Z5.631 A314.8408 B-9.3743 
N546 X-182.506 Y-0.024 Z5.492 A315.2323 B-9.3275 
N547 X-182.512 Y0.321 Z5.353 A315.7355 B-9.2792 
N548 X-182.518 Y0.670 Z5.214 A316.3549 B-9.2294 
N549 X-182.524 Y1.021 Z5.077 A317.0903 B-9.1784 
N550 X-182.530 Y1.376 Z4.942 A317.9369 B-9.1262 
N551 X-182.536 Y1.732 Z4.812 A318.8873 B-9.0733 
N552 X-182.542 Y2.089 Z4.686 A319.9336 B-9.0198 
N553 X-182.547 Y2.448 Z4.566 A321.0694 B-8.9660 
N554 X-182.552 Y2.807 Z4.453 A322.2885 B-8.9121 
N555 X-182.557 Y3.167 Z4.347 A323.5840 B-8.8582 
N556 X-182.562 Y3.527 Z4.248 A324.9457 B-8.8046 
N557 X-182.566 Y3.888 Z4.158 A326.3612 B-8.7516 
N558 X-182.570 Y4.249 Z4.076 A327.8160 B-8.6994 
N559 X-182.573 Y4.609 Z4.004 A329.2975 B-8.6481 
N560 X-182.577 Y4.969 Z3.941 A330.7953 B-8.5980 
N561 X-182.579 Y5.329 Z3.888 A332.3017 B-8.5490 
N562 X-182.582 Y5.688 Z3.844 A333.8104 B-8.5012 
N563 X-182.584 Y6.048 Z3.810 A335.3161 B-8.4548 
N564 X-182.585 Y6.408 Z3.785 A336.8133 B-8.4096 
N565 X-182.587 Y6.769 Z3.770 A338.2966 B-8.3658 
N566 X-182.588 Y7.130 Z3.765 A339.7608 B-8.3233 
N567 X-182.588 Y7.491 Z3.770 A341.2011 B-8.2820 
N568 X-182.588 Y7.854 Z3.784 A342.6136 B-8.2421 
N569 X-182.588 Y8.217 Z3.808 A343.9944 B-8.2034 
N570 X-182.587 Y8.581 Z3.841 A345.3402 B-8.1659 
N571 X-182.586 Y8.946 Z3.883 A346.6475 B-8.1295 
N572 X-182.584 Y9.311 Z3.935 A347.9128 B-8.0941 
N573 X-182.581 Y9.677 Z3.996 A349.1330 B-8.0598 
N574 X-182.579 Y10.043 Z4.066 A350.3052 B-8.0263 
N575 X-182.575 Y10.409 Z4.144 A351.4277 B-7.9937 
N576 X-182.571 Y10.774 Z4.231 A352.5003 B-7.9619 
N577 X-182.567 Y11.139 Z4.326 A353.5234 B-7.9308 
N578 X-182.562 Y11.503 Z4.428 A354.4979 B-7.9004 
N579 X-182.556 Y11.865 Z4.536 A355.4247 B-7.8706 
N580 X-182.550 Y12.224 Z4.651 A356.3044 B-7.8416 
N581 X-182.544 Y12.580 Z4.772 A357.1379 B-7.8132 
N582 X-182.537 Y12.931 Z4.898 A357.9271 B-7.7855 
N583 X-182.529 Y13.277 Z5.027 A358.6748 B-7.7586 
N584 X-182.521 Y13.617 Z5.160 A359.3844 B-7.7325 
N585 X-182.513 Y13.950 Z5.295 A0.0551 B-7.7073 
N586 X-182.505 Y14.273 Z5.431 A0.6795 B-7.6830 
N587 X-182.496 Y14.586 Z5.567 A1.2480 B-7.6593 
N588 X-182.488 Y14.887 Z5.703 A1.7534 B-7.6362 
N589 X-182.479 Y15.175 Z5.836 A2.1957 B-7.6099 
N590 X-182.470 Y15.450 Z5.966 A2.5832 B-7.5823 
N591 X-182.460 Y15.712 Z6.092 A2.9277 B-7.5558 
N592 X-182.444 Y15.959 Z6.214 A3.2410 B-7.5307 
N593 X-182.422 Y16.193 Z6.330 A3.5329 B-7.5071 
N594 X-182.395 Y16.412 Z6.441 A3.8096 B-7.4852 
N595 X-182.364 Y16.618 Z6.546 A4.0742 B-7.4651 
N596 X-182.331 Y16.811 Z6.645 A4.3345 B-7.4467 
N597 X-182.295 Y16.990 Z6.739 A4.5758 B-7.4297 
N598 X-182.257 Y17.135 Z6.824 A4.2459 B-7.4007 
N599 X-182.223 Y17.193 Z6.896 A1.9102 B-7.3267 
N600 X-182.191 Y17.212 Z6.959 A358.7156 B-7.2397 
N601 X-182.163 Y17.222 Z7.018 A355.4367 B-7.1595 
N602 X-182.139 Y17.230 Z7.073 A352.2339 B-7.0897 
N603 X-182.118 Y17.239 Z7.126 A349.1400 B-7.0304 
N604 X-182.102 Y17.249 Z7.176 A346.1559 B-6.9811 
N605 X-182.089 Y17.260 Z7.224 A343.2720 B-6.9413 
N606 X-182.080 Y17.273 Z7.269 A340.4751 B-6.9100 
N607 X-182.075 Y17.287 Z7.313 A337.7510 B-6.8869 
N608 X-182.073 Y17.303 Z7.356 A335.0863 B-6.8714 
N609 X-182.073 Y17.320 Z7.397 A332.4683 B-6.8632 
N610 X-182.077 Y17.338 Z7.436 A329.8864 B-6.8620 
N611 X-182.083 Y17.358 Z7.475 A327.3313 B-6.8676 
N612 X-182.092 Y17.380 Z7.512 A324.7953 B-6.8799 
N613 X-182.103 Y17.403 Z7.548 A322.2724 B-6.8990 
N614 X-182.116 Y17.427 Z7.583 A319.7582 B-6.9246 
N615 X-182.131 Y17.454 Z7.617 A317.2490 B-6.9570 
N616 X-182.147 Y17.481 Z7.650 A314.7423 B-6.9959 
N617 X-182.165 Y17.510 Z7.682 A312.2361 B-7.0415 
N618 X-182.183 Y17.541 Z7.712 A309.7291 B-7.0937 
N619 X-182.202 Y17.573 Z7.741 A307.2207 B-7.1524 
N620 X-182.222 Y17.607 Z7.769 A304.7101 B-7.2177 
N621 X-182.240 Y17.642 Z7.795 A302.1972 B-7.2893 
N622 X-182.259 Y17.678 Z7.820 A299.6817 B-7.3672 
N623 X-182.276 Y17.716 Z7.843 A297.1637 B-7.4513 
N624 X-182.293 Y17.754 Z7.864 A294.6434 B-7.5413 
N625 X-182.307 Y17.794 Z7.884 A292.1211 B-7.6370 
N626 X-182.320 Y17.835 Z7.902 A289.5968 B-7.7383 
N627 X-182.330 Y17.876 Z7.918 A287.0706 B-7.8449 
N628 X-182.337 Y17.918 Z7.932 A284.5433 B-7.9564 
N629 X-182.341 Y17.961 Z7.944 A282.0165 B-8.0725 
N630 X-182.344 Y18.005 Z7.955 A279.4924 B-8.1928 
N631 X-182.344 Y18.049 Z7.963 A276.9720 B-8.3115 
N632 X-182.343 Y18.093 Z7.969 A274.4559 B-8.4370 
N633 X-182.341 Y18.138 Z7.974 A271.9440 B-8.5742 
N634 X-182.339 Y18.183 Z7.976 A269.4345 B-8.7071 
N635 X-182.337 Y18.228 Z7.976 A266.9263 B-8.8423 
N636 X-182.333 Y18.273 Z7.975 A264.4173 B-8.9796 
N637 X-182.327 Y18.318 Z7.971 A261.9058 B-9.1186 
N638 X-182.317 Y18.363 Z7.966 A259.3921 B-9.2589 
N639 X-182.304 Y18.407 Z7.958 A256.8769 B-9.4002 
N640 X-182.288 Y18.452 Z7.949 A254.3597 B-9.5421 
N641 X-182.269 Y18.495 Z7.937 A251.8385 B-9.6843 
N642 X-182.249 Y18.539 Z7.924 A249.3110 B-9.8265 
N643 X-182.227 Y18.582 Z7.909 A246.7751 B-9.9686 
N644 X-182.204 Y18.624 Z7.891 A244.2289 B-10.1101 
N645 X-182.179 Y18.666 Z7.872 A241.6694 B-10.2510 
N646 X-182.154 Y18.708 Z7.851 A239.0926 B-10.3910 
N647 X-182.127 Y18.748 Z7.827 A236.4924 B-10.5301 
N648 X-182.101 Y18.788 Z7.802 A233.8605 B-10.6682 
N649 X-182.074 Y18.827 Z7.774 A231.1862 B-10.8055 
N650 X-182.048 Y18.866 Z7.744 A228.4557 B-10.9420 
N651 X-182.023 Y18.904 Z7.711 A225.6518 B-11.0780 
N652 X-181.999 Y18.942 Z7.674 A222.7539 B-11.2137 
N653 X-181.977 Y18.979 Z7.634 A219.7379 B-11.3494 
N654 X-181.957 Y19.015 Z7.589 A216.5783 B-11.4849 
N655 X-181.940 Y19.049 Z7.540 A213.2494 B-11.6198 
N656 X-181.927 Y19.082 Z7.484 A209.7293 B-11.7533 
N657 X-181.920 Y19.111 Z7.421 A206.0122 B-11.8835 
N658 X-181.923 Y19.132 Z7.350 A202.1473 B-12.0060 
N659 X-181.935 Y19.134 Z7.266 A198.4038 B-12.1108 
N660 X-184.033 Y22.221 Z-2.011 
N661 G00 X-189.278 Y29.938 Z-25.205 
N662 X-190.557 Y48.619 Z-39.919 
N663 X-180.067 Y33.184 Z6.468 
N664 G01 X-180.124 Y30.754 Z8.437 F878 
N665 X-180.290 Y27.840 Z9.563 
N666 X-180.549 Y24.727 Z9.736 
N667 X-180.874 Y21.719 Z8.937 
N668 X-181.235 Y19.112 Z7.246 
N669 X-181.257 Y19.043 Z7.139 A196.1393 B-12.1596 F199 
N670 X-181.285 Y18.886 Z7.004 A195.8518 B-12.1473 
N671 X-181.315 Y18.707 Z6.855 A195.8097 B-12.1262 
N672 X-181.347 Y18.512 Z6.694 A195.7658 B-12.1034 
N673 X-181.380 Y18.303 Z6.522 A195.7144 B-12.0789 
N674 X-181.414 Y18.080 Z6.337 A195.6567 B-12.0527 
N675 X-181.450 Y17.842 Z6.141 A195.5925 B-12.0248 
N676 X-181.486 Y17.590 Z5.934 A195.5199 B-11.9953 
N677 X-181.522 Y17.325 Z5.717 A195.4361 B-11.9643 
N678 X-181.559 Y17.048 Z5.490 A195.3378 B-11.9320 
N679 X-181.595 Y16.761 Z5.256 A195.2218 B-11.8986 
N680 X-181.631 Y16.465 Z5.014 A195.0865 B-11.8641 
N681 X-181.666 Y16.161 Z4.767 A194.9313 B-11.8288 
N682 X-181.699 Y15.850 Z4.515 A194.7568 B-11.7926 
N683 X-181.731 Y15.533 Z4.260 A194.5634 B-11.7557 
N684 X-181.762 Y15.212 Z4.003 A194.3515 B-11.7182 
N685 X-181.791 Y14.888 Z3.744 A194.1211 B-11.6800 
N686 X-181.818 Y14.561 Z3.485 A193.8726 B-11.6413 
N687 X-181.842 Y14.232 Z3.227 A193.6060 B-11.6021 
N688 X-181.864 Y13.902 Z2.970 A193.3201 B-11.5624 
N689 X-181.884 Y13.572 Z2.715 A193.0128 B-11.5222 
N690 X-181.900 Y13.242 Z2.462 A192.6808 B-11.4816 
N691 X-181.914 Y12.912 Z2.212 A192.3217 B-11.4406 
N692 X-181.924 Y12.582 Z1.964 A191.9345 B-11.3990 
N693 X-181.931 Y12.254 Z1.721 A191.5193 B-11.3569 
N694 X-181.938 Y11.926 Z1.481 A191.0771 B-11.3122 
N695 X-181.944 Y11.600 Z1.245 A190.6080 B-11.2652 
N696 X-181.950 Y11.275 Z1.014 A190.1119 B-11.2173 
N697 X-181.955 Y10.952 Z0.787 A189.5883 B-11.1682 
N698 X-181.959 Y10.631 Z0.566 A189.0363 B-11.1180 
N699 X-181.963 Y10.311 Z0.350 A188.4556 B-11.0664 
N700 X-181.967 Y9.994 Z0.139 A187.8453 B-11.0136 
N701 X-181.969 Y9.679 Z-0.067 A187.2051 B-10.9593 
N702 X-181.971 Y9.367 Z-0.266 A186.5343 B-10.9034 
N703 X-181.974 Y9.057 Z-0.459 A185.8326 B-10.8459 
N704 X-181.976 Y8.751 Z-0.646 A185.0993 B-10.7946 
N705 X-181.976 Y8.448 Z-0.827 A184.3337 B-10.7489 
N706 X-181.976 Y8.148 Z-1.001 A183.5342 B-10.7023 
N707 X-181.975 Y7.853 Z-1.168 A182.6985 B-10.6547 
N708 X-181.975 Y7.560 Z-1.328 A181.8243 B-10.6060 
N709 X-181.974 Y7.272 Z-1.482 A180.9102 B-10.5563 
N710 X-181.972 Y6.988 Z-1.628 A179.9563 B-10.5054 
N711 X-181.970 Y6.708 Z-1.768 A178.9643 B-10.4535 
N712 X-181.968 Y6.432 Z-1.901 A177.9370 B-10.3990 
N713 X-181.967 Y6.159 Z-2.027 A176.8774 B-10.3383 
N714 X-181.961 Y5.890 Z-2.146 A175.7876 B-10.2767 
N715 X-181.949 Y5.625 Z-2.258 A174.6688 B-10.2141 
N716 X-181.934 Y5.364 Z-2.363 A173.5211 B-10.1506 
N717 X-181.915 Y5.106 Z-2.462 A172.3438 B-10.0863 
N718 X-181.894 Y4.852 Z-2.555 A171.1359 B-10.0213 
N719 X-181.872 Y4.601 Z-2.641 A169.8967 B-9.9554 
N720 X-181.849 Y4.354 Z-2.721 A168.6261 B-9.8889 
N721 X-181.826 Y4.111 Z-2.795 A167.3243 B-9.8217 
N722 X-181.803 Y3.870 Z-2.863 A165.9912 B-9.7541 
N723 X-181.782 Y3.633 Z-2.925 A164.6274 B-9.6860 
N724 X-181.762 Y3.400 Z-2.981 A163.2335 B-9.6176 
N725 X-181.745 Y3.169 Z-3.031 A161.8106 B-9.5490 
N726 X-181.730 Y2.942 Z-3.075 A160.3600 B-9.4805 
N727 X-181.718 Y2.717 Z-3.114 A158.8830 B-9.4120 
N728 X-181.709 Y2.495 Z-3.147 A157.3813 B-9.3439 
N729 X-181.702 Y2.276 Z-3.174 A155.8563 B-9.2762 
N730 X-181.699 Y2.060 Z-3.196 A154.3096 B-9.2092 
N731 X-181.701 Y1.846 Z-3.213 A152.7426 B-9.1431 
N732 X-181.705 Y1.635 Z-3.224 A151.1574 B-9.0779 
N733 X-181.711 Y1.426 Z-3.230 A149.5556 B-9.0140 
N734 X-181.719 Y1.220 Z-3.230 A147.9393 B-8.9513 
N735 X-181.730 Y1.015 Z-3.226 A146.3104 B-8.8903 
N736 X-181.743 Y0.812 Z-3.215 A144.6706 B-8.8309 
N737 X-181.757 Y0.611 Z-3.200 A143.0217 B-8.7734 
N738 X-181.771 Y0.412 Z-3.179 A141.3651 B-8.7178 
N739 X-181.786 Y0.214 Z-3.152 A139.7021 B-8.6644 
N740 X-181.800 Y0.018 Z-3.120 A138.0340 B-8.6132 
N741 X-181.813 Y-0.177 Z-3.083 A136.3622 B-8.5643 
N742 X-181.823 Y-0.371 Z-3.039 A134.6881 B-8.5179 
N743 X-181.831 Y-0.564 Z-2.990 A133.0137 B-8.4741 
N744 X-181.835 Y-0.756 Z-2.935 A131.3408 B-8.4329 
N745 X-181.834 Y-0.948 Z-2.874 A129.6721 B-8.3944 
N746 X-181.830 Y-1.138 Z-2.807 A128.0109 B-8.3588 
N747 X-181.826 Y-1.328 Z-2.733 A126.3643 B-8.3143 
N748 X-181.821 Y-1.517 Z-2.652 A124.7493 B-8.2636 
N749 X-181.818 Y-1.707 Z-2.563 A123.2013 B-8.2140 
N750 X-181.814 Y-1.898 Z-2.462 A121.7800 B-8.1659 
N751 X-181.810 Y-2.092 Z-2.348 A120.5612 B-8.1201 
N752 X-181.806 Y-2.289 Z-2.218 A119.6124 B-8.0769 
N753 X-181.802 Y-2.489 Z-2.071 A118.9624 B-8.0368 
N754 X-181.799 Y-2.692 Z-1.907 A118.5868 B-7.9996 
N755 X-181.795 Y-2.896 Z-1.729 A118.4224 B-7.9648 
N756 X-181.792 Y-3.099 Z-1.539 A118.3971 B-7.9318 
N757 X-181.788 Y-3.299 Z-1.339 A118.4546 B-7.9001 
N758 X-181.785 Y-3.497 Z-1.131 A118.5610 B-7.8694 
N759 X-181.782 Y-3.692 Z-0.916 A118.6965 B-7.8395 
N760 X-181.779 Y-3.882 Z-0.694 A118.8416 B-7.8045 
N761 X-181.780 Y-4.068 Z-0.468 A118.9625 B-7.6771 
N762 X-181.786 Y-4.246 Z-0.238 A119.0022 B-7.4392 
N763 X-181.796 Y-4.417 Z-0.009 A118.8870 B-7.0908 
N764 X-181.811 Y-4.579 Z0.218 A118.5510 B-6.6167 
N765 X-181.833 Y-4.731 Z0.440 A117.9649 B-5.9926 
N766 X-181.856 Y-4.873 Z0.657 A117.0757 B-5.2900 
N767 X-181.879 Y-5.009 Z0.872 A116.0191 B-4.4728 
N768 X-181.902 Y-5.138 Z1.087 A114.8763 B-3.5124 
N769 X-181.928 Y-5.263 Z1.302 A113.6892 B-2.3935 
N770 X-181.955 Y-5.384 Z1.519 A112.4810 B-1.0945 
N771 X-181.987 Y-5.501 Z1.737 A111.2702 B0.4107 
N772 X-181.973 Y-5.613 Z1.953 A109.9397 B0.8895 
N773 X-181.955 Y-5.720 Z2.169 A108.5975 B1.3971 
N774 X-181.935 Y-5.824 Z2.386 A107.2634 B1.9262 
N775 X-181.910 Y-5.923 Z2.605 A105.9500 B2.4711 
N776 X-181.883 Y-6.018 Z2.824 A104.6592 B3.0287 
N777 X-181.853 Y-6.109 Z3.044 A103.3839 B3.5987 
N778 X-181.819 Y-6.196 Z3.263 A102.1119 B4.1823 
N779 X-181.784 Y-6.277 Z3.479 A100.8305 B4.7813 
N780 X-181.746 Y-6.354 Z3.693 A99.5313 B5.3959 
N781 X-181.707 Y-6.425 Z3.904 A98.2100 B6.0252 
N782 X-181.667 Y-6.492 Z4.109 A96.8640 B6.6676 
N783 X-181.626 Y-6.553 Z4.310 A95.4899 B7.3214 
N784 X-181.585 Y-6.608 Z4.505 A94.0760 B7.9875 
N785 X-181.543 Y-6.659 Z4.692 A92.6003 B8.6694 
N786 X-181.503 Y-6.704 Z4.870 A91.0559 B9.3655 
N787 X-181.464 Y-6.743 Z5.040 A89.4596 B10.0672 
N788 X-181.426 Y-6.779 Z5.202 A87.8208 B10.7681 
N789 X-181.389 Y-6.809 Z5.354 A86.1052 B11.4740 
N790 X-181.355 Y-6.836 Z5.495 A84.2633 B12.1932 
N791 X-181.324 Y-6.859 Z5.622 A82.2753 B12.9244 
N792 X-181.296 Y-6.880 Z5.737 A80.1255 B13.6632 
N793 X-181.271 Y-6.899 Z5.837 A77.7953 B14.4046 
N794 X-181.249 Y-6.916 Z5.925 A75.2744 B15.1396 
N795 X-181.230 Y-6.934 Z6.000 A72.5685 B15.8542 
N796 X-181.213 Y-6.952 Z6.063 A69.6969 B16.5321 
N797 X-181.198 Y-6.970 Z6.117 A66.6810 B17.1569 
N798 X-181.187 Y-6.990 Z6.163 A63.5618 B17.7997 
N799 X-181.182 Y-7.012 Z6.204 A60.3715 B18.4926 
N800 X-181.174 Y-7.035 Z6.240 A57.1105 B19.0378 
N801 X-181.164 Y-7.058 Z6.272 A53.8016 B19.4421 
N802 X-181.153 Y-7.082 Z6.301 A50.4617 B19.7120 
N803 X-181.140 Y-7.105 Z6.327 A47.1044 B19.8534 
N804 X-181.126 Y-7.129 Z6.353 A43.7418 B19.8721 
N805 X-181.111 Y-7.153 Z6.378 A40.3841 B19.7733 
N806 X-181.094 Y-7.177 Z6.404 A37.0400 B19.5617 
N807 X-181.076 Y-7.200 Z6.430 A33.7166 B19.2417 
N808 X-181.057 Y-7.223 Z6.457 A30.4195 B18.8169 
N809 X-181.037 Y-7.244 Z6.486 A27.1539 B18.2908 
N810 X-181.015 Y-7.263 Z6.516 A23.9245 B17.6664 
N811 X-180.993 Y-7.281 Z6.549 A20.7357 B16.9464 
N812 X-180.970 Y-7.296 Z6.583 A17.5917 B16.1331 
N813 X-180.946 Y-7.308 Z6.620 A14.4960 B15.2289 
N814 X-180.921 Y-7.316 Z6.659 A11.4511 B14.2352 
N815 X-180.895 Y-7.321 Z6.700 A8.4586 B13.1528 
N816 X-180.866 Y-7.320 Z6.744 A5.5182 B11.9814 
N817 X-180.833 Y-7.315 Z6.790 A2.6262 B10.7281 
N818 X-180.799 Y-7.304 Z6.838 A359.7721 B9.4298 
N819 X-180.765 Y-7.288 Z6.888 A356.9566 B8.0998 
N820 X-180.732 Y-7.265 Z6.940 A354.1840 B6.7492 
N821 X-180.701 Y-7.234 Z6.993 A351.4617 B5.3909 
N822 X-180.673 Y-7.195 Z7.047 A348.8047 B4.0413 
N823 X-180.650 Y-7.145 Z7.101 A346.2380 B2.7204 
N824 X-180.634 Y-7.084 Z7.153 A343.7877 B1.4490 
N825 X-180.624 Y-7.009 Z7.203 A341.4715 B0.2434 
N826 X-180.622 Y-6.922 Z7.248 A339.2997 B-0.8856 
N827 X-180.628 Y-6.821 Z7.288 A337.2694 B-1.9345 
N828 X-180.642 Y-6.708 Z7.322 A335.3703 B-2.9041 
N829 X-180.663 Y-6.582 Z7.350 A333.5836 B-3.7998 
N830 X-180.693 Y-6.445 Z7.371 A331.9079 B-4.6210 
N831 X-180.731 Y-6.296 Z7.384 A330.3388 B-5.3685 
N832 X-180.776 Y-6.135 Z7.389 A328.8779 B-6.0415 
N833 X-180.827 Y-5.964 Z7.387 A327.5094 B-6.6469 
N834 X-180.882 Y-5.782 Z7.377 A326.1956 B-7.1993 
N835 X-180.942 Y-5.592 Z7.360 A324.9203 B-7.7042 
N836 X-181.005 Y-5.393 Z7.334 A323.7044 B-8.1545 
N837 X-181.071 Y-5.183 Z7.300 A322.5737 B-8.5432 
N838 X-181.139 Y-4.963 Z7.257 A321.5288 B-8.8728 
N839 X-181.208 Y-4.735 Z7.206 A320.5567 B-9.1500 
N840 X-181.275 Y-4.497 Z7.146 A319.6538 B-9.3787 
N841 X-181.341 Y-4.250 Z7.078 A318.8236 B-9.5609 
N842 X-181.404 Y-3.995 Z7.002 A318.0723 B-9.6987 
N843 X-181.464 Y-3.730 Z6.918 A317.4058 B-9.7945 
N844 X-181.518 Y-3.457 Z6.826 A316.8216 B-9.8532 
N845 X-181.567 Y-3.176 Z6.728 A316.3123 B-9.8802 
N846 X-181.613 Y-2.888 Z6.623 A315.8699 B-9.8811 
N847 X-181.655 Y-2.592 Z6.513 A315.4853 B-9.8548 
N848 X-181.692 Y-2.291 Z6.398 A315.1531 B-9.8018 
N849 X-181.724 Y-1.983 Z6.279 A314.8753 B-9.7339 
N850 X-181.751 Y-1.669 Z6.156 A314.6563 B-9.6540 
N851 X-181.772 Y-1.350 Z6.030 A314.5029 B-9.5659 
N852 X-181.786 Y-1.026 Z5.900 A314.4227 B-9.4736 
N853 X-181.793 Y-0.694 Z5.766 A314.5535 B-9.4194 
N854 X-181.799 Y-0.357 Z5.628 A314.8408 B-9.3743 
N855 X-181.806 Y-0.016 Z5.489 A315.2323 B-9.3275 
N856 X-181.812 Y0.329 Z5.350 A315.7355 B-9.2792 
N857 X-181.818 Y0.678 Z5.211 A316.3549 B-9.2294 
N858 X-181.824 Y1.029 Z5.074 A317.0903 B-9.1784 
N859 X-181.830 Y1.383 Z4.940 A317.9369 B-9.1262 
N860 X-181.836 Y1.739 Z4.810 A318.8873 B-9.0733 
N861 X-181.842 Y2.096 Z4.684 A319.9336 B-9.0198 
N862 X-181.847 Y2.454 Z4.565 A321.0694 B-8.9660 
N863 X-181.852 Y2.813 Z4.452 A322.2885 B-8.9121 
N864 X-181.857 Y3.172 Z4.345 A323.5840 B-8.8582 
N865 X-181.861 Y3.532 Z4.247 A324.9457 B-8.8046 
N866 X-181.866 Y3.892 Z4.157 A326.3612 B-8.7516 
N867 X-181.870 Y4.252 Z4.076 A327.8160 B-8.6994 
N868 X-181.873 Y4.612 Z4.004 A329.2975 B-8.6481 
N869 X-181.876 Y4.971 Z3.941 A330.7953 B-8.5980 
N870 X-181.878 Y5.330 Z3.888 A332.3017 B-8.5490 
N871 X-181.882 Y5.689 Z3.844 A333.8104 B-8.5012 
N872 X-181.883 Y6.048 Z3.810 A335.3161 B-8.4548 
N873 X-181.885 Y6.408 Z3.785 A336.8133 B-8.4096 
N874 X-181.887 Y6.767 Z3.770 A338.2966 B-8.3658 
N875 X-181.888 Y7.128 Z3.765 A339.7608 B-8.3233 
N876 X-181.888 Y7.488 Z3.769 A341.2011 B-8.2820 
N877 X-181.888 Y7.850 Z3.783 A342.6136 B-8.2421 
N878 X-181.888 Y8.212 Z3.807 A343.9944 B-8.2034 
N879 X-181.887 Y8.575 Z3.840 A345.3402 B-8.1659 
N880 X-181.885 Y8.939 Z3.882 A346.6475 B-8.1295 
N881 X-181.884 Y9.304 Z3.934 A347.9128 B-8.0941 
N882 X-181.881 Y9.668 Z3.994 A349.1330 B-8.0598 
N883 X-181.878 Y10.034 Z4.064 A350.3052 B-8.0263 
N884 X-181.875 Y10.399 Z4.142 A351.4277 B-7.9937 
N885 X-181.871 Y10.763 Z4.228 A352.5003 B-7.9619 
N886 X-181.867 Y11.127 Z4.322 A353.5234 B-7.9308 
N887 X-181.862 Y11.490 Z4.423 A354.4979 B-7.9004 
N888 X-181.856 Y11.851 Z4.532 A355.4247 B-7.8706 
N889 X-181.850 Y12.210 Z4.646 A356.3044 B-7.8416 
N890 X-181.844 Y12.565 Z4.766 A357.1379 B-7.8132 
N891 X-181.837 Y12.916 Z4.891 A357.9271 B-7.7855 
N892 X-181.829 Y13.261 Z5.020 A358.6748 B-7.7586 
N893 X-181.821 Y13.600 Z5.152 A359.3844 B-7.7325 
N894 X-181.813 Y13.932 Z5.287 A0.0551 B-7.7073 
N895 X-181.805 Y14.255 Z5.422 A0.6795 B-7.6830 
N896 X-181.796 Y14.567 Z5.558 A1.2480 B-7.6593 
N897 X-181.788 Y14.867 Z5.693 A1.7534 B-7.6362 
N898 X-181.779 Y15.155 Z5.826 A2.1957 B-7.6099 
N899 X-181.770 Y15.429 Z5.955 A2.5832 B-7.5823 
N900 X-181.760 Y15.690 Z6.081 A2.9277 B-7.5558 
N901 X-181.744 Y15.937 Z6.202 A3.2410 B-7.5307 
N902 X-181.722 Y16.170 Z6.318 A3.5329 B-7.5071 
N903 X-181.695 Y16.389 Z6.429 A3.8096 B-7.4852 
N904 X-181.665 Y16.595 Z6.534 A4.0742 B-7.4651 
N905 X-181.631 Y16.787 Z6.632 A4.3345 B-7.4467 
N906 X-181.595 Y16.966 Z6.726 A4.5758 B-7.4297 
N907 X-181.557 Y17.111 Z6.811 A4.2459 B-7.4007 
N908 X-181.523 Y17.169 Z6.884 A1.9102 B-7.3267 
N909 X-181.491 Y17.188 Z6.949 A358.7156 B-7.2397 
N910 X-181.463 Y17.198 Z7.010 A355.4367 B-7.1595 
N911 X-181.438 Y17.207 Z7.067 A352.2339 B-7.0897 
N912 X-181.418 Y17.217 Z7.121 A349.1400 B-7.0304 
N913 X-181.402 Y17.228 Z7.172 A346.1559 B-6.9811 
N914 X-181.389 Y17.241 Z7.221 A343.2720 B-6.9413 
N915 X-181.380 Y17.255 Z7.268 A340.4751 B-6.9100 
N916 X-181.374 Y17.270 Z7.313 A337.7510 B-6.8869 
N917 X-181.372 Y17.288 Z7.356 A335.0863 B-6.8714 
N918 X-181.373 Y17.306 Z7.397 A332.4683 B-6.8632 
N919 X-181.376 Y17.326 Z7.438 A329.8864 B-6.8620 
N920 X-181.382 Y17.348 Z7.476 A327.3313 B-6.8676 
N921 X-181.391 Y17.371 Z7.514 A324.7953 B-6.8799 
N922 X-181.402 Y17.396 Z7.550 A322.2724 B-6.8990 
N923 X-181.415 Y17.422 Z7.585 A319.7582 B-6.9246 
N924 X-181.430 Y17.450 Z7.619 A317.2490 B-6.9570 
N925 X-181.446 Y17.479 Z7.651 A314.7423 B-6.9959 
N926 X-181.464 Y17.510 Z7.682 A312.2361 B-7.0415 
N927 X-181.482 Y17.542 Z7.712 A309.7291 B-7.0937 
N928 X-181.501 Y17.576 Z7.740 A307.2207 B-7.1524 
N929 X-181.520 Y17.611 Z7.766 A304.7101 B-7.2177 
N930 X-181.539 Y17.647 Z7.792 A302.1972 B-7.2893 
N931 X-181.558 Y17.685 Z7.815 A299.6817 B-7.3672 
N932 X-181.575 Y17.723 Z7.837 A297.1637 B-7.4513 
N933 X-181.592 Y17.763 Z7.857 A294.6434 B-7.5413 
N934 X-181.606 Y17.803 Z7.875 A292.1211 B-7.6370 
N935 X-181.619 Y17.845 Z7.891 A289.5968 B-7.7383 
N936 X-181.629 Y17.887 Z7.905 A287.0706 B-7.8449 
N937 X-181.636 Y17.929 Z7.918 A284.5433 B-7.9564 
N938 X-181.641 Y17.973 Z7.928 A282.0165 B-8.0725 
N939 X-181.643 Y18.016 Z7.937 A279.4924 B-8.1928 
N940 X-181.644 Y18.060 Z7.944 A276.9720 B-8.3115 
N941 X-181.643 Y18.105 Z7.948 A274.4559 B-8.4370 
N942 X-181.641 Y18.149 Z7.951 A271.9440 B-8.5742 
N943 X-181.639 Y18.193 Z7.952 A269.4345 B-8.7071 
N944 X-181.637 Y18.237 Z7.951 A266.9263 B-8.8423 
N945 X-181.633 Y18.282 Z7.948 A264.4173 B-8.9796 
N946 X-181.627 Y18.326 Z7.943 A261.9058 B-9.1186 
N947 X-181.618 Y18.369 Z7.936 A259.3921 B-9.2589 
N948 X-181.605 Y18.413 Z7.927 A256.8769 B-9.4002 
N949 X-181.588 Y18.456 Z7.917 A254.3597 B-9.5421 
N950 X-181.570 Y18.499 Z7.904 A251.8385 B-9.6843 
N951 X-181.550 Y18.541 Z7.890 A249.3110 B-9.8265 
N952 X-181.528 Y18.582 Z7.874 A246.7751 B-9.9686 
N953 X-181.504 Y18.623 Z7.856 A244.2289 B-10.1101 
N954 X-181.480 Y18.663 Z7.837 A241.6694 B-10.2510 
N955 X-181.454 Y18.703 Z7.815 A239.0926 B-10.3910 
N956 X-181.428 Y18.742 Z7.792 A236.4924 B-10.5301 
N957 X-181.402 Y18.780 Z7.767 A233.8605 B-10.6682 
N958 X-181.375 Y18.818 Z7.739 A231.1862 B-10.8055 
N959 X-181.349 Y18.855 Z7.709 A228.4557 B-10.9420 
N960 X-181.324 Y18.891 Z7.677 A225.6518 B-11.0780 
N961 X-181.300 Y18.927 Z7.641 A222.7539 B-11.2137 
N962 X-181.278 Y18.963 Z7.602 A219.7379 B-11.3494 
N963 X-181.258 Y18.997 Z7.559 A216.5783 B-11.4849 
N964 X-181.241 Y19.030 Z7.511 A213.2494 B-11.6198 
N965 X-181.228 Y19.062 Z7.457 A209.7293 B-11.7533 
N966 X-181.221 Y19.090 Z7.396 A206.0122 B-11.8835 
N967 X-181.224 Y19.110 Z7.327 A202.1473 B-12.0060 
N968 X-181.235 Y19.112 Z7.246 A198.4038 B-12.1108 
N969 X-183.333 Y22.199 Z-2.032 F878 
N970 G00 X-191.725 Y34.546 Z-39.141 
;RAPORT("TB123456","Flank Milling Transition:157 End")
;trailer : concat=None
; points cnt = 918
N972 MSG (" --- GROUPED OF SUBPROGRAM --- ")
N973 FGROUP()
N974 TRAFOOF
; PROGRAM NAME: B12345633
; ORDER       : B123456
; OPER. NAME  : Flank Milling Transition:158
; OPER. DESCR.: finish flank shroud
; OPER. TYPE  : preFinFlank
; GEO. OPTION : 2
; MACHINE     : HSTM_500_SIM840D_Py
;             : HSTM500 - HAMUEL: 5-axis milling machine - SIM840D Traori PP_Script
; CONTROL     : SINUMERIK 840D
; created:   2023-06-06 12:06:43.412585
;-------DODATKOWE DANE-------------------
; PROGRAMISTA : Mariusz Malec
; PARTID      : 306T001953P1010_-
;  dec_value  : 0.7
;  lean_angle : 10.0
;  tilt_angle : 0.0
;  airf_offset: 0.05
;  firstoffset: 1.5
;----------------------------------------
;RAPORT("TB123456","Flank Milling Transition:158")
N10 TRAFOOF
N11 D0
N12 G90 G94
N13 G0 G53 D0 Z550 B0
N14 STOPRE
M9 ; chlodziwo wyl
; --- Flank Milling Transition:158 - finish flank shroud ---
N16 ;ToolChange : concat=None ,current_tdmid=None, PP.tdmId=970356
N17 TRAFOOF
N18 G0 G53 D0 Z550 B0
N19 STOPRE
N20 MSG(" TLID=970356 D=3.86 R=2.3 Ang=10.0 Len=170.0 ")
N21 S9978 M03
N22 STOPRE
N23 CYCLE832(0.01,1,1)
N24 G0 G53 A231.6968 B7.2100
N25 TRAORI
N26 G54 D4
N27 D4 
N28 TRANS  X=R8 A=R25
STOPRE
E_ZDARZ=300018
;ACS_FINISH_UBG_PLATFORM_XLB_SHROUD=7770356
STOPRE
N29 ; DELTA A > 40.1
N30 TRAFOOF
N31 D4
N32 STOPRE
N33 G00 G54 Z216.000
N34 G01 A231.6968 F10000
N35 TRAORI
N36 G54 D4
N37 STOPRE
N38 TRANS  X=R8 A=R25
N39 G00 X-203.653 Y56.182 Z-38.382 A231.6968 B7.2100 
N40 M340 ; chlodziwo centralne
N41 X-209.928 Y17.255 Z-7.636 
N42 G01 X-209.924 Y15.550 Z-5.013 F878 
N43 X-209.914 Y14.739 Z-1.992 
N44 X-209.898 Y14.901 Z1.133 
N45 X-209.878 Y16.020 Z4.054 
N46 X-209.855 Y17.988 Z6.487 
N47 X-209.861 Y18.035 Z6.492 A235.3182 B7.3850 
N48 X-209.862 Y18.071 Z6.487 A239.0502 B7.5798 
N49 X-209.855 Y18.102 Z6.481 A242.6349 B7.7799 
N50 X-209.844 Y18.131 Z6.474 A246.0303 B7.9803 
N51 X-209.829 Y18.159 Z6.469 A249.2453 B8.1790 
N52 X-209.811 Y18.186 Z6.465 A252.3030 B8.3754 
N53 X-209.792 Y18.212 Z6.462 A255.2294 B8.5695 
N54 X-209.771 Y18.237 Z6.460 A258.0499 B8.7616 
N55 X-209.750 Y18.262 Z6.460 A260.7872 B8.9521 
N56 X-209.728 Y18.286 Z6.461 A263.4610 B9.1417 
N57 X-209.705 Y18.310 Z6.463 A266.0872 B9.3306 
N58 X-209.683 Y18.333 Z6.466 A268.6778 B9.5192 
N59 X-209.662 Y18.357 Z6.471 A271.2419 B9.7074 
N60 X-209.641 Y18.380 Z6.477 A273.7859 B9.8953 
N61 X-209.620 Y18.402 Z6.485 A276.3145 B10.0827 
N62 X-209.601 Y18.424 Z6.493 A278.8316 B10.2694 
N63 X-209.584 Y18.446 Z6.503 A281.3407 B10.4552 
N64 X-209.569 Y18.467 Z6.514 A283.8445 B10.6398 
N65 X-209.556 Y18.488 Z6.526 A286.3449 B10.8230 
N66 X-209.546 Y18.508 Z6.540 A288.8416 B11.0042 
N67 X-209.539 Y18.528 Z6.555 A291.3336 B11.1829 
N68 X-209.534 Y18.546 Z6.570 A293.8202 B11.3588 
N69 X-209.531 Y18.564 Z6.587 A296.3013 B11.5322 
N70 X-209.531 Y18.581 Z6.605 A298.7753 B11.7238 
N71 X-209.530 Y18.597 Z6.623 A301.2472 B11.8734 
N72 X-209.530 Y18.611 Z6.643 A303.7153 B12.0255 
N73 X-209.532 Y18.625 Z6.663 A306.1825 B12.1817 
N74 X-209.536 Y18.638 Z6.684 A308.6523 B12.3333 
N75 X-209.543 Y18.650 Z6.705 A311.1261 B12.4800 
N76 X-209.553 Y18.661 Z6.727 A313.6031 B12.6215 
N77 X-209.567 Y18.670 Z6.750 A316.0833 B12.7576 
N78 X-209.584 Y18.679 Z6.773 A318.5675 B12.8879 
N79 X-209.602 Y18.686 Z6.796 A321.0570 B13.0123 
N80 X-209.623 Y18.692 Z6.820 A323.5525 B13.1306 
N81 X-209.645 Y18.697 Z6.844 A326.0545 B13.2430 
N82 X-209.669 Y18.701 Z6.868 A328.5627 B13.3560 
N83 X-209.693 Y18.703 Z6.893 A331.0775 B13.4546 
N84 X-209.718 Y18.705 Z6.918 A333.5980 B13.5462 
N85 X-209.743 Y18.705 Z6.942 A336.1236 B13.6305 
N86 X-209.769 Y18.704 Z6.966 A338.6535 B13.7073 
N87 X-209.794 Y18.702 Z6.990 A341.1871 B13.7764 
N88 X-209.818 Y18.699 Z7.014 A343.7238 B13.8379 
N89 X-209.841 Y18.694 Z7.037 A346.2635 B13.8915 
N90 X-209.863 Y18.689 Z7.060 A348.8061 B13.9373 
N91 X-209.883 Y18.683 Z7.083 A351.3525 B13.9752 
N92 X-209.901 Y18.675 Z7.105 A353.9041 B14.0053 
N93 X-209.917 Y18.667 Z7.126 A356.4630 B14.0275 
N94 X-209.930 Y18.657 Z7.147 A359.0326 B14.0418 
N95 X-209.940 Y18.647 Z7.168 A1.6171 B14.0483 
N96 X-209.947 Y18.635 Z7.188 A4.2225 B14.0467 
N97 X-209.951 Y18.623 Z7.207 A6.8564 B14.0372 
N98 X-209.952 Y18.609 Z7.226 A9.5282 B14.0193 
N99 X-209.949 Y18.594 Z7.245 A12.2487 B13.9928 
N100 X-209.942 Y18.578 Z7.263 A15.0298 B13.9572 
N101 X-209.931 Y18.560 Z7.280 A17.8845 B13.9121 
N102 X-209.915 Y18.540 Z7.296 A20.8259 B13.8566 
N103 X-209.895 Y18.518 Z7.312 A23.8660 B13.7900 
N104 X-209.871 Y18.493 Z7.326 A27.0120 B13.7114 
N105 X-209.842 Y18.465 Z7.339 A30.2586 B13.6205 
N106 X-209.808 Y18.431 Z7.348 A33.5643 B13.5181 
N107 X-209.770 Y18.385 Z7.348 A36.7503 B13.4102 
N108 X-209.730 Y18.303 Z7.320 A38.9559 B13.3296 
N109 X-209.693 Y18.155 Z7.241 A39.1994 B13.3169 
N110 X-209.658 Y17.982 Z7.145 A38.9448 B13.3215 
N111 X-209.626 Y17.797 Z7.043 A38.6745 B13.3259 
N112 X-209.598 Y17.599 Z6.935 A38.3996 B13.3298 
N113 X-209.573 Y17.389 Z6.822 A38.1129 B13.3334 
N114 X-209.552 Y17.167 Z6.704 A37.8113 B13.3367 
N115 X-209.536 Y16.931 Z6.580 A37.4895 B13.3397 
N116 X-209.525 Y16.683 Z6.452 A37.1383 B13.3428 
N117 X-209.521 Y16.422 Z6.318 A36.7466 B13.3460 
N118 X-209.523 Y16.150 Z6.181 A36.3033 B13.3493 
N119 X-209.528 Y15.865 Z6.040 A35.7995 B13.3538 
N120 X-209.533 Y15.569 Z5.897 A35.2331 B13.3585 
N121 X-209.537 Y15.263 Z5.752 A34.6099 B13.3632 
N122 X-209.541 Y14.947 Z5.607 A33.9383 B13.3675 
N123 X-209.544 Y14.624 Z5.462 A33.2263 B13.3709 
N124 X-209.547 Y14.294 Z5.319 A32.4766 B13.3735 
N125 X-209.549 Y13.959 Z5.179 A31.6861 B13.3749 
N126 X-209.552 Y13.618 Z5.041 A30.8518 B13.3753 
N127 X-209.552 Y13.273 Z4.908 A29.9714 B13.3744 
N128 X-209.552 Y12.924 Z4.779 A29.0435 B13.3722 
N129 X-209.552 Y12.573 Z4.654 A28.0673 B13.3684 
N130 X-209.551 Y12.220 Z4.536 A27.0420 B13.3629 
N131 X-209.550 Y11.865 Z4.423 A25.9668 B13.3556 
N132 X-209.548 Y11.509 Z4.317 A24.8407 B13.3462 
N133 X-209.545 Y11.152 Z4.218 A23.6638 B13.3347 
N134 X-209.542 Y10.794 Z4.126 A22.4370 B13.3206 
N135 X-209.537 Y10.436 Z4.042 A21.1628 B13.3040 
N136 X-209.533 Y10.077 Z3.965 A19.8443 B13.2846 
N137 X-209.527 Y9.718 Z3.897 A18.4850 B13.2623 
N138 X-209.521 Y9.359 Z3.836 A17.0885 B13.2368 
N139 X-209.514 Y9.000 Z3.785 A15.6583 B13.2082 
N140 X-209.507 Y8.640 Z3.742 A14.1981 B13.1762 
N141 X-209.499 Y8.280 Z3.708 A12.7120 B13.1410 
N142 X-209.490 Y7.920 Z3.683 A11.2046 B13.1023 
N143 X-209.481 Y7.558 Z3.667 A9.6810 B13.0603 
N144 X-209.471 Y7.196 Z3.661 A8.1469 B13.0150 
N145 X-209.460 Y6.833 Z3.664 A6.6078 B12.9664 
N146 X-209.449 Y6.469 Z3.677 A5.0692 B12.9148 
N147 X-209.437 Y6.103 Z3.699 A3.5370 B12.8603 
N148 X-209.425 Y5.736 Z3.732 A2.0181 B12.8030 
N149 X-209.412 Y5.368 Z3.774 A0.5217 B12.7434 
N150 X-209.398 Y4.998 Z3.826 A359.0595 B12.6819 
N151 X-209.383 Y4.628 Z3.889 A357.6456 B12.6191 
N152 X-209.368 Y4.257 Z3.961 A356.2939 B12.5555 
N153 X-209.353 Y3.886 Z4.042 A355.0158 B12.4920 
N154 X-209.337 Y3.516 Z4.133 A353.8197 B12.4290 
N155 X-209.320 Y3.146 Z4.232 A352.7121 B12.3670 
N156 X-209.303 Y2.777 Z4.338 A351.6997 B12.3067 
N157 X-209.286 Y2.410 Z4.452 A350.7901 B12.2487 
N158 X-209.268 Y2.045 Z4.572 A349.9918 B12.1935 
N159 X-209.251 Y1.684 Z4.696 A349.3118 B12.1418 
N160 X-209.233 Y1.326 Z4.825 A348.7524 B12.0939 
N161 X-209.215 Y0.974 Z4.956 A348.3111 B12.0502 
N162 X-209.197 Y0.626 Z5.089 A347.9809 B12.0104 
N163 X-209.179 Y0.284 Z5.223 A347.7530 B11.9751 
N164 X-209.154 Y-0.052 Z5.355 A347.6273 B11.7469 
N165 X-209.120 Y-0.398 Z5.490 A347.7568 B11.2515 
N166 X-209.093 Y-0.739 Z5.625 A347.9601 B10.7627 
N167 X-209.072 Y-1.072 Z5.757 A348.2188 B10.2765 
N168 X-209.056 Y-1.399 Z5.886 A348.5281 B9.7845 
N169 X-209.044 Y-1.719 Z6.011 A348.8857 B9.2526 
N170 X-209.040 Y-2.030 Z6.131 A349.2972 B8.7218 
N171 X-209.044 Y-2.333 Z6.247 A349.7716 B8.1860 
N172 X-209.055 Y-2.625 Z6.356 A350.3195 B7.6453 
N173 X-209.072 Y-2.907 Z6.459 A350.9509 B7.0971 
N174 X-209.094 Y-3.179 Z6.555 A351.6712 B6.5368 
N175 X-209.121 Y-3.439 Z6.644 A352.4769 B5.9640 
N176 X-209.150 Y-3.689 Z6.725 A353.3630 B5.3783 
N177 X-209.182 Y-3.928 Z6.798 A354.3274 B4.7772 
N178 X-209.214 Y-4.155 Z6.864 A355.3745 B4.1618 
N179 X-209.246 Y-4.370 Z6.922 A356.5195 B3.5277 
N180 X-209.275 Y-4.574 Z6.972 A357.7676 B2.8752 
N181 X-209.303 Y-4.765 Z7.014 A359.0908 B2.2093 
N182 X-209.329 Y-4.945 Z7.050 A0.4661 B1.5353 
N183 X-209.351 Y-5.114 Z7.078 A1.9100 B0.8524 
N184 X-209.369 Y-5.270 Z7.100 A3.4642 B0.1555 
N185 X-209.381 Y-5.411 Z7.117 A5.1472 B-0.5563 
N186 X-209.389 Y-5.539 Z7.128 A6.9538 B-1.2794 
N187 X-209.391 Y-5.652 Z7.134 A8.8798 B-2.0095 
N188 X-209.388 Y-5.752 Z7.137 A10.9269 B-2.7430 
N189 X-209.380 Y-5.839 Z7.137 A13.0964 B-3.4748 
N190 X-209.368 Y-5.914 Z7.136 A15.3800 B-4.1982 
N191 X-209.352 Y-5.977 Z7.133 A17.7631 B-4.9049 
N192 X-209.331 Y-6.030 Z7.131 A20.2298 B-5.5859 
N193 X-209.309 Y-6.074 Z7.129 A22.7575 B-6.2323 
N194 X-209.285 Y-6.112 Z7.128 A25.3279 B-6.8364 
N195 X-209.262 Y-6.143 Z7.128 A27.9292 B-7.3879 
N196 X-209.240 Y-6.170 Z7.129 A30.5555 B-7.8518 
N197 X-209.221 Y-6.193 Z7.132 A33.1999 B-8.2299 
N198 X-209.203 Y-6.213 Z7.135 A35.8568 B-8.5316 
N199 X-209.189 Y-6.230 Z7.140 A38.5228 B-8.7640 
N200 X-209.177 Y-6.245 Z7.146 A41.1957 B-8.9327 
N201 X-209.170 Y-6.260 Z7.153 A43.8745 B-9.0418 
N202 X-209.166 Y-6.273 Z7.161 A46.5587 B-9.0943 
N203 X-209.167 Y-6.287 Z7.170 A49.2492 B-9.0921 
N204 X-209.170 Y-6.300 Z7.180 A51.9492 B-9.0362 
N205 X-209.175 Y-6.314 Z7.190 A54.6644 B-8.9265 
N206 X-209.181 Y-6.328 Z7.202 A57.4023 B-8.7624 
N207 X-209.189 Y-6.343 Z7.214 A60.1705 B-8.5425 
N208 X-209.197 Y-6.359 Z7.227 A62.9735 B-8.2644 
N209 X-209.207 Y-6.376 Z7.239 A65.8100 B-7.9257 
N210 X-209.218 Y-6.396 Z7.252 A68.6734 B-7.5244 
N211 X-209.230 Y-6.418 Z7.262 A71.5537 B-7.0583 
N212 X-209.243 Y-6.443 Z7.270 A74.4406 B-6.5252 
N213 X-209.258 Y-6.470 Z7.275 A77.3249 B-5.9220 
N214 X-209.274 Y-6.501 Z7.274 A80.1982 B-5.2444 
N215 X-209.291 Y-6.535 Z7.267 A83.0505 B-4.4868 
N216 X-209.304 Y-6.572 Z7.254 A85.8950 B-3.7779 
N217 X-209.315 Y-6.612 Z7.231 A88.7032 B-3.0516 
N218 X-209.325 Y-6.653 Z7.198 A91.4484 B-2.2996 
N219 X-209.333 Y-6.695 Z7.152 A94.1026 B-1.5336 
N220 X-209.338 Y-6.736 Z7.090 A96.6399 B-0.7657 
N221 X-209.339 Y-6.775 Z7.013 A99.0367 B-0.0078 
N222 X-209.337 Y-6.810 Z6.918 A101.2773 B0.7302 
N223 X-209.332 Y-6.840 Z6.806 A103.3610 B1.4429 
N224 X-209.323 Y-6.865 Z6.678 A105.3000 B2.1295 
N225 X-209.311 Y-6.883 Z6.534 A107.1088 B2.7905 
N226 X-209.296 Y-6.894 Z6.375 A108.7984 B3.4263 
N227 X-209.279 Y-6.898 Z6.204 A110.4044 B4.0450 
N228 X-209.260 Y-6.896 Z6.021 A111.9727 B4.6583 
N229 X-209.241 Y-6.886 Z5.829 A113.5081 B5.2669 
N230 X-209.222 Y-6.870 Z5.627 A114.9869 B5.8634 
N231 X-209.201 Y-6.845 Z5.414 A116.3990 B6.4446 
N232 X-209.181 Y-6.812 Z5.193 A117.7524 B7.0130 
N233 X-209.162 Y-6.772 Z4.963 A119.0465 B7.5691 
N234 X-209.143 Y-6.723 Z4.726 A120.2620 B8.1078 
N235 X-209.126 Y-6.665 Z4.480 A121.3726 B8.6215 
N236 X-209.109 Y-6.599 Z4.227 A122.3533 B9.1021 
N237 X-209.094 Y-6.521 Z3.966 A123.1909 B9.5438 
N238 X-209.080 Y-6.434 Z3.699 A123.8930 B9.9550 
N239 X-209.068 Y-6.338 Z3.428 A124.4955 B10.3174 
N240 X-209.057 Y-6.234 Z3.155 A125.0520 B10.6370 
N241 X-209.050 Y-6.124 Z2.883 A125.6266 B10.9349 
N242 X-209.046 Y-6.009 Z2.614 A126.2824 B11.2234 
N243 X-209.046 Y-5.891 Z2.351 A127.0690 B11.5040 
N244 X-209.050 Y-5.770 Z2.095 A128.0121 B11.7682 
N245 X-209.058 Y-5.647 Z1.845 A129.1077 B12.0011 
N246 X-209.068 Y-5.522 Z1.602 A130.3285 B12.1874 
N247 X-209.081 Y-5.393 Z1.364 A131.6398 B12.3161 
N248 X-209.095 Y-5.262 Z1.135 A132.9625 B12.3848 
N249 X-209.109 Y-5.132 Z0.921 A134.1768 B12.3802 
N250 X-209.119 Y-4.998 Z0.712 A135.4216 B12.2923 
N251 X-209.129 Y-4.861 Z0.507 A136.6987 B12.1917 
N252 X-209.139 Y-4.721 Z0.308 A138.0085 B12.0892 
N253 X-209.149 Y-4.579 Z0.114 A139.3510 B11.9846 
N254 X-209.159 Y-4.434 Z-0.075 A140.7256 B11.8780 
N255 X-209.169 Y-4.286 Z-0.258 A142.1314 B11.7694 
N256 X-209.179 Y-4.136 Z-0.434 A143.5674 B11.6588 
N257 X-209.189 Y-3.984 Z-0.605 A145.0323 B11.5463 
N258 X-209.199 Y-3.830 Z-0.770 A146.5248 B11.4319 
N259 X-209.209 Y-3.673 Z-0.929 A148.0435 B11.3157 
N260 X-209.220 Y-3.515 Z-1.081 A149.5872 B11.1978 
N261 X-209.230 Y-3.356 Z-1.228 A151.1543 B11.0783 
N262 X-209.240 Y-3.194 Z-1.368 A152.7428 B10.9574 
N263 X-209.250 Y-3.031 Z-1.501 A154.3511 B10.8352 
N264 X-209.260 Y-2.867 Z-1.629 A155.9770 B10.7119 
N265 X-209.271 Y-2.701 Z-1.751 A157.6186 B10.5878 
N266 X-209.281 Y-2.533 Z-1.867 A159.2740 B10.4629 
N267 X-209.291 Y-2.364 Z-1.977 A160.9413 B10.3375 
N268 X-209.301 Y-2.192 Z-2.081 A162.6188 B10.2118 
N269 X-209.311 Y-2.020 Z-2.180 A164.3046 B10.0860 
N270 X-209.321 Y-1.845 Z-2.273 A165.9971 B9.9604 
N271 X-209.331 Y-1.668 Z-2.360 A167.6945 B9.8351 
N272 X-209.341 Y-1.490 Z-2.442 A169.3948 B9.7105 
N273 X-209.351 Y-1.309 Z-2.519 A171.0958 B9.5867 
N274 X-209.361 Y-1.126 Z-2.590 A172.7955 B9.4640 
N275 X-209.372 Y-0.941 Z-2.655 A174.4919 B9.3426 
N276 X-209.382 Y-0.753 Z-2.716 A176.1832 B9.2229 
N277 X-209.392 Y-0.563 Z-2.771 A177.8679 B9.1049 
N278 X-209.402 Y-0.369 Z-2.820 A179.5442 B8.9889 
N279 X-209.412 Y-0.173 Z-2.864 A181.2103 B8.8752 
N280 X-209.422 Y0.026 Z-2.902 A182.8643 B8.7639 
N281 X-209.432 Y0.228 Z-2.935 A184.5042 B8.6553 
N282 X-209.443 Y0.433 Z-2.963 A186.1279 B8.5495 
N283 X-209.453 Y0.642 Z-2.984 A187.7334 B8.4467 
N284 X-209.463 Y0.855 Z-3.000 A189.3189 B8.3472 
N285 X-209.473 Y1.071 Z-3.009 A190.8826 B8.2510 
N286 X-209.483 Y1.291 Z-3.013 A192.4227 B8.1582 
N287 X-209.493 Y1.515 Z-3.010 A193.9379 B8.0691 
N288 X-209.503 Y1.743 Z-3.001 A195.4265 B7.9836 
N289 X-209.513 Y1.975 Z-2.986 A196.8871 B7.9018 
N290 X-209.523 Y2.211 Z-2.964 A198.3180 B7.8239 
N291 X-209.533 Y2.451 Z-2.935 A199.7180 B7.7498 
N292 X-209.543 Y2.695 Z-2.899 A201.0858 B7.6795 
N293 X-209.553 Y2.944 Z-2.856 A202.4208 B7.6132 
N294 X-209.562 Y3.196 Z-2.807 A203.7223 B7.5506 
N295 X-209.572 Y3.453 Z-2.750 A204.9900 B7.4918 
N296 X-209.581 Y3.714 Z-2.685 A206.2236 B7.4351 
N297 X-209.590 Y3.979 Z-2.613 A207.4234 B7.3806 
N298 X-209.598 Y4.248 Z-2.534 A208.5900 B7.3303 
N299 X-209.607 Y4.521 Z-2.448 A209.7242 B7.2840 
N300 X-209.615 Y4.797 Z-2.353 A210.8262 B7.2417 
N301 X-209.623 Y5.078 Z-2.251 A211.8954 B7.2032 
N302 X-209.631 Y5.362 Z-2.142 A212.9300 B7.1682 
N303 X-209.638 Y5.650 Z-2.024 A213.9272 B7.1368 
N304 X-209.645 Y5.941 Z-1.899 A214.8840 B7.1089 
N305 X-209.652 Y6.236 Z-1.766 A215.7984 B7.0841 
N306 X-209.659 Y6.535 Z-1.625 A216.6699 B7.0624 
N307 X-209.665 Y6.838 Z-1.477 A217.4998 B7.0435 
N308 X-209.670 Y7.143 Z-1.321 A218.2909 B7.0272 
N309 X-209.675 Y7.452 Z-1.158 A219.0457 B7.0133 
N310 X-209.680 Y7.764 Z-0.988 A219.7664 B7.0016 
N311 X-209.684 Y8.079 Z-0.810 A220.4543 B6.9920 
N312 X-209.687 Y8.396 Z-0.626 A221.1102 B6.9844 
N313 X-209.690 Y8.715 Z-0.436 A221.7348 B6.9785 
N314 X-209.693 Y9.037 Z-0.239 A222.3288 B6.9743 
N315 X-209.695 Y9.362 Z-0.035 A222.8931 B6.9716 
N316 X-209.696 Y9.688 Z0.174 A223.4282 B6.9703 
N317 X-209.696 Y10.016 Z0.389 A223.9349 B6.9703 
N318 X-209.696 Y10.346 Z0.610 A224.4141 B6.9714 
N319 X-209.696 Y10.678 Z0.836 A224.8662 B6.9735 
N320 X-209.695 Y11.011 Z1.067 A225.2916 B6.9766 
N321 X-209.693 Y11.346 Z1.303 A225.6900 B6.9806 
N322 X-209.690 Y11.682 Z1.544 A226.0607 B6.9851 
N323 X-209.687 Y12.018 Z1.789 A226.4030 B6.9903 
N324 X-209.684 Y12.356 Z2.038 A226.7179 B6.9958 
N325 X-209.685 Y12.693 Z2.290 A227.0074 B7.0017 
N326 X-209.686 Y13.031 Z2.545 A227.2748 B7.0079 
N327 X-209.689 Y13.367 Z2.801 A227.5224 B7.0144 
N328 X-209.693 Y13.701 Z3.059 A227.7514 B7.0211 
N329 X-209.699 Y14.033 Z3.316 A227.9620 B7.0280 
N330 X-209.705 Y14.361 Z3.573 A228.1537 B7.0348 
N331 X-209.713 Y14.684 Z3.828 A228.3266 B7.0416 
N332 X-209.721 Y15.001 Z4.080 A228.4804 B7.0482 
N333 X-209.731 Y15.310 Z4.327 A228.6147 B7.0545 
N334 X-209.740 Y15.610 Z4.568 A228.7292 B7.0604 
N335 X-209.750 Y15.901 Z4.803 A228.8246 B7.0659 
N336 X-209.760 Y16.179 Z5.029 A228.9027 B7.0709 
N337 X-209.771 Y16.445 Z5.245 A228.9671 B7.0754 
N338 X-209.782 Y16.698 Z5.451 A229.0211 B7.0796 
N339 X-209.793 Y16.935 Z5.645 A229.0678 B7.0834 
N340 X-209.804 Y17.158 Z5.827 A229.1089 B7.0870 
N341 X-209.815 Y17.365 Z5.997 A229.1446 B7.0904 
N342 X-209.825 Y17.558 Z6.155 A229.1739 B7.0933 
N343 X-209.836 Y17.736 Z6.302 A229.2032 B7.0962 
N344 X-209.846 Y17.893 Z6.429 A229.4846 B7.1098 
N345 X-209.855 Y17.988 Z6.487 A231.6968 B7.2100 
N346 X-208.600 Y25.773 Z0.338 
N347 G00 X-205.462 Y45.236 Z-15.035 
N348 X-204.353 Y56.201 Z-38.365 
N349 X-210.628 Y17.274 Z-7.619 
N350 G01 X-210.625 Y15.569 Z-4.996 F878 
N351 X-210.615 Y14.757 Z-1.974 
N352 X-210.598 Y14.919 Z1.150 
N353 X-210.578 Y16.039 Z4.071 
N354 X-210.556 Y18.007 Z6.504 
N355 X-210.561 Y18.055 Z6.513 A235.3182 B7.3850 
N356 X-210.562 Y18.091 Z6.511 A239.0502 B7.5798 
N357 X-210.555 Y18.123 Z6.507 A242.6349 B7.7799 
N358 X-210.543 Y18.152 Z6.503 A246.0303 B7.9803 
N359 X-210.528 Y18.179 Z6.501 A249.2453 B8.1790 
N360 X-210.511 Y18.205 Z6.499 A252.3030 B8.3754 
N361 X-210.491 Y18.230 Z6.498 A255.2294 B8.5695 
N362 X-210.470 Y18.254 Z6.499 A258.0499 B8.7616 
N363 X-210.449 Y18.277 Z6.500 A260.7872 B8.9521 
N364 X-210.426 Y18.300 Z6.503 A263.4610 B9.1417 
N365 X-210.404 Y18.322 Z6.507 A266.0872 B9.3306 
N366 X-210.382 Y18.344 Z6.512 A268.6778 B9.5192 
N367 X-210.360 Y18.365 Z6.517 A271.2419 B9.7074 
N368 X-210.339 Y18.386 Z6.524 A273.7859 B9.8953 
N369 X-210.319 Y18.407 Z6.533 A276.3145 B10.0827 
N370 X-210.300 Y18.427 Z6.542 A278.8316 B10.2694 
N371 X-210.282 Y18.447 Z6.552 A281.3407 B10.4552 
N372 X-210.267 Y18.466 Z6.563 A283.8445 B10.6398 
N373 X-210.254 Y18.484 Z6.575 A286.3449 B10.8230 
N374 X-210.244 Y18.502 Z6.589 A288.8416 B11.0042 
N375 X-210.237 Y18.519 Z6.603 A291.3336 B11.1829 
N376 X-210.232 Y18.536 Z6.618 A293.8202 B11.3588 
N377 X-210.229 Y18.552 Z6.634 A296.3013 B11.5322 
N378 X-210.229 Y18.567 Z6.651 A298.7753 B11.7238 
N379 X-210.229 Y18.581 Z6.668 A301.2472 B11.8734 
N380 X-210.229 Y18.594 Z6.686 A303.7153 B12.0255 
N381 X-210.231 Y18.606 Z6.705 A306.1825 B12.1817 
N382 X-210.235 Y18.618 Z6.724 A308.6523 B12.3333 
N383 X-210.242 Y18.628 Z6.744 A311.1261 B12.4800 
N384 X-210.252 Y18.638 Z6.764 A313.6031 B12.6215 
N385 X-210.266 Y18.646 Z6.785 A316.0833 B12.7576 
N386 X-210.283 Y18.654 Z6.806 A318.5675 B12.8879 
N387 X-210.302 Y18.661 Z6.827 A321.0570 B13.0123 
N388 X-210.322 Y18.666 Z6.849 A323.5525 B13.1306 
N389 X-210.345 Y18.671 Z6.870 A326.0545 B13.2430 
N390 X-210.369 Y18.675 Z6.892 A328.5627 B13.3560 
N391 X-210.393 Y18.677 Z6.915 A331.0775 B13.4546 
N392 X-210.418 Y18.679 Z6.937 A333.5980 B13.5462 
N393 X-210.444 Y18.680 Z6.959 A336.1236 B13.6305 
N394 X-210.469 Y18.679 Z6.981 A338.6535 B13.7073 
N395 X-210.494 Y18.678 Z7.003 A341.1871 B13.7764 
N396 X-210.519 Y18.676 Z7.025 A343.7238 B13.8379 
N397 X-210.542 Y18.673 Z7.046 A346.2635 B13.8915 
N398 X-210.564 Y18.669 Z7.068 A348.8061 B13.9373 
N399 X-210.584 Y18.664 Z7.089 A351.3525 B13.9752 
N400 X-210.603 Y18.658 Z7.109 A353.9041 B14.0053 
N401 X-210.618 Y18.652 Z7.130 A356.4630 B14.0275 
N402 X-210.631 Y18.644 Z7.150 A359.0326 B14.0418 
N403 X-210.642 Y18.636 Z7.169 A1.6171 B14.0483 
N404 X-210.649 Y18.626 Z7.189 A4.2225 B14.0467 
N405 X-210.653 Y18.616 Z7.208 A6.8564 B14.0372 
N406 X-210.653 Y18.604 Z7.226 A9.5282 B14.0193 
N407 X-210.650 Y18.591 Z7.245 A12.2487 B13.9928 
N408 X-210.644 Y18.577 Z7.263 A15.0298 B13.9572 
N409 X-210.633 Y18.562 Z7.280 A17.8845 B13.9121 
N410 X-210.617 Y18.544 Z7.297 A20.8259 B13.8566 
N411 X-210.597 Y18.524 Z7.314 A23.8660 B13.7900 
N412 X-210.573 Y18.502 Z7.329 A27.0120 B13.7114 
N413 X-210.543 Y18.476 Z7.343 A30.2586 B13.6205 
N414 X-210.509 Y18.444 Z7.353 A33.5643 B13.5181 
N415 X-210.471 Y18.400 Z7.355 A36.7503 B13.4102 
N416 X-210.431 Y18.318 Z7.329 A38.9559 B13.3296 
N417 X-210.394 Y18.170 Z7.249 A39.1994 B13.3169 
N418 X-210.360 Y17.997 Z7.153 A38.9448 B13.3215 
N419 X-210.328 Y17.811 Z7.050 A38.6745 B13.3259 
N420 X-210.299 Y17.613 Z6.943 A38.3996 B13.3298 
N421 X-210.274 Y17.403 Z6.829 A38.1129 B13.3334 
N422 X-210.253 Y17.179 Z6.711 A37.8113 B13.3367 
N423 X-210.237 Y16.943 Z6.587 A37.4895 B13.3397 
N424 X-210.226 Y16.695 Z6.458 A37.1383 B13.3428 
N425 X-210.222 Y16.433 Z6.324 A36.7466 B13.3460 
N426 X-210.225 Y16.160 Z6.186 A36.3033 B13.3493 
N427 X-210.230 Y15.874 Z6.045 A35.7995 B13.3538 
N428 X-210.234 Y15.577 Z5.901 A35.2331 B13.3585 
N429 X-210.238 Y15.270 Z5.756 A34.6099 B13.3632 
N430 X-210.242 Y14.954 Z5.610 A33.9383 B13.3675 
N431 X-210.245 Y14.630 Z5.465 A33.2263 B13.3709 
N432 X-210.248 Y14.299 Z5.321 A32.4766 B13.3735 
N433 X-210.250 Y13.962 Z5.180 A31.6861 B13.3749 
N434 X-210.253 Y13.620 Z5.042 A30.8518 B13.3753 
N435 X-210.253 Y13.274 Z4.908 A29.9714 B13.3744 
N436 X-210.253 Y12.925 Z4.779 A29.0435 B13.3722 
N437 X-210.253 Y12.572 Z4.654 A28.0673 B13.3684 
N438 X-210.253 Y12.218 Z4.535 A27.0420 B13.3629 
N439 X-210.251 Y11.862 Z4.422 A25.9668 B13.3556 
N440 X-210.249 Y11.504 Z4.316 A24.8407 B13.3462 
N441 X-210.246 Y11.146 Z4.217 A23.6638 B13.3347 
N442 X-210.243 Y10.787 Z4.124 A22.4370 B13.3206 
N443 X-210.238 Y10.428 Z4.040 A21.1628 B13.3040 
N444 X-210.234 Y10.068 Z3.963 A19.8443 B13.2846 
N445 X-210.228 Y9.708 Z3.895 A18.4850 B13.2623 
N446 X-210.222 Y9.347 Z3.835 A17.0885 B13.2368 
N447 X-210.215 Y8.987 Z3.783 A15.6583 B13.2082 
N448 X-210.208 Y8.626 Z3.741 A14.1981 B13.1762 
N449 X-210.200 Y8.264 Z3.707 A12.7120 B13.1410 
N450 X-210.191 Y7.902 Z3.683 A11.2046 B13.1023 
N451 X-210.182 Y7.540 Z3.667 A9.6810 B13.0603 
N452 X-210.172 Y7.177 Z3.661 A8.1469 B13.0150 
N453 X-210.161 Y6.812 Z3.665 A6.6078 B12.9664 
N454 X-210.150 Y6.447 Z3.678 A5.0692 B12.9148 
N455 X-210.138 Y6.080 Z3.702 A3.5370 B12.8603 
N456 X-210.125 Y5.713 Z3.735 A2.0181 B12.8030 
N457 X-210.112 Y5.343 Z3.778 A0.5217 B12.7434 
N458 X-210.098 Y4.973 Z3.831 A359.0595 B12.6819 
N459 X-210.083 Y4.602 Z3.894 A357.6456 B12.6191 
N460 X-210.068 Y4.231 Z3.967 A356.2939 B12.5555 
N461 X-210.053 Y3.859 Z4.049 A355.0158 B12.4920 
N462 X-210.037 Y3.488 Z4.141 A353.8197 B12.4290 
N463 X-210.020 Y3.117 Z4.240 A352.7121 B12.3670 
N464 X-210.003 Y2.748 Z4.348 A351.6997 B12.3067 
N465 X-209.986 Y2.381 Z4.462 A350.7901 B12.2487 
N466 X-209.968 Y2.016 Z4.582 A349.9918 B12.1935 
N467 X-209.950 Y1.654 Z4.707 A349.3118 B12.1418 
N468 X-209.932 Y1.297 Z4.836 A348.7524 B12.0939 
N469 X-209.914 Y0.944 Z4.968 A348.3111 B12.0502 
N470 X-209.897 Y0.596 Z5.101 A347.9809 B12.0104 
N471 X-209.879 Y0.254 Z5.235 A347.7530 B11.9751 
N472 X-209.853 Y-0.082 Z5.367 A347.6273 B11.7469 
N473 X-209.820 Y-0.418 Z5.498 A347.7568 B11.2515 
N474 X-209.793 Y-0.748 Z5.629 A347.9601 B10.7627 
N475 X-209.772 Y-1.072 Z5.757 A348.2188 B10.2765 
N476 X-209.756 Y-1.388 Z5.882 A348.5281 B9.7845 
N477 X-209.744 Y-1.698 Z6.003 A348.8857 B9.2526 
N478 X-209.739 Y-1.999 Z6.119 A349.2972 B8.7218 
N479 X-209.743 Y-2.292 Z6.231 A349.7716 B8.1860 
N480 X-209.753 Y-2.575 Z6.338 A350.3195 B7.6453 
N481 X-209.769 Y-2.848 Z6.438 A350.9509 B7.0971 
N482 X-209.791 Y-3.111 Z6.532 A351.6712 B6.5368 
N483 X-209.817 Y-3.363 Z6.619 A352.4769 B5.9640 
N484 X-209.846 Y-3.604 Z6.700 A353.3630 B5.3783 
N485 X-209.877 Y-3.835 Z6.773 A354.3274 B4.7772 
N486 X-209.908 Y-4.055 Z6.839 A355.3745 B4.1618 
N487 X-209.940 Y-4.264 Z6.898 A356.5195 B3.5277 
N488 X-209.969 Y-4.461 Z6.950 A357.7676 B2.8752 
N489 X-209.997 Y-4.647 Z6.993 A359.0908 B2.2093 
N490 X-210.022 Y-4.822 Z7.032 A0.4661 B1.5353 
N491 X-210.045 Y-4.987 Z7.064 A1.9100 B0.8524 
N492 X-210.063 Y-5.139 Z7.090 A3.4642 B0.1555 
N493 X-210.076 Y-5.278 Z7.111 A5.1472 B-0.5563 
N494 X-210.085 Y-5.404 Z7.127 A6.9538 B-1.2794 
N495 X-210.089 Y-5.518 Z7.138 A8.8798 B-2.0095 
N496 X-210.088 Y-5.619 Z7.147 A10.9269 B-2.7430 
N497 X-210.082 Y-5.708 Z7.153 A13.0964 B-3.4748 
N498 X-210.071 Y-5.786 Z7.156 A15.3800 B-4.1982 
N499 X-210.058 Y-5.854 Z7.159 A17.7631 B-4.9049 
N500 X-210.040 Y-5.913 Z7.161 A20.2298 B-5.5859 
N501 X-210.021 Y-5.964 Z7.163 A22.7575 B-6.2323 
N502 X-210.000 Y-6.009 Z7.165 A25.3279 B-6.8364 
N503 X-209.980 Y-6.049 Z7.166 A27.9292 B-7.3879 
N504 X-209.961 Y-6.084 Z7.168 A30.5555 B-7.8518 
N505 X-209.945 Y-6.116 Z7.170 A33.1999 B-8.2299 
N506 X-209.930 Y-6.145 Z7.173 A35.8568 B-8.5316 
N507 X-209.918 Y-6.173 Z7.176 A38.5228 B-8.7640 
N508 X-209.908 Y-6.198 Z7.178 A41.1957 B-8.9327 
N509 X-209.902 Y-6.222 Z7.181 A43.8745 B-9.0418 
N510 X-209.901 Y-6.244 Z7.184 A46.5587 B-9.0943 
N511 X-209.903 Y-6.267 Z7.187 A49.2492 B-9.0921 
N512 X-209.907 Y-6.289 Z7.190 A51.9492 B-9.0362 
N513 X-209.912 Y-6.310 Z7.193 A54.6644 B-8.9265 
N514 X-209.918 Y-6.332 Z7.197 A57.4023 B-8.7624 
N515 X-209.925 Y-6.354 Z7.200 A60.1705 B-8.5425 
N516 X-209.933 Y-6.377 Z7.204 A62.9735 B-8.2644 
N517 X-209.941 Y-6.400 Z7.207 A65.8100 B-7.9257 
N518 X-209.950 Y-6.424 Z7.210 A68.6734 B-7.5244 
N519 X-209.961 Y-6.450 Z7.211 A71.5537 B-7.0583 
N520 X-209.972 Y-6.477 Z7.208 A74.4406 B-6.5252 
N521 X-209.984 Y-6.507 Z7.203 A77.3249 B-5.9220 
N522 X-209.996 Y-6.539 Z7.192 A80.1982 B-5.2444 
N523 X-210.010 Y-6.572 Z7.176 A83.0505 B-4.4868 
N524 X-210.020 Y-6.608 Z7.153 A85.8950 B-3.7779 
N525 X-210.029 Y-6.645 Z7.123 A88.7032 B-3.0516 
N526 X-210.035 Y-6.682 Z7.082 A91.4484 B-2.2996 
N527 X-210.040 Y-6.720 Z7.029 A94.1026 B-1.5336 
N528 X-210.042 Y-6.756 Z6.963 A96.6399 B-0.7657 
N529 X-210.041 Y-6.789 Z6.881 A99.0367 B-0.0078 
N530 X-210.037 Y-6.819 Z6.784 A101.2773 B0.7302 
N531 X-210.030 Y-6.844 Z6.671 A103.3610 B1.4429 
N532 X-210.019 Y-6.864 Z6.543 A105.3000 B2.1295 
N533 X-210.006 Y-6.877 Z6.400 A107.1088 B2.7905 
N534 X-209.990 Y-6.884 Z6.244 A108.7984 B3.4263 
N535 X-209.973 Y-6.885 Z6.075 A110.4044 B4.0450 
N536 X-209.954 Y-6.879 Z5.896 A111.9727 B4.6583 
N537 X-209.935 Y-6.868 Z5.708 A113.5081 B5.2669 
N538 X-209.915 Y-6.848 Z5.510 A114.9869 B5.8634 
N539 X-209.895 Y-6.822 Z5.303 A116.3990 B6.4446 
N540 X-209.875 Y-6.788 Z5.088 A117.7524 B7.0130 
N541 X-209.856 Y-6.747 Z4.865 A119.0465 B7.5691 
N542 X-209.838 Y-6.697 Z4.635 A120.2620 B8.1078 
N543 X-209.821 Y-6.640 Z4.397 A121.3726 B8.6215 
N544 X-209.805 Y-6.573 Z4.151 A122.3533 B9.1021 
N545 X-209.790 Y-6.497 Z3.898 A123.1909 B9.5438 
N546 X-209.777 Y-6.411 Z3.640 A123.8930 B9.9550 
N547 X-209.765 Y-6.317 Z3.377 A124.4955 B10.3174 
N548 X-209.756 Y-6.215 Z3.113 A125.0520 B10.6370 
N549 X-209.749 Y-6.108 Z2.849 A125.6266 B10.9349 
N550 X-209.745 Y-5.997 Z2.589 A126.2824 B11.2234 
N551 X-209.746 Y-5.883 Z2.335 A127.0690 B11.5040 
N552 X-209.750 Y-5.766 Z2.087 A128.0121 B11.7682 
N553 X-209.758 Y-5.648 Z1.847 A129.1077 B12.0011 
N554 X-209.768 Y-5.528 Z1.612 A130.3285 B12.1874 
N555 X-209.781 Y-5.405 Z1.384 A131.6398 B12.3161 
N556 X-209.795 Y-5.279 Z1.162 A132.9625 B12.3848 
N557 X-209.809 Y-5.149 Z0.947 A134.1768 B12.3802 
N558 X-209.819 Y-5.017 Z0.738 A135.4216 B12.2923 
N559 X-209.828 Y-4.881 Z0.534 A136.6987 B12.1917 
N560 X-209.838 Y-4.742 Z0.334 A138.0085 B12.0892 
N561 X-209.848 Y-4.600 Z0.140 A139.3510 B11.9846 
N562 X-209.858 Y-4.456 Z-0.048 A140.7256 B11.8780 
N563 X-209.868 Y-4.309 Z-0.231 A142.1314 B11.7694 
N564 X-209.878 Y-4.160 Z-0.409 A143.5674 B11.6588 
N565 X-209.888 Y-4.009 Z-0.580 A145.0323 B11.5463 
N566 X-209.899 Y-3.856 Z-0.745 A146.5248 B11.4319 
N567 X-209.909 Y-3.701 Z-0.904 A148.0435 B11.3157 
N568 X-209.919 Y-3.544 Z-1.057 A149.5872 B11.1978 
N569 X-209.929 Y-3.385 Z-1.204 A151.1543 B11.0783 
N570 X-209.939 Y-3.224 Z-1.344 A152.7428 B10.9574 
N571 X-209.949 Y-3.062 Z-1.479 A154.3511 B10.8352 
N572 X-209.959 Y-2.899 Z-1.607 A155.9770 B10.7119 
N573 X-209.969 Y-2.733 Z-1.730 A157.6186 B10.5878 
N574 X-209.980 Y-2.566 Z-1.847 A159.2740 B10.4629 
N575 X-209.990 Y-2.398 Z-1.958 A160.9413 B10.3375 
N576 X-210.000 Y-2.227 Z-2.063 A162.6188 B10.2118 
N577 X-210.010 Y-2.055 Z-2.162 A164.3046 B10.0860 
N578 X-210.020 Y-1.881 Z-2.256 A165.9971 B9.9604 
N579 X-210.030 Y-1.705 Z-2.345 A167.6945 B9.8351 
N580 X-210.040 Y-1.527 Z-2.428 A169.3948 B9.7105 
N581 X-210.050 Y-1.347 Z-2.505 A171.0958 B9.5867 
N582 X-210.060 Y-1.164 Z-2.578 A172.7955 B9.4640 
N583 X-210.070 Y-0.979 Z-2.645 A174.4919 B9.3426 
N584 X-210.081 Y-0.791 Z-2.706 A176.1832 B9.2229 
N585 X-210.091 Y-0.601 Z-2.762 A177.8679 B9.1049 
N586 X-210.101 Y-0.407 Z-2.813 A179.5442 B8.9889 
N587 X-210.111 Y-0.211 Z-2.858 A181.2103 B8.8752 
N588 X-210.121 Y-0.012 Z-2.897 A182.8643 B8.7639 
N589 X-210.131 Y0.191 Z-2.931 A184.5042 B8.6553 
N590 X-210.142 Y0.397 Z-2.960 A186.1279 B8.5495 
N591 X-210.152 Y0.606 Z-2.982 A187.7334 B8.4467 
N592 X-210.162 Y0.819 Z-2.999 A189.3189 B8.3472 
N593 X-210.172 Y1.036 Z-3.010 A190.8826 B8.2510 
N594 X-210.183 Y1.257 Z-3.014 A192.4227 B8.1582 
N595 X-210.193 Y1.482 Z-3.012 A193.9379 B8.0691 
N596 X-210.203 Y1.710 Z-3.004 A195.4265 B7.9836 
N597 X-210.213 Y1.943 Z-2.989 A196.8871 B7.9018 
N598 X-210.223 Y2.180 Z-2.968 A198.3180 B7.8239 
N599 X-210.233 Y2.421 Z-2.940 A199.7180 B7.7498 
N600 X-210.243 Y2.667 Z-2.905 A201.0858 B7.6795 
N601 X-210.252 Y2.916 Z-2.862 A202.4208 B7.6132 
N602 X-210.262 Y3.170 Z-2.813 A203.7223 B7.5506 
N603 X-210.272 Y3.428 Z-2.756 A204.9900 B7.4918 
N604 X-210.281 Y3.690 Z-2.692 A206.2236 B7.4351 
N605 X-210.290 Y3.956 Z-2.620 A207.4234 B7.3806 
N606 X-210.299 Y4.226 Z-2.541 A208.5900 B7.3303 
N607 X-210.307 Y4.500 Z-2.455 A209.7242 B7.2840 
N608 X-210.316 Y4.778 Z-2.360 A210.8262 B7.2417 
N609 X-210.324 Y5.060 Z-2.258 A211.8954 B7.2032 
N610 X-210.331 Y5.345 Z-2.149 A212.9300 B7.1682 
N611 X-210.339 Y5.634 Z-2.031 A213.9272 B7.1368 
N612 X-210.346 Y5.927 Z-1.906 A214.8840 B7.1089 
N613 X-210.353 Y6.223 Z-1.772 A215.7984 B7.0841 
N614 X-210.359 Y6.523 Z-1.631 A216.6699 B7.0624 
N615 X-210.365 Y6.827 Z-1.482 A217.4998 B7.0435 
N616 X-210.371 Y7.134 Z-1.326 A218.2909 B7.0272 
N617 X-210.376 Y7.444 Z-1.163 A219.0457 B7.0133 
N618 X-210.381 Y7.757 Z-0.992 A219.7664 B7.0016 
N619 X-210.385 Y8.072 Z-0.814 A220.4543 B6.9920 
N620 X-210.388 Y8.390 Z-0.630 A221.1102 B6.9844 
N621 X-210.391 Y8.711 Z-0.439 A221.7348 B6.9785 
N622 X-210.394 Y9.034 Z-0.241 A222.3288 B6.9743 
N623 X-210.396 Y9.359 Z-0.037 A222.8931 B6.9716 
N624 X-210.397 Y9.687 Z0.173 A223.4282 B6.9703 
N625 X-210.397 Y10.016 Z0.389 A223.9349 B6.9703 
N626 X-210.397 Y10.347 Z0.610 A224.4141 B6.9714 
N627 X-210.397 Y10.679 Z0.837 A224.8662 B6.9735 
N628 X-210.396 Y11.013 Z1.069 A225.2916 B6.9766 
N629 X-210.394 Y11.349 Z1.306 A225.6900 B6.9806 
N630 X-210.391 Y11.686 Z1.547 A226.0607 B6.9851 
N631 X-210.388 Y12.023 Z1.793 A226.4030 B6.9903 
N632 X-210.385 Y12.361 Z2.042 A226.7179 B6.9958 
N633 X-210.386 Y12.700 Z2.295 A227.0074 B7.0017 
N634 X-210.387 Y13.038 Z2.550 A227.2748 B7.0079 
N635 X-210.390 Y13.375 Z2.807 A227.5224 B7.0144 
N636 X-210.394 Y13.710 Z3.065 A227.7514 B7.0211 
N637 X-210.400 Y14.043 Z3.324 A227.9620 B7.0280 
N638 X-210.406 Y14.371 Z3.581 A228.1537 B7.0348 
N639 X-210.414 Y14.695 Z3.837 A228.3266 B7.0416 
N640 X-210.422 Y15.013 Z4.089 A228.4804 B7.0482 
N641 X-210.432 Y15.322 Z4.337 A228.6147 B7.0545 
N642 X-210.441 Y15.624 Z4.579 A228.7292 B7.0604 
N643 X-210.450 Y15.914 Z4.814 A228.8246 B7.0659 
N644 X-210.461 Y16.194 Z5.040 A228.9027 B7.0709 
N645 X-210.472 Y16.460 Z5.257 A228.9671 B7.0754 
N646 X-210.483 Y16.713 Z5.463 A229.0211 B7.0796 
N647 X-210.494 Y16.951 Z5.658 A229.0678 B7.0834 
N648 X-210.505 Y17.174 Z5.841 A229.1089 B7.0870 
N649 X-210.515 Y17.382 Z6.011 A229.1446 B7.0904 
N650 X-210.526 Y17.575 Z6.170 A229.1739 B7.0933 
N651 X-210.536 Y17.754 Z6.316 A229.2032 B7.0962 
N652 X-210.546 Y17.911 Z6.444 A229.4846 B7.1098 
N653 X-210.556 Y18.007 Z6.504 A231.6968 B7.2100 
N654 X-209.301 Y25.792 Z0.355 
N655 G00 X-206.163 Y45.255 Z-15.018 
N656 X-205.054 Y56.220 Z-38.348 
N657 X-211.329 Y17.293 Z-7.602 
N658 G01 X-211.326 Y15.588 Z-4.979 F878 
N659 X-211.315 Y14.776 Z-1.957 
N660 X-211.299 Y14.938 Z1.167 
N661 X-211.279 Y16.058 Z4.088 
N662 X-211.256 Y18.025 Z6.521 
N663 X-211.262 Y18.075 Z6.533 A235.3182 B7.3850 F199 
N664 X-211.262 Y18.111 Z6.534 A239.0502 B7.5798 
N665 X-211.255 Y18.143 Z6.534 A242.6349 B7.7799 
N666 X-211.243 Y18.172 Z6.533 A246.0303 B7.9803 
N667 X-211.228 Y18.198 Z6.533 A249.2453 B8.1790 
N668 X-211.210 Y18.223 Z6.534 A252.3030 B8.3754 
N669 X-211.190 Y18.247 Z6.536 A255.2294 B8.5695 
N670 X-211.169 Y18.269 Z6.538 A258.0499 B8.7616 
N671 X-211.148 Y18.291 Z6.542 A260.7872 B8.9521 
N672 X-211.125 Y18.312 Z6.546 A263.4610 B9.1417 
N673 X-211.103 Y18.333 Z6.551 A266.0872 B9.3306 
N674 X-211.081 Y18.353 Z6.557 A268.6778 B9.5192 
N675 X-211.059 Y18.372 Z6.564 A271.2419 B9.7074 
N676 X-211.037 Y18.391 Z6.572 A273.7859 B9.8953 
N677 X-211.017 Y18.409 Z6.581 A276.3145 B10.0827 
N678 X-210.998 Y18.427 Z6.590 A278.8316 B10.2694 
N679 X-210.980 Y18.445 Z6.601 A281.3407 B10.4552 
N680 X-210.965 Y18.462 Z6.612 A283.8445 B10.6398 
N681 X-210.952 Y18.478 Z6.624 A286.3449 B10.8230 
N682 X-210.943 Y18.494 Z6.637 A288.8416 B11.0042 
N683 X-210.935 Y18.509 Z6.651 A291.3336 B11.1829 
N684 X-210.930 Y18.524 Z6.665 A293.8202 B11.3588 
N685 X-210.928 Y18.538 Z6.680 A296.3013 B11.5322 
N686 X-210.928 Y18.551 Z6.696 A298.7753 B11.7238 
N687 X-210.927 Y18.563 Z6.712 A301.2472 B11.8734 
N688 X-210.928 Y18.574 Z6.729 A303.7153 B12.0255 
N689 X-210.929 Y18.585 Z6.746 A306.1825 B12.1817 
N690 X-210.933 Y18.595 Z6.763 A308.6523 B12.3333 
N691 X-210.941 Y18.605 Z6.781 A311.1261 B12.4800 
N692 X-210.951 Y18.613 Z6.800 A313.6031 B12.6215 
N693 X-210.966 Y18.621 Z6.818 A316.0833 B12.7576 
N694 X-210.982 Y18.628 Z6.837 A318.5675 B12.8879 
N695 X-211.001 Y18.634 Z6.857 A321.0570 B13.0123 
N696 X-211.022 Y18.640 Z6.876 A323.5525 B13.1306 
N697 X-211.045 Y18.644 Z6.896 A326.0545 B13.2430 
N698 X-211.069 Y18.648 Z6.916 A328.5627 B13.3560 
N699 X-211.093 Y18.651 Z6.936 A331.0775 B13.4546 
N700 X-211.118 Y18.653 Z6.956 A333.5980 B13.5462 
N701 X-211.144 Y18.654 Z6.976 A336.1236 B13.6305 
N702 X-211.170 Y18.655 Z6.996 A338.6535 B13.7073 
N703 X-211.195 Y18.655 Z7.016 A341.1871 B13.7764 
N704 X-211.220 Y18.653 Z7.036 A343.7238 B13.8379 
N705 X-211.243 Y18.652 Z7.056 A346.2635 B13.8915 
N706 X-211.265 Y18.649 Z7.075 A348.8061 B13.9373 
N707 X-211.286 Y18.646 Z7.095 A351.3525 B13.9752 
N708 X-211.304 Y18.642 Z7.114 A353.9041 B14.0053 
N709 X-211.320 Y18.637 Z7.133 A356.4630 B14.0275 
N710 X-211.333 Y18.631 Z7.152 A359.0326 B14.0418 
N711 X-211.343 Y18.624 Z7.171 A1.6171 B14.0483 
N712 X-211.350 Y18.617 Z7.190 A4.2225 B14.0467 
N713 X-211.355 Y18.609 Z7.208 A6.8564 B14.0372 
N714 X-211.355 Y18.599 Z7.226 A9.5282 B14.0193 
N715 X-211.352 Y18.589 Z7.245 A12.2487 B13.9928 
N716 X-211.345 Y18.577 Z7.263 A15.0298 B13.9572 
N717 X-211.334 Y18.563 Z7.280 A17.8845 B13.9121 
N718 X-211.319 Y18.548 Z7.298 A20.8259 B13.8566 
N719 X-211.299 Y18.531 Z7.315 A23.8660 B13.7900 
N720 X-211.274 Y18.510 Z7.332 A27.0120 B13.7114 
N721 X-211.245 Y18.486 Z7.347 A30.2586 B13.6205 
N722 X-211.210 Y18.456 Z7.358 A33.5643 B13.5181 
N723 X-211.173 Y18.414 Z7.362 A36.7503 B13.4102 
N724 X-211.132 Y18.334 Z7.337 A38.9559 B13.3296 
N725 X-211.095 Y18.185 Z7.257 A39.1994 B13.3169 
N726 X-211.061 Y18.012 Z7.161 A38.9448 B13.3215 
N727 X-211.029 Y17.825 Z7.058 A38.6745 B13.3259 
N728 X-211.000 Y17.627 Z6.950 A38.3996 B13.3298 
N729 X-210.975 Y17.416 Z6.836 A38.1129 B13.3334 
N730 X-210.954 Y17.192 Z6.717 A37.8113 B13.3367 
N731 X-210.938 Y16.955 Z6.593 A37.4895 B13.3397 
N732 X-210.928 Y16.706 Z6.463 A37.1383 B13.3428 
N733 X-210.923 Y16.444 Z6.329 A36.7466 B13.3460 
N734 X-210.926 Y16.170 Z6.191 A36.3033 B13.3493 
N735 X-210.931 Y15.883 Z6.049 A35.7995 B13.3538 
N736 X-210.935 Y15.586 Z5.905 A35.2331 B13.3585 
N737 X-210.940 Y15.278 Z5.759 A34.6099 B13.3632 
N738 X-210.943 Y14.961 Z5.613 A33.9383 B13.3675 
N739 X-210.947 Y14.636 Z5.467 A33.2263 B13.3709 
N740 X-210.950 Y14.304 Z5.323 A32.4766 B13.3735 
N741 X-210.952 Y13.966 Z5.182 A31.6861 B13.3749 
N742 X-210.954 Y13.623 Z5.043 A30.8518 B13.3753 
N743 X-210.954 Y13.276 Z4.909 A29.9714 B13.3744 
N744 X-210.954 Y12.925 Z4.779 A29.0435 B13.3722 
N745 X-210.954 Y12.572 Z4.654 A28.0673 B13.3684 
N746 X-210.954 Y12.216 Z4.535 A27.0420 B13.3629 
N747 X-210.952 Y11.859 Z4.421 A25.9668 B13.3556 
N748 X-210.950 Y11.500 Z4.315 A24.8407 B13.3462 
N749 X-210.947 Y11.140 Z4.215 A23.6638 B13.3347 
N750 X-210.944 Y10.780 Z4.123 A22.4370 B13.3206 
N751 X-210.939 Y10.419 Z4.038 A21.1628 B13.3040 
N752 X-210.935 Y10.058 Z3.962 A19.8443 B13.2846 
N753 X-210.929 Y9.697 Z3.893 A18.4850 B13.2623 
N754 X-210.923 Y9.335 Z3.833 A17.0885 B13.2368 
N755 X-210.916 Y8.973 Z3.782 A15.6583 B13.2082 
N756 X-210.909 Y8.611 Z3.740 A14.1981 B13.1762 
N757 X-210.900 Y8.248 Z3.706 A12.7120 B13.1410 
N758 X-210.892 Y7.885 Z3.682 A11.2046 B13.1023 
N759 X-210.882 Y7.521 Z3.667 A9.6810 B13.0603 
N760 X-210.872 Y7.157 Z3.662 A8.1469 B13.0150 
N761 X-210.861 Y6.792 Z3.666 A6.6078 B12.9664 
N762 X-210.850 Y6.425 Z3.680 A5.0692 B12.9148 
N763 X-210.838 Y6.058 Z3.704 A3.5370 B12.8603 
N764 X-210.825 Y5.689 Z3.738 A2.0181 B12.8030 
N765 X-210.812 Y5.319 Z3.782 A0.5217 B12.7434 
N766 X-210.798 Y4.948 Z3.836 A359.0595 B12.6819 
N767 X-210.783 Y4.576 Z3.900 A357.6456 B12.6191 
N768 X-210.768 Y4.204 Z3.974 A356.2939 B12.5555 
N769 X-210.753 Y3.832 Z4.057 A355.0158 B12.4920 
N770 X-210.736 Y3.460 Z4.149 A353.8197 B12.4290 
N771 X-210.720 Y3.089 Z4.249 A352.7121 B12.3670 
N772 X-210.703 Y2.720 Z4.357 A351.6997 B12.3067 
N773 X-210.685 Y2.352 Z4.472 A350.7901 B12.2487 
N774 X-210.668 Y1.987 Z4.592 A349.9918 B12.1935 
N775 X-210.650 Y1.625 Z4.718 A349.3118 B12.1418 
N776 X-210.632 Y1.267 Z4.847 A348.7524 B12.0939 
N777 X-210.614 Y0.915 Z4.979 A348.3111 B12.0502 
N778 X-210.596 Y0.567 Z5.113 A347.9809 B12.0104 
N779 X-210.578 Y0.224 Z5.247 A347.7530 B11.9751 
N780 X-210.553 Y-0.112 Z5.379 A347.6273 B11.7469 
N781 X-210.520 Y-0.438 Z5.506 A347.7568 B11.2515 
N782 X-210.493 Y-0.758 Z5.633 A347.9601 B10.7627 
N783 X-210.472 Y-1.071 Z5.756 A348.2188 B10.2765 
N784 X-210.456 Y-1.377 Z5.877 A348.5281 B9.7845 
N785 X-210.443 Y-1.677 Z5.994 A348.8857 B9.2526 
N786 X-210.438 Y-1.969 Z6.107 A349.2972 B8.7218 
N787 X-210.442 Y-2.252 Z6.216 A349.7716 B8.1860 
N788 X-210.452 Y-2.526 Z6.319 A350.3195 B7.6453 
N789 X-210.467 Y-2.790 Z6.417 A350.9509 B7.0971 
N790 X-210.488 Y-3.043 Z6.509 A351.6712 B6.5368 
N791 X-210.513 Y-3.287 Z6.594 A352.4769 B5.9640 
N792 X-210.541 Y-3.520 Z6.673 A353.3630 B5.3783 
N793 X-210.572 Y-3.743 Z6.746 A354.3274 B4.7772 
N794 X-210.603 Y-3.956 Z6.812 A355.3745 B4.1618 
N795 X-210.634 Y-4.158 Z6.871 A356.5195 B3.5277 
N796 X-210.662 Y-4.348 Z6.924 A357.7676 B2.8752 
N797 X-210.690 Y-4.529 Z6.971 A359.0908 B2.2093 
N798 X-210.716 Y-4.699 Z7.012 A0.4661 B1.5353 
N799 X-210.738 Y-4.860 Z7.047 A1.9100 B0.8524 
N800 X-210.757 Y-5.008 Z7.076 A3.4642 B0.1555 
N801 X-210.771 Y-5.145 Z7.101 A5.1472 B-0.5563 
N802 X-210.781 Y-5.270 Z7.122 A6.9538 B-1.2794 
N803 X-210.786 Y-5.383 Z7.139 A8.8798 B-2.0095 
N804 X-210.787 Y-5.485 Z7.153 A10.9269 B-2.7430 
N805 X-210.783 Y-5.577 Z7.164 A13.0964 B-3.4748 
N806 X-210.775 Y-5.658 Z7.173 A15.3800 B-4.1982 
N807 X-210.764 Y-5.730 Z7.181 A17.7631 B-4.9049 
N808 X-210.750 Y-5.794 Z7.187 A20.2298 B-5.5859 
N809 X-210.733 Y-5.852 Z7.193 A22.7575 B-6.2323 
N810 X-210.716 Y-5.905 Z7.197 A25.3279 B-6.8364 
N811 X-210.698 Y-5.953 Z7.201 A27.9292 B-7.3879 
N812 X-210.682 Y-5.997 Z7.204 A30.5555 B-7.8518 
N813 X-210.668 Y-6.039 Z7.207 A33.1999 B-8.2299 
N814 X-210.656 Y-6.077 Z7.208 A35.8568 B-8.5316 
N815 X-210.646 Y-6.114 Z7.209 A38.5228 B-8.7640 
N816 X-210.639 Y-6.149 Z7.209 A41.1957 B-8.9327 
N817 X-210.635 Y-6.182 Z7.208 A43.8745 B-9.0418 
N818 X-210.635 Y-6.215 Z7.206 A46.5587 B-9.0943 
N819 X-210.638 Y-6.246 Z7.204 A49.2492 B-9.0921 
N820 X-210.643 Y-6.277 Z7.201 A51.9492 B-9.0362 
N821 X-210.649 Y-6.307 Z7.197 A54.6644 B-8.9265 
N822 X-210.655 Y-6.337 Z7.192 A57.4023 B-8.7624 
N823 X-210.662 Y-6.366 Z7.187 A60.1705 B-8.5425 
N824 X-210.668 Y-6.394 Z7.181 A62.9735 B-8.2644 
N825 X-210.676 Y-6.423 Z7.175 A65.8100 B-7.9257 
N826 X-210.683 Y-6.451 Z7.167 A68.6734 B-7.5244 
N827 X-210.691 Y-6.481 Z7.158 A71.5537 B-7.0583 
N828 X-210.700 Y-6.511 Z7.145 A74.4406 B-6.5252 
N829 X-210.709 Y-6.542 Z7.129 A77.3249 B-5.9220 
N830 X-210.719 Y-6.574 Z7.109 A80.1982 B-5.2444 
N831 X-210.730 Y-6.606 Z7.083 A83.0505 B-4.4868 
N832 X-210.737 Y-6.640 Z7.051 A85.8950 B-3.7779 
N833 X-210.742 Y-6.674 Z7.012 A88.7032 B-3.0516 
N834 X-210.746 Y-6.707 Z6.964 A91.4484 B-2.2996 
N835 X-210.747 Y-6.740 Z6.905 A94.1026 B-1.5336 
N836 X-210.747 Y-6.772 Z6.834 A96.6399 B-0.7657 
N837 X-210.744 Y-6.800 Z6.749 A99.0367 B-0.0078 
N838 X-210.737 Y-6.825 Z6.650 A101.2773 B0.7302 
N839 X-210.728 Y-6.845 Z6.536 A103.3610 B1.4429 
N840 X-210.716 Y-6.860 Z6.408 A105.3000 B2.1295 
N841 X-210.702 Y-6.869 Z6.266 A107.1088 B2.7905 
N842 X-210.685 Y-6.872 Z6.112 A108.7984 B3.4263 
N843 X-210.667 Y-6.869 Z5.946 A110.4044 B4.0450 
N844 X-210.648 Y-6.860 Z5.771 A111.9727 B4.6583 
N845 X-210.628 Y-6.846 Z5.587 A113.5081 B5.2669 
N846 X-210.608 Y-6.824 Z5.395 A114.9869 B5.8634 
N847 X-210.588 Y-6.796 Z5.193 A116.3990 B6.4446 
N848 X-210.569 Y-6.761 Z4.984 A117.7524 B7.0130 
N849 X-210.550 Y-6.720 Z4.768 A119.0465 B7.5691 
N850 X-210.533 Y-6.670 Z4.544 A120.2620 B8.1078 
N851 X-210.516 Y-6.613 Z4.313 A121.3726 B8.6215 
N852 X-210.501 Y-6.547 Z4.075 A122.3533 B9.1021 
N853 X-210.487 Y-6.472 Z3.831 A123.1909 B9.5438 
N854 X-210.474 Y-6.388 Z3.580 A123.8930 B9.9550 
N855 X-210.463 Y-6.296 Z3.326 A124.4955 B10.3174 
N856 X-210.454 Y-6.197 Z3.070 A125.0520 B10.6370 
N857 X-210.448 Y-6.093 Z2.815 A125.6266 B10.9349 
N858 X-210.445 Y-5.985 Z2.564 A126.2824 B11.2234 
N859 X-210.446 Y-5.875 Z2.319 A127.0690 B11.5040 
N860 X-210.450 Y-5.763 Z2.080 A128.0121 B11.7682 
N861 X-210.458 Y-5.649 Z1.849 A129.1077 B12.0011 
N862 X-210.468 Y-5.534 Z1.623 A130.3285 B12.1874 
N863 X-210.481 Y-5.417 Z1.404 A131.6398 B12.3161 
N864 X-210.495 Y-5.295 Z1.188 A132.9625 B12.3848 
N865 X-210.508 Y-5.167 Z0.974 A134.1768 B12.3802 
N866 X-210.518 Y-5.035 Z0.765 A135.4216 B12.2923 
N867 X-210.528 Y-4.900 Z0.560 A136.6987 B12.1917 
N868 X-210.538 Y-4.762 Z0.361 A138.0085 B12.0892 
N869 X-210.548 Y-4.621 Z0.167 A139.3510 B11.9846 
N870 X-210.558 Y-4.478 Z-0.022 A140.7256 B11.8780 
N871 X-210.568 Y-4.332 Z-0.205 A142.1314 B11.7694 
N872 X-210.578 Y-4.184 Z-0.383 A143.5674 B11.6588 
N873 X-210.588 Y-4.034 Z-0.554 A145.0323 B11.5463 
N874 X-210.598 Y-3.882 Z-0.720 A146.5248 B11.4319 
N875 X-210.608 Y-3.728 Z-0.879 A148.0435 B11.3157 
N876 X-210.618 Y-3.572 Z-1.032 A149.5872 B11.1978 
N877 X-210.628 Y-3.414 Z-1.180 A151.1543 B11.0783 
N878 X-210.638 Y-3.254 Z-1.321 A152.7428 B10.9574 
N879 X-210.648 Y-3.093 Z-1.456 A154.3511 B10.8352 
N880 X-210.658 Y-2.931 Z-1.585 A155.9770 B10.7119 
N881 X-210.668 Y-2.766 Z-1.709 A157.6186 B10.5878 
N882 X-210.679 Y-2.600 Z-1.826 A159.2740 B10.4629 
N883 X-210.689 Y-2.432 Z-1.938 A160.9413 B10.3375 
N884 X-210.699 Y-2.263 Z-2.044 A162.6188 B10.2118 
N885 X-210.709 Y-2.091 Z-2.145 A164.3046 B10.0860 
N886 X-210.719 Y-1.917 Z-2.240 A165.9971 B9.9604 
N887 X-210.729 Y-1.742 Z-2.329 A167.6945 B9.8351 
N888 X-210.739 Y-1.564 Z-2.413 A169.3948 B9.7105 
N889 X-210.749 Y-1.384 Z-2.492 A171.0958 B9.5867 
N890 X-210.759 Y-1.202 Z-2.566 A172.7955 B9.4640 
N891 X-210.769 Y-1.017 Z-2.634 A174.4919 B9.3426 
N892 X-210.780 Y-0.829 Z-2.696 A176.1832 B9.2229 
N893 X-210.790 Y-0.639 Z-2.753 A177.8679 B9.1049 
N894 X-210.800 Y-0.446 Z-2.805 A179.5442 B8.9889 
N895 X-210.810 Y-0.249 Z-2.852 A181.2103 B8.8752 
N896 X-210.820 Y-0.049 Z-2.892 A182.8643 B8.7639 
N897 X-210.831 Y0.153 Z-2.928 A184.5042 B8.6553 
N898 X-210.841 Y0.360 Z-2.957 A186.1279 B8.5495 
N899 X-210.851 Y0.570 Z-2.981 A187.7334 B8.4467 
N900 X-210.861 Y0.784 Z-2.998 A189.3189 B8.3472 
N901 X-210.872 Y1.001 Z-3.010 A190.8826 B8.2510 
N902 X-210.882 Y1.223 Z-3.015 A192.4227 B8.1582 
N903 X-210.892 Y1.448 Z-3.014 A193.9379 B8.0691 
N904 X-210.902 Y1.678 Z-3.007 A195.4265 B7.9836 
N905 X-210.912 Y1.912 Z-2.993 A196.8871 B7.9018 
N906 X-210.923 Y2.150 Z-2.972 A198.3180 B7.8239 
N907 X-210.933 Y2.392 Z-2.945 A199.7180 B7.7498 
N908 X-210.943 Y2.638 Z-2.910 A201.0858 B7.6795 
N909 X-210.952 Y2.889 Z-2.868 A202.4208 B7.6132 
N910 X-210.962 Y3.144 Z-2.819 A203.7223 B7.5506 
N911 X-210.972 Y3.403 Z-2.763 A204.9900 B7.4918 
N912 X-210.981 Y3.666 Z-2.699 A206.2236 B7.4351 
N913 X-210.990 Y3.934 Z-2.628 A207.4234 B7.3806 
N914 X-210.999 Y4.205 Z-2.549 A208.5900 B7.3303 
N915 X-211.008 Y4.480 Z-2.462 A209.7242 B7.2840 
N916 X-211.016 Y4.759 Z-2.368 A210.8262 B7.2417 
N917 X-211.024 Y5.042 Z-2.266 A211.8954 B7.2032 
N918 X-211.032 Y5.328 Z-2.156 A212.9300 B7.1682 
N919 X-211.040 Y5.619 Z-2.038 A213.9272 B7.1368 
N920 X-211.047 Y5.913 Z-1.912 A214.8840 B7.1089 
N921 X-211.054 Y6.210 Z-1.779 A215.7984 B7.0841 
N922 X-211.060 Y6.511 Z-1.637 A216.6699 B7.0624 
N923 X-211.066 Y6.816 Z-1.488 A217.4998 B7.0435 
N924 X-211.072 Y7.124 Z-1.331 A218.2909 B7.0272 
N925 X-211.077 Y7.435 Z-1.167 A219.0457 B7.0133 
N926 X-211.081 Y7.749 Z-0.996 A219.7664 B7.0016 
N927 X-211.085 Y8.066 Z-0.818 A220.4543 B6.9920 
N928 X-211.089 Y8.385 Z-0.633 A221.1102 B6.9844 
N929 X-211.092 Y8.707 Z-0.441 A221.7348 B6.9785 
N930 X-211.095 Y9.031 Z-0.243 A222.3288 B6.9743 
N931 X-211.097 Y9.357 Z-0.039 A222.8931 B6.9716 
N932 X-211.098 Y9.685 Z0.172 A223.4282 B6.9703 
N933 X-211.098 Y10.015 Z0.388 A223.9349 B6.9703 
N934 X-211.098 Y10.347 Z0.610 A224.4141 B6.9714 
N935 X-211.098 Y10.681 Z0.838 A224.8662 B6.9735 
N936 X-211.097 Y11.016 Z1.071 A225.2916 B6.9766 
N937 X-211.095 Y11.352 Z1.308 A225.6900 B6.9806 
N938 X-211.092 Y11.690 Z1.550 A226.0607 B6.9851 
N939 X-211.089 Y12.028 Z1.796 A226.4030 B6.9903 
N940 X-211.086 Y12.367 Z2.047 A226.7179 B6.9958 
N941 X-211.087 Y12.707 Z2.300 A227.0074 B7.0017 
N942 X-211.088 Y13.045 Z2.556 A227.2748 B7.0079 
N943 X-211.091 Y13.383 Z2.814 A227.5224 B7.0144 
N944 X-211.095 Y13.719 Z3.072 A227.7514 B7.0211 
N945 X-211.101 Y14.052 Z3.331 A227.9620 B7.0280 
N946 X-211.107 Y14.382 Z3.590 A228.1537 B7.0348 
N947 X-211.115 Y14.706 Z3.846 A228.3266 B7.0416 
N948 X-211.123 Y15.024 Z4.099 A228.4804 B7.0482 
N949 X-211.132 Y15.335 Z4.347 A228.6147 B7.0545 
N950 X-211.141 Y15.637 Z4.590 A228.7292 B7.0604 
N951 X-211.151 Y15.928 Z4.825 A228.8246 B7.0659 
N952 X-211.162 Y16.208 Z5.052 A228.9027 B7.0709 
N953 X-211.173 Y16.475 Z5.269 A228.9671 B7.0754 
N954 X-211.184 Y16.729 Z5.476 A229.0211 B7.0796 
N955 X-211.195 Y16.967 Z5.671 A229.0678 B7.0834 
N956 X-211.206 Y17.191 Z5.854 A229.1089 B7.0870 
N957 X-211.216 Y17.399 Z6.025 A229.1446 B7.0904 
N958 X-211.227 Y17.593 Z6.184 A229.1739 B7.0933 
N959 X-211.237 Y17.771 Z6.331 A229.2032 B7.0962 
N960 X-211.247 Y17.929 Z6.459 A229.4846 B7.1098 
N961 X-211.256 Y18.025 Z6.521 A231.6968 B7.2100 
N962 X-210.001 Y25.811 Z0.372 F878 
N963 G00 X-204.981 Y56.952 Z-24.225 
;RAPORT("TB123456","Flank Milling Transition:158 End")
;trailer : concat=None
; points cnt = 915
N965 M341 ; centralne wyl.
N966 MSG (" --- KONIEC PODPROGRAMU --- ")
N967 FGROUP()
N968 TRAFOOF
N969 STOPRE
N970 G0 G53 D0 Z550.0 M9 M5
N971 G0 G53 Y150 A0 B0
N972 M17
