; PROGRAM NAME: B12345634
; ORDER       : B123456
; OPER. NAME  : Spiral Finish Airfoil:159
; OPER. DESCR.: Spiral Finishing Airfoil/pioro_wk
; OPER. TYPE  : finAirfoil
; GEO. OPTION : 5
; MACHINE     : HSTM_500_SIM840D_Py
;             : HSTM500 - HAMUEL: 5-axis milling machine - SIM840D Traori PP_Script
; CONTROL     : SINUMERIK 840D
; created:   2023-06-06 12:06:51.142637
;-------DODATKOWE DANE-------------------
; PROGRAMISTA : Mariusz Malec
; PARTID      : 306T001953P1010_-
;  ae         : 1.5
;  lean_angle : 20.0
;  airf_offset: 0.05
;----------------------------------------
;RAPORT("TB123456","Spiral Finish Airfoil:159")
N10 TRAFOOF
N11 D0
N12 G90 G94
N13 G0 G53 D0 Z550 B0
N14 STOPRE
M9 ; chlodziwo wyl
; --- Spiral Finish Airfoil:159 - Spiral Finishing Airfoil/pioro_wk ---
N16 ;ToolChange : concat=None ,current_tdmid=None, PP.tdmId=941084
N17 TRAFOOF
N18 G0 G53 D0 X-200 Y150 Z550 B0
N19 T="7741084"
;RAPORT("TB123456","ToolChangeStart 7741084")
N20 M6
;RAPORT("TB123456","ToolChangeEnd")
N21 STOPRE
N22 MSG(" TLID=941084 D=12.0 R=3.0 Ang=0.0 Len=130.0 ")
N23 ; (Preloading tool)
N24 T="7757774"
N25 S7427 M03
N26 STOPRE
N27 CYCLE832(0.01,1,1)
N28 G0 G53 A202.0323 B0.2975
N29 TRAORI
N30 G54 D1
N31 D1 
N32 TRANS  A=R25
STOPRE
E_ZDARZ=300001
;ACS_FINISH_AIRFOIL=7741084
STOPRE
N33 ; DELTA A > 40.1
N34 TRAFOOF
N35 D1
N36 STOPRE
N37 G00 G54 Z256.000
N38 G01 A202.0323 F10000
N39 TRAORI
N40 G54 D1
N41 STOPRE
N42 TRANS  A=R25
N43 G00 X-202.807 Y55.571 Z-40.440 A202.0323 B0.2975 
N44 M342 ; chlodziwo woda
N45 X-203.067 Y36.815 Z5.908 
N46 G01 X-203.059 Y34.383 Z7.875 F2079 
N47 X-203.038 Y31.461 Z8.995 
N48 X-203.004 Y28.337 Z9.157 
N49 X-202.962 Y25.316 Z8.346 
N50 X-202.915 Y22.693 Z6.641 
N51 X-202.919 Y22.647 Z6.487 A200.4102 B0.3263 
N52 X-202.919 Y22.597 Z6.408 A199.8297 B0.3361 
N53 X-202.919 Y22.538 Z6.351 A199.6528 B0.3404 
N54 X-202.918 Y22.467 Z6.293 A199.5794 B0.3412 
N55 X-202.916 Y22.382 Z6.225 A199.5303 B0.3419 
N56 X-202.914 Y22.282 Z6.145 A199.4947 B0.3420 
N57 X-202.911 Y22.165 Z6.051 A199.4639 B0.3424 
N58 X-202.908 Y22.029 Z5.942 A199.4327 B0.3428 
N59 X-202.905 Y21.873 Z5.817 A199.3983 B0.3433 
N60 X-202.901 Y21.698 Z5.675 A199.3589 B0.3440 
N61 X-202.897 Y21.502 Z5.516 A199.3132 B0.3445 
N62 X-202.892 Y21.285 Z5.340 A199.2595 B0.3456 
N63 X-202.887 Y21.049 Z5.148 A199.1958 B0.3464 
N64 X-202.881 Y20.795 Z4.940 A199.1198 B0.3477 
N65 X-202.875 Y20.523 Z4.717 A199.0287 B0.3493 
N66 X-202.869 Y20.234 Z4.481 A198.9200 B0.3510 
N67 X-202.863 Y19.932 Z4.232 A198.7920 B0.3533 
N68 X-202.856 Y19.616 Z3.974 A198.6433 B0.3557 
N69 X-202.849 Y19.290 Z3.706 A198.4735 B0.3586 
N70 X-202.841 Y18.955 Z3.432 A198.2822 B0.3619 
N71 X-202.834 Y18.613 Z3.152 A198.0693 B0.3655 
N72 X-202.826 Y18.264 Z2.868 A197.8344 B0.3696 
N73 X-202.819 Y17.911 Z2.582 A197.5771 B0.3739 
N74 X-202.811 Y17.555 Z2.294 A197.2964 B0.3786 
N75 X-202.803 Y17.197 Z2.005 A196.9908 B0.3838 
N76 X-202.795 Y16.837 Z1.717 A196.6579 B0.3894 
N77 X-202.788 Y16.476 Z1.429 A196.2957 B0.3954 
N78 X-202.780 Y16.115 Z1.143 A195.9023 B0.4021 
N79 X-202.772 Y15.753 Z0.858 A195.4773 B0.4092 
N80 X-202.764 Y15.392 Z0.576 A195.0202 B0.4169 
N81 X-202.756 Y15.031 Z0.296 A194.5310 B0.4251 
N82 X-202.748 Y14.671 Z0.019 A194.0092 B0.4338 
N83 X-202.740 Y14.312 Z-0.254 A193.4541 B0.4430 
N84 X-202.732 Y13.953 Z-0.524 A192.8647 B0.4527 
N85 X-202.724 Y13.596 Z-0.789 A192.2398 B0.4629 
N86 X-202.716 Y13.239 Z-1.051 A191.5783 B0.4737 
N87 X-202.708 Y12.883 Z-1.309 A190.8787 B0.4850 
N88 X-202.700 Y12.528 Z-1.562 A190.1395 B0.4969 
N89 X-202.692 Y12.174 Z-1.811 A189.3589 B0.5094 
N90 X-202.684 Y11.821 Z-2.056 A188.5348 B0.5224 
N91 X-202.677 Y11.469 Z-2.296 A187.6644 B0.5361 
N92 X-202.669 Y11.118 Z-2.531 A186.7445 B0.5504 
N93 X-202.661 Y10.767 Z-2.761 A185.7721 B0.5654 
N94 X-202.653 Y10.416 Z-2.987 A184.7449 B0.5811 
N95 X-202.645 Y10.066 Z-3.208 A183.6621 B0.5975 
N96 X-202.637 Y9.717 Z-3.423 A182.5246 B0.6146 
N97 X-202.629 Y9.367 Z-3.632 A181.3339 B0.6321 
N98 X-202.621 Y9.018 Z-3.836 A180.0917 B0.6502 
N99 X-202.613 Y8.669 Z-4.033 A178.7990 B0.6686 
N100 X-202.605 Y8.320 Z-4.223 A177.4556 B0.6873 
N101 X-202.597 Y7.970 Z-4.407 A176.0604 B0.7064 
N102 X-202.589 Y7.621 Z-4.584 A174.6122 B0.7257 
N103 X-202.580 Y7.271 Z-4.754 A173.1099 B0.7453 
N104 X-202.572 Y6.920 Z-4.918 A171.5527 B0.7651 
N105 X-202.564 Y6.569 Z-5.074 A169.9402 B0.7850 
N106 X-202.556 Y6.216 Z-5.222 A168.2725 B0.8050 
N107 X-202.547 Y5.863 Z-5.363 A166.5504 B0.8249 
N108 X-202.539 Y5.507 Z-5.496 A164.7750 B0.8446 
N109 X-202.530 Y5.151 Z-5.620 A162.9481 B0.8641 
N110 X-202.521 Y4.792 Z-5.735 A161.0720 B0.8832 
N111 X-202.512 Y4.432 Z-5.841 A159.1493 B0.9018 
N112 X-202.503 Y4.071 Z-5.938 A157.1829 B0.9197 
N113 X-202.494 Y3.707 Z-6.024 A155.1765 B0.9370 
N114 X-202.484 Y3.342 Z-6.099 A153.1340 B0.9533 
N115 X-202.475 Y2.976 Z-6.163 A151.0601 B0.9686 
N116 X-202.465 Y2.608 Z-6.216 A148.9596 B0.9828 
N117 X-202.455 Y2.239 Z-6.256 A146.8374 B0.9958 
N118 X-202.444 Y1.870 Z-6.283 A144.6987 B1.0075 
N119 X-202.433 Y1.500 Z-6.298 A142.5485 B1.0178 
N120 X-202.422 Y1.130 Z-6.299 A140.3922 B1.0267 
N121 X-202.411 Y0.761 Z-6.286 A138.2352 B1.0341 
N122 X-202.399 Y0.392 Z-6.259 A136.0833 B1.0401 
N123 X-202.386 Y0.026 Z-6.218 A133.9420 B1.0445 
N124 X-202.374 Y-0.339 Z-6.163 A131.8164 B1.0473 
N125 X-202.361 Y-0.701 Z-6.093 A129.7115 B1.0488 
N126 X-202.348 Y-1.059 Z-6.008 A127.6318 B1.0488 
N127 X-202.334 Y-1.414 Z-5.909 A125.5815 B1.0474 
N128 X-202.320 Y-1.765 Z-5.795 A123.5647 B1.0448 
N129 X-202.306 Y-2.110 Z-5.667 A121.5851 B1.0409 
N130 X-202.292 Y-2.450 Z-5.525 A119.6460 B1.0358 
N131 X-202.277 Y-2.785 Z-5.369 A117.7501 B1.0298 
N132 X-202.262 Y-3.113 Z-5.200 A115.8995 B1.0228 
N133 X-202.247 Y-3.434 Z-5.018 A114.0960 B1.0149 
N134 X-202.232 Y-3.749 Z-4.823 A112.3407 B1.0063 
N135 X-202.216 Y-4.056 Z-4.616 A110.6344 B0.9970 
N136 X-202.200 Y-4.355 Z-4.398 A108.9776 B0.9872 
N137 X-202.184 Y-4.646 Z-4.169 A107.3702 B0.9769 
N138 X-202.169 Y-4.929 Z-3.930 A105.8112 B0.9662 
N139 X-202.153 Y-5.203 Z-3.682 A104.2982 B0.9551 
N140 X-202.137 Y-5.470 Z-3.425 A102.8275 B0.9438 
N141 X-202.121 Y-5.728 Z-3.160 A101.3937 B0.9322 
N142 X-202.105 Y-5.978 Z-2.887 A99.9903 B0.9203 
N143 X-202.089 Y-6.220 Z-2.609 A98.6118 B0.9079 
N144 X-202.073 Y-6.454 Z-2.325 A97.2553 B0.8954 
N145 X-202.058 Y-6.679 Z-2.036 A95.9214 B0.8824 
N146 X-202.042 Y-6.895 Z-1.745 A94.6126 B0.8689 
N147 X-202.028 Y-7.102 Z-1.451 A93.3304 B0.8560 
N148 X-202.013 Y-7.298 Z-1.157 A92.0724 B0.8425 
N149 X-201.999 Y-7.486 Z-0.864 A90.8307 B0.8289 
N150 X-201.985 Y-7.665 Z-0.572 A89.5928 B0.8156 
N151 X-201.971 Y-7.837 Z-0.283 A88.3453 B0.8014 
N152 X-201.958 Y-8.001 Z0.003 A87.0769 B0.7863 
N153 X-201.945 Y-8.158 Z0.284 A85.7804 B0.7711 
N154 X-201.933 Y-8.308 Z0.560 A84.4501 B0.7542 
N155 X-201.921 Y-8.452 Z0.830 A83.0801 B0.7372 
N156 X-201.910 Y-8.590 Z1.093 A81.6603 B0.7187 
N157 X-201.899 Y-8.723 Z1.349 A80.1815 B0.6991 
N158 X-201.889 Y-8.851 Z1.598 A78.6420 B0.6778 
N159 X-201.879 Y-8.974 Z1.839 A77.0414 B0.6558 
N160 X-201.870 Y-9.094 Z2.074 A75.3610 B0.6332 
N161 X-201.861 Y-9.213 Z2.304 A73.5606 B0.6084 
N162 X-201.852 Y-9.335 Z2.532 A71.5939 B0.5809 
N163 X-201.842 Y-9.460 Z2.761 A69.4103 B0.5493 
N164 X-201.833 Y-9.593 Z2.998 A66.9480 B0.5137 
N165 X-201.823 Y-9.735 Z3.247 A64.1348 B0.4717 
N166 X-201.812 Y-9.887 Z3.516 A60.8981 B0.4201 
N167 X-201.800 Y-10.047 Z3.812 A57.1789 B0.3589 
N168 X-201.786 Y-10.211 Z4.142 A52.9529 B0.2840 
N169 X-201.770 Y-10.369 Z4.507 A48.2532 B0.1964 
N170 X-201.753 Y-10.511 Z4.904 A43.1672 B0.1000 
N171 X-201.736 Y-10.625 Z5.327 A37.8145 B-0.0037 
N172 X-201.718 Y-10.704 Z5.766 A32.3223 B-0.1100 
N173 X-201.701 Y-10.742 Z6.211 A26.7978 B-0.2129 
N174 X-201.685 Y-10.737 Z6.654 A21.3150 B-0.3135 
N175 X-201.670 Y-10.690 Z7.088 A15.9207 B-0.4089 
N176 X-201.657 Y-10.602 Z7.508 A10.6500 B-0.4979 
N177 X-201.645 Y-10.477 Z7.908 A5.5427 B-0.5810 
N178 X-201.634 Y-10.318 Z8.280 A0.6537 B-0.6561 
N179 X-201.625 Y-10.131 Z8.620 A356.0515 B-0.7218 
N180 X-201.619 Y-9.923 Z8.922 A351.8039 B-0.7777 
N181 X-201.615 Y-9.700 Z9.183 A347.9582 B-0.8231 
N182 X-201.612 Y-9.469 Z9.405 A344.5221 B-0.8599 
N183 X-201.612 Y-9.231 Z9.590 A341.4645 B-0.8889 
N184 X-201.613 Y-8.987 Z9.745 A338.7362 B-0.9134 
N185 X-201.616 Y-8.737 Z9.872 A336.2864 B-0.9336 
N186 X-201.620 Y-8.479 Z9.975 A334.0748 B-0.9502 
N187 X-201.626 Y-8.214 Z10.055 A332.0676 B-0.9643 
N188 X-201.632 Y-7.939 Z10.116 A330.2278 B-0.9760 
N189 X-201.640 Y-7.652 Z10.159 A328.5210 B-0.9867 
N190 X-201.650 Y-7.354 Z10.184 A326.9369 B-0.9964 
N191 X-201.660 Y-7.046 Z10.190 A325.4870 B-1.0039 
N192 X-201.672 Y-6.728 Z10.178 A324.1790 B-1.0107 
N193 X-201.685 Y-6.401 Z10.147 A323.0102 B-1.0154 
N194 X-201.699 Y-6.066 Z10.099 A321.9786 B-1.0202 
N195 X-201.714 Y-5.724 Z10.034 A321.0849 B-1.0232 
N196 X-201.731 Y-5.376 Z9.953 A320.3300 B-1.0262 
N197 X-201.748 Y-5.022 Z9.857 A319.7103 B-1.0278 
N198 X-201.766 Y-4.664 Z9.748 A319.2167 B-1.0298 
N199 X-201.785 Y-4.302 Z9.627 A318.8378 B-1.0306 
N200 X-201.805 Y-3.937 Z9.496 A318.5638 B-1.0317 
N201 X-201.825 Y-3.571 Z9.356 A318.3883 B-1.0321 
N202 X-201.846 Y-3.204 Z9.210 A318.3101 B-1.0324 
N203 X-201.867 Y-2.839 Z9.057 A318.3313 B-1.0323 
N204 X-201.888 Y-2.476 Z8.899 A318.4560 B-1.0320 
N205 X-201.909 Y-2.119 Z8.738 A318.6887 B-1.0313 
N206 X-201.930 Y-1.767 Z8.574 A319.0334 B-1.0303 
N207 X-201.952 Y-1.423 Z8.408 A319.4928 B-1.0288 
N208 X-201.973 Y-1.086 Z8.242 A320.0669 B-1.0268 
N209 X-201.994 Y-0.758 Z8.076 A320.7526 B-1.0243 
N210 X-202.015 Y-0.438 Z7.912 A321.5436 B-1.0212 
N211 X-202.036 Y-0.127 Z7.749 A322.4312 B-1.0175 
N212 X-202.056 Y0.177 Z7.590 A323.4060 B-1.0131 
N213 X-202.077 Y0.475 Z7.434 A324.4588 B-1.0081 
N214 X-202.097 Y0.766 Z7.283 A325.5813 B-1.0023 
N215 X-202.116 Y1.051 Z7.135 A326.7652 B-0.9957 
N216 X-202.136 Y1.332 Z6.992 A328.0020 B-0.9884 
N217 X-202.155 Y1.609 Z6.854 A329.2830 B-0.9804 
N218 X-202.174 Y1.884 Z6.722 A330.5984 B-0.9716 
N219 X-202.193 Y2.156 Z6.595 A331.9383 B-0.9623 
N220 X-202.211 Y2.428 Z6.475 A333.2922 B-0.9525 
N221 X-202.230 Y2.699 Z6.361 A334.6486 B-0.9425 
N222 X-202.248 Y2.971 Z6.255 A335.9948 B-0.9327 
N223 X-202.266 Y3.243 Z6.157 A337.3166 B-0.9234 
N224 X-202.284 Y3.516 Z6.068 A338.6004 B-0.9152 
N225 X-202.301 Y3.791 Z5.988 A339.8362 B-0.9082 
N226 X-202.319 Y4.068 Z5.918 A341.0227 B-0.9022 
N227 X-202.336 Y4.346 Z5.857 A342.1709 B-0.8967 
N228 X-202.353 Y4.628 Z5.803 A343.3029 B-0.8906 
N229 X-202.370 Y4.913 Z5.756 A344.4435 B-0.8828 
N230 X-202.387 Y5.202 Z5.713 A345.6102 B-0.8727 
N231 X-202.404 Y5.495 Z5.677 A346.8069 B-0.8602 
N232 X-202.421 Y5.794 Z5.645 A348.0273 B-0.8455 
N233 X-202.437 Y6.097 Z5.621 A349.2634 B-0.8291 
N234 X-202.454 Y6.406 Z5.602 A350.5121 B-0.8111 
N235 X-202.470 Y6.720 Z5.591 A351.7732 B-0.7917 
N236 X-202.486 Y7.040 Z5.586 A353.0437 B-0.7710 
N237 X-202.502 Y7.365 Z5.589 A354.3119 B-0.7495 
N238 X-202.518 Y7.695 Z5.601 A355.5572 B-0.7280 
N239 X-202.533 Y8.028 Z5.623 A356.7563 B-0.7074 
N240 X-202.548 Y8.363 Z5.656 A357.8893 B-0.6881 
N241 X-202.563 Y8.699 Z5.699 A358.9449 B-0.6707 
N242 X-202.578 Y9.036 Z5.753 A359.9211 B-0.6550 
N243 X-202.592 Y9.372 Z5.818 A0.8230 B-0.6409 
N244 X-202.606 Y9.706 Z5.890 A1.6591 B-0.6281 
N245 X-202.620 Y10.037 Z5.971 A2.4382 B-0.6163 
N246 X-202.633 Y10.364 Z6.057 A3.1669 B-0.6053 
N247 X-202.646 Y10.685 Z6.148 A3.8482 B-0.5948 
N248 X-202.658 Y10.999 Z6.244 A4.4808 B-0.5853 
N249 X-202.670 Y11.303 Z6.342 A5.0608 B-0.5759 
N250 X-202.681 Y11.596 Z6.442 A5.5845 B-0.5682 
N251 X-202.691 Y11.876 Z6.543 A6.0507 B-0.5609 
N252 X-202.701 Y12.141 Z6.642 A6.4623 B-0.5546 
N253 X-202.710 Y12.389 Z6.739 A6.8247 B-0.5494 
N254 X-202.718 Y12.620 Z6.830 A7.1448 B-0.5444 
N255 X-202.725 Y12.831 Z6.916 A7.4286 B-0.5402 
N256 X-202.732 Y13.023 Z6.995 A7.6806 B-0.5366 
N257 X-202.738 Y13.195 Z7.066 A7.9026 B-0.5327 
N258 X-202.743 Y13.347 Z7.130 A8.0938 B-0.5299 
N259 X-202.748 Y13.480 Z7.186 A8.2497 B-0.5267 
N260 X-202.752 Y13.595 Z7.236 A8.3592 B-0.5245 
N261 X-202.755 Y13.694 Z7.283 A8.3978 B-0.5222 
N262 X-202.758 Y13.777 Z7.330 A8.3175 B-0.5204 
N263 X-202.760 Y13.849 Z7.384 A8.0337 B-0.5207 
N264 X-202.761 Y13.911 Z7.456 A7.4108 B-0.5242 
N265 X-202.760 Y13.967 Z7.559 A6.2652 B-0.5381 
N266 X-202.755 Y14.032 Z7.753 A3.7758 B-0.5746 
N267 X-202.742 Y14.151 Z8.156 A358.2233 B-0.6580 
N268 X-202.721 Y14.397 Z8.773 A349.2357 B-0.7925 
N269 X-202.699 Y14.778 Z9.412 A339.0897 B-0.9322 
N270 X-202.685 Y15.243 Z9.958 A329.2610 B-1.0156 
N271 X-202.679 Y15.738 Z10.378 A320.3510 B-1.0520 
N272 X-202.677 Y16.174 Z10.653 A313.2729 B-1.0660 
N273 X-202.677 Y16.577 Z10.847 A307.1011 B-1.0631 
N274 X-202.679 Y16.948 Z10.981 A301.6723 B-1.0515 
N275 X-202.682 Y17.290 Z11.072 A296.7921 B-1.0347 
N276 X-202.686 Y17.610 Z11.129 A292.2917 B-1.0142 
N277 X-202.690 Y17.918 Z11.161 A288.0204 B-0.9900 
N278 X-202.696 Y18.219 Z11.169 A283.8532 B-0.9620 
N279 X-202.702 Y18.521 Z11.156 A279.6715 B-0.9299 
N280 X-202.709 Y18.832 Z11.120 A275.3559 B-0.8930 
N281 X-202.717 Y19.157 Z11.057 A270.7738 B-0.8496 
N282 X-202.727 Y19.505 Z10.960 A265.7790 B-0.7974 
N283 X-202.739 Y19.883 Z10.816 A260.1986 B-0.7317 
N284 X-202.755 Y20.293 Z10.609 A253.8750 B-0.6448 
N285 X-202.776 Y20.772 Z10.290 A245.9489 B-0.5277 
N286 X-202.806 Y21.294 Z9.813 A236.2091 B-0.3646 
N287 X-202.844 Y21.761 Z9.201 A225.6196 B-0.1430 
N288 X-202.882 Y22.125 Z8.463 A214.3388 B0.0789 
N289 X-202.908 Y22.287 Z7.876 A206.0638 B0.2264 
N290 X-202.920 Y22.318 Z7.568 A202.0323 B0.2975 
N291 X-202.925 Y22.299 Z7.425 A200.4102 B0.3263 
N292 X-202.925 Y22.257 Z7.349 A199.8297 B0.3361 
N293 X-202.925 Y22.201 Z7.293 A199.6528 B0.3404 
N294 X-202.923 Y22.132 Z7.235 A199.5794 B0.3412 
N295 X-202.922 Y22.048 Z7.167 A199.5303 B0.3419 
N296 X-202.920 Y21.948 Z7.087 A199.4947 B0.3420 
N297 X-202.917 Y21.831 Z6.994 A199.4639 B0.3424 
N298 X-202.914 Y21.696 Z6.885 A199.4327 B0.3428 
N299 X-202.911 Y21.541 Z6.760 A199.3983 B0.3433 
N300 X-202.907 Y21.366 Z6.618 A199.3589 B0.3440 
N301 X-202.903 Y21.171 Z6.459 A199.3132 B0.3445 
N302 X-202.898 Y20.956 Z6.284 A199.2595 B0.3456 
N303 X-202.893 Y20.721 Z6.092 A199.1958 B0.3464 
N304 X-202.887 Y20.467 Z5.884 A199.1198 B0.3477 
N305 X-202.881 Y20.196 Z5.662 A199.0287 B0.3493 
N306 X-202.875 Y19.910 Z5.427 A198.9200 B0.3510 
N307 X-202.869 Y19.609 Z5.179 A198.7920 B0.3533 
N308 X-202.862 Y19.297 Z4.921 A198.6433 B0.3557 
N309 X-202.855 Y18.973 Z4.655 A198.4735 B0.3586 
N310 X-202.848 Y18.642 Z4.381 A198.2822 B0.3619 
N311 X-202.840 Y18.303 Z4.103 A198.0693 B0.3655 
N312 X-202.833 Y17.958 Z3.820 A197.8344 B0.3696 
N313 X-202.825 Y17.610 Z3.535 A197.5771 B0.3739 
N314 X-202.818 Y17.258 Z3.249 A197.2964 B0.3786 
N315 X-202.810 Y16.905 Z2.962 A196.9908 B0.3838 
N316 X-202.802 Y16.550 Z2.675 A196.6579 B0.3894 
N317 X-202.794 Y16.195 Z2.389 A196.2957 B0.3954 
N318 X-202.787 Y15.841 Z2.104 A195.9023 B0.4021 
N319 X-202.779 Y15.486 Z1.822 A195.4773 B0.4092 
N320 X-202.771 Y15.133 Z1.541 A195.0202 B0.4169 
N321 X-202.763 Y14.780 Z1.264 A194.5310 B0.4251 
N322 X-202.756 Y14.429 Z0.990 A194.0092 B0.4338 
N323 X-202.748 Y14.079 Z0.719 A193.4541 B0.4430 
N324 X-202.740 Y13.731 Z0.451 A192.8647 B0.4527 
N325 X-202.732 Y13.384 Z0.188 A192.2398 B0.4629 
N326 X-202.725 Y13.038 Z-0.072 A191.5783 B0.4737 
N327 X-202.717 Y12.694 Z-0.327 A190.8787 B0.4850 
N328 X-202.709 Y12.352 Z-0.578 A190.1395 B0.4969 
N329 X-202.701 Y12.012 Z-0.825 A189.3589 B0.5094 
N330 X-202.694 Y11.673 Z-1.067 A188.5348 B0.5224 
N331 X-202.686 Y11.336 Z-1.305 A187.6644 B0.5361 
N332 X-202.678 Y11.000 Z-1.538 A186.7445 B0.5504 
N333 X-202.670 Y10.666 Z-1.766 A185.7721 B0.5654 
N334 X-202.663 Y10.334 Z-1.990 A184.7449 B0.5811 
N335 X-202.655 Y10.002 Z-2.210 A183.6621 B0.5975 
N336 X-202.647 Y9.673 Z-2.424 A182.5246 B0.6146 
N337 X-202.640 Y9.344 Z-2.633 A181.3339 B0.6321 
N338 X-202.632 Y9.016 Z-2.836 A180.0917 B0.6502 
N339 X-202.624 Y8.690 Z-3.033 A178.7990 B0.6686 
N340 X-202.617 Y8.364 Z-3.224 A177.4556 B0.6873 
N341 X-202.609 Y8.039 Z-3.409 A176.0604 B0.7064 
N342 X-202.601 Y7.715 Z-3.589 A174.6122 B0.7257 
N343 X-202.593 Y7.391 Z-3.762 A173.1099 B0.7453 
N344 X-202.585 Y7.067 Z-3.929 A171.5527 B0.7651 
N345 X-202.578 Y6.744 Z-4.089 A169.9402 B0.7850 
N346 X-202.570 Y6.420 Z-4.243 A168.2725 B0.8050 
N347 X-202.561 Y6.095 Z-4.391 A166.5504 B0.8249 
N348 X-202.553 Y5.770 Z-4.531 A164.7750 B0.8446 
N349 X-202.545 Y5.444 Z-4.664 A162.9481 B0.8641 
N350 X-202.537 Y5.117 Z-4.790 A161.0720 B0.8832 
N351 X-202.528 Y4.788 Z-4.907 A159.1493 B0.9018 
N352 X-202.519 Y4.458 Z-5.016 A157.1829 B0.9197 
N353 X-202.510 Y4.127 Z-5.116 A155.1765 B0.9370 
N354 X-202.501 Y3.794 Z-5.207 A153.1340 B0.9533 
N355 X-202.492 Y3.459 Z-5.288 A151.0601 B0.9686 
N356 X-202.482 Y3.123 Z-5.359 A148.9596 B0.9828 
N357 X-202.472 Y2.786 Z-5.419 A146.8374 B0.9958 
N358 X-202.462 Y2.447 Z-5.467 A144.6987 B1.0075 
N359 X-202.451 Y2.108 Z-5.504 A142.5485 B1.0178 
N360 X-202.440 Y1.767 Z-5.528 A140.3922 B1.0267 
N361 X-202.429 Y1.427 Z-5.540 A138.2352 B1.0341 
N362 X-202.417 Y1.086 Z-5.539 A136.0833 B1.0401 
N363 X-202.405 Y0.746 Z-5.524 A133.9420 B1.0445 
N364 X-202.392 Y0.406 Z-5.496 A131.8164 B1.0473 
N365 X-202.379 Y0.069 Z-5.454 A129.7115 B1.0488 
N366 X-202.366 Y-0.267 Z-5.397 A127.6318 B1.0488 
N367 X-202.353 Y-0.601 Z-5.327 A125.5815 B1.0474 
N368 X-202.339 Y-0.931 Z-5.242 A123.5647 B1.0448 
N369 X-202.324 Y-1.259 Z-5.143 A121.5851 B1.0409 
N370 X-202.310 Y-1.582 Z-5.030 A119.6460 B1.0358 
N371 X-202.295 Y-1.900 Z-4.904 A117.7501 B1.0298 
N372 X-202.280 Y-2.214 Z-4.763 A115.8995 B1.0228 
N373 X-202.265 Y-2.522 Z-4.610 A114.0960 B1.0149 
N374 X-202.249 Y-2.824 Z-4.443 A112.3407 B1.0063 
N375 X-202.233 Y-3.120 Z-4.264 A110.6344 B0.9970 
N376 X-202.217 Y-3.409 Z-4.073 A108.9776 B0.9872 
N377 X-202.201 Y-3.692 Z-3.871 A107.3702 B0.9769 
N378 X-202.185 Y-3.967 Z-3.658 A105.8112 B0.9662 
N379 X-202.169 Y-4.235 Z-3.435 A104.2982 B0.9551 
N380 X-202.153 Y-4.495 Z-3.203 A102.8275 B0.9438 
N381 X-202.137 Y-4.748 Z-2.962 A101.3937 B0.9322 
N382 X-202.121 Y-4.993 Z-2.714 A99.9903 B0.9203 
N383 X-202.105 Y-5.232 Z-2.459 A98.6118 B0.9079 
N384 X-202.089 Y-5.462 Z-2.199 A97.2553 B0.8954 
N385 X-202.073 Y-5.685 Z-1.933 A95.9214 B0.8824 
N386 X-202.058 Y-5.899 Z-1.664 A94.6126 B0.8689 
N387 X-202.042 Y-6.103 Z-1.393 A93.3304 B0.8560 
N388 X-202.028 Y-6.299 Z-1.121 A92.0724 B0.8425 
N389 X-202.013 Y-6.486 Z-0.849 A90.8307 B0.8289 
N390 X-201.999 Y-6.665 Z-0.579 A89.5928 B0.8156 
N391 X-201.985 Y-6.837 Z-0.312 A88.3453 B0.8014 
N392 X-201.972 Y-7.002 Z-0.048 A87.0769 B0.7863 
N393 X-201.959 Y-7.161 Z0.211 A85.7804 B0.7711 
N394 X-201.946 Y-7.313 Z0.463 A84.4501 B0.7542 
N395 X-201.934 Y-7.459 Z0.709 A83.0801 B0.7372 
N396 X-201.923 Y-7.601 Z0.948 A81.6603 B0.7187 
N397 X-201.912 Y-7.737 Z1.179 A80.1815 B0.6991 
N398 X-201.901 Y-7.870 Z1.401 A78.6420 B0.6778 
N399 X-201.890 Y-7.999 Z1.615 A77.0414 B0.6558 
N400 X-201.881 Y-8.126 Z1.821 A75.3610 B0.6332 
N401 X-201.871 Y-8.254 Z2.021 A73.5606 B0.6084 
N402 X-201.862 Y-8.386 Z2.216 A71.5939 B0.5809 
N403 X-201.852 Y-8.524 Z2.410 A69.4103 B0.5493 
N404 X-201.842 Y-8.673 Z2.606 A66.9480 B0.5137 
N405 X-201.832 Y-8.835 Z2.811 A64.1348 B0.4717 
N406 X-201.820 Y-9.013 Z3.030 A60.8981 B0.4201 
N407 X-201.806 Y-9.207 Z3.270 A57.1789 B0.3589 
N408 X-201.791 Y-9.413 Z3.540 A52.9529 B0.2840 
N409 X-201.774 Y-9.623 Z3.841 A48.2532 B0.1964 
N410 X-201.755 Y-9.827 Z4.174 A43.1672 B0.1000 
N411 X-201.736 Y-10.012 Z4.537 A37.8145 B-0.0037 
N412 X-201.716 Y-10.169 Z4.921 A32.3223 B-0.1100 
N413 X-201.698 Y-10.291 Z5.318 A26.7978 B-0.2129 
N414 X-201.680 Y-10.373 Z5.723 A21.3150 B-0.3135 
N415 X-201.663 Y-10.416 Z6.127 A15.9207 B-0.4089 
N416 X-201.648 Y-10.418 Z6.526 A10.6500 B-0.4979 
N417 X-201.634 Y-10.380 Z6.912 A5.5427 B-0.5810 
N418 X-201.623 Y-10.307 Z7.281 A0.6537 B-0.6561 
N419 X-201.613 Y-10.200 Z7.623 A356.0515 B-0.7218 
N420 X-201.605 Y-10.065 Z7.932 A351.8039 B-0.7777 
N421 X-201.600 Y-9.909 Z8.205 A347.9582 B-0.8231 
N422 X-201.597 Y-9.736 Z8.441 A344.5221 B-0.8599 
N423 X-201.597 Y-9.549 Z8.642 A341.4645 B-0.8889 
N424 X-201.597 Y-9.350 Z8.813 A338.7362 B-0.9134 
N425 X-201.600 Y-9.139 Z8.956 A336.2864 B-0.9336 
N426 X-201.604 Y-8.917 Z9.075 A334.0748 B-0.9502 
N427 X-201.609 Y-8.682 Z9.172 A332.0676 B-0.9643 
N428 X-201.615 Y-8.435 Z9.248 A330.2278 B-0.9760 
N429 X-201.623 Y-8.174 Z9.306 A328.5210 B-0.9867 
N430 X-201.632 Y-7.900 Z9.346 A326.9369 B-0.9964 
N431 X-201.643 Y-7.612 Z9.366 A325.4870 B-1.0039 
N432 X-201.654 Y-7.313 Z9.367 A324.1790 B-1.0107 
N433 X-201.667 Y-7.003 Z9.349 A323.0102 B-1.0154 
N434 X-201.681 Y-6.682 Z9.312 A321.9786 B-1.0202 
N435 X-201.697 Y-6.352 Z9.256 A321.0849 B-1.0232 
N436 X-201.713 Y-6.014 Z9.183 A320.3300 B-1.0262 
N437 X-201.730 Y-5.669 Z9.094 A319.7103 B-1.0278 
N438 X-201.748 Y-5.317 Z8.991 A319.2167 B-1.0298 
N439 X-201.767 Y-4.960 Z8.874 A318.8378 B-1.0306 
N440 X-201.787 Y-4.599 Z8.746 A318.5638 B-1.0317 
N441 X-201.807 Y-4.235 Z8.609 A318.3883 B-1.0321 
N442 X-201.828 Y-3.869 Z8.463 A318.3101 B-1.0324 
N443 X-201.849 Y-3.503 Z8.310 A318.3313 B-1.0323 
N444 X-201.870 Y-3.139 Z8.151 A318.4560 B-1.0320 
N445 X-201.891 Y-2.779 Z7.987 A318.6887 B-1.0313 
N446 X-201.912 Y-2.422 Z7.819 A319.0334 B-1.0303 
N447 X-201.934 Y-2.072 Z7.648 A319.4928 B-1.0288 
N448 X-201.955 Y-1.728 Z7.475 A320.0669 B-1.0268 
N449 X-201.976 Y-1.391 Z7.302 A320.7526 B-1.0243 
N450 X-201.997 Y-1.060 Z7.129 A321.5436 B-1.0212 
N451 X-202.018 Y-0.736 Z6.957 A322.4312 B-1.0175 
N452 X-202.039 Y-0.419 Z6.787 A323.4060 B-1.0131 
N453 X-202.059 Y-0.107 Z6.621 A324.4588 B-1.0081 
N454 X-202.079 Y0.201 Z6.458 A325.5813 B-1.0023 
N455 X-202.099 Y0.503 Z6.299 A326.7652 B-0.9957 
N456 X-202.119 Y0.802 Z6.144 A328.0020 B-0.9884 
N457 X-202.138 Y1.099 Z5.995 A329.2830 B-0.9804 
N458 X-202.157 Y1.393 Z5.851 A330.5984 B-0.9716 
N459 X-202.176 Y1.686 Z5.713 A331.9383 B-0.9623 
N460 X-202.195 Y1.978 Z5.582 A333.2922 B-0.9525 
N461 X-202.213 Y2.271 Z5.458 A334.6486 B-0.9425 
N462 X-202.232 Y2.564 Z5.342 A335.9948 B-0.9327 
N463 X-202.250 Y2.857 Z5.234 A337.3166 B-0.9234 
N464 X-202.268 Y3.152 Z5.137 A338.6004 B-0.9152 
N465 X-202.286 Y3.447 Z5.049 A339.8362 B-0.9082 
N466 X-202.303 Y3.743 Z4.972 A341.0227 B-0.9022 
N467 X-202.321 Y4.040 Z4.905 A342.1709 B-0.8967 
N468 X-202.338 Y4.340 Z4.845 A343.3029 B-0.8906 
N469 X-202.355 Y4.644 Z4.792 A344.4435 B-0.8828 
N470 X-202.372 Y4.953 Z4.745 A345.6102 B-0.8727 
N471 X-202.389 Y5.267 Z4.703 A346.8069 B-0.8602 
N472 X-202.406 Y5.586 Z4.667 A348.0273 B-0.8455 
N473 X-202.423 Y5.911 Z4.638 A349.2634 B-0.8291 
N474 X-202.440 Y6.241 Z4.616 A350.5121 B-0.8111 
N475 X-202.456 Y6.577 Z4.601 A351.7732 B-0.7917 
N476 X-202.473 Y6.919 Z4.594 A353.0437 B-0.7710 
N477 X-202.489 Y7.266 Z4.594 A354.3119 B-0.7495 
N478 X-202.505 Y7.617 Z4.604 A355.5572 B-0.7280 
N479 X-202.521 Y7.971 Z4.625 A356.7563 B-0.7074 
N480 X-202.536 Y8.326 Z4.656 A357.8893 B-0.6881 
N481 X-202.552 Y8.681 Z4.699 A358.9449 B-0.6707 
N482 X-202.567 Y9.035 Z4.754 A359.9211 B-0.6550 
N483 X-202.581 Y9.386 Z4.818 A0.8230 B-0.6409 
N484 X-202.595 Y9.735 Z4.891 A1.6591 B-0.6281 
N485 X-202.609 Y10.080 Z4.972 A2.4382 B-0.6163 
N486 X-202.623 Y10.420 Z5.059 A3.1669 B-0.6053 
N487 X-202.636 Y10.752 Z5.151 A3.8482 B-0.5948 
N488 X-202.648 Y11.077 Z5.247 A4.4808 B-0.5853 
N489 X-202.660 Y11.391 Z5.346 A5.0608 B-0.5759 
N490 X-202.671 Y11.693 Z5.447 A5.5845 B-0.5682 
N491 X-202.682 Y11.981 Z5.549 A6.0507 B-0.5609 
N492 X-202.691 Y12.253 Z5.649 A6.4623 B-0.5546 
N493 X-202.700 Y12.508 Z5.746 A6.8247 B-0.5494 
N494 X-202.709 Y12.744 Z5.838 A7.1448 B-0.5444 
N495 X-202.716 Y12.960 Z5.925 A7.4286 B-0.5402 
N496 X-202.723 Y13.156 Z6.004 A7.6806 B-0.5366 
N497 X-202.729 Y13.332 Z6.076 A7.9026 B-0.5327 
N498 X-202.734 Y13.488 Z6.140 A8.0938 B-0.5299 
N499 X-202.739 Y13.623 Z6.197 A8.2497 B-0.5267 
N500 X-202.742 Y13.740 Z6.247 A8.3592 B-0.5245 
N501 X-202.746 Y13.840 Z6.294 A8.3978 B-0.5222 
N502 X-202.749 Y13.922 Z6.341 A8.3175 B-0.5204 
N503 X-202.751 Y13.988 Z6.394 A8.0337 B-0.5207 
N504 X-202.752 Y14.040 Z6.464 A7.4108 B-0.5242 
N505 X-202.751 Y14.076 Z6.565 A6.2652 B-0.5381 
N506 X-202.745 Y14.098 Z6.755 A3.7758 B-0.5746 
N507 X-202.730 Y14.120 Z7.157 A358.2233 B-0.6580 
N508 X-202.707 Y14.210 Z7.791 A349.2357 B-0.7925 
N509 X-202.683 Y14.421 Z8.478 A339.0897 B-0.9322 
N510 X-202.668 Y14.732 Z9.099 A329.2610 B-1.0156 
N511 X-202.660 Y15.100 Z9.608 A320.3510 B-1.0520 
N512 X-202.658 Y15.446 Z9.967 A313.2729 B-1.0660 
N513 X-202.659 Y15.780 Z10.244 A307.1011 B-1.0631 
N514 X-202.661 Y16.097 Z10.457 A301.6723 B-1.0515 
N515 X-202.664 Y16.397 Z10.621 A296.7921 B-1.0347 
N516 X-202.668 Y16.685 Z10.750 A292.2917 B-1.0142 
N517 X-202.673 Y16.967 Z10.851 A288.0204 B-0.9900 
N518 X-202.679 Y17.249 Z10.930 A283.8532 B-0.9620 
N519 X-202.685 Y17.536 Z10.988 A279.6715 B-0.9299 
N520 X-202.693 Y17.836 Z11.027 A275.3559 B-0.8930 
N521 X-202.702 Y18.157 Z11.044 A270.7738 B-0.8496 
N522 X-202.713 Y18.508 Z11.033 A265.7790 B-0.7974 
N523 X-202.726 Y18.898 Z10.986 A260.1986 B-0.7317 
N524 X-202.743 Y19.332 Z10.887 A253.8750 B-0.6448 
N525 X-202.767 Y19.859 Z10.698 A245.9489 B-0.5277 
N526 X-202.799 Y20.463 Z10.370 A236.2091 B-0.3646 
N527 X-202.841 Y21.047 Z9.900 A225.6196 B-0.1430 
N528 X-202.883 Y21.561 Z9.289 A214.3388 B0.0789 
N529 X-202.912 Y21.848 Z8.774 A206.0638 B0.2264 
N530 X-202.925 Y21.943 Z8.495 A202.0323 B0.2975 
N531 X-202.930 Y21.951 Z8.358 A200.4102 B0.3263 
N532 X-202.931 Y21.921 Z8.282 A199.8297 B0.3361 
N533 X-202.931 Y21.869 Z8.223 A199.6528 B0.3404 
N534 X-202.929 Y21.802 Z8.162 A199.5794 B0.3412 
N535 X-202.928 Y21.721 Z8.090 A199.5303 B0.3419 
N536 X-202.925 Y21.623 Z8.006 A199.4947 B0.3420 
N537 X-202.923 Y21.508 Z7.909 A199.4639 B0.3424 
N538 X-202.920 Y21.374 Z7.796 A199.4327 B0.3428 
N539 X-202.917 Y21.222 Z7.668 A199.3983 B0.3433 
N540 X-202.913 Y21.049 Z7.522 A199.3589 B0.3440 
N541 X-202.908 Y20.855 Z7.360 A199.3132 B0.3445 
N542 X-202.904 Y20.642 Z7.181 A199.2595 B0.3456 
N543 X-202.899 Y20.410 Z6.985 A199.1958 B0.3464 
N544 X-202.893 Y20.159 Z6.774 A199.1198 B0.3477 
N545 X-202.887 Y19.891 Z6.548 A199.0287 B0.3493 
N546 X-202.881 Y19.607 Z6.309 A198.9200 B0.3510 
N547 X-202.874 Y19.310 Z6.059 A198.7920 B0.3533 
N548 X-202.868 Y19.001 Z5.798 A198.6433 B0.3557 
N549 X-202.861 Y18.682 Z5.528 A198.4735 B0.3586 
N550 X-202.853 Y18.354 Z5.252 A198.2822 B0.3619 
N551 X-202.846 Y18.020 Z4.970 A198.0693 B0.3655 
N552 X-202.839 Y17.680 Z4.685 A197.8344 B0.3696 
N553 X-202.831 Y17.336 Z4.397 A197.5771 B0.3739 
N554 X-202.824 Y16.990 Z4.108 A197.2964 B0.3786 
N555 X-202.816 Y16.643 Z3.818 A196.9908 B0.3838 
N556 X-202.808 Y16.295 Z3.529 A196.6579 B0.3894 
N557 X-202.801 Y15.946 Z3.241 A196.2957 B0.3954 
N558 X-202.793 Y15.599 Z2.954 A195.9023 B0.4021 
N559 X-202.785 Y15.252 Z2.669 A195.4773 B0.4092 
N560 X-202.778 Y14.906 Z2.386 A195.0202 B0.4169 
N561 X-202.770 Y14.562 Z2.107 A194.5310 B0.4251 
N562 X-202.762 Y14.219 Z1.830 A194.0092 B0.4338 
N563 X-202.755 Y13.879 Z1.557 A193.4541 B0.4430 
N564 X-202.747 Y13.540 Z1.288 A192.8647 B0.4527 
N565 X-202.739 Y13.203 Z1.023 A192.2398 B0.4629 
N566 X-202.732 Y12.868 Z0.761 A191.5783 B0.4737 
N567 X-202.724 Y12.535 Z0.504 A190.8787 B0.4850 
N568 X-202.716 Y12.204 Z0.250 A190.1395 B0.4969 
N569 X-202.709 Y11.876 Z0.002 A189.3589 B0.5094 
N570 X-202.701 Y11.549 Z-0.243 A188.5348 B0.5224 
N571 X-202.694 Y11.225 Z-0.483 A187.6644 B0.5361 
N572 X-202.686 Y10.903 Z-0.718 A186.7445 B0.5504 
N573 X-202.679 Y10.584 Z-0.950 A185.7721 B0.5654 
N574 X-202.671 Y10.266 Z-1.177 A184.7449 B0.5811 
N575 X-202.664 Y9.951 Z-1.399 A183.6621 B0.5975 
N576 X-202.656 Y9.637 Z-1.616 A182.5246 B0.6146 
N577 X-202.649 Y9.325 Z-1.829 A181.3339 B0.6321 
N578 X-202.641 Y9.015 Z-2.036 A180.0917 B0.6502 
N579 X-202.634 Y8.706 Z-2.237 A178.7990 B0.6686 
N580 X-202.626 Y8.399 Z-2.433 A177.4556 B0.6873 
N581 X-202.619 Y8.093 Z-2.624 A176.0604 B0.7064 
N582 X-202.611 Y7.788 Z-2.809 A174.6122 B0.7257 
N583 X-202.603 Y7.484 Z-2.988 A173.1099 B0.7453 
N584 X-202.596 Y7.181 Z-3.162 A171.5527 B0.7651 
N585 X-202.588 Y6.878 Z-3.330 A169.9402 B0.7850 
N586 X-202.580 Y6.575 Z-3.493 A168.2725 B0.8050 
N587 X-202.572 Y6.273 Z-3.649 A166.5504 B0.8249 
N588 X-202.564 Y5.969 Z-3.799 A164.7750 B0.8446 
N589 X-202.556 Y5.665 Z-3.943 A162.9481 B0.8641 
N590 X-202.548 Y5.360 Z-4.080 A161.0720 B0.8832 
N591 X-202.540 Y5.054 Z-4.210 A159.1493 B0.9018 
N592 X-202.531 Y4.746 Z-4.333 A157.1829 B0.9197 
N593 X-202.522 Y4.437 Z-4.447 A155.1765 B0.9370 
N594 X-202.513 Y4.125 Z-4.553 A153.1340 B0.9533 
N595 X-202.504 Y3.812 Z-4.650 A151.0601 B0.9686 
N596 X-202.494 Y3.497 Z-4.738 A148.9596 B0.9828 
N597 X-202.484 Y3.180 Z-4.815 A146.8374 B0.9958 
N598 X-202.474 Y2.861 Z-4.882 A144.6987 B1.0075 
N599 X-202.464 Y2.541 Z-4.938 A142.5485 B1.0178 
N600 X-202.453 Y2.219 Z-4.983 A140.3922 B1.0267 
N601 X-202.441 Y1.896 Z-5.015 A138.2352 B1.0341 
N602 X-202.430 Y1.571 Z-5.035 A136.0833 B1.0401 
N603 X-202.417 Y1.247 Z-5.042 A133.9420 B1.0445 
N604 X-202.405 Y0.922 Z-5.035 A131.8164 B1.0473 
N605 X-202.392 Y0.597 Z-5.015 A129.7115 B1.0488 
N606 X-202.379 Y0.274 Z-4.980 A127.6318 B1.0488 
N607 X-202.365 Y-0.049 Z-4.932 A125.5815 B1.0474 
N608 X-202.351 Y-0.369 Z-4.869 A123.5647 B1.0448 
N609 X-202.337 Y-0.687 Z-4.792 A121.5851 B1.0409 
N610 X-202.322 Y-1.002 Z-4.701 A119.6460 B1.0358 
N611 X-202.307 Y-1.314 Z-4.595 A117.7501 B1.0298 
N612 X-202.292 Y-1.621 Z-4.476 A115.8995 B1.0228 
N613 X-202.276 Y-1.925 Z-4.343 A114.0960 B1.0149 
N614 X-202.260 Y-2.223 Z-4.196 A112.3407 B1.0063 
N615 X-202.245 Y-2.515 Z-4.037 A110.6344 B0.9970 
N616 X-202.229 Y-2.802 Z-3.865 A108.9776 B0.9872 
N617 X-202.212 Y-3.083 Z-3.681 A107.3702 B0.9769 
N618 X-202.196 Y-3.357 Z-3.485 A105.8112 B0.9662 
N619 X-202.180 Y-3.625 Z-3.279 A104.2982 B0.9551 
N620 X-202.163 Y-3.886 Z-3.064 A102.8275 B0.9438 
N621 X-202.147 Y-4.139 Z-2.839 A101.3937 B0.9322 
N622 X-202.131 Y-4.386 Z-2.607 A99.9903 B0.9203 
N623 X-202.115 Y-4.626 Z-2.367 A98.6118 B0.9079 
N624 X-202.098 Y-4.859 Z-2.122 A97.2553 B0.8954 
N625 X-202.083 Y-5.084 Z-1.871 A95.9214 B0.8824 
N626 X-202.067 Y-5.301 Z-1.616 A94.6126 B0.8689 
N627 X-202.051 Y-5.509 Z-1.359 A93.3304 B0.8560 
N628 X-202.036 Y-5.708 Z-1.100 A92.0724 B0.8425 
N629 X-202.021 Y-5.899 Z-0.841 A90.8307 B0.8289 
N630 X-202.007 Y-6.082 Z-0.583 A89.5928 B0.8156 
N631 X-201.993 Y-6.258 Z-0.328 A88.3453 B0.8014 
N632 X-201.980 Y-6.428 Z-0.077 A87.0769 B0.7863 
N633 X-201.967 Y-6.591 Z0.169 A85.7804 B0.7711 
N634 X-201.954 Y-6.749 Z0.409 A84.4501 B0.7542 
N635 X-201.942 Y-6.901 Z0.642 A83.0801 B0.7372 
N636 X-201.930 Y-7.048 Z0.867 A81.6603 B0.7187 
N637 X-201.918 Y-7.191 Z1.084 A80.1815 B0.6991 
N638 X-201.907 Y-7.331 Z1.293 A78.6420 B0.6778 
N639 X-201.897 Y-7.467 Z1.493 A77.0414 B0.6558 
N640 X-201.887 Y-7.602 Z1.684 A75.3610 B0.6332 
N641 X-201.877 Y-7.739 Z1.869 A73.5606 B0.6084 
N642 X-201.867 Y-7.880 Z2.048 A71.5939 B0.5809 
N643 X-201.857 Y-8.029 Z2.224 A69.4103 B0.5493 
N644 X-201.847 Y-8.190 Z2.401 A66.9480 B0.5137 
N645 X-201.836 Y-8.367 Z2.583 A64.1348 B0.4717 
N646 X-201.823 Y-8.562 Z2.778 A60.8981 B0.4201 
N647 X-201.809 Y-8.776 Z2.993 A57.1789 B0.3589 
N648 X-201.793 Y-9.007 Z3.233 A52.9529 B0.2840 
N649 X-201.775 Y-9.247 Z3.505 A48.2532 B0.1964 
N650 X-201.756 Y-9.485 Z3.810 A43.1672 B0.1000 
N651 X-201.736 Y-9.708 Z4.145 A37.8145 B-0.0037 
N652 X-201.715 Y-9.906 Z4.505 A32.3223 B-0.1100 
N653 X-201.696 Y-10.071 Z4.883 A26.7978 B-0.2129 
N654 X-201.677 Y-10.198 Z5.272 A21.3150 B-0.3135 
N655 X-201.660 Y-10.284 Z5.666 A15.9207 B-0.4089 
N656 X-201.644 Y-10.330 Z6.059 A10.6500 B-0.4979 
N657 X-201.630 Y-10.335 Z6.444 A5.5427 B-0.5810 
N658 X-201.617 Y-10.301 Z6.814 A0.6537 B-0.6561 
N659 X-201.607 Y-10.232 Z7.161 A356.0515 B-0.7218 
N660 X-201.599 Y-10.131 Z7.479 A351.8039 B-0.7777 
N661 X-201.594 Y-10.004 Z7.761 A347.9582 B-0.8231 
N662 X-201.591 Y-9.856 Z8.007 A344.5221 B-0.8599 
N663 X-201.590 Y-9.690 Z8.220 A341.4645 B-0.8889 
N664 X-201.590 Y-9.510 Z8.401 A338.7362 B-0.9134 
N665 X-201.593 Y-9.315 Z8.556 A336.2864 B-0.9336 
N666 X-201.596 Y-9.106 Z8.686 A334.0748 B-0.9502 
N667 X-201.602 Y-8.883 Z8.793 A332.0676 B-0.9643 
N668 X-201.608 Y-8.646 Z8.880 A330.2278 B-0.9760 
N669 X-201.616 Y-8.394 Z8.948 A328.5210 B-0.9867 
N670 X-201.625 Y-8.127 Z8.997 A326.9369 B-0.9964 
N671 X-201.635 Y-7.846 Z9.027 A325.4870 B-1.0039 
N672 X-201.647 Y-7.552 Z9.036 A324.1790 B-1.0107 
N673 X-201.660 Y-7.246 Z9.026 A323.0102 B-1.0154 
N674 X-201.674 Y-6.928 Z8.996 A321.9786 B-1.0202 
N675 X-201.689 Y-6.601 Z8.948 A321.0849 B-1.0232 
N676 X-201.706 Y-6.264 Z8.882 A320.3300 B-1.0262 
N677 X-201.723 Y-5.919 Z8.799 A319.7103 B-1.0278 
N678 X-201.741 Y-5.567 Z8.700 A319.2167 B-1.0298 
N679 X-201.760 Y-5.210 Z8.589 A318.8378 B-1.0306 
N680 X-201.780 Y-4.847 Z8.465 A318.5638 B-1.0317 
N681 X-201.800 Y-4.481 Z8.332 A318.3883 B-1.0321 
N682 X-201.821 Y-4.113 Z8.189 A318.3101 B-1.0324 
N683 X-201.842 Y-3.744 Z8.039 A318.3313 B-1.0323 
N684 X-201.863 Y-3.377 Z7.883 A318.4560 B-1.0320 
N685 X-201.885 Y-3.012 Z7.721 A318.6887 B-1.0313 
N686 X-201.906 Y-2.652 Z7.555 A319.0334 B-1.0303 
N687 X-201.928 Y-2.297 Z7.385 A319.4928 B-1.0288 
N688 X-201.949 Y-1.947 Z7.213 A320.0669 B-1.0268 
N689 X-201.970 Y-1.604 Z7.041 A320.7526 B-1.0243 
N690 X-201.991 Y-1.267 Z6.868 A321.5436 B-1.0212 
N691 X-202.012 Y-0.937 Z6.696 A322.4312 B-1.0175 
N692 X-202.033 Y-0.612 Z6.526 A323.4060 B-1.0131 
N693 X-202.053 Y-0.293 Z6.360 A324.4588 B-1.0081 
N694 X-202.074 Y0.022 Z6.197 A325.5813 B-1.0023 
N695 X-202.094 Y0.332 Z6.037 A326.7652 B-0.9957 
N696 X-202.113 Y0.639 Z5.883 A328.0020 B-0.9884 
N697 X-202.133 Y0.943 Z5.733 A329.2830 B-0.9804 
N698 X-202.152 Y1.246 Z5.590 A330.5984 B-0.9716 
N699 X-202.171 Y1.547 Z5.452 A331.9383 B-0.9623 
N700 X-202.190 Y1.847 Z5.321 A333.2922 B-0.9525 
N701 X-202.209 Y2.148 Z5.198 A334.6486 B-0.9425 
N702 X-202.227 Y2.449 Z5.083 A335.9948 B-0.9327 
N703 X-202.245 Y2.750 Z4.977 A337.3166 B-0.9234 
N704 X-202.263 Y3.051 Z4.881 A338.6004 B-0.9152 
N705 X-202.281 Y3.353 Z4.795 A339.8362 B-0.9082 
N706 X-202.299 Y3.656 Z4.720 A341.0227 B-0.9022 
N707 X-202.316 Y3.960 Z4.655 A342.1709 B-0.8967 
N708 X-202.334 Y4.266 Z4.598 A343.3029 B-0.8906 
N709 X-202.351 Y4.576 Z4.547 A344.4435 B-0.8828 
N710 X-202.368 Y4.891 Z4.503 A345.6102 B-0.8727 
N711 X-202.385 Y5.211 Z4.464 A346.8069 B-0.8602 
N712 X-202.403 Y5.536 Z4.431 A348.0273 B-0.8455 
N713 X-202.419 Y5.867 Z4.405 A349.2634 B-0.8291 
N714 X-202.436 Y6.203 Z4.386 A350.5121 B-0.8111 
N715 X-202.453 Y6.545 Z4.374 A351.7732 B-0.7917 
N716 X-202.470 Y6.892 Z4.370 A353.0437 B-0.7710 
N717 X-202.486 Y7.244 Z4.375 A354.3119 B-0.7495 
N718 X-202.502 Y7.600 Z4.388 A355.5572 B-0.7280 
N719 X-202.518 Y7.959 Z4.413 A356.7563 B-0.7074 
N720 X-202.534 Y8.318 Z4.448 A357.8893 B-0.6881 
N721 X-202.549 Y8.677 Z4.495 A358.9449 B-0.6707 
N722 X-202.564 Y9.034 Z4.554 A359.9211 B-0.6550 
N723 X-202.579 Y9.389 Z4.622 A0.8230 B-0.6409 
N724 X-202.593 Y9.741 Z4.699 A1.6591 B-0.6281 
N725 X-202.607 Y10.088 Z4.784 A2.4382 B-0.6163 
N726 X-202.621 Y10.430 Z4.875 A3.1669 B-0.6053 
N727 X-202.634 Y10.765 Z4.972 A3.8482 B-0.5948 
N728 X-202.646 Y11.091 Z5.072 A4.4808 B-0.5853 
N729 X-202.658 Y11.406 Z5.176 A5.0608 B-0.5759 
N730 X-202.670 Y11.710 Z5.281 A5.5845 B-0.5682 
N731 X-202.680 Y11.998 Z5.387 A6.0507 B-0.5609 
N732 X-202.690 Y12.271 Z5.491 A6.4623 B-0.5546 
N733 X-202.699 Y12.526 Z5.593 A6.8247 B-0.5494 
N734 X-202.707 Y12.763 Z5.689 A7.1448 B-0.5444 
N735 X-202.715 Y12.979 Z5.780 A7.4286 B-0.5402 
N736 X-202.721 Y13.175 Z5.863 A7.6806 B-0.5366 
N737 X-202.727 Y13.351 Z5.939 A7.9026 B-0.5327 
N738 X-202.733 Y13.506 Z6.008 A8.0938 B-0.5299 
N739 X-202.737 Y13.642 Z6.069 A8.2497 B-0.5267 
N740 X-202.741 Y13.759 Z6.123 A8.3592 B-0.5245 
N741 X-202.745 Y13.857 Z6.174 A8.3978 B-0.5222 
N742 X-202.748 Y13.939 Z6.225 A8.3175 B-0.5204 
N743 X-202.750 Y14.004 Z6.283 A8.0337 B-0.5207 
N744 X-202.751 Y14.053 Z6.357 A7.4108 B-0.5242 
N745 X-202.750 Y14.088 Z6.462 A6.2652 B-0.5381 
N746 X-202.744 Y14.105 Z6.656 A3.7758 B-0.5746 
N747 X-202.729 Y14.117 Z7.061 A358.2233 B-0.6580 
N748 X-202.706 Y14.193 Z7.700 A349.2357 B-0.7925 
N749 X-202.681 Y14.389 Z8.396 A339.0897 B-0.9322 
N750 X-202.666 Y14.690 Z9.027 A329.2610 B-1.0156 
N751 X-202.659 Y15.050 Z9.547 A320.3510 B-1.0520 
N752 X-202.657 Y15.391 Z9.916 A313.2729 B-1.0660 
N753 X-202.657 Y15.724 Z10.201 A307.1011 B-1.0631 
N754 X-202.660 Y16.040 Z10.422 A301.6723 B-1.0515 
N755 X-202.663 Y16.341 Z10.593 A296.7921 B-1.0347 
N756 X-202.667 Y16.631 Z10.728 A292.2917 B-1.0142 
N757 X-202.672 Y16.916 Z10.835 A288.0204 B-0.9900 
N758 X-202.678 Y17.200 Z10.918 A283.8532 B-0.9620 
N759 X-202.685 Y17.491 Z10.981 A279.6715 B-0.9299 
N760 X-202.692 Y17.795 Z11.023 A275.3559 B-0.8930 
N761 X-202.701 Y18.120 Z11.043 A270.7738 B-0.8496 
N762 X-202.712 Y18.475 Z11.036 A265.7790 B-0.7974 
N763 X-202.726 Y18.869 Z10.991 A260.1986 B-0.7317 
N764 X-202.743 Y19.308 Z10.894 A253.8750 B-0.6448 
N765 X-202.767 Y19.840 Z10.706 A245.9489 B-0.5277 
N766 X-202.799 Y20.449 Z10.379 A236.2091 B-0.3646 
N767 X-202.841 Y21.038 Z9.909 A225.6196 B-0.1430 
N768 X-202.883 Y21.556 Z9.296 A214.3388 B0.0789 
N769 X-202.912 Y21.846 Z8.778 A206.0638 B0.2264 
N770 X-202.925 Y21.943 Z8.495 A202.0323 B0.2975 
N771 X-202.930 Y21.951 Z8.358 A200.4096 B0.3264 
N772 X-202.931 Y21.921 Z8.282 A199.8293 B0.3366 
N773 X-202.931 Y21.869 Z8.223 A199.6526 B0.3412 
N774 X-202.930 Y21.802 Z8.161 A199.5792 B0.3423 
N775 X-202.928 Y21.721 Z8.090 A199.5302 B0.3435 
N776 X-202.926 Y21.623 Z8.006 A199.4947 B0.3443 
N777 X-202.923 Y21.508 Z7.909 A199.4640 B0.3455 
N778 X-202.921 Y21.375 Z7.796 A199.4328 B0.3469 
N779 X-202.917 Y21.222 Z7.668 A199.3985 B0.3488 
N780 X-202.914 Y21.049 Z7.523 A199.3592 B0.3513 
N781 X-202.910 Y20.856 Z7.361 A199.3137 B0.3541 
N782 X-202.906 Y20.644 Z7.182 A199.2602 B0.3580 
N783 X-202.901 Y20.412 Z6.987 A199.1969 B0.3626 
N784 X-202.896 Y20.161 Z6.776 A199.1213 B0.3688 
N785 X-202.891 Y19.894 Z6.551 A199.0308 B0.3768 
N786 X-202.886 Y19.612 Z6.313 A198.9231 B0.3870 
N787 X-202.881 Y19.316 Z6.064 A198.7962 B0.4003 
N788 X-202.876 Y19.008 Z5.804 A198.6490 B0.4171 
N789 X-202.871 Y18.691 Z5.536 A198.4811 B0.4384 
N790 X-202.867 Y18.365 Z5.261 A198.2921 B0.4651 
N791 X-202.863 Y18.033 Z4.981 A198.0821 B0.4980 
N792 X-202.859 Y17.696 Z4.698 A197.8507 B0.5383 
N793 X-202.856 Y17.355 Z4.412 A197.5977 B0.5867 
N794 X-202.853 Y17.011 Z4.125 A197.3224 B0.6437 
N795 X-202.851 Y16.666 Z3.838 A197.0231 B0.7095 
N796 X-202.849 Y16.320 Z3.551 A196.6978 B0.7836 
N797 X-202.846 Y15.975 Z3.264 A196.3443 B0.8647 
N798 X-202.843 Y15.629 Z2.979 A195.9610 B0.9502 
N799 X-202.838 Y15.285 Z2.696 A195.5469 B1.0376 
N800 X-202.830 Y14.941 Z2.416 A195.1016 B1.1227 
N801 X-202.821 Y14.599 Z2.138 A194.6247 B1.2020 
N802 X-202.807 Y14.259 Z1.863 A194.1153 B1.2720 
N803 X-202.791 Y13.920 Z1.591 A193.5725 B1.3298 
N804 X-202.771 Y13.583 Z1.323 A192.9950 B1.3742 
N805 X-202.748 Y13.247 Z1.059 A192.3815 B1.4045 
N806 X-202.721 Y12.914 Z0.798 A191.7307 B1.4216 
N807 X-202.693 Y12.582 Z0.542 A191.0413 B1.4271 
N808 X-202.664 Y12.253 Z0.289 A190.3119 B1.4235 
N809 X-202.633 Y11.926 Z0.041 A189.5407 B1.4126 
N810 X-202.603 Y11.600 Z-0.203 A188.7260 B1.3977 
N811 X-202.572 Y11.277 Z-0.443 A187.8651 B1.3800 
N812 X-202.542 Y10.956 Z-0.679 A186.9551 B1.3620 
N813 X-202.513 Y10.636 Z-0.910 A185.9928 B1.3446 
N814 X-202.486 Y10.319 Z-1.137 A184.9759 B1.3292 
N815 X-202.459 Y10.004 Z-1.360 A183.9033 B1.3161 
N816 X-202.434 Y9.690 Z-1.578 A182.7756 B1.3058 
N817 X-202.409 Y9.378 Z-1.791 A181.5943 B1.2983 
N818 X-202.386 Y9.068 Z-1.999 A180.3612 B1.2936 
N819 X-202.364 Y8.759 Z-2.202 A179.0773 B1.2916 
N820 X-202.342 Y8.452 Z-2.398 A177.7427 B1.2919 
N821 X-202.322 Y8.145 Z-2.590 A176.3565 B1.2946 
N822 X-202.302 Y7.840 Z-2.776 A174.9175 B1.2993 
N823 X-202.283 Y7.536 Z-2.956 A173.4244 B1.3059 
N824 X-202.264 Y7.232 Z-3.131 A171.8764 B1.3140 
N825 X-202.246 Y6.929 Z-3.300 A170.2731 B1.3236 
N826 X-202.229 Y6.626 Z-3.464 A168.6144 B1.3343 
N827 X-202.212 Y6.323 Z-3.621 A166.9010 B1.3460 
N828 X-202.195 Y6.020 Z-3.773 A165.1339 B1.3584 
N829 X-202.178 Y5.715 Z-3.918 A163.3149 B1.3712 
N830 X-202.162 Y5.410 Z-4.056 A161.4462 B1.3843 
N831 X-202.145 Y5.104 Z-4.187 A159.5299 B1.3948 
N832 X-202.128 Y4.796 Z-4.311 A157.5690 B1.4012 
N833 X-202.110 Y4.487 Z-4.427 A155.5670 B1.4047 
N834 X-202.093 Y4.176 Z-4.534 A153.5283 B1.4113 
N835 X-202.077 Y3.863 Z-4.633 A151.4576 B1.4220 
N836 X-202.061 Y3.548 Z-4.722 A149.3594 B1.4352 
N837 X-202.045 Y3.231 Z-4.801 A147.2387 B1.4473 
N838 X-202.029 Y2.912 Z-4.870 A145.1005 B1.4582 
N839 X-202.012 Y2.591 Z-4.928 A142.9498 B1.4677 
N840 X-201.996 Y2.269 Z-4.974 A140.7921 B1.4759 
N841 X-201.979 Y1.946 Z-5.008 A138.6327 B1.4826 
N842 X-201.961 Y1.622 Z-5.030 A136.4775 B1.4878 
N843 X-201.943 Y1.297 Z-5.039 A134.3319 B1.4916 
N844 X-201.925 Y0.972 Z-5.034 A132.2012 B1.4939 
N845 X-201.906 Y0.647 Z-5.016 A130.0905 B1.4948 
N846 X-201.887 Y0.323 Z-4.984 A128.0043 B1.4943 
N847 X-201.868 Y0.000 Z-4.938 A125.9469 B1.4924 
N848 X-201.848 Y-0.321 Z-4.877 A123.9224 B1.4893 
N849 X-201.828 Y-0.639 Z-4.802 A121.9346 B1.4850 
N850 X-201.807 Y-0.955 Z-4.713 A119.9870 B1.4796 
N851 X-201.786 Y-1.268 Z-4.610 A118.0822 B1.4731 
N852 X-201.765 Y-1.576 Z-4.492 A116.2226 B1.4657 
N853 X-201.743 Y-1.880 Z-4.361 A114.4099 B1.4575 
N854 X-201.721 Y-2.179 Z-4.216 A112.6453 B1.4486 
N855 X-201.699 Y-2.473 Z-4.059 A110.9298 B1.4389 
N856 X-201.676 Y-2.761 Z-3.889 A109.2638 B1.4288 
N857 X-201.654 Y-3.042 Z-3.706 A107.6474 B1.4181 
N858 X-201.631 Y-3.318 Z-3.513 A106.0797 B1.4071 
N859 X-201.608 Y-3.586 Z-3.308 A104.5586 B1.3957 
N860 X-201.585 Y-3.848 Z-3.094 A103.0806 B1.3841 
N861 X-201.562 Y-4.103 Z-2.871 A101.6404 B1.3722 
N862 X-201.539 Y-4.351 Z-2.639 A100.2318 B1.3601 
N863 X-201.516 Y-4.592 Z-2.401 A98.8487 B1.3475 
N864 X-201.493 Y-4.825 Z-2.156 A97.4879 B1.3347 
N865 X-201.471 Y-5.052 Z-1.906 A96.1495 B1.3217 
N866 X-201.448 Y-5.270 Z-1.651 A94.8358 B1.3078 
N867 X-201.426 Y-5.479 Z-1.394 A93.5487 B1.2950 
N868 X-201.404 Y-5.680 Z-1.135 A92.2866 B1.2813 
N869 X-201.383 Y-5.872 Z-0.876 A91.0423 B1.2675 
N870 X-201.363 Y-6.056 Z-0.618 A89.8040 B1.2542 
N871 X-201.343 Y-6.233 Z-0.363 A88.5579 B1.2403 
N872 X-201.323 Y-6.404 Z-0.111 A87.2924 B1.2250 
N873 X-201.304 Y-6.568 Z0.136 A85.9996 B1.2104 
N874 X-201.286 Y-6.726 Z0.377 A84.6738 B1.1934 
N875 X-201.268 Y-6.879 Z0.611 A83.3093 B1.1772 
N876 X-201.251 Y-7.027 Z0.838 A81.8966 B1.1590 
N877 X-201.235 Y-7.171 Z1.056 A80.4258 B1.1403 
N878 X-201.220 Y-7.311 Z1.266 A78.8938 B1.1193 
N879 X-201.205 Y-7.448 Z1.467 A77.3013 B1.0984 
N880 X-201.192 Y-7.583 Z1.660 A75.6332 B1.0767 
N881 X-201.178 Y-7.719 Z1.846 A73.8514 B1.0531 
N882 X-201.166 Y-7.859 Z2.025 A71.9096 B1.0269 
N883 X-201.153 Y-8.007 Z2.202 A69.7583 B0.9972 
N884 X-201.140 Y-8.166 Z2.378 A67.3369 B0.9640 
N885 X-201.127 Y-8.340 Z2.560 A64.5740 B0.9245 
N886 X-201.113 Y-8.533 Z2.753 A61.3958 B0.8767 
N887 X-201.098 Y-8.745 Z2.964 A57.7399 B0.8196 
N888 X-201.081 Y-8.974 Z3.201 A53.5748 B0.7500 
N889 X-201.062 Y-9.213 Z3.468 A48.9252 B0.6676 
N890 X-201.042 Y-9.453 Z3.769 A43.8722 B0.5766 
N891 X-201.021 Y-9.679 Z4.100 A38.5334 B0.4787 
N892 X-201.000 Y-9.882 Z4.458 A33.0372 B0.3767 
N893 X-200.980 Y-10.052 Z4.835 A27.4961 B0.2778 
N894 X-200.961 Y-10.184 Z5.224 A21.9890 B0.1814 
N895 X-200.943 Y-10.276 Z5.618 A16.5662 B0.0895 
N896 X-200.926 Y-10.327 Z6.012 A11.2641 B0.0038 
N897 X-200.910 Y-10.338 Z6.399 A6.1216 B-0.0762 
N898 X-200.897 Y-10.309 Z6.772 A1.1922 B-0.1488 
N899 X-200.885 Y-10.243 Z7.123 A356.5434 B-0.2124 
N900 X-200.875 Y-10.146 Z7.444 A352.2445 B-0.2666 
N901 X-200.868 Y-10.021 Z7.731 A348.3462 B-0.3110 
N902 X-200.862 Y-9.876 Z7.982 A344.8605 B-0.3464 
N903 X-200.859 Y-9.712 Z8.198 A341.7597 B-0.3746 
N904 X-200.856 Y-9.533 Z8.384 A338.9949 B-0.3980 
N905 X-200.855 Y-9.339 Z8.541 A336.5147 B-0.4171 
N906 X-200.855 Y-9.132 Z8.674 A334.2771 B-0.4330 
N907 X-200.856 Y-8.910 Z8.783 A332.2481 B-0.4462 
N908 X-200.858 Y-8.675 Z8.872 A330.3910 B-0.4571 
N909 X-200.861 Y-8.424 Z8.942 A328.6699 B-0.4669 
N910 X-200.864 Y-8.158 Z8.994 A327.0714 B-0.4754 
N911 X-200.869 Y-7.878 Z9.025 A325.6062 B-0.4822 
N912 X-200.874 Y-7.585 Z9.037 A324.2830 B-0.4879 
N913 X-200.880 Y-7.280 Z9.029 A323.0996 B-0.4919 
N914 X-200.886 Y-6.963 Z9.001 A322.0536 B-0.4956 
N915 X-200.893 Y-6.636 Z8.955 A321.1457 B-0.4977 
N916 X-200.901 Y-6.300 Z8.890 A320.3769 B-0.4997 
N917 X-200.910 Y-5.956 Z8.809 A319.7441 B-0.5005 
N918 X-200.918 Y-5.604 Z8.712 A319.2386 B-0.5012 
N919 X-200.928 Y-5.247 Z8.601 A318.8491 B-0.5011 
N920 X-200.937 Y-4.884 Z8.478 A318.5655 B-0.5009 
N921 X-200.947 Y-4.518 Z8.346 A318.3809 B-0.5003 
N922 X-200.958 Y-4.150 Z8.204 A318.2937 B-0.4994 
N923 X-200.968 Y-3.781 Z8.055 A318.3059 B-0.4983 
N924 X-200.978 Y-3.413 Z7.898 A318.4213 B-0.4969 
N925 X-200.989 Y-3.048 Z7.737 A318.6446 B-0.4951 
N926 X-201.000 Y-2.687 Z7.571 A318.9798 B-0.4930 
N927 X-201.010 Y-2.331 Z7.401 A319.4297 B-0.4905 
N928 X-201.021 Y-1.980 Z7.229 A319.9948 B-0.4876 
N929 X-201.031 Y-1.636 Z7.056 A320.6722 B-0.4842 
N930 X-201.042 Y-1.299 Z6.883 A321.4556 B-0.4802 
N931 X-201.052 Y-0.967 Z6.711 A322.3367 B-0.4757 
N932 X-201.062 Y-0.642 Z6.541 A323.3060 B-0.4706 
N933 X-201.073 Y-0.322 Z6.374 A324.3543 B-0.4649 
N934 X-201.083 Y-0.007 Z6.210 A325.4730 B-0.4585 
N935 X-201.092 Y0.304 Z6.050 A326.6539 B-0.4514 
N936 X-201.102 Y0.612 Z5.895 A327.8886 B-0.4436 
N937 X-201.112 Y0.917 Z5.745 A329.1681 B-0.4352 
N938 X-201.121 Y1.220 Z5.601 A330.4830 B-0.4261 
N939 X-201.131 Y1.521 Z5.462 A331.8230 B-0.4163 
N940 X-201.140 Y1.822 Z5.331 A333.1774 B-0.4061 
N941 X-201.149 Y2.123 Z5.207 A334.5349 B-0.3954 
N942 X-201.158 Y2.424 Z5.091 A335.8824 B-0.3846 
N943 X-201.167 Y2.726 Z4.984 A337.2057 B-0.3736 
N944 X-201.176 Y3.027 Z4.888 A338.4904 B-0.3627 
N945 X-201.184 Y3.330 Z4.802 A339.7250 B-0.3520 
N946 X-201.193 Y3.632 Z4.726 A340.9053 B-0.3414 
N947 X-201.201 Y3.936 Z4.662 A342.0371 B-0.3308 
N948 X-201.209 Y4.241 Z4.606 A343.1369 B-0.3198 
N949 X-201.217 Y4.549 Z4.559 A344.2272 B-0.3081 
N950 X-201.225 Y4.862 Z4.517 A345.3311 B-0.2954 
N951 X-201.232 Y5.179 Z4.482 A346.4669 B-0.2816 
N952 X-201.240 Y5.502 Z4.451 A347.6464 B-0.2667 
N953 X-201.247 Y5.832 Z4.424 A348.8743 B-0.2509 
N954 X-201.254 Y6.169 Z4.403 A350.1480 B-0.2343 
N955 X-201.260 Y6.513 Z4.388 A351.4576 B-0.2173 
N956 X-201.267 Y6.862 Z4.380 A352.7864 B-0.2001 
N957 X-201.273 Y7.217 Z4.381 A354.1114 B-0.1832 
N958 X-201.279 Y7.576 Z4.391 A355.4057 B-0.1669 
N959 X-201.284 Y7.936 Z4.413 A356.6428 B-0.1513 
N960 X-201.290 Y8.297 Z4.447 A357.8026 B-0.1366 
N961 X-201.295 Y8.657 Z4.492 A358.8757 B-0.1228 
N962 X-201.299 Y9.015 Z4.550 A359.8626 B-0.1099 
N963 X-201.304 Y9.370 Z4.618 A0.7710 B-0.0976 
N964 X-201.308 Y9.722 Z4.695 A1.6115 B-0.0860 
N965 X-201.311 Y10.070 Z4.779 A2.3939 B-0.0749 
N966 X-201.315 Y10.412 Z4.870 A3.1255 B-0.0643 
N967 X-201.318 Y10.748 Z4.967 A3.8097 B-0.0542 
N968 X-201.320 Y11.075 Z5.067 A4.4451 B-0.0446 
N969 X-201.323 Y11.391 Z5.171 A5.0281 B-0.0358 
N970 X-201.325 Y11.695 Z5.276 A5.5548 B-0.0278 
N971 X-201.327 Y11.985 Z5.382 A6.0240 B-0.0208 
N972 X-201.328 Y12.258 Z5.486 A6.4381 B-0.0146 
N973 X-201.329 Y12.514 Z5.588 A6.8029 B-0.0092 
N974 X-201.330 Y12.752 Z5.685 A7.1249 B-0.0044 
N975 X-201.331 Y12.969 Z5.776 A7.4104 B-0.0001 
N976 X-201.332 Y13.166 Z5.859 A7.6638 B0.0038 
N977 X-201.333 Y13.343 Z5.936 A7.8873 B0.0073 
N978 X-201.333 Y13.499 Z6.004 A8.0802 B0.0105 
N979 X-201.334 Y13.636 Z6.066 A8.2381 B0.0133 
N980 X-201.334 Y13.753 Z6.121 A8.3505 B0.0159 
N981 X-201.334 Y13.852 Z6.171 A8.3938 B0.0181 
N982 X-201.335 Y13.935 Z6.222 A8.3217 B0.0197 
N983 X-201.335 Y14.001 Z6.279 A8.0521 B0.0198 
N984 X-201.334 Y14.051 Z6.352 A7.4532 B0.0167 
N985 X-201.332 Y14.086 Z6.454 A6.3458 B0.0047 
N986 X-201.326 Y14.103 Z6.643 A3.9258 B-0.0276 
N987 X-201.312 Y14.114 Z7.041 A358.4822 B-0.1022 
N988 X-201.290 Y14.186 Z7.675 A349.5731 B-0.2254 
N989 X-201.267 Y14.377 Z8.373 A339.4300 B-0.3538 
N990 X-201.252 Y14.674 Z9.008 A329.5646 B-0.4341 
N991 X-201.245 Y15.033 Z9.533 A320.6030 B-0.4672 
N992 X-201.242 Y15.375 Z9.907 A313.4767 B-0.4801 
N993 X-201.243 Y15.709 Z10.196 A307.2657 B-0.4777 
N994 X-201.244 Y16.027 Z10.418 A301.8072 B-0.4670 
N995 X-201.247 Y16.330 Z10.592 A296.9044 B-0.4513 
N996 X-201.251 Y16.621 Z10.728 A292.3879 B-0.4321 
N997 X-201.255 Y16.906 Z10.835 A288.1047 B-0.4096 
N998 X-201.260 Y17.191 Z10.919 A283.9288 B-0.3838 
N999 X-201.266 Y17.483 Z10.983 A279.7403 B-0.3542 
N1000 X-201.273 Y17.787 Z11.026 A275.4195 B-0.3203 
N1001 X-201.282 Y18.113 Z11.046 A270.8328 B-0.2804 
N1002 X-201.291 Y18.469 Z11.039 A265.8338 B-0.2325 
N1003 X-201.303 Y18.864 Z10.994 A260.2492 B-0.1719 
N1004 X-201.319 Y19.304 Z10.897 A253.9213 B-0.0915 
N1005 X-201.340 Y19.837 Z10.709 A245.9899 B0.0149 
N1006 X-201.370 Y20.447 Z10.381 A236.2429 B0.1656 
N1007 X-201.408 Y21.036 Z9.910 A225.6455 B0.3699 
N1008 X-201.446 Y21.555 Z9.295 A214.3551 B0.5736 
N1009 X-201.471 Y21.845 Z8.776 A206.0760 B0.7088 
N1010 X-201.483 Y21.941 Z8.493 A202.0446 B0.7737 
N1011 X-201.486 Y21.949 Z8.356 A200.4233 B0.8004 
N1012 X-201.485 Y21.919 Z8.280 A199.8428 B0.8087 
N1013 X-201.483 Y21.867 Z8.221 A199.6660 B0.8134 
N1014 X-201.479 Y21.800 Z8.160 A199.5925 B0.8135 
N1015 X-201.475 Y21.719 Z8.088 A199.5435 B0.8145 
N1016 X-201.470 Y21.621 Z8.005 A199.5078 B0.8142 
N1017 X-201.463 Y21.506 Z7.907 A199.4770 B0.8145 
N1018 X-201.456 Y21.373 Z7.795 A199.4459 B0.8147 
N1019 X-201.448 Y21.220 Z7.666 A199.4115 B0.8149 
N1020 X-201.439 Y21.047 Z7.521 A199.3721 B0.8155 
N1021 X-201.428 Y20.854 Z7.359 A199.3264 
N1022 X-201.417 Y20.641 Z7.179 A199.2727 B0.8165 
N1023 X-201.404 Y20.408 Z6.984 A199.2091 B0.8167 
N1024 X-201.391 Y20.157 Z6.773 A199.1331 B0.8177 
N1025 X-201.377 Y19.890 Z6.547 A199.0421 B0.8190 
N1026 X-201.361 Y19.606 Z6.308 A198.9336 B0.8200 
N1027 X-201.346 Y19.309 Z6.058 A198.8057 B0.8219 
N1028 X-201.329 Y19.000 Z5.797 A198.6572 B0.8237 
N1029 X-201.312 Y18.681 Z5.527 A198.4876 B0.8260 
N1030 X-201.295 Y18.353 Z5.251 A198.2965 B0.8285 
N1031 X-201.277 Y18.019 Z4.970 A198.0838 B0.8314 
N1032 X-201.259 Y17.679 Z4.685 A197.8491 B0.8346 
N1033 X-201.241 Y17.336 Z4.397 A197.5921 B0.8382 
N1034 X-201.223 Y16.990 Z4.108 A197.3118 B0.8420 
N1035 X-201.204 Y16.643 Z3.818 A197.0065 B0.8462 
N1036 X-201.186 Y16.295 Z3.529 A196.6740 B0.8508 
N1037 X-201.167 Y15.946 Z3.241 A196.3122 B0.8559 
N1038 X-201.149 Y15.599 Z2.954 A195.9194 B0.8614 
N1039 X-201.131 Y15.252 Z2.669 A195.4948 B0.8674 
N1040 X-201.113 Y14.907 Z2.387 A195.0383 B0.8739 
N1041 X-201.095 Y14.562 Z2.108 A194.5497 B0.8808 
N1042 X-201.077 Y14.220 Z1.831 A194.0286 B0.8881 
N1043 X-201.059 Y13.879 Z1.558 A193.4741 B0.8959 
N1044 X-201.042 Y13.540 Z1.289 A192.8854 B0.9042 
N1045 X-201.024 Y13.203 Z1.024 A192.2612 B0.9129 
N1046 X-201.007 Y12.869 Z0.762 A191.6004 B0.9221 
N1047 X-200.990 Y12.536 Z0.505 A190.9016 B0.9317 
N1048 X-200.973 Y12.205 Z0.252 A190.1633 B0.9419 
N1049 X-200.956 Y11.877 Z0.003 A189.3836 B0.9526 
N1050 X-200.939 Y11.550 Z-0.241 A188.5604 B0.9637 
N1051 X-200.923 Y11.226 Z-0.481 A187.6910 B0.9755 
N1052 X-200.906 Y10.904 Z-0.717 A186.7723 B0.9877 
N1053 X-200.890 Y10.585 Z-0.948 A185.8010 B1.0006 
N1054 X-200.874 Y10.267 Z-1.175 A184.7750 B1.0142 
N1055 X-200.859 Y9.951 Z-1.397 A183.6934 B1.0283 
N1056 X-200.843 Y9.638 Z-1.615 A182.5570 B1.0430 
N1057 X-200.828 Y9.326 Z-1.827 A181.3675 B1.0582 
N1058 X-200.812 Y9.016 Z-2.034 A180.1265 B1.0738 
N1059 X-200.797 Y8.707 Z-2.236 A178.8349 B1.0897 
N1060 X-200.782 Y8.400 Z-2.432 A177.4926 B1.1059 
N1061 X-200.767 Y8.094 Z-2.622 A176.0986 B1.1223 
N1062 X-200.753 Y7.789 Z-2.807 A174.6516 B1.1390 
N1063 X-200.738 Y7.485 Z-2.987 A173.1505 B1.1560 
N1064 X-200.724 Y7.182 Z-3.160 A171.5944 B1.1730 
N1065 X-200.709 Y6.879 Z-3.329 A169.9831 B1.1903 
N1066 X-200.695 Y6.576 Z-3.491 A168.3165 B1.2075 
N1067 X-200.681 Y6.273 Z-3.647 A166.5954 B1.2247 
N1068 X-200.667 Y5.970 Z-3.798 A164.8211 B1.2417 
N1069 X-200.652 Y5.665 Z-3.941 A162.9952 B1.2585 
N1070 X-200.638 Y5.360 Z-4.078 A161.1200 B1.2750 
N1071 X-200.624 Y5.054 Z-4.208 A159.1981 B1.2909 
N1072 X-200.610 Y4.746 Z-4.331 A157.2325 B1.3063 
N1073 X-200.595 Y4.437 Z-4.445 A155.2267 B1.3211 
N1074 X-200.581 Y4.126 Z-4.551 A153.1848 B1.3350 
N1075 X-200.566 Y3.812 Z-4.648 A151.1114 B1.3480 
N1076 X-200.551 Y3.497 Z-4.736 A149.0112 B1.3601 
N1077 X-200.536 Y3.181 Z-4.813 A146.8893 B1.3710 
N1078 X-200.521 Y2.862 Z-4.880 A144.7507 B1.3807 
N1079 X-200.505 Y2.541 Z-4.936 A142.6006 B1.3892 
N1080 X-200.489 Y2.219 Z-4.981 A140.4443 B1.3964 
N1081 X-200.473 Y1.896 Z-5.013 A138.2872 B1.4023 
N1082 X-200.457 Y1.572 Z-5.033 A136.1351 B1.4068 
N1083 X-200.440 Y1.247 Z-5.040 A133.9935 B1.4099 
N1084 X-200.422 Y0.923 Z-5.033 A131.8676 B1.4116 
N1085 X-200.405 Y0.598 Z-5.013 A129.7623 B1.4121 
N1086 X-200.387 Y0.274 Z-4.978 A127.6820 B1.4113 
N1087 X-200.368 Y-0.048 Z-4.930 A125.6312 B1.4092 
N1088 X-200.349 Y-0.368 Z-4.867 A123.6139 B1.4059 
N1089 X-200.330 Y-0.686 Z-4.790 A121.6337 B1.4016 
N1090 X-200.311 Y-1.001 Z-4.699 A119.6939 B1.3962 
N1091 X-200.291 Y-1.313 Z-4.594 A117.7973 B1.3899 
N1092 X-200.271 Y-1.620 Z-4.475 A115.9461 B1.3828 
N1093 X-200.251 Y-1.923 Z-4.342 A114.1419 B1.3749 
N1094 X-200.230 Y-2.221 Z-4.195 A112.3858 B1.3663 
N1095 X-200.209 Y-2.514 Z-4.036 A110.6788 B1.3571 
N1096 X-200.188 Y-2.801 Z-3.864 A109.0213 B1.3475 
N1097 X-200.167 Y-3.082 Z-3.680 A107.4132 B1.3375 
N1098 X-200.145 Y-3.356 Z-3.485 A105.8535 B1.3271 
N1099 X-200.124 Y-3.623 Z-3.279 A104.3399 B1.3164 
N1100 X-200.102 Y-3.884 Z-3.064 A102.8686 B1.3055 
N1101 X-200.080 Y-4.138 Z-2.839 A101.4343 B1.2944 
N1102 X-200.059 Y-4.384 Z-2.607 A100.0305 B1.2831 
N1103 X-200.037 Y-4.624 Z-2.368 A98.6516 B1.2714 
N1104 X-200.016 Y-4.857 Z-2.122 A97.2948 B1.2596 
N1105 X-199.994 Y-5.082 Z-1.871 A95.9605 B1.2474 
N1106 X-199.973 Y-5.299 Z-1.617 A94.6512 B1.2345 
N1107 X-199.953 Y-5.507 Z-1.359 A93.3686 B1.2227 
N1108 X-199.932 Y-5.706 Z-1.100 A92.1102 B1.2100 
N1109 X-199.912 Y-5.897 Z-0.841 A90.8683 B1.1973 
N1110 X-199.893 Y-6.081 Z-0.584 A89.6304 B1.1851 
N1111 X-199.874 Y-6.257 Z-0.329 A88.3830 B1.1720 
N1112 X-199.856 Y-6.426 Z-0.078 A87.1149 B1.1582 
N1113 X-199.838 Y-6.590 Z0.168 A85.8187 B1.1446 
N1114 X-199.821 Y-6.747 Z0.408 A84.4889 B1.1291 
N1115 X-199.805 Y-6.899 Z0.641 A83.1194 B1.1140 
N1116 X-199.789 Y-7.046 Z0.867 A81.7003 B1.0974 
N1117 X-199.774 Y-7.190 Z1.084 A80.2222 B1.0801 
N1118 X-199.760 Y-7.329 Z1.293 A78.6833 B1.0611 
N1119 X-199.746 Y-7.466 Z1.493 A77.0833 B1.0417 
N1120 X-199.733 Y-7.600 Z1.684 A75.4041 B1.0222 
N1121 X-199.721 Y-7.737 Z1.869 A73.6055 B1.0007 
N1122 X-199.709 Y-7.878 Z2.048 A71.6411 B0.9770 
N1123 X-199.697 Y-8.027 Z2.224 A69.4607 B0.9499 
N1124 X-199.685 Y-8.187 Z2.401 A67.0023 B0.9197 
N1125 X-199.673 Y-8.364 Z2.583 A64.1938 B0.8841 
N1126 X-199.660 Y-8.558 Z2.778 A60.9626 B0.8400 
N1127 X-199.646 Y-8.772 Z2.992 A57.2492 B0.7876 
N1128 X-199.630 Y-9.003 Z3.232 A53.0283 B0.7232 
N1129 X-199.612 Y-9.243 Z3.503 A48.3323 B0.6467 
N1130 X-199.594 Y-9.481 Z3.807 A43.2478 B0.5624 
N1131 X-199.575 Y-9.705 Z4.141 A37.8945 B0.4710 
N1132 X-199.555 Y-9.903 Z4.501 A32.3997 B0.3765 
N1133 X-199.537 Y-10.069 Z4.878 A26.8713 B0.2846 
N1134 X-199.519 Y-10.196 Z5.267 A21.3839 B0.1950 
N1135 X-199.503 Y-10.284 Z5.661 A15.9847 B0.1099 
N1136 X-199.488 Y-10.330 Z6.053 A10.7090 B0.0306 
N1137 X-199.474 Y-10.337 Z6.438 A5.5965 B-0.0430 
N1138 X-199.461 Y-10.304 Z6.809 A0.7019 B-0.1092 
N1139 X-199.451 Y-10.235 Z7.157 A356.0934 B-0.1666 
N1140 X-199.442 Y-10.135 Z7.474 A351.8392 B-0.2151 
N1141 X-199.435 Y-10.008 Z7.757 A347.9870 B-0.2540 
N1142 X-199.430 Y-9.861 Z8.004 A344.5447 B-0.2850 
N1143 X-199.427 Y-9.696 Z8.217 A341.4817 B-0.3094 
N1144 X-199.425 Y-9.516 Z8.399 A338.7488 B-0.3295 
N1145 X-199.423 Y-9.321 Z8.554 A336.2951 B-0.3460 
N1146 X-199.423 Y-9.112 Z8.685 A334.0801 B-0.3596 
N1147 X-199.424 Y-8.890 Z8.792 A332.0700 B-0.3709 
N1148 X-199.425 Y-8.653 Z8.879 A330.2278 B-0.3802 
N1149 X-199.427 Y-8.401 Z8.948 A328.5188 B-0.3885 
N1150 X-199.430 Y-8.134 Z8.997 A326.9326 B-0.3958 
N1151 X-199.434 Y-7.853 Z9.027 A325.4806 B-0.4015 
N1152 X-199.438 Y-7.559 Z9.037 A324.1706 B-0.4062 
N1153 X-199.443 Y-7.253 Z9.027 A322.9999 B-0.4095 
N1154 X-199.448 Y-6.935 Z8.998 A321.9664 B-0.4124 
N1155 X-199.454 Y-6.608 Z8.950 A321.0710 B-0.4141 
N1156 X-199.461 Y-6.271 Z8.884 A320.3146 B-0.4155 
N1157 X-199.468 Y-5.926 Z8.801 A319.6935 B-0.4160 
N1158 X-199.475 Y-5.574 Z8.703 A319.1986 B-0.4163 
N1159 X-199.483 Y-5.216 Z8.591 A318.8188 B-0.4161 
N1160 X-199.491 Y-4.853 Z8.468 A318.5440 B-0.4157 
N1161 X-199.499 Y-4.487 Z8.334 A318.3679 B-0.4150 
N1162 X-199.508 Y-4.119 Z8.192 A318.2891 B-0.4141 
N1163 X-199.516 Y-3.750 Z8.042 A318.3099 B-0.4129 
N1164 X-199.525 Y-3.382 Z7.885 A318.4343 B-0.4115 
N1165 X-199.534 Y-3.017 Z7.723 A318.6669 B-0.4098 
N1166 X-199.543 Y-2.657 Z7.557 A319.0116 B-0.4079 
N1167 X-199.552 Y-2.301 Z7.387 A319.4712 B-0.4056 
N1168 X-199.560 Y-1.952 Z7.215 A320.0457 B-0.4029 
N1169 X-199.569 Y-1.608 Z7.042 A320.7319 B-0.3998 
N1170 X-199.578 Y-1.271 Z6.869 A321.5236 B-0.3962 
N1171 X-199.587 Y-0.941 Z6.697 A322.4120 B-0.3920 
N1172 X-199.595 Y-0.616 Z6.527 A323.3877 B-0.3874 
N1173 X-199.604 Y-0.296 Z6.360 A324.4416 B-0.3821 
N1174 X-199.612 Y0.019 Z6.197 A325.5652 B-0.3763 
N1175 X-199.620 Y0.329 Z6.038 A326.7502 B-0.3699 
N1176 X-199.628 Y0.636 Z5.883 A327.9883 B-0.3628 
N1177 X-199.636 Y0.941 Z5.733 A329.2704 B-0.3550 
N1178 X-199.644 Y1.243 Z5.589 A330.5871 B-0.3466 
N1179 X-199.652 Y1.545 Z5.452 A331.9282 B-0.3377 
N1180 X-199.660 Y1.846 Z5.321 A333.2832 B-0.3283 
N1181 X-199.667 Y2.146 Z5.197 A334.6406 B-0.3185 
N1182 X-199.675 Y2.447 Z5.082 A335.9878 B-0.3084 
N1183 X-199.682 Y2.749 Z4.976 A337.3103 B-0.2982 
N1184 X-199.689 Y3.050 Z4.880 A338.5940 B-0.2880 
N1185 X-199.696 Y3.352 Z4.795 A339.8274 B-0.2778 
N1186 X-199.703 Y3.655 Z4.720 A341.0061 B-0.2677 
N1187 X-199.710 Y3.959 Z4.656 A342.1361 B-0.2574 
N1188 X-199.717 Y4.264 Z4.601 A343.2339 B-0.2468 
N1189 X-199.723 Y4.572 Z4.554 A344.3221 B-0.2355 
N1190 X-199.729 Y4.885 Z4.514 A345.4236 B-0.2235 
N1191 X-199.735 Y5.202 Z4.479 A346.5569 B-0.2105 
N1192 X-199.741 Y5.526 Z4.448 A347.7337 B-0.1967 
N1193 X-199.747 Y5.856 Z4.423 A348.9588 B-0.1822 
N1194 X-199.753 Y6.192 Z4.402 A350.2295 B-0.1671 
N1195 X-199.758 Y6.536 Z4.388 A351.5360 B-0.1518 
N1196 X-199.763 Y6.886 Z4.381 A352.8616 B-0.1366 
N1197 X-199.768 Y7.241 Z4.382 A354.1835 B-0.1216 
N1198 X-199.772 Y7.599 Z4.393 A355.4746 B-0.1072 
N1199 X-199.777 Y7.960 Z4.415 A356.7085 B-0.0935 
N1200 X-199.781 Y8.320 Z4.450 A357.8652 B-0.0805 
N1201 X-199.784 Y8.680 Z4.496 A358.9352 B-0.0682 
N1202 X-199.788 Y9.038 Z4.554 A359.9190 B-0.0565 
N1203 X-199.791 Y9.393 Z4.623 A0.8245 B-0.0454 
N1204 X-199.794 Y9.745 Z4.700 A1.6620 B-0.0349 
N1205 X-199.796 Y10.092 Z4.785 A2.4416 B-0.0248 
N1206 X-199.798 Y10.434 Z4.876 A3.1703 B-0.0152 
N1207 X-199.800 Y10.769 Z4.973 A3.8514 B-0.0060 
N1208 X-199.802 Y11.095 Z5.074 A4.4836 B0.0028 
N1209 X-199.803 Y11.411 Z5.177 A5.0629 B0.0108 
N1210 X-199.805 Y11.714 Z5.283 A5.5859 B0.0181 
N1211 X-199.806 Y12.002 Z5.388 A6.0514 B0.0244 
N1212 X-199.806 Y12.275 Z5.493 A6.4621 B0.0301 
N1213 X-199.807 Y12.530 Z5.594 A6.8239 B0.0350 
N1214 X-199.807 Y12.766 Z5.690 A7.1434 B0.0394 
N1215 X-199.807 Y12.982 Z5.781 A7.4267 B0.0433 
N1216 X-199.808 Y13.178 Z5.864 A7.6782 B0.0469 
N1217 X-199.808 Y13.353 Z5.940 A7.8997 B0.0500 
N1218 X-199.808 Y13.508 Z6.008 A8.0904 B0.0530 
N1219 X-199.808 Y13.643 Z6.069 A8.2455 B0.0554 
N1220 X-199.808 Y13.759 Z6.124 A8.3537 B0.0578 
N1221 X-199.808 Y13.858 Z6.175 A8.3903 B0.0597 
N1222 X-199.808 Y13.939 Z6.226 A8.3063 B0.0609 
N1223 X-199.808 Y14.004 Z6.283 A8.0160 B0.0607 
N1224 X-199.807 Y14.053 Z6.358 A7.3820 B0.0571 
N1225 X-199.805 Y14.087 Z6.464 A6.2186 B0.0447 
N1226 X-199.799 Y14.103 Z6.660 A3.6971 B0.0119 
N1227 X-199.786 Y14.116 Z7.069 A358.0958 B-0.0645 
N1228 X-199.766 Y14.193 Z7.710 A349.0739 B-0.1911 
N1229 X-199.746 Y14.389 Z8.406 A338.9258 B-0.3206 
N1230 X-199.732 Y14.690 Z9.036 A329.1135 B-0.3943 
N1231 X-199.726 Y15.050 Z9.554 A320.2259 B-0.4149 
N1232 X-199.724 Y15.391 Z9.922 A313.1691 B-0.4245 
N1233 X-199.724 Y15.723 Z10.207 A307.0156 B-0.4183 
N1234 X-199.726 Y16.039 Z10.426 A301.6014 B-0.4042 
N1235 X-199.729 Y16.340 Z10.597 A296.7335 B-0.3863 
N1236 X-199.732 Y16.630 Z10.732 A292.2420 B-0.3662 
N1237 X-199.736 Y16.914 Z10.838 A287.9780 B-0.3440 
N1238 X-199.741 Y17.199 Z10.922 A283.8166 B-0.3197 
N1239 X-199.746 Y17.490 Z10.984 A279.6395 B-0.2928 
N1240 X-199.752 Y17.794 Z11.026 A275.3277 B-0.2628 
N1241 X-199.760 Y18.119 Z11.046 A270.7487 B-0.2278 
N1242 X-199.769 Y18.475 Z11.038 A265.7565 B-0.1857 
N1243 X-199.780 Y18.869 Z10.993 A260.1783 B-0.1315 
N1244 X-199.794 Y19.309 Z10.896 A253.8569 B-0.0571 
N1245 X-199.813 Y19.840 Z10.707 A245.9334 B0.0381 
N1246 X-199.840 Y20.450 Z10.379 A236.1975 B0.1747 
N1247 X-199.875 Y21.038 Z9.908 A225.6131 B0.3727 
N1248 X-199.909 Y21.555 Z9.294 A214.3398 B0.5682 
N1249 X-199.932 Y21.845 Z8.776 A206.0722 B0.6921 
N1250 X-199.942 Y21.941 Z8.493 A202.0437 B0.7511 
N1251 X-199.945 Y21.949 Z8.356 A200.4223 B0.7753 
N1252 X-199.944 Y21.919 Z8.280 A199.8418 B0.7828 
N1253 X-199.942 Y21.867 Z8.222 A199.6649 B0.7871 
N1254 X-199.938 Y21.800 Z8.160 A199.5915 B0.7872 
N1255 X-199.934 Y21.719 Z8.088 A199.5424 B0.7881 
N1256 X-199.929 Y21.621 Z8.005 A199.5068 B0.7878 
N1257 X-199.923 Y21.506 Z7.907 A199.4760 B0.7880 
N1258 X-199.916 Y21.373 Z7.795 A199.4448 B0.7882 
N1259 X-199.908 Y21.220 Z7.666 A199.4104 B0.7884 
N1260 X-199.899 Y21.047 Z7.521 A199.3711 B0.7889 
N1261 X-199.889 Y20.854 Z7.359 A199.3253 B0.7889 
N1262 X-199.878 Y20.641 Z7.180 A199.2717 B0.7898 
N1263 X-199.866 Y20.408 Z6.984 A199.2081 B0.7899 
N1264 X-199.853 Y20.158 Z6.773 A199.1321 B0.7908 
N1265 X-199.839 Y19.890 Z6.547 A199.0411 B0.7920 
N1266 X-199.824 Y19.606 Z6.309 A198.9325 B0.7929 
N1267 X-199.809 Y19.309 Z6.058 A198.8046 B0.7946 
N1268 X-199.793 Y19.000 Z5.797 A198.6561 B0.7961 
N1269 X-199.776 Y18.681 Z5.528 A198.4865 B0.7982 
N1270 X-199.760 Y18.353 Z5.251 A198.2954 B0.8005 
N1271 X-199.742 Y18.019 Z4.970 A198.0827 B0.8031 
N1272 X-199.725 Y17.680 Z4.685 A197.8480 B0.8060 
N1273 X-199.707 Y17.336 Z4.397 A197.5910 B0.8091 
N1274 X-199.690 Y16.990 Z4.108 A197.3106 B0.8126 
N1275 X-199.672 Y16.643 Z3.819 A197.0053 B0.8164 
N1276 X-199.654 Y16.295 Z3.529 A196.6729 B0.8205 
N1277 X-199.636 Y15.947 Z3.241 A196.3110 B0.8250 
N1278 X-199.619 Y15.599 Z2.954 A195.9182 B0.8300 
N1279 X-199.601 Y15.252 Z2.670 A195.4936 B0.8354 
N1280 X-199.584 Y14.907 Z2.387 A195.0371 B0.8412 
N1281 X-199.566 Y14.563 Z2.108 A194.5485 B0.8475 
N1282 X-199.549 Y14.220 Z1.832 A194.0273 B0.8541 
N1283 X-199.532 Y13.880 Z1.559 A193.4728 B0.8611 
N1284 X-199.515 Y13.541 Z1.289 A192.8840 B0.8685 
N1285 X-199.498 Y13.204 Z1.024 A192.2599 B0.8764 
N1286 X-199.481 Y12.869 Z0.762 A191.5991 B0.8847 
N1287 X-199.465 Y12.536 Z0.505 A190.9002 B0.8934 
N1288 X-199.448 Y12.205 Z0.252 A190.1618 B0.9026 
N1289 X-199.432 Y11.877 Z0.003 A189.3821 B0.9122 
N1290 X-199.416 Y11.551 Z-0.241 A188.5589 B0.9223 
N1291 X-199.400 Y11.227 Z-0.481 A187.6895 B0.9329 
N1292 X-199.384 Y10.905 Z-0.717 A186.7706 B0.9439 
N1293 X-199.369 Y10.585 Z-0.948 A185.7993 B0.9556 
N1294 X-199.353 Y10.268 Z-1.175 A184.7732 B0.9678 
N1295 X-199.338 Y9.952 Z-1.397 A183.6915 B0.9806 
N1296 X-199.323 Y9.638 Z-1.615 A182.5551 B0.9939 
N1297 X-199.308 Y9.327 Z-1.827 A181.3655 B1.0076 
N1298 X-199.294 Y9.016 Z-2.034 A180.1244 B1.0216 
N1299 X-199.279 Y8.708 Z-2.236 A178.8327 B1.0360 
N1300 X-199.265 Y8.401 Z-2.432 A177.4903 B1.0506 
N1301 X-199.250 Y8.095 Z-2.622 A176.0962 B1.0654 
N1302 X-199.236 Y7.790 Z-2.807 A174.6491 B1.0805 
N1303 X-199.222 Y7.486 Z-2.986 A173.1479 B1.0958 
N1304 X-199.209 Y7.183 Z-3.160 A171.5917 B1.1112 
N1305 X-199.195 Y6.880 Z-3.328 A169.9803 B1.1267 
N1306 X-199.181 Y6.577 Z-3.491 A168.3136 B1.1423 
N1307 X-199.168 Y6.274 Z-3.647 A166.5924 B1.1578 
N1308 X-199.154 Y5.971 Z-3.797 A164.8180 B1.1732 
N1309 X-199.140 Y5.666 Z-3.941 A162.9920 B1.1883 
N1310 X-199.127 Y5.361 Z-4.078 A161.1168 B1.2031 
N1311 X-199.113 Y5.055 Z-4.208 A159.1948 B1.2175 
N1312 X-199.100 Y4.747 Z-4.331 A157.2291 B1.2314 
N1313 X-199.086 Y4.438 Z-4.445 A155.2233 B1.2446 
N1314 X-199.072 Y4.127 Z-4.551 A153.1813 B1.2571 
N1315 X-199.058 Y3.814 Z-4.648 A151.1078 B1.2688 
N1316 X-199.044 Y3.499 Z-4.736 A149.0076 B1.2796 
N1317 X-199.030 Y3.182 Z-4.814 A146.8857 B1.2894 
N1318 X-199.016 Y2.863 Z-4.881 A144.7472 B1.2981 
N1319 X-199.001 Y2.543 Z-4.937 A142.5971 B1.3057 
N1320 X-198.986 Y2.221 Z-4.981 A140.4407 B1.3121 
N1321 X-198.970 Y1.897 Z-5.014 A138.2837 B1.3172 
N1322 X-198.955 Y1.573 Z-5.033 A136.1316 B1.3212 
N1323 X-198.939 Y1.249 Z-5.040 A133.9900 B1.3239 
N1324 X-198.923 Y0.924 Z-5.034 A131.8642 B1.3253 
N1325 X-198.906 Y0.599 Z-5.013 A129.7589 B1.3256 
N1326 X-198.889 Y0.276 Z-4.979 A127.6787 B1.3247 
N1327 X-198.872 Y-0.046 Z-4.931 A125.6280 B1.3226 
N1328 X-198.854 Y-0.367 Z-4.868 A123.6107 B1.3195 
N1329 X-198.836 Y-0.685 Z-4.791 A121.6305 B1.3154 
N1330 X-198.818 Y-1.000 Z-4.700 A119.6908 B1.3104 
N1331 X-198.799 Y-1.311 Z-4.595 A117.7943 B1.3045 
N1332 X-198.781 Y-1.619 Z-4.476 A115.9431 B1.2979 
N1333 X-198.761 Y-1.922 Z-4.343 A114.1389 B1.2906 
N1334 X-198.742 Y-2.220 Z-4.196 A112.3829 B1.2827 
N1335 X-198.722 Y-2.513 Z-4.037 A110.6760 B1.2742 
N1336 X-198.703 Y-2.800 Z-3.865 A109.0185 B1.2653 
N1337 X-198.683 Y-3.081 Z-3.681 A107.4104 B1.2561 
N1338 X-198.663 Y-3.355 Z-3.486 A105.8507 B1.2465 
N1339 X-198.642 Y-3.622 Z-3.280 A104.3372 B1.2367 
N1340 X-198.622 Y-3.883 Z-3.065 A102.8659 B1.2267 
N1341 X-198.602 Y-4.137 Z-2.841 A101.4316 B1.2165 
N1342 X-198.582 Y-4.384 Z-2.608 A100.0279 B1.2062 
N1343 X-198.561 Y-4.624 Z-2.369 A98.6491 B1.1954 
N1344 X-198.541 Y-4.856 Z-2.123 A97.2923 B1.1846 
N1345 X-198.521 Y-5.081 Z-1.873 A95.9581 B1.1734 
N1346 X-198.502 Y-5.298 Z-1.618 A94.6489 B1.1616 
N1347 X-198.482 Y-5.506 Z-1.360 A93.3663 B1.1508 
N1348 X-198.463 Y-5.706 Z-1.102 A92.1080 B1.1391 
N1349 X-198.445 Y-5.897 Z-0.843 A90.8661 B1.1275 
N1350 X-198.426 Y-6.080 Z-0.585 A89.6283 B1.1164 
N1351 X-198.409 Y-6.256 Z-0.330 A88.3811 B1.1045 
N1352 X-198.391 Y-6.426 Z-0.079 A87.1131 B1.0919 
N1353 X-198.375 Y-6.589 Z0.167 A85.8170 B1.0795 
N1354 X-198.359 Y-6.747 Z0.407 A84.4874 B1.0654 
N1355 X-198.344 Y-6.899 Z0.640 A83.1180 B1.0516 
N1356 X-198.329 Y-7.046 Z0.866 A81.6991 B1.0366 
N1357 X-198.315 Y-7.189 Z1.083 A80.2211 B1.0208 
N1358 X-198.301 Y-7.329 Z1.292 A78.6824 B1.0035 
N1359 X-198.288 Y-7.465 Z1.492 A77.0827 B0.9860 
N1360 X-198.277 Y-7.600 Z1.684 A75.4036 B0.9682 
N1361 X-198.265 Y-7.736 Z1.868 A73.6052 B0.9487 
N1362 X-198.254 Y-7.877 Z2.047 A71.6412 B0.9273 
N1363 X-198.243 Y-8.026 Z2.223 A69.4610 B0.9028 
N1364 X-198.232 Y-8.187 Z2.400 A67.0030 B0.8754 
N1365 X-198.221 Y-8.363 Z2.583 A64.1949 B0.8433 
N1366 X-198.208 Y-8.558 Z2.777 A60.9641 B0.8034 
N1367 X-198.195 Y-8.772 Z2.991 A57.2510 B0.7560 
N1368 X-198.181 Y-9.003 Z3.231 A53.0304 B0.6977 
N1369 X-198.165 Y-9.243 Z3.502 A48.3344 B0.6285 
N1370 X-198.148 Y-9.481 Z3.806 A43.2498 B0.5521 
N1371 X-198.130 Y-9.704 Z4.141 A37.8962 B0.4693 
N1372 X-198.113 Y-9.903 Z4.501 A32.4008 B0.3836 
N1373 X-198.096 Y-10.069 Z4.878 A26.8718 B0.3003 
N1374 X-198.080 Y-10.196 Z5.267 A21.3837 B0.2190 
N1375 X-198.065 Y-10.284 Z5.661 A15.9839 B0.1419 
N1376 X-198.051 Y-10.330 Z6.053 A10.7075 B0.0701 
N1377 X-198.039 Y-10.337 Z6.439 A5.5943 B0.0035 
N1378 X-198.027 Y-10.304 Z6.809 A0.6992 B-0.0564 
N1379 X-198.018 Y-10.235 Z7.157 A356.0904 B-0.1083 
N1380 X-198.009 Y-10.135 Z7.475 A351.8360 B-0.1520 
N1381 X-198.003 Y-10.008 Z7.757 A347.9837 B-0.1870 
N1382 X-197.998 Y-9.861 Z8.004 A344.5414 B-0.2148 
N1383 X-197.995 Y-9.696 Z8.217 A341.4785 B-0.2367 
N1384 X-197.993 Y-9.516 Z8.400 A338.7456 B-0.2547 
N1385 X-197.992 Y-9.321 Z8.555 A336.2920 B-0.2694 
N1386 X-197.991 Y-9.112 Z8.685 A334.0771 B-0.2816 
N1387 X-197.991 Y-8.890 Z8.792 A332.0671 B-0.2916 
N1388 X-197.992 Y-8.653 Z8.879 A330.2250 B-0.2999 
N1389 X-197.994 Y-8.401 Z8.948 A328.5160 B-0.3073 
N1390 X-197.996 Y-8.134 Z8.998 A326.9299 B-0.3138 
N1391 X-197.998 Y-7.853 Z9.027 A325.4780 B-0.3188 
N1392 X-198.002 Y-7.559 Z9.037 A324.1681 B-0.3229 
N1393 X-198.005 Y-7.253 Z9.027 A322.9975 B-0.3257 
N1394 X-198.010 Y-6.935 Z8.998 A321.9642 B-0.3282 
N1395 X-198.014 Y-6.608 Z8.950 A321.0689 B-0.3296 
N1396 X-198.020 Y-6.271 Z8.884 A320.3125 B-0.3307 
N1397 X-198.025 Y-5.926 Z8.801 A319.6915 B-0.3310 
N1398 X-198.031 Y-5.574 Z8.703 A319.1968 B-0.3312 
N1399 X-198.037 Y-5.216 Z8.591 A318.8171 B-0.3309 
N1400 X-198.044 Y-4.853 Z8.468 A318.5423 B-0.3304 
N1401 X-198.050 Y-4.487 Z8.334 A318.3663 B-0.3296 
N1402 X-198.057 Y-4.119 Z8.192 A318.2876 B-0.3287 
N1403 X-198.064 Y-3.750 Z8.042 A318.3084 B-0.3275 
N1404 X-198.071 Y-3.382 Z7.885 A318.4329 B-0.3262 
N1405 X-198.078 Y-3.018 Z7.723 A318.6655 B-0.3246 
N1406 X-198.085 Y-2.657 Z7.557 A319.0103 B-0.3227 
N1407 X-198.092 Y-2.301 Z7.387 A319.4699 B-0.3205 
N1408 X-198.099 Y-1.952 Z7.215 A320.0445 B-0.3180 
N1409 X-198.106 Y-1.608 Z7.042 A320.7308 B-0.3151 
N1410 X-198.113 Y-1.271 Z6.869 A321.5225 B-0.3118 
N1411 X-198.120 Y-0.941 Z6.697 A322.4109 B-0.3080 
N1412 X-198.127 Y-0.616 Z6.527 A323.3867 B-0.3038 
N1413 X-198.134 Y-0.296 Z6.360 A324.4406 B-0.2990 
N1414 X-198.140 Y0.018 Z6.197 A325.5642 B-0.2937 
N1415 X-198.147 Y0.329 Z6.038 A326.7492 B-0.2878 
N1416 X-198.153 Y0.636 Z5.883 A327.9873 B-0.2814 
N1417 X-198.160 Y0.941 Z5.733 A329.2694 B-0.2743 
N1418 X-198.166 Y1.243 Z5.589 A330.5861 B-0.2667 
N1419 X-198.172 Y1.545 Z5.452 A331.9271 B-0.2586 
N1420 X-198.179 Y1.845 Z5.321 A333.2821 B-0.2501 
N1421 X-198.185 Y2.146 Z5.197 A334.6396 B-0.2411 
N1422 X-198.190 Y2.447 Z5.082 A335.9867 B-0.2319 
N1423 X-198.196 Y2.748 Z4.976 A337.3093 B-0.2225 
N1424 X-198.202 Y3.050 Z4.880 A338.5930 B-0.2130 
N1425 X-198.208 Y3.352 Z4.795 A339.8263 B-0.2035 
N1426 X-198.213 Y3.655 Z4.720 A341.0050 B-0.1939 
N1427 X-198.218 Y3.958 Z4.656 A342.1351 B-0.1841 
N1428 X-198.224 Y4.264 Z4.601 A343.2328 B-0.1739 
N1429 X-198.229 Y4.572 Z4.554 A344.3210 B-0.1632 
N1430 X-198.233 Y4.884 Z4.514 A345.4225 B-0.1518 
N1431 X-198.238 Y5.202 Z4.479 A346.5558 B-0.1397 
N1432 X-198.243 Y5.525 Z4.448 A347.7326 B-0.1270 
N1433 X-198.247 Y5.855 Z4.423 A348.9577 B-0.1139 
N1434 X-198.251 Y6.192 Z4.402 A350.2285 B-0.1004 
N1435 X-198.255 Y6.536 Z4.388 A351.5350 B-0.0869 
N1436 X-198.259 Y6.886 Z4.381 A352.8606 B-0.0736 
N1437 X-198.262 Y7.240 Z4.382 A354.1825 B-0.0606 
N1438 X-198.266 Y7.599 Z4.393 A355.4736 B-0.0481 
N1439 X-198.269 Y7.959 Z4.415 A356.7075 B-0.0362 
N1440 X-198.271 Y8.320 Z4.450 A357.8643 B-0.0248 
N1441 X-198.274 Y8.680 Z4.496 A358.9343 B-0.0140 
N1442 X-198.276 Y9.038 Z4.554 A359.9181 B-0.0037 
N1443 X-198.278 Y9.393 Z4.623 A0.8236 B0.0062 
N1444 X-198.279 Y9.744 Z4.700 A1.6612 B0.0156 
N1445 X-198.281 Y10.092 Z4.785 A2.4408 B0.0247 
N1446 X-198.282 Y10.434 Z4.876 A3.1696 B0.0334 
N1447 X-198.283 Y10.768 Z4.973 A3.8507 B0.0418 
N1448 X-198.283 Y11.095 Z5.073 A4.4829 B0.0497 
N1449 X-198.284 Y11.410 Z5.177 A5.0623 B0.0569 
N1450 X-198.284 Y11.713 Z5.282 A5.5854 B0.0636 
N1451 X-198.284 Y12.002 Z5.388 A6.0509 B0.0693 
N1452 X-198.284 Y12.274 Z5.493 A6.4617 B0.0744 
N1453 X-198.284 Y12.529 Z5.594 A6.8236 B0.0789 
N1454 X-198.284 Y12.765 Z5.690 A7.1431 B0.0829 
N1455 X-198.283 Y12.982 Z5.781 A7.4265 B0.0865 
N1456 X-198.283 Y13.177 Z5.864 A7.6780 B0.0897 
N1457 X-198.283 Y13.353 Z5.940 A7.8996 B0.0926 
N1458 X-198.282 Y13.508 Z6.008 A8.0903 B0.0953 
N1459 X-198.282 Y13.643 Z6.069 A8.2455 B0.0975 
N1460 X-198.282 Y13.759 Z6.124 A8.3538 B0.0996 
N1461 X-198.282 Y13.858 Z6.175 A8.3905 B0.1013 
N1462 X-198.281 Y13.939 Z6.226 A8.3069 B0.1024 
N1463 X-198.281 Y14.004 Z6.283 A8.0172 B0.1022 
N1464 X-198.280 Y14.053 Z6.358 A7.3842 B0.0990 
N1465 X-198.278 Y14.087 Z6.464 A6.2226 B0.0877 
N1466 X-198.273 Y14.104 Z6.660 A3.7042 B0.0581 
N1467 X-198.261 Y14.116 Z7.068 A358.1079 B-0.0111 
N1468 X-198.243 Y14.192 Z7.709 A349.0898 B-0.1264 
N1469 X-198.225 Y14.389 Z8.405 A338.9421 B-0.2440 
N1470 X-198.213 Y14.689 Z9.035 A329.1281 B-0.3106 
N1471 X-198.207 Y15.049 Z9.553 A320.2385 B-0.3280 
N1472 X-198.205 Y15.390 Z9.922 A313.1797 B-0.3363 
N1473 X-198.206 Y15.722 Z10.206 A307.0246 B-0.3301 
N1474 X-198.207 Y16.038 Z10.426 A301.6093 B-0.3167 
N1475 X-198.209 Y16.340 Z10.597 A296.7404 B-0.3001 
N1476 X-198.212 Y16.630 Z10.732 A292.2484 B-0.2815 
N1477 X-198.216 Y16.914 Z10.839 A287.9839 B-0.2613 
N1478 X-198.220 Y17.198 Z10.922 A283.8222 B-0.2391 
N1479 X-198.225 Y17.489 Z10.984 A279.6449 B-0.2148 
N1480 X-198.231 Y17.793 Z11.027 A275.3330 B-0.1877 
N1481 X-198.238 Y18.119 Z11.046 A270.7540 B-0.1562 
N1482 X-198.246 Y18.474 Z11.038 A265.7617 B-0.1183 
N1483 X-198.256 Y18.869 Z10.993 A260.1835 B-0.0694 
N1484 X-198.269 Y19.309 Z10.896 A253.8621 B-0.0021 
N1485 X-198.286 Y19.840 Z10.708 A245.9385 B0.0835 
N1486 X-198.310 Y20.450 Z10.379 A236.2022 B0.2067 
N1487 X-198.341 Y21.038 Z9.908 A225.6169 B0.3864 
N1488 X-198.372 Y21.555 Z9.294 A214.3418 B0.5637 
N1489 X-198.392 Y21.845 Z8.776 A206.0722 B0.6754 
N1490 X-198.401 Y21.941 Z8.493 A202.0429 B0.7284 
N1491 X-198.404 Y21.950 Z8.357 A200.4213 B0.7502 
N1492 X-198.403 Y21.919 Z8.280 A199.8408 B0.7569 
N1493 X-198.401 Y21.867 Z8.222 A199.6639 B0.7609 
N1494 X-198.397 Y21.801 Z8.160 A199.5905 B0.7609 
N1495 X-198.393 Y21.719 Z8.089 A199.5414 B0.7617 
N1496 X-198.388 Y21.621 Z8.005 A199.5058 B0.7614 
N1497 X-198.382 Y21.506 Z7.908 A199.4750 B0.7616 
N1498 X-198.376 Y21.373 Z7.795 A199.4439 B0.7617 
N1499 X-198.368 Y21.220 Z7.666 A199.4094 B0.7619 
N1500 X-198.359 Y21.047 Z7.521 A199.3701 B0.7624 
N1501 X-198.349 Y20.854 Z7.359 A199.3243 B0.7623 
N1502 X-198.339 Y20.641 Z7.180 A199.2707 B0.7631 
N1503 X-198.327 Y20.408 Z6.984 A199.2071 B0.7632 
N1504 X-198.314 Y20.158 Z6.773 A199.1311 B0.7640 
N1505 X-198.301 Y19.890 Z6.548 A199.0401 B0.7650 
N1506 X-198.287 Y19.606 Z6.309 A198.9315 B0.7657 
N1507 X-198.272 Y19.309 Z6.058 A198.8036 B0.7673 
N1508 X-198.257 Y19.000 Z5.797 A198.6551 B0.7686 
N1509 X-198.241 Y18.681 Z5.528 A198.4854 B0.7704 
N1510 X-198.224 Y18.354 Z5.251 A198.2943 B0.7724 
N1511 X-198.208 Y18.019 Z4.970 A198.0816 B0.7747 
N1512 X-198.191 Y17.680 Z4.685 A197.8469 B0.7773 
N1513 X-198.174 Y17.337 Z4.397 A197.5899 B0.7801 
N1514 X-198.157 Y16.991 Z4.108 A197.3095 B0.7831 
N1515 X-198.140 Y16.643 Z3.819 A197.0042 B0.7865 
N1516 X-198.122 Y16.295 Z3.530 A196.6717 B0.7901 
N1517 X-198.105 Y15.947 Z3.241 A196.3099 B0.7942 
N1518 X-198.088 Y15.599 Z2.955 A195.9170 B0.7986 
N1519 X-198.071 Y15.253 Z2.670 A195.4924 B0.8034 
N1520 X-198.054 Y14.907 Z2.388 A195.0359 B0.8086 
N1521 X-198.037 Y14.563 Z2.108 A194.5472 B0.8141 
N1522 X-198.021 Y14.221 Z1.832 A194.0260 B0.8200 
N1523 X-198.004 Y13.880 Z1.559 A193.4715 B0.8263 
N1524 X-197.988 Y13.541 Z1.290 A192.8827 B0.8329 
N1525 X-197.972 Y13.204 Z1.024 A192.2585 B0.8399 
N1526 X-197.955 Y12.869 Z0.763 A191.5977 B0.8473 
N1527 X-197.939 Y12.537 Z0.505 A190.8988 B0.8551 
N1528 X-197.924 Y12.206 Z0.252 A190.1604 B0.8633 
N1529 X-197.908 Y11.877 Z0.003 A189.3806 B0.8718 
N1530 X-197.892 Y11.551 Z-0.241 A188.5573 B0.8808 
N1531 X-197.877 Y11.227 Z-0.481 A187.6878 B0.8902 
N1532 X-197.862 Y10.905 Z-0.717 A186.7689 B0.9001 
N1533 X-197.847 Y10.586 Z-0.948 A185.7975 B0.9105 
N1534 X-197.832 Y10.268 Z-1.175 A184.7714 B0.9214 
N1535 X-197.818 Y9.953 Z-1.397 A183.6896 B0.9328 
N1536 X-197.803 Y9.639 Z-1.614 A182.5531 B0.9447 
N1537 X-197.789 Y9.327 Z-1.827 A181.3634 B0.9569 
N1538 X-197.775 Y9.017 Z-2.034 A180.1223 B0.9694 
N1539 X-197.761 Y8.708 Z-2.235 A178.8305 B0.9822 
N1540 X-197.747 Y8.401 Z-2.431 A177.4880 B0.9953 
N1541 X-197.734 Y8.095 Z-2.622 A176.0938 B1.0085 
N1542 X-197.720 Y7.790 Z-2.807 A174.6466 B1.0220 
N1543 X-197.707 Y7.487 Z-2.986 A173.1453 B1.0356 
N1544 X-197.693 Y7.183 Z-3.160 A171.5890 B1.0493 
N1545 X-197.680 Y6.880 Z-3.328 A169.9774 B1.0632 
N1546 X-197.667 Y6.578 Z-3.491 A168.3107 B1.0770 
N1547 X-197.654 Y6.275 Z-3.647 A166.5894 B1.0908 
N1548 X-197.641 Y5.971 Z-3.797 A164.8149 B1.1045 
N1549 X-197.628 Y5.667 Z-3.941 A162.9888 B1.1180 
N1550 X-197.616 Y5.362 Z-4.078 A161.1135 B1.1312 
N1551 X-197.603 Y5.056 Z-4.208 A159.1914 B1.1440 
N1552 X-197.590 Y4.748 Z-4.331 A157.2257 B1.1563 
N1553 X-197.577 Y4.439 Z-4.445 A155.2198 B1.1681 
N1554 X-197.564 Y4.128 Z-4.551 A153.1778 B1.1792 
N1555 X-197.551 Y3.815 Z-4.648 A151.1043 B1.1896 
N1556 X-197.537 Y3.500 Z-4.736 A149.0040 B1.1991 
N1557 X-197.524 Y3.183 Z-4.814 A146.8821 B1.2078 
N1558 X-197.510 Y2.864 Z-4.881 A144.7435 B1.2154 
N1559 X-197.496 Y2.544 Z-4.937 A142.5934 B1.2221 
N1560 X-197.482 Y2.222 Z-4.982 A140.4371 B1.2277 
N1561 X-197.468 Y1.899 Z-5.014 A138.2801 B1.2321 
N1562 X-197.453 Y1.575 Z-5.034 A136.1281 B1.2355 
N1563 X-197.438 Y1.250 Z-5.041 A133.9865 B1.2378 
N1564 X-197.423 Y0.925 Z-5.034 A131.8607 B1.2389 
N1565 X-197.407 Y0.601 Z-5.014 A129.7555 B1.2390 
N1566 X-197.392 Y0.277 Z-4.980 A127.6754 B1.2380 
N1567 X-197.375 Y-0.045 Z-4.931 A125.6247 B1.2359 
N1568 X-197.359 Y-0.366 Z-4.869 A123.6074 B1.2330 
N1569 X-197.342 Y-0.684 Z-4.792 A121.6273 B1.2292 
N1570 X-197.325 Y-0.999 Z-4.701 A119.6877 B1.2245 
N1571 X-197.308 Y-1.310 Z-4.596 A117.7912 B1.2191 
N1572 X-197.290 Y-1.618 Z-4.476 A115.9401 B1.2129 
N1573 X-197.272 Y-1.921 Z-4.343 A114.1359 B1.2062 
N1574 X-197.254 Y-2.219 Z-4.197 A112.3800 B1.1989 
N1575 X-197.236 Y-2.512 Z-4.038 A110.6730 B1.1912 
N1576 X-197.218 Y-2.799 Z-3.866 A109.0156 B1.1831 
N1577 X-197.199 Y-3.080 Z-3.682 A107.4076 B1.1746 
N1578 X-197.180 Y-3.354 Z-3.487 A105.8479 B1.1659 
N1579 X-197.161 Y-3.622 Z-3.281 A104.3344 B1.1570 
N1580 X-197.142 Y-3.882 Z-3.066 A102.8632 B1.1478 
N1581 X-197.124 Y-4.136 Z-2.842 A101.4290 B1.1386 
N1582 X-197.105 Y-4.383 Z-2.609 A100.0253 B1.1291 
N1583 X-197.086 Y-4.623 Z-2.370 A98.6466 B1.1193 
N1584 X-197.067 Y-4.856 Z-2.124 A97.2898 B1.1095 
N1585 X-197.048 Y-5.081 Z-1.874 A95.9557 B1.0994 
N1586 X-197.030 Y-5.298 Z-1.619 A94.6465 B1.0887 
N1587 X-197.012 Y-5.506 Z-1.361 A93.3640 B1.0789 
N1588 X-196.994 Y-5.705 Z-1.103 A92.1057 B1.0683 
N1589 X-196.977 Y-5.896 Z-0.844 A90.8639 B1.0578 
N1590 X-196.960 Y-6.080 Z-0.586 A89.6262 B1.0477 
N1591 X-196.943 Y-6.256 Z-0.331 A88.3791 B1.0369 
N1592 X-196.927 Y-6.425 Z-0.080 A87.1112 B1.0255 
N1593 X-196.912 Y-6.589 Z0.166 A85.8153 B1.0143 
N1594 X-196.897 Y-6.746 Z0.406 A84.4857 B1.0016 
N1595 X-196.882 Y-6.899 Z0.640 A83.1165 B0.9893 
N1596 X-196.869 Y-7.046 Z0.865 A81.6977 B0.9757 
N1597 X-196.855 Y-7.189 Z1.082 A80.2199 B0.9615 
N1598 X-196.843 Y-7.329 Z1.291 A78.6814 B0.9460 
N1599 X-196.831 Y-7.465 Z1.491 A77.0818 B0.9301 
N1600 X-196.820 Y-7.600 Z1.683 A75.4029 B0.9143 
N1601 X-196.809 Y-7.736 Z1.868 A73.6047 B0.8968 
N1602 X-196.799 Y-7.877 Z2.047 A71.6409 B0.8776 
N1603 X-196.789 Y-8.026 Z2.223 A69.4610 B0.8556 
N1604 X-196.778 Y-8.187 Z2.400 A67.0032 B0.8312 
N1605 X-196.768 Y-8.363 Z2.582 A64.1955 B0.8024 
N1606 X-196.757 Y-8.558 Z2.777 A60.9650 B0.7668 
N1607 X-196.745 Y-8.772 Z2.991 A57.2522 B0.7244 
N1608 X-196.732 Y-9.003 Z3.231 A53.0317 B0.6723 
N1609 X-196.717 Y-9.242 Z3.502 A48.3358 B0.6103 
N1610 X-196.702 Y-9.480 Z3.806 A43.2511 B0.5418 
N1611 X-196.686 Y-9.704 Z4.141 A37.8971 B0.4676 
N1612 X-196.670 Y-9.903 Z4.501 A32.4013 B0.3907 
N1613 X-196.655 Y-10.069 Z4.878 A26.8718 B0.3159 
N1614 X-196.641 Y-10.196 Z5.267 A21.3831 B0.2430 
N1615 X-196.627 Y-10.284 Z5.661 A15.9827 B0.1739 
N1616 X-196.615 Y-10.330 Z6.054 A10.7057 B0.1096 
N1617 X-196.603 Y-10.337 Z6.439 A5.5920 B0.0499 
N1618 X-196.593 Y-10.304 Z6.809 A0.6965 B-0.0036 
N1619 X-196.584 Y-10.235 Z7.157 A356.0874 B-0.0499 
N1620 X-196.577 Y-10.135 Z7.475 A351.8329 B-0.0888 
N1621 X-196.571 Y-10.008 Z7.758 A347.9805 B-0.1200 
N1622 X-196.567 Y-9.861 Z8.005 A344.5383 B-0.1447 
N1623 X-196.563 Y-9.696 Z8.218 A341.4755 B-0.1640 
N1624 X-196.561 Y-9.516 Z8.400 A338.7427 B-0.1799 
N1625 X-196.560 Y-9.321 Z8.555 A336.2892 B-0.1929 
N1626 X-196.559 Y-9.112 Z8.685 A334.0744 B-0.2036 
N1627 X-196.559 Y-8.890 Z8.793 A332.0645 B-0.2124 
N1628 X-196.559 Y-8.653 Z8.880 A330.2225 B-0.2196 
N1629 X-196.560 Y-8.401 Z8.948 A328.5136 B-0.2261 
N1630 X-196.561 Y-8.134 Z8.998 A326.9276 B-0.2317 
N1631 X-196.563 Y-7.853 Z9.028 A325.4758 B-0.2360 
N1632 X-196.565 Y-7.559 Z9.037 A324.1660 B-0.2395 
N1633 X-196.568 Y-7.253 Z9.027 A322.9955 B-0.2419 
N1634 X-196.571 Y-6.935 Z8.998 A321.9623 B-0.2439 
N1635 X-196.575 Y-6.608 Z8.950 A321.0671 B-0.2451 
N1636 X-196.578 Y-6.271 Z8.884 A320.3109 B-0.2459 
N1637 X-196.583 Y-5.926 Z8.801 A319.6900 B-0.2461 
N1638 X-196.587 Y-5.574 Z8.703 A319.1953 B-0.2461 
N1639 X-196.592 Y-5.216 Z8.591 A318.8157 B-0.2456 
N1640 X-196.596 Y-4.853 Z8.468 A318.5410 B-0.2451 
N1641 X-196.601 Y-4.487 Z8.334 A318.3650 B-0.2443 
N1642 X-196.607 Y-4.119 Z8.192 A318.2864 B-0.2433 
N1643 X-196.612 Y-3.750 Z8.042 A318.3073 B-0.2422 
N1644 X-196.617 Y-3.382 Z7.885 A318.4318 B-0.2408 
N1645 X-196.622 Y-3.018 Z7.723 A318.6645 B-0.2393 
N1646 X-196.627 Y-2.657 Z7.557 A319.0094 B-0.2375 
N1647 X-196.633 Y-2.301 Z7.387 A319.4690 B-0.2355 
N1648 X-196.638 Y-1.952 Z7.215 A320.0436 B-0.2332 
N1649 X-196.643 Y-1.608 Z7.042 A320.7299 B-0.2305 
N1650 X-196.648 Y-1.272 Z6.869 A321.5217 B-0.2275 
N1651 X-196.654 Y-0.941 Z6.697 A322.4101 B-0.2240 
N1652 X-196.659 Y-0.616 Z6.527 A323.3859 B-0.2202 
N1653 X-196.664 Y-0.296 Z6.360 A324.4398 B-0.2159 
N1654 X-196.669 Y0.018 Z6.197 A325.5634 B-0.2111 
N1655 X-196.674 Y0.329 Z6.038 A326.7484 B-0.2058 
N1656 X-196.679 Y0.636 Z5.883 A327.9865 B-0.2000 
N1657 X-196.683 Y0.940 Z5.733 A329.2686 B-0.1936 
N1658 X-196.688 Y1.243 Z5.589 A330.5852 B-0.1868 
N1659 X-196.693 Y1.544 Z5.452 A331.9263 B-0.1795 
N1660 X-196.697 Y1.845 Z5.321 A333.2813 B-0.1718 
N1661 X-196.702 Y2.146 Z5.197 A334.6387 B-0.1638 
N1662 X-196.706 Y2.447 Z5.082 A335.9859 B-0.1554 
N1663 X-196.711 Y2.748 Z4.976 A337.3084 B-0.1468 
N1664 X-196.715 Y3.050 Z4.880 A338.5920 B-0.1381 
N1665 X-196.719 Y3.352 Z4.795 A339.8254 B-0.1291 
N1666 X-196.723 Y3.655 Z4.720 A341.0041 B-0.1200 
N1667 X-196.727 Y3.958 Z4.656 A342.1341 B-0.1107 
N1668 X-196.730 Y4.264 Z4.601 A343.2318 B-0.1009 
N1669 X-196.734 Y4.572 Z4.554 A344.3200 B-0.0908 
N1670 X-196.738 Y4.884 Z4.514 A345.4216 B-0.0800 
N1671 X-196.741 Y5.202 Z4.479 A346.5548 B-0.0689 
N1672 X-196.744 Y5.525 Z4.448 A347.7316 B-0.0573 
N1673 X-196.747 Y5.855 Z4.423 A348.9567 B-0.0456 
N1674 X-196.750 Y6.192 Z4.402 A350.2275 B-0.0337 
N1675 X-196.752 Y6.536 Z4.388 A351.5341 B-0.0220 
N1676 X-196.755 Y6.885 Z4.381 A352.8597 B-0.0106 
N1677 X-196.757 Y7.240 Z4.382 A354.1816 B0.0005 
N1678 X-196.759 Y7.599 Z4.393 A355.4727 B0.0110 
N1679 X-196.760 Y7.959 Z4.415 A356.7067 B0.0211 
N1680 X-196.762 Y8.320 Z4.450 A357.8634 B0.0308 
N1681 X-196.763 Y8.680 Z4.496 A358.9334 B0.0401 
N1682 X-196.764 Y9.037 Z4.554 A359.9173 B0.0491 
N1683 X-196.765 Y9.392 Z4.622 A0.8228 B0.0578 
N1684 X-196.765 Y9.744 Z4.700 A1.6604 B0.0662 
N1685 X-196.765 Y10.091 Z4.785 A2.4401 B0.0743 
N1686 X-196.765 Y10.433 Z4.876 A3.1689 B0.0820 
N1687 X-196.765 Y10.768 Z4.973 A3.8501 B0.0895 
N1688 X-196.765 Y11.094 Z5.073 A4.4823 B0.0966 
N1689 X-196.764 Y11.410 Z5.177 A5.0618 B0.1031 
N1690 X-196.764 Y11.713 Z5.282 A5.5849 B0.1091 
N1691 X-196.763 Y12.002 Z5.388 A6.0505 B0.1142 
N1692 X-196.762 Y12.274 Z5.492 A6.4614 B0.1188 
N1693 X-196.761 Y12.529 Z5.594 A6.8233 B0.1229 
N1694 X-196.760 Y12.765 Z5.690 A7.1429 B0.1264 
N1695 X-196.759 Y12.981 Z5.781 A7.4263 B0.1296 
N1696 X-196.758 Y13.177 Z5.864 A7.6779 B0.1326 
N1697 X-196.758 Y13.353 Z5.940 A7.8995 B0.1351 
N1698 X-196.757 Y13.508 Z6.008 A8.0903 B0.1375 
N1699 X-196.756 Y13.643 Z6.069 A8.2455 B0.1395 
N1700 X-196.756 Y13.759 Z6.124 A8.3540 B0.1415 
N1701 X-196.755 Y13.858 Z6.175 A8.3909 B0.1429 
N1702 X-196.755 Y13.939 Z6.225 A8.3077 B0.1439 
N1703 X-196.754 Y14.004 Z6.283 A8.0185 B0.1438 
N1704 X-196.753 Y14.053 Z6.358 A7.3866 B0.1408 
N1705 X-196.751 Y14.087 Z6.464 A6.2266 B0.1308 
N1706 X-196.746 Y14.104 Z6.659 A3.7115 B0.1043 
N1707 X-196.736 Y14.116 Z7.067 A358.1202 B0.0422 
N1708 X-196.720 Y14.192 Z7.708 A349.1059 B-0.0617 
N1709 X-196.704 Y14.388 Z8.404 A338.9584 B-0.1675 
N1710 X-196.693 Y14.688 Z9.034 A329.1428 B-0.2270 
N1711 X-196.688 Y15.048 Z9.553 A320.2512 B-0.2410 
N1712 X-196.687 Y15.389 Z9.921 A313.1905 B-0.2480 
N1713 X-196.687 Y15.721 Z10.206 A307.0338 B-0.2419 
N1714 X-196.688 Y16.038 Z10.426 A301.6172 B-0.2293 
N1715 X-196.690 Y16.339 Z10.597 A296.7473 B-0.2138 
N1716 X-196.693 Y16.629 Z10.732 A292.2547 B-0.1969 
N1717 X-196.696 Y16.913 Z10.838 A287.9898 B-0.1785 
N1718 X-196.700 Y17.198 Z10.922 A283.8278 B-0.1585 
N1719 X-196.704 Y17.489 Z10.984 A279.6503 B-0.1367 
N1720 X-196.709 Y17.793 Z11.027 A275.3382 B-0.1125 
N1721 X-196.715 Y18.118 Z11.046 A270.7591 B-0.0846 
N1722 X-196.723 Y18.474 Z11.039 A265.7668 B-0.0509 
N1723 X-196.731 Y18.869 Z10.993 A260.1886 B-0.0073 
N1724 X-196.743 Y19.308 Z10.896 A253.8671 B0.0529 
N1725 X-196.758 Y19.840 Z10.708 A245.9434 B0.1289 
N1726 X-196.780 Y20.449 Z10.379 A236.2066 B0.2387 
N1727 X-196.807 Y21.038 Z9.908 A225.6205 B0.4002 
N1728 X-196.834 Y21.555 Z9.294 A214.3436 B0.5591 
N1729 X-196.853 Y21.845 Z8.776 A206.0722 B0.6586 
N1730 X-196.860 Y21.941 Z8.494 A202.0421 B0.7057 
N1731 X-196.863 Y21.950 Z8.357 A200.4203 B0.7252 
N1732 X-196.861 Y21.919 Z8.280 A199.8398 B0.7310 
N1733 X-196.859 Y21.868 Z8.222 A199.6630 B0.7346 
N1734 X-196.856 Y21.801 Z8.160 A199.5896 B0.7345 
N1735 X-196.852 Y21.719 Z8.089 A199.5405 B0.7353 
N1736 X-196.847 Y21.621 Z8.005 A199.5049 B0.7350 
N1737 X-196.842 Y21.506 Z7.908 A199.4741 B0.7352 
N1738 X-196.835 Y21.373 Z7.795 A199.4429 B0.7353 
N1739 X-196.828 Y21.220 Z7.666 A199.4085 B0.7354 
N1740 X-196.819 Y21.047 Z7.521 A199.3691 B0.7358 
N1741 X-196.810 Y20.854 Z7.359 A199.3234 B0.7357 
N1742 X-196.800 Y20.641 Z7.180 A199.2697 B0.7364 
N1743 X-196.788 Y20.409 Z6.984 A199.2061 B0.7364 
N1744 X-196.776 Y20.158 Z6.773 A199.1301 B0.7371 
N1745 X-196.763 Y19.890 Z6.548 A199.0391 B0.7380 
N1746 X-196.749 Y19.607 Z6.309 A198.9305 B0.7386 
N1747 X-196.735 Y19.310 Z6.058 A198.8026 B0.7399 
N1748 X-196.720 Y19.000 Z5.797 A198.6540 B0.7410 
N1749 X-196.705 Y18.681 Z5.528 A198.4844 B0.7426 
N1750 X-196.689 Y18.354 Z5.252 A198.2933 B0.7443 
N1751 X-196.673 Y18.019 Z4.970 A198.0805 B0.7464 
N1752 X-196.657 Y17.680 Z4.685 A197.8459 B0.7486 
N1753 X-196.640 Y17.337 Z4.397 A197.5888 B0.7510 
N1754 X-196.624 Y16.991 Z4.108 A197.3084 B0.7537 
N1755 X-196.607 Y16.643 Z3.819 A197.0031 B0.7566 
N1756 X-196.591 Y16.295 Z3.530 A196.6706 B0.7598 
N1757 X-196.574 Y15.947 Z3.242 A196.3087 B0.7633 
N1758 X-196.558 Y15.600 Z2.955 A195.9159 B0.7672 
N1759 X-196.541 Y15.253 Z2.670 A195.4912 B0.7714 
N1760 X-196.525 Y14.907 Z2.388 A195.0347 B0.7759 
N1761 X-196.509 Y14.563 Z2.108 A194.5460 B0.7808 
N1762 X-196.493 Y14.221 Z1.832 A194.0248 B0.7860 
N1763 X-196.477 Y13.880 Z1.559 A193.4702 B0.7914 
N1764 X-196.461 Y13.541 Z1.290 A192.8814 B0.7973 
N1765 X-196.445 Y13.205 Z1.024 A192.2572 B0.8034 
N1766 X-196.430 Y12.870 Z0.763 A191.5963 B0.8099 
N1767 X-196.414 Y12.537 Z0.506 A190.8974 B0.8167 
N1768 X-196.399 Y12.206 Z0.252 A190.1589 B0.8239 
N1769 X-196.384 Y11.878 Z0.004 A189.3791 B0.8314 
N1770 X-196.369 Y11.551 Z-0.241 A188.5557 B0.8393 
N1771 X-196.354 Y11.227 Z-0.481 A187.6862 B0.8476 
N1772 X-196.340 Y10.906 Z-0.716 A186.7672 B0.8563 
N1773 X-196.325 Y10.586 Z-0.948 A185.7958 B0.8654 
N1774 X-196.311 Y10.268 Z-1.174 A184.7695 B0.8750 
N1775 X-196.297 Y9.953 Z-1.397 A183.6877 B0.8851 
N1776 X-196.283 Y9.639 Z-1.614 A182.5511 B0.8955 
N1777 X-196.270 Y9.328 Z-1.826 A181.3613 B0.9062 
N1778 X-196.256 Y9.018 Z-2.034 A180.1201 B0.9172 
N1779 X-196.243 Y8.709 Z-2.235 A178.8282 B0.9285 
N1780 X-196.230 Y8.402 Z-2.431 A177.4856 B0.9399 
N1781 X-196.217 Y8.096 Z-2.622 A176.0913 B0.9516 
N1782 X-196.204 Y7.791 Z-2.807 A174.6440 B0.9634 
N1783 X-196.191 Y7.487 Z-2.986 A173.1426 B0.9754 
N1784 X-196.178 Y7.184 Z-3.160 A171.5862 B0.9874 
N1785 X-196.166 Y6.881 Z-3.328 A169.9746 B0.9996 
N1786 X-196.153 Y6.578 Z-3.490 A168.3077 B1.0117 
N1787 X-196.141 Y6.275 Z-3.647 A166.5863 B1.0239 
N1788 X-196.129 Y5.972 Z-3.797 A164.8117 B1.0359 
N1789 X-196.117 Y5.668 Z-3.941 A162.9856 B1.0477 
N1790 X-196.104 Y5.363 Z-4.078 A161.1101 B1.0593 
N1791 X-196.092 Y5.057 Z-4.208 A159.1880 B1.0705 
N1792 X-196.080 Y4.749 Z-4.331 A157.2222 B1.0813 
N1793 X-196.068 Y4.440 Z-4.445 A155.2162 B1.0916 
N1794 X-196.055 Y4.129 Z-4.551 A153.1742 B1.1012 
N1795 X-196.043 Y3.816 Z-4.648 A151.1006 B1.1103 
N1796 X-196.030 Y3.501 Z-4.736 A149.0004 B1.1186 
N1797 X-196.018 Y3.184 Z-4.814 A146.8784 B1.1261 
N1798 X-196.005 Y2.865 Z-4.881 A144.7399 B1.1327 
N1799 X-195.992 Y2.545 Z-4.937 A142.5898 B1.1384 
N1800 X-195.979 Y2.223 Z-4.982 A140.4335 B1.1432 
N1801 X-195.965 Y1.900 Z-5.014 A138.2765 B1.1470 
N1802 X-195.951 Y1.576 Z-5.034 A136.1245 B1.1498 
N1803 X-195.937 Y1.251 Z-5.041 A133.9830 B1.1516 
N1804 X-195.923 Y0.926 Z-5.035 A131.8572 B1.1524 
N1805 X-195.909 Y0.602 Z-5.014 A129.7520 B1.1523 
N1806 X-195.894 Y0.278 Z-4.980 A127.6720 B1.1512 
N1807 X-195.879 Y-0.044 Z-4.932 A125.6213 B1.1492 
N1808 X-195.864 Y-0.365 Z-4.870 A123.6041 B1.1465 
N1809 X-195.848 Y-0.683 Z-4.793 A121.6240 B1.1429 
N1810 X-195.832 Y-0.998 Z-4.702 A119.6844 B1.1385 
N1811 X-195.816 Y-1.309 Z-4.596 A117.7880 B1.1335 
N1812 X-195.800 Y-1.617 Z-4.477 A115.9370 B1.1279 
N1813 X-195.783 Y-1.920 Z-4.344 A114.1329 B1.1218 
N1814 X-195.766 Y-2.218 Z-4.198 A112.3769 B1.1152 
N1815 X-195.749 Y-2.511 Z-4.039 A110.6701 B1.1081 
N1816 X-195.732 Y-2.798 Z-3.867 A109.0127 B1.1008 
N1817 X-195.715 Y-3.079 Z-3.683 A107.4047 B1.0931 
N1818 X-195.698 Y-3.353 Z-3.488 A105.8451 B1.0852 
N1819 X-195.680 Y-3.621 Z-3.282 A104.3316 B1.0771 
N1820 X-195.663 Y-3.881 Z-3.067 A102.8605 B1.0689 
N1821 X-195.645 Y-4.135 Z-2.843 A101.4262 B1.0605 
N1822 X-195.628 Y-4.382 Z-2.610 A100.0227 B1.0520 
N1823 X-195.610 Y-4.622 Z-2.371 A98.6439 B1.0432 
N1824 X-195.593 Y-4.855 Z-2.125 A97.2873 B1.0344 
N1825 X-195.575 Y-5.080 Z-1.875 A95.9532 B1.0253 
N1826 X-195.558 Y-5.297 Z-1.620 A94.6441 B1.0157 
N1827 X-195.541 Y-5.505 Z-1.362 A93.3616 B1.0069 
N1828 X-195.525 Y-5.705 Z-1.103 A92.1034 B0.9974 
N1829 X-195.509 Y-5.896 Z-0.845 A90.8616 B0.9880 
N1830 X-195.493 Y-6.079 Z-0.587 A89.6240 B0.9790 
N1831 X-195.478 Y-6.255 Z-0.332 A88.3770 B0.9693 
N1832 X-195.463 Y-6.425 Z-0.081 A87.1092 B0.9591 
N1833 X-195.448 Y-6.589 Z0.165 A85.8134 B0.9492 
N1834 X-195.434 Y-6.746 Z0.406 A84.4839 B0.9378 
N1835 X-195.421 Y-6.898 Z0.639 A83.1148 B0.9268 
N1836 X-195.408 Y-7.046 Z0.864 A81.6962 B0.9147 
N1837 X-195.396 Y-7.189 Z1.082 A80.2185 B0.9022 
N1838 X-195.385 Y-7.329 Z1.290 A78.6801 B0.8883 
N1839 X-195.374 Y-7.465 Z1.491 A77.0806 B0.8743 
N1840 X-195.363 Y-7.600 Z1.682 A75.4019 B0.8603 
N1841 X-195.353 Y-7.736 Z1.867 A73.6039 B0.8448 
N1842 X-195.344 Y-7.877 Z2.046 A71.6403 B0.8278 
N1843 X-195.334 Y-8.026 Z2.222 A69.4606 B0.8084 
N1844 X-195.325 Y-8.187 Z2.399 A67.0031 B0.7869 
N1845 X-195.316 Y-8.363 Z2.582 A64.1956 B0.7616 
N1846 X-195.306 Y-8.558 Z2.777 A60.9653 B0.7302 
N1847 X-195.295 Y-8.772 Z2.991 A57.2527 B0.6928 
N1848 X-195.283 Y-9.003 Z3.231 A53.0324 B0.6468 
N1849 X-195.270 Y-9.242 Z3.502 A48.3365 B0.5920 
N1850 X-195.256 Y-9.480 Z3.806 A43.2516 B0.5315 
N1851 X-195.242 Y-9.704 Z4.141 A37.8974 B0.4659 
N1852 X-195.228 Y-9.903 Z4.501 A32.4013 B0.3977 
N1853 X-195.215 Y-10.069 Z4.879 A26.8713 B0.3315 
N1854 X-195.202 Y-10.196 Z5.267 A21.3821 B0.2670 
N1855 X-195.190 Y-10.284 Z5.661 A15.9811 B0.2059 
N1856 X-195.178 Y-10.330 Z6.054 A10.7037 B0.1490 
N1857 X-195.168 Y-10.337 Z6.439 A5.5896 B0.0964 
N1858 X-195.159 Y-10.304 Z6.809 A0.6938 B0.0492 
N1859 X-195.151 Y-10.235 Z7.157 A356.0845 B0.0085 
N1860 X-195.144 Y-10.135 Z7.475 A351.8298 B-0.0257 
N1861 X-195.139 Y-10.008 Z7.758 A347.9775 B-0.0530 
N1862 X-195.135 Y-9.861 Z8.005 A344.5354 B-0.0745 
N1863 X-195.132 Y-9.696 Z8.218 A341.4727 B-0.0913 
N1864 X-195.129 Y-9.516 Z8.400 A338.7401 B-0.1051 
N1865 X-195.128 Y-9.321 Z8.555 A336.2867 B-0.1163 
N1866 X-195.127 Y-9.112 Z8.685 A334.0720 B-0.1255 
N1867 X-195.126 Y-8.890 Z8.793 A332.0622 B-0.1331 
N1868 X-195.126 Y-8.653 Z8.880 A330.2203 B-0.1394 
N1869 X-195.126 Y-8.401 Z8.948 A328.5115 B-0.1448 
N1870 X-195.127 Y-8.134 Z8.998 A326.9256 B-0.1496 
N1871 X-195.128 Y-7.853 Z9.028 A325.4739 B-0.1532 
N1872 X-195.129 Y-7.559 Z9.037 A324.1642 B-0.1561 
N1873 X-195.131 Y-7.253 Z9.028 A322.9939 B-0.1581 
N1874 X-195.133 Y-6.935 Z8.998 A321.9608 B-0.1597 
N1875 X-195.135 Y-6.607 Z8.950 A321.0657 B-0.1605 
N1876 X-195.137 Y-6.271 Z8.884 A320.3095 B-0.1611 
N1877 X-195.140 Y-5.926 Z8.801 A319.6887 
N1878 X-195.143 Y-5.574 Z8.703 A319.1942 B-0.1609 
N1879 X-195.146 Y-5.216 Z8.591 A318.8146 B-0.1604 
N1880 X-195.149 Y-4.853 Z8.468 A318.5400 B-0.1598 
N1881 X-195.153 Y-4.487 Z8.334 A318.3641 B-0.1589 
N1882 X-195.156 Y-4.119 Z8.192 A318.2855 B-0.1579 
N1883 X-195.159 Y-3.750 Z8.042 A318.3065 B-0.1568 
N1884 X-195.163 Y-3.382 Z7.885 A318.4311 B-0.1555 
N1885 X-195.166 Y-3.018 Z7.723 A318.6638 B-0.1540 
N1886 X-195.170 Y-2.657 Z7.557 A319.0087 B-0.1523 
N1887 X-195.173 Y-2.301 Z7.387 A319.4684 B-0.1504 
N1888 X-195.177 Y-1.952 Z7.215 A320.0430 B-0.1483 
N1889 X-195.180 Y-1.608 Z7.042 A320.7294 B-0.1459 
N1890 X-195.184 Y-1.272 Z6.869 A321.5211 B-0.1431 
N1891 X-195.187 Y-0.941 Z6.697 A322.4096 B-0.1400 
N1892 X-195.190 Y-0.616 Z6.527 A323.3853 B-0.1366 
N1893 X-195.194 Y-0.297 Z6.360 A324.4393 B-0.1327 
N1894 X-195.197 Y0.018 Z6.197 A325.5628 B-0.1284 
N1895 X-195.200 Y0.329 Z6.038 A326.7479 B-0.1237 
N1896 X-195.204 Y0.636 Z5.883 A327.9859 B-0.1186 
N1897 X-195.207 Y0.940 Z5.733 A329.2680 B-0.1129 
N1898 X-195.210 Y1.243 Z5.590 A330.5846 B-0.1069 
N1899 X-195.213 Y1.544 Z5.452 A331.9256 B-0.1004 
N1900 X-195.216 Y1.845 Z5.321 A333.2806 B-0.0936 
N1901 X-195.219 Y2.146 Z5.197 A334.6380 B-0.0864 
N1902 X-195.222 Y2.447 Z5.082 A335.9851 B-0.0789 
N1903 X-195.225 Y2.748 Z4.976 A337.3077 B-0.0711 
N1904 X-195.228 Y3.050 Z4.880 A338.5913 B-0.0631 
N1905 X-195.230 Y3.352 Z4.795 A339.8246 B-0.0548 
N1906 X-195.233 Y3.654 Z4.720 A341.0033 B-0.0462 
N1907 X-195.235 Y3.958 Z4.656 A342.1333 B-0.0373 
N1908 X-195.237 Y4.263 Z4.601 A343.2310 B-0.0280 
N1909 X-195.240 Y4.572 Z4.554 A344.3192 B-0.0183 
N1910 X-195.242 Y4.884 Z4.514 A345.4207 B-0.0083 
N1911 X-195.244 Y5.201 Z4.479 A346.5540 B0.0019 
N1912 X-195.245 Y5.525 Z4.448 A347.7308 B0.0124 
N1913 X-195.247 Y5.855 Z4.423 A348.9559 B0.0227 
N1914 X-195.248 Y6.192 Z4.402 A350.2267 B0.0330 
N1915 X-195.250 Y6.535 Z4.388 A351.5332 B0.0429 
N1916 X-195.251 Y6.885 Z4.381 A352.8588 B0.0524 
N1917 X-195.251 Y7.240 Z4.382 A354.1807 B0.0615 
N1918 X-195.252 Y7.598 Z4.393 A355.4719 B0.0702 
N1919 X-195.252 Y7.959 Z4.415 A356.7059 B0.0785 
N1920 X-195.252 Y8.320 Z4.450 A357.8627 B0.0865 
N1921 X-195.252 Y8.679 Z4.496 A358.9327 B0.0943 
N1922 X-195.252 Y9.037 Z4.554 A359.9166 B0.1019 
N1923 X-195.251 Y9.392 Z4.622 A0.8221 B0.1094 
N1924 X-195.251 Y9.744 Z4.700 A1.6598 B0.1167 
N1925 X-195.250 Y10.091 Z4.785 A2.4394 B0.1238 
N1926 X-195.249 Y10.433 Z4.876 A3.1683 B0.1307 
N1927 X-195.248 Y10.768 Z4.973 A3.8495 B0.1372 
N1928 X-195.246 Y11.094 Z5.073 A4.4818 B0.1435 
N1929 X-195.245 Y11.409 Z5.177 A5.0613 B0.1492 
N1930 X-195.243 Y11.713 Z5.282 A5.5845 B0.1546 
N1931 X-195.242 Y12.001 Z5.388 A6.0502 B0.1591 
N1932 X-195.240 Y12.274 Z5.492 A6.4612 B0.1631 
N1933 X-195.238 Y12.529 Z5.594 A6.8231 B0.1668 
N1934 X-195.237 Y12.765 Z5.690 A7.1428 B0.1699 
N1935 X-195.235 Y12.981 Z5.781 A7.4263 B0.1727 
N1936 X-195.234 Y13.177 Z5.864 A7.6779 B0.1754 
N1937 X-195.232 Y13.352 Z5.940 A7.8995 B0.1776 
N1938 X-195.231 Y13.507 Z6.008 A8.0903 B0.1798 
N1939 X-195.230 Y13.643 Z6.069 A8.2457 B0.1815 
N1940 X-195.229 Y13.759 Z6.124 A8.3543 B0.1833 
N1941 X-195.229 Y13.857 Z6.174 A8.3914 B0.1846 
N1942 X-195.228 Y13.939 Z6.225 A8.3085 B0.1854 
N1943 X-195.227 Y14.004 Z6.283 A8.0200 B0.1853 
N1944 X-195.226 Y14.053 Z6.358 A7.3891 B0.1826 
N1945 X-195.224 Y14.087 Z6.464 A6.2309 B0.1738 
N1946 X-195.220 Y14.104 Z6.659 A3.7189 B0.1504 
N1947 X-195.211 Y14.116 Z7.066 A358.1327 B0.0955 
N1948 X-195.197 Y14.192 Z7.707 A349.1222 B0.0030 
N1949 X-195.183 Y14.388 Z8.403 A338.9749 B-0.0910 
N1950 X-195.174 Y14.688 Z9.033 A329.1576 B-0.1434 
N1951 X-195.169 Y15.047 Z9.552 A320.2641 B-0.1541 
N1952 X-195.168 Y15.388 Z9.921 A313.2013 B-0.1597 
N1953 X-195.168 Y15.721 Z10.206 A307.0429 B-0.1536 
N1954 X-195.169 Y16.037 Z10.426 A301.6252 B-0.1418 
N1955 X-195.171 Y16.338 Z10.597 A296.7541 B-0.1276 
N1956 X-195.173 Y16.628 Z10.732 A292.2610 B-0.1122 
N1957 X-195.176 Y16.913 Z10.838 A287.9956 B-0.0956 
N1958 X-195.180 Y17.197 Z10.922 A283.8333 B-0.0779 
N1959 X-195.183 Y17.488 Z10.984 A279.6555 B-0.0587 
N1960 X-195.188 Y17.792 Z11.027 A275.3433 B-0.0374 
N1961 X-195.193 Y18.118 Z11.046 A270.7641 B-0.0129 
N1962 X-195.199 Y18.474 Z11.039 A265.7717 B0.0165 
N1963 X-195.207 Y18.868 Z10.993 A260.1935 B0.0548 
N1964 X-195.217 Y19.308 Z10.896 A253.8719 B0.1079 
N1965 X-195.231 Y19.839 Z10.708 A245.9480 B0.1743 
N1966 X-195.250 Y20.449 Z10.379 A236.2109 B0.2707 
N1967 X-195.274 Y21.037 Z9.908 A225.6240 B0.4140 
N1968 X-195.297 Y21.555 Z9.295 A214.3454 B0.5546 
N1969 X-195.313 Y21.845 Z8.776 A206.0722 B0.6418 
N1970 X-195.320 Y21.941 Z8.494 A202.0414 B0.6830 
N1971 X-195.321 Y21.950 Z8.357 A200.4194 B0.7001 
N1972 X-195.320 Y21.920 Z8.280 A199.8389 B0.7051 
N1973 X-195.318 Y21.868 Z8.222 A199.6620 B0.7083 
N1974 X-195.315 Y21.801 Z8.160 A199.5886 B0.7082 
N1975 X-195.311 Y21.719 Z8.089 A199.5396 B0.7089 
N1976 X-195.307 Y21.622 Z8.005 A199.5040 B0.7086 
N1977 X-195.301 Y21.507 Z7.908 A199.4732 B0.7088 
N1978 X-195.295 Y21.373 Z7.795 A199.4420 B0.7088 
N1979 X-195.288 Y21.220 Z7.667 A199.4076 B0.7089 
N1980 X-195.280 Y21.047 Z7.521 A199.3682 B0.7092 
N1981 X-195.270 Y20.854 Z7.359 A199.3224 B0.7090 
N1982 X-195.261 Y20.641 Z7.180 A199.2688 B0.7097 
N1983 X-195.250 Y20.409 Z6.984 A199.2051 B0.7096 
N1984 X-195.238 Y20.158 Z6.773 A199.1291 B0.7102 
N1985 X-195.225 Y19.890 Z6.548 A199.0381 B0.7110 
N1986 X-195.212 Y19.607 Z6.309 A198.9296 B0.7114 
N1987 X-195.198 Y19.310 Z6.058 A198.8016 B0.7126 
N1988 X-195.184 Y19.001 Z5.797 A198.6531 B0.7135 
N1989 X-195.169 Y18.681 Z5.528 A198.4834 B0.7148 
N1990 X-195.154 Y18.354 Z5.252 A198.2923 B0.7163 
N1991 X-195.138 Y18.020 Z4.970 A198.0795 B0.7180 
N1992 X-195.123 Y17.680 Z4.685 A197.8448 B0.7199 
N1993 X-195.107 Y17.337 Z4.397 A197.5877 B0.7219 
N1994 X-195.091 Y16.991 Z4.108 A197.3074 B0.7242 
N1995 X-195.075 Y16.644 Z3.819 A197.0020 B0.7267 
N1996 X-195.059 Y16.295 Z3.530 A196.6695 B0.7294 
N1997 X-195.043 Y15.947 Z3.242 A196.3076 B0.7325 
N1998 X-195.027 Y15.600 Z2.955 A195.9147 B0.7358 
N1999 X-195.011 Y15.253 Z2.670 A195.4901 B0.7394 
N2000 X-194.996 Y14.908 Z2.388 A195.0335 B0.7433 
N2001 X-194.980 Y14.564 Z2.108 A194.5448 B0.7474 
N2002 X-194.964 Y14.221 Z1.832 A194.0235 B0.7519 
N2003 X-194.949 Y13.880 Z1.559 A193.4689 B0.7566 
N2004 X-194.934 Y13.542 Z1.290 A192.8801 B0.7616 
N2005 X-194.919 Y13.205 Z1.024 A192.2558 B0.7669 
N2006 X-194.904 Y12.870 Z0.763 A191.5949 B0.7725 
N2007 X-194.889 Y12.537 Z0.506 A190.8959 B0.7784 
N2008 X-194.874 Y12.206 Z0.253 A190.1574 B0.7846 
N2009 X-194.860 Y11.878 Z0.004 A189.3775 B0.7910 
N2010 X-194.846 Y11.552 Z-0.241 A188.5541 B0.7979 
N2011 X-194.832 Y11.228 Z-0.481 A187.6845 B0.8050 
N2012 X-194.818 Y10.906 Z-0.716 A186.7655 B0.8125 
N2013 X-194.804 Y10.586 Z-0.947 A185.7940 B0.8204 
N2014 X-194.790 Y10.269 Z-1.174 A184.7676 B0.8286 
N2015 X-194.777 Y9.953 Z-1.397 A183.6858 B0.8373 
N2016 X-194.763 Y9.640 Z-1.614 A182.5490 B0.8462 
N2017 X-194.750 Y9.328 Z-1.826 A181.3592 B0.8555 
N2018 X-194.738 Y9.018 Z-2.033 A180.1178 B0.8650 
N2019 X-194.725 Y8.709 Z-2.235 A178.8259 B0.8747 
N2020 X-194.712 Y8.402 Z-2.431 A177.4832 B0.8846 
N2021 X-194.700 Y8.096 Z-2.622 A176.0888 B0.8946 
N2022 X-194.687 Y7.792 Z-2.806 A174.6414 B0.9048 
N2023 X-194.675 Y7.488 Z-2.986 A173.1398 B0.9151 
N2024 X-194.663 Y7.184 Z-3.160 A171.5834 B0.9255 
N2025 X-194.651 Y6.882 Z-3.328 A169.9716 B0.9360 
N2026 X-194.639 Y6.579 Z-3.490 A168.3047 B0.9464 
N2027 X-194.628 Y6.276 Z-3.647 A166.5832 B0.9569 
N2028 X-194.616 Y5.973 Z-3.797 A164.8085 B0.9672 
N2029 X-194.605 Y5.669 Z-3.941 A162.9822 B0.9773 
N2030 X-194.593 Y5.364 Z-4.078 A161.1067 B0.9873 
