; PROGRAM NAME: B12345650
; ORDER       : B123456
; OPER. NAME  : Side Milling:155
; OPER. DESCR.: Side Milling/podciecie_wk
; OPER. TYPE  : sideMill
; GEO. OPTION : 1
; MACHINE     : HSTM_500_SIM840D_Py
;             : HSTM500 - HAMUEL: 5-axis milling machine - SIM840D Traori PP_Script
; CONTROL     : SINUMERIK 840D
; created:   2023-06-06 12:06:07.303831
;-------DODATKOWE DANE-------------------
; PROGRAMISTA : Mariusz Malec
; PARTID      : 306T001953P1010_-
;  ap         : 1.0
;  ae         : 1.0
;  lean_angle : 0.0
;  fin_offset : 0.0
;----------------------------------------
;RAPORT("TB123456","Side Milling:155")
N10 TRAFOOF
N11 D0
N12 G90 G94
N13 G0 G53 D0 Z550 B0
N14 STOPRE
M9 ; chlodziwo wyl
; --- Side Milling:155 - Side Milling/podciecie_wk ---
N16 ;ToolChange : concat=None ,current_tdmid=None, PP.tdmId=941119
N17 TRAFOOF
N18 G0 G53 D0 X-200 Y150 Z550 B0
N19 T="7741119"
;RAPORT("TB123456","ToolChangeStart 7741119")
N20 M6
;RAPORT("TB123456","ToolChangeEnd")
N21 STOPRE
N22 MSG(" TLID=941119 D=8.0 R=1.81 Ang=0.0 Len=103.0 ")
N23 ; (Preloading tool)
N24 T="7770356"
N25 S7161 M03
N26 STOPRE
N27 CYCLE832(0.01,1,1)
N28 G0 G53 A47.0000 B0.0000
N29 TRAORI
N30 G54 D1
N31 D1 
STOPRE
E_ZDARZ=300019
;ACS_FINISH_UNDERCUT=7741119
STOPRE
N32 ; DELTA A > 40.1
N33 TRAFOOF
N34 D1
N35 STOPRE
N36 G00 G54 Z283.000
N37 G01 A47.0000 F10000
N38 TRAORI
N39 G54 D1
N40 STOPRE
N41 TRANS 
N42 G00 X-152.164 Y-74.309 Z18.152 A47.0000 
N43 M342 ; chlodziwo woda
N44 X-152.164 Y-37.741 Z-15.948 
N45 G01 X-152.192 Y-35.148 Z-17.698 F537 
N46 X-152.272 Y-32.142 Z-18.562 
N47 X-152.398 Y-29.018 Z-18.456 
N48 X-152.557 Y-26.081 Z-17.389 
N49 ;NGE_2_1
N50 G41 X-152.733 Y-23.619 Z-15.466 
N51 X-152.741 Y-23.527 Z-15.368 F268 
N52 X-152.749 Y-23.435 Z-15.269 
N53 X-152.756 Y-23.343 Z-15.170 
N54 X-152.764 Y-23.251 Z-15.072 
N55 X-152.772 Y-23.159 Z-14.973 
N56 X-152.779 Y-23.067 Z-14.874 
N57 X-152.787 Y-22.975 Z-14.776 
N58 X-152.795 Y-22.883 Z-14.677 
N59 X-152.802 Y-22.791 Z-14.578 
N60 X-152.810 Y-22.699 Z-14.480 
N61 X-152.818 Y-22.607 Z-14.381 
N62 X-152.826 Y-22.515 Z-14.282 
N63 X-152.833 Y-22.423 Z-14.184 
N64 X-152.841 Y-22.331 Z-14.085 
N65 X-152.849 Y-22.239 Z-13.986 
N66 X-152.856 Y-22.147 Z-13.888 
N67 X-152.864 Y-22.055 Z-13.789 
N68 X-152.872 Y-21.963 Z-13.690 
N69 X-152.879 Y-21.871 Z-13.592 
N70 X-152.887 Y-21.779 Z-13.493 
N71 X-152.895 Y-21.687 Z-13.394 
N72 X-152.902 Y-21.595 Z-13.296 
N73 X-152.910 Y-21.503 Z-13.197 
N74 X-152.918 Y-21.411 Z-13.098 
N75 X-152.926 Y-21.319 Z-13.000 
N76 X-152.933 Y-21.227 Z-12.901 
N77 X-152.941 Y-21.135 Z-12.802 
N78 X-152.949 Y-21.043 Z-12.704 
N79 X-152.956 Y-20.951 Z-12.605 
N80 X-152.964 Y-20.859 Z-12.506 
N81 X-152.972 Y-20.766 Z-12.408 
N82 X-152.979 Y-20.674 Z-12.309 
N83 X-152.987 Y-20.582 Z-12.210 
N84 X-152.995 Y-20.490 Z-12.112 
N85 X-153.003 Y-20.398 Z-12.013 
N86 X-153.010 Y-20.306 Z-11.914 
N87 X-153.018 Y-20.214 Z-11.816 
N88 X-153.026 Y-20.122 Z-11.717 
N89 X-153.033 Y-20.030 Z-11.618 
N90 X-153.041 Y-19.938 Z-11.520 
N91 X-153.049 Y-19.846 Z-11.421 
N92 X-153.056 Y-19.754 Z-11.322 
N93 X-153.064 Y-19.662 Z-11.224 
N94 X-153.072 Y-19.570 Z-11.125 
N95 X-153.079 Y-19.478 Z-11.026 
N96 X-153.087 Y-19.386 Z-10.927 
N97 X-153.095 Y-19.294 Z-10.829 
N98 X-153.103 Y-19.202 Z-10.730 
N99 X-153.110 Y-19.110 Z-10.631 
N100 X-153.118 Y-19.018 Z-10.533 
N101 X-153.126 Y-18.926 Z-10.434 
N102 X-153.133 Y-18.834 Z-10.335 
N103 X-153.141 Y-18.742 Z-10.237 
N104 X-153.149 Y-18.650 Z-10.138 
N105 X-153.156 Y-18.558 Z-10.039 
N106 X-153.164 Y-18.466 Z-9.941 
N107 X-153.172 Y-18.374 Z-9.842 
N108 X-153.180 Y-18.282 Z-9.743 
N109 X-153.187 Y-18.190 Z-9.645 
N110 X-153.195 Y-18.098 Z-9.546 
N111 X-153.203 Y-18.006 Z-9.447 
N112 X-153.210 Y-17.914 Z-9.349 
N113 X-153.218 Y-17.822 Z-9.250 
N114 X-153.226 Y-17.730 Z-9.151 
N115 X-153.233 Y-17.638 Z-9.053 
N116 X-153.241 Y-17.546 Z-8.954 
N117 X-153.249 Y-17.454 Z-8.855 
N118 X-153.256 Y-17.362 Z-8.757 
N119 X-153.264 Y-17.270 Z-8.658 
N120 X-153.272 Y-17.178 Z-8.559 
N121 X-153.280 Y-17.086 Z-8.461 
N122 X-153.287 Y-16.994 Z-8.362 
N123 X-153.295 Y-16.902 Z-8.263 
N124 X-153.303 Y-16.810 Z-8.165 
N125 X-153.310 Y-16.717 Z-8.065 F281 
N126 X-153.319 Y-16.619 Z-7.960 F295 
N127 X-153.327 Y-16.517 Z-7.851 F308 
N128 X-153.336 Y-16.411 Z-7.736 F322 
N129 X-153.345 Y-16.299 Z-7.617 F335 
N130 X-153.355 Y-16.184 Z-7.493 F349 
N131 X-153.365 Y-16.063 Z-7.364 F362 
N132 X-153.376 Y-15.938 Z-7.230 F375 
N133 X-153.386 Y-15.809 Z-7.091 F389 
N134 X-153.398 Y-15.675 Z-6.948 F402 
N135 X-153.409 Y-15.537 Z-6.799 F416 
N136 X-153.421 Y-15.394 Z-6.646 F429 
N137 X-153.433 Y-15.246 Z-6.488 F443 
N138 X-153.446 Y-15.094 Z-6.325 F456 
N139 X-153.459 Y-14.938 Z-6.157 F469 
N140 X-153.473 Y-14.776 Z-5.984 F483 
N141 X-153.487 Y-14.611 Z-5.806 F496 
N142 X-153.501 Y-14.440 Z-5.624 F510 
N143 X-153.515 Y-14.266 Z-5.436 F523 
N144 X-153.530 Y-14.086 Z-5.244 F537 
N145 X-153.546 Y-13.903 Z-5.047 
N146 X-153.561 Y-13.719 Z-4.850 
N147 X-153.576 Y-13.535 Z-4.653 
N148 X-153.591 Y-13.351 Z-4.456 
N149 X-153.605 Y-13.168 Z-4.259 
N150 X-153.619 Y-12.984 Z-4.062 
N151 X-153.633 Y-12.800 Z-3.865 
N152 X-153.647 Y-12.616 Z-3.667 
N153 X-153.660 Y-12.432 Z-3.470 
N154 X-153.674 Y-12.249 Z-3.273 
N155 X-153.687 Y-12.065 Z-3.076 
N156 X-153.699 Y-11.881 Z-2.879 
N157 X-153.712 Y-11.697 Z-2.682 
N158 X-153.724 Y-11.513 Z-2.485 
N159 X-153.736 Y-11.329 Z-2.287 
N160 X-153.747 Y-11.145 Z-2.090 
N161 X-153.759 Y-10.962 Z-1.893 
N162 X-153.770 Y-10.778 Z-1.696 
N163 X-153.781 Y-10.594 Z-1.499 
N164 X-153.791 Y-10.410 Z-1.301 
N165 X-153.802 Y-10.226 Z-1.104 
N166 X-153.812 Y-10.042 Z-0.907 
N167 X-153.822 Y-9.858 Z-0.710 
N168 X-153.831 Y-9.674 Z-0.513 
N169 X-153.841 Y-9.490 Z-0.315 
N170 X-153.850 Y-9.306 Z-0.118 
N171 X-153.859 Y-9.122 Z0.079 
N172 X-153.867 Y-8.938 Z0.276 
N173 X-153.876 Y-8.755 Z0.474 
N174 X-153.884 Y-8.571 Z0.671 
N175 X-153.892 Y-8.387 Z0.868 
N176 X-153.899 Y-8.203 Z1.066 
N177 X-153.907 Y-8.019 Z1.263 
N178 X-153.914 Y-7.835 Z1.460 
N179 X-153.921 Y-7.651 Z1.657 
N180 X-153.927 Y-7.467 Z1.855 
N181 X-153.934 Y-7.283 Z2.052 
N182 X-153.940 Y-7.099 Z2.249 
N183 X-153.945 Y-6.915 Z2.447 
N184 X-153.951 Y-6.731 Z2.644 
N185 X-153.956 Y-6.547 Z2.841 
N186 X-153.961 Y-6.363 Z3.039 
N187 X-153.966 Y-6.179 Z3.236 
N188 X-153.971 Y-5.995 Z3.433 
N189 X-153.975 Y-5.811 Z3.631 
N190 X-153.979 Y-5.627 Z3.828 
N191 X-153.983 Y-5.443 Z4.025 
N192 X-153.986 Y-5.259 Z4.223 
N193 X-153.990 Y-5.075 Z4.420 
N194 X-153.993 Y-4.891 Z4.617 
N195 X-153.996 Y-4.707 Z4.815 
N196 X-153.998 Y-4.522 Z5.012 
N197 X-154.000 Y-4.338 Z5.209 
N198 X-154.002 Y-4.154 Z5.407 
N199 X-154.004 Y-3.970 Z5.604 
N200 X-154.006 Y-3.786 Z5.801 
N201 X-154.007 Y-3.602 Z5.999 
N202 X-154.008 Y-3.418 Z6.196 
N203 X-154.009 Y-3.234 Z6.394 
N204 X-154.009 Y-3.050 Z6.591 
N205 X-154.009 Y-2.866 Z6.788 
N206 X-154.009 Y-2.682 Z6.986 
N207 X-154.009 Y-2.498 Z7.183 
N208 X-154.009 Y-2.314 Z7.380 
N209 X-154.008 Y-2.130 Z7.578 
N210 X-154.007 Y-1.946 Z7.775 
N211 X-154.006 Y-1.762 Z7.972 
N212 X-154.004 Y-1.578 Z8.170 
N213 X-154.002 Y-1.394 Z8.367 
N214 X-154.000 Y-1.210 Z8.564 
N215 X-153.998 Y-1.026 Z8.762 
N216 X-153.995 Y-0.842 Z8.959 
N217 X-153.993 Y-0.658 Z9.157 
N218 X-153.990 Y-0.474 Z9.354 
N219 X-153.986 Y-0.290 Z9.551 
N220 X-153.983 Y-0.106 Z9.749 
N221 X-153.979 Y0.078 Z9.946 
N222 X-153.975 Y0.262 Z10.143 
N223 X-153.971 Y0.447 Z10.341 
N224 X-153.966 Y0.628 Z10.536 
N225 X-153.962 Y0.810 Z10.731 
N226 X-153.958 Y0.992 Z10.926 
N227 X-153.954 Y1.174 Z11.121 
N228 X-153.949 Y1.356 Z11.316 
N229 X-153.945 Y1.538 Z11.511 
N230 X-153.941 Y1.719 Z11.706 
N231 X-153.937 Y1.901 Z11.901 
N232 X-153.933 Y2.083 Z12.096 
N233 X-153.928 Y2.265 Z12.291 
N234 X-153.924 Y2.447 Z12.486 
N235 X-153.920 Y2.629 Z12.681 
N236 X-153.916 Y2.810 Z12.876 
N237 X-153.911 Y2.992 Z13.071 
N238 X-153.907 Y3.174 Z13.266 
N239 G40 X-153.749 Y9.993 Z20.578 F537
N240 X-153.749 Y9.993 Z20.578 
N241 G00 X-153.749 Y-26.574 Z54.678 
;RAPORT("TB123456","Side Milling:155 End")
;trailer : concat=None
; points cnt = 194
N243 MSG (" --- GROUPED OF SUBPROGRAM --- ")
N244 FGROUP()
N245 TRAFOOF
; PROGRAM NAME: B12345650
; ORDER       : B123456
; OPER. NAME  : Side Milling:156
; OPER. DESCR.: Undercut finish milling NGA
; OPER. TYPE  : sideMill
; GEO. OPTION : 1
; MACHINE     : HSTM_500_SIM840D_Py
;             : HSTM500 - HAMUEL: 5-axis milling machine - SIM840D Traori PP_Script
; CONTROL     : SINUMERIK 840D
; created:   2023-06-06 12:06:12.855386
;-------DODATKOWE DANE-------------------
; PROGRAMISTA : Mariusz Malec
; PARTID      : 306T001953P1010_-
;  ap         : 1.0
;  ae         : 1.0
;  lean_angle : 0.0
;  fin_offset : 0.0
;----------------------------------------
;RAPORT("TB123456","Side Milling:156")
N10 TRAFOOF
N11 D0
N12 G90 G94
N13 G0 G53 D0 Z550 B0
N14 STOPRE
M9 ; chlodziwo wyl
; --- Side Milling:156 - Undercut finish milling NGA ---
N16 ;ToolChange : concat=None ,current_tdmid=None, PP.tdmId=941119
N17 TRAFOOF
N18 G0 G53 D0 Z550 B0
N19 STOPRE
N20 MSG(" TLID=941119 D=8.0 R=1.81 Ang=0.0 Len=103.0 ")
N21 S7161 M03
N22 STOPRE
N23 CYCLE832(0.01,1,1)
N24 G0 G53 A227.0000 B-0.0000
N25 TRAORI
N26 G54 D2
N27 D2 
STOPRE
E_ZDARZ=300019
;ACS_FINISH_UNDERCUT=7741119
STOPRE
N28 ; DELTA A > 40.1
N29 TRAFOOF
N30 D2
N31 STOPRE
N32 G00 G54 Z283.000
N33 G01 A227.0000 F10000
N34 TRAORI
N35 G54 D2
N36 STOPRE
N37 TRANS 
N38 G00 X-152.267 Y76.866 Z-12.989 A227.0000 
N39 M342 ; chlodziwo woda
N40 X-152.267 Y40.298 Z21.111 
N41 G01 X-152.294 Y37.705 Z22.861 F537 
N42 X-152.371 Y34.699 Z23.725 
N43 X-152.491 Y31.574 Z23.618 
N44 X-152.643 Y28.637 Z22.551 
N45 ;NGA_2_1
N46 G41 X-152.811 Y26.175 Z20.628 
N47 X-152.819 Y26.083 Z20.530 F268 
N48 X-152.826 Y25.990 Z20.431 
N49 X-152.833 Y25.898 Z20.332 
N50 X-152.841 Y25.806 Z20.234 
N51 X-152.848 Y25.714 Z20.135 
N52 X-152.855 Y25.622 Z20.036 
N53 X-152.863 Y25.530 Z19.938 
N54 X-152.870 Y25.438 Z19.839 
N55 X-152.877 Y25.346 Z19.740 
N56 X-152.885 Y25.254 Z19.642 
N57 X-152.892 Y25.162 Z19.543 
N58 X-152.899 Y25.070 Z19.444 
N59 X-152.907 Y24.978 Z19.346 
N60 X-152.914 Y24.886 Z19.247 
N61 X-152.922 Y24.794 Z19.148 
N62 X-152.929 Y24.702 Z19.049 
N63 X-152.936 Y24.610 Z18.951 
N64 X-152.944 Y24.518 Z18.852 
N65 X-152.951 Y24.426 Z18.753 
N66 X-152.958 Y24.334 Z18.655 
N67 X-152.966 Y24.242 Z18.556 
N68 X-152.973 Y24.150 Z18.457 
N69 X-152.980 Y24.058 Z18.359 
N70 X-152.988 Y23.966 Z18.260 
N71 X-152.995 Y23.874 Z18.161 
N72 X-153.002 Y23.782 Z18.063 
N73 X-153.010 Y23.690 Z17.964 
N74 X-153.017 Y23.598 Z17.865 
N75 X-153.024 Y23.506 Z17.767 
N76 X-153.032 Y23.414 Z17.668 
N77 X-153.039 Y23.322 Z17.569 
N78 X-153.047 Y23.230 Z17.471 
N79 X-153.054 Y23.138 Z17.372 
N80 X-153.061 Y23.046 Z17.273 
N81 X-153.069 Y22.954 Z17.174 
N82 X-153.076 Y22.862 Z17.076 
N83 X-153.083 Y22.770 Z16.977 
N84 X-153.091 Y22.678 Z16.878 
N85 X-153.098 Y22.586 Z16.780 
N86 X-153.105 Y22.494 Z16.681 
N87 X-153.113 Y22.402 Z16.582 
N88 X-153.120 Y22.309 Z16.484 
N89 X-153.127 Y22.217 Z16.385 
N90 X-153.135 Y22.125 Z16.286 
N91 X-153.142 Y22.033 Z16.188 
N92 X-153.150 Y21.941 Z16.089 
N93 X-153.157 Y21.849 Z15.990 
N94 X-153.164 Y21.757 Z15.892 
N95 X-153.172 Y21.665 Z15.793 
N96 X-153.179 Y21.573 Z15.694 
N97 X-153.186 Y21.481 Z15.596 
N98 X-153.194 Y21.389 Z15.497 
N99 X-153.201 Y21.297 Z15.398 
N100 X-153.208 Y21.205 Z15.299 
N101 X-153.216 Y21.113 Z15.201 
N102 X-153.223 Y21.021 Z15.102 
N103 X-153.230 Y20.929 Z15.003 
N104 X-153.238 Y20.837 Z14.905 
N105 X-153.245 Y20.745 Z14.806 
N106 X-153.252 Y20.653 Z14.707 
N107 X-153.260 Y20.561 Z14.609 
N108 X-153.267 Y20.469 Z14.510 
N109 X-153.275 Y20.377 Z14.411 
N110 X-153.282 Y20.285 Z14.313 
N111 X-153.289 Y20.193 Z14.214 
N112 X-153.297 Y20.101 Z14.115 
N113 X-153.304 Y20.009 Z14.017 
N114 X-153.311 Y19.917 Z13.918 
N115 X-153.319 Y19.825 Z13.819 
N116 X-153.326 Y19.733 Z13.720 
N117 X-153.333 Y19.641 Z13.622 
N118 X-153.341 Y19.549 Z13.523 
N119 X-153.348 Y19.457 Z13.424 
N120 X-153.355 Y19.365 Z13.326 
N121 X-153.363 Y19.272 Z13.226 F281 
N122 X-153.371 Y19.174 Z13.121 F295 
N123 X-153.379 Y19.072 Z13.012 F308 
N124 X-153.387 Y18.965 Z12.897 F322 
N125 X-153.396 Y18.854 Z12.778 F335 
N126 X-153.406 Y18.738 Z12.654 F349 
N127 X-153.415 Y18.618 Z12.525 F362 
N128 X-153.425 Y18.493 Z12.391 F375 
N129 X-153.435 Y18.364 Z12.252 F389 
N130 X-153.446 Y18.230 Z12.109 F402 
N131 X-153.457 Y18.091 Z11.960 F416 
N132 X-153.469 Y17.948 Z11.807 F429 
N133 X-153.480 Y17.801 Z11.649 F443 
N134 X-153.493 Y17.649 Z11.485 F456 
N135 X-153.505 Y17.492 Z11.318 F469 
N136 X-153.518 Y17.331 Z11.145 F483 
N137 X-153.531 Y17.165 Z10.967 F496 
N138 X-153.545 Y16.995 Z10.784 F510 
N139 X-153.559 Y16.820 Z10.597 F523 
N140 X-153.573 Y16.641 Z10.405 F537 
N141 X-153.588 Y16.457 Z10.208 
N142 X-153.602 Y16.273 Z10.011 
N143 X-153.617 Y16.089 Z9.814 
N144 X-153.631 Y15.906 Z9.616 
N145 X-153.644 Y15.722 Z9.419 
N146 X-153.658 Y15.538 Z9.222 
N147 X-153.671 Y15.354 Z9.025 
N148 X-153.684 Y15.171 Z8.828 
N149 X-153.697 Y14.987 Z8.631 
N150 X-153.709 Y14.803 Z8.434 
N151 X-153.721 Y14.619 Z8.237 
N152 X-153.733 Y14.435 Z8.040 
N153 X-153.745 Y14.251 Z7.842 
N154 X-153.756 Y14.068 Z7.645 
N155 X-153.768 Y13.884 Z7.448 
N156 X-153.779 Y13.700 Z7.251 
N157 X-153.789 Y13.516 Z7.054 
N158 X-153.800 Y13.332 Z6.857 
N159 X-153.810 Y13.148 Z6.659 
N160 X-153.820 Y12.964 Z6.462 
N161 X-153.830 Y12.780 Z6.265 
N162 X-153.839 Y12.597 Z6.068 
N163 X-153.848 Y12.413 Z5.871 
N164 X-153.857 Y12.229 Z5.673 
N165 X-153.866 Y12.045 Z5.476 
N166 X-153.874 Y11.861 Z5.279 
N167 X-153.882 Y11.677 Z5.082 
N168 X-153.890 Y11.493 Z4.884 
N169 X-153.898 Y11.309 Z4.687 
N170 X-153.905 Y11.125 Z4.490 
N171 X-153.912 Y10.941 Z4.293 
N172 X-153.919 Y10.757 Z4.095 
N173 X-153.926 Y10.573 Z3.898 
N174 X-153.932 Y10.389 Z3.701 
N175 X-153.938 Y10.205 Z3.504 
N176 X-153.944 Y10.021 Z3.306 
N177 X-153.950 Y9.837 Z3.109 
N178 X-153.955 Y9.653 Z2.912 
N179 X-153.960 Y9.469 Z2.714 
N180 X-153.965 Y9.285 Z2.517 
N181 X-153.970 Y9.101 Z2.320 
N182 X-153.974 Y8.917 Z2.123 
N183 X-153.978 Y8.733 Z1.925 
N184 X-153.982 Y8.549 Z1.728 
N185 X-153.986 Y8.366 Z1.531 
N186 X-153.989 Y8.182 Z1.333 
N187 X-153.992 Y7.997 Z1.136 
N188 X-153.995 Y7.813 Z0.939 
N189 X-153.998 Y7.629 Z0.741 
N190 X-154.000 Y7.445 Z0.544 
N191 X-154.002 Y7.261 Z0.347 
N192 X-154.004 Y7.077 Z0.149 
N193 X-154.005 Y6.893 Z-0.048 
N194 X-154.007 Y6.709 Z-0.245 
N195 X-154.008 Y6.525 Z-0.443 
N196 X-154.009 Y6.341 Z-0.640 
N197 X-154.009 Y6.157 Z-0.837 
N198 X-154.009 Y5.973 Z-1.035 
N199 X-154.009 Y5.789 Z-1.232 
N200 X-154.009 Y5.605 Z-1.429 
N201 X-154.009 Y5.421 Z-1.627 
N202 X-154.008 Y5.237 Z-1.824 
N203 X-154.007 Y5.053 Z-2.021 
N204 X-154.006 Y4.869 Z-2.219 
N205 X-154.004 Y4.685 Z-2.416 
N206 X-154.003 Y4.501 Z-2.613 
N207 X-154.001 Y4.317 Z-2.811 
N208 X-153.998 Y4.133 Z-3.008 
N209 X-153.996 Y3.949 Z-3.205 
N210 X-153.993 Y3.765 Z-3.403 
N211 X-153.990 Y3.581 Z-3.600 
N212 X-153.987 Y3.397 Z-3.797 
N213 X-153.983 Y3.213 Z-3.995 
N214 X-153.980 Y3.029 Z-4.192 
N215 X-153.976 Y2.845 Z-4.389 
N216 X-153.971 Y2.661 Z-4.586 
N217 X-153.967 Y2.477 Z-4.784 
N218 X-153.962 Y2.293 Z-4.981 
N219 X-153.957 Y2.109 Z-5.178 
N220 X-153.952 Y1.927 Z-5.373 
N221 X-153.947 Y1.746 Z-5.568 
N222 X-153.942 Y1.564 Z-5.763 
N223 X-153.937 Y1.382 Z-5.958 
N224 X-153.933 Y1.200 Z-6.153 
N225 X-153.928 Y1.018 Z-6.348 
N226 X-153.923 Y0.836 Z-6.543 
N227 X-153.918 Y0.655 Z-6.738 
N228 X-153.913 Y0.473 Z-6.933 
N229 X-153.908 Y0.291 Z-7.128 
N230 X-153.903 Y0.109 Z-7.323 
N231 X-153.898 Y-0.073 Z-7.518 
N232 X-153.893 Y-0.255 Z-7.713 
N233 X-153.888 Y-0.436 Z-7.908 
N234 X-153.883 Y-0.618 Z-8.103 
N235 G40 X-153.699 Y-7.437 Z-15.416 F537
N236 X-153.699 Y-7.437 Z-15.416 
N237 G00 X-153.699 Y29.131 Z-49.515 
;RAPORT("TB123456","Side Milling:156 End")
;trailer : concat=None
; points cnt = 194
N239 M9 ; chlodziwo wyl.
N240 MSG (" --- KONIEC PODPROGRAMU --- ")
N241 FGROUP()
N242 TRAFOOF
N243 STOPRE
N244 G0 G53 D0 Z550.0 M9 M5
N245 G0 G53 Y150 A0 B0
N246 M17
