; PROGRAM NAME: B12345613
; ORDER       : B123456
; OPER. NAME  : Spiral Rough Airfoil:104
; OPER. DESCR.: spiral roughing airfoil/pioro_zgr
; OPER. TYPE  : rouAirfoil
; GEO. OPTION : 6
; MACHINE     : HSTM_500_SIM840D_Py
;             : HSTM500 - HAMUEL: 5-axis milling machine - SIM840D Traori PP_Script
; CONTROL     : SINUMERIK 840D
; created:   2023-06-06 12:03:27.927901
;-------DODATKOWE DANE-------------------
; PROGRAMISTA : Mariusz Malec
; PARTID      : 306T001953P1010_-
;  ap         : 1.5
;  ae         : 13.0
;  lean_angle : 1.0
;  airf_offset: 1.0
;----------------------------------------
;RAPORT("TB123456","Spiral Rough Airfoil:104")
N10 TRAFOOF
N11 D0
N12 G90 G94
N13 G0 G53 D0 Z550 B0
N14 STOPRE
M9 ; chlodziwo wyl
; --- Spiral Rough Airfoil:104 - spiral roughing airfoil/pioro_zgr ---
N16 ;ToolChange : concat=None ,current_tdmid=None, PP.tdmId=940969
N17 TRAFOOF
N18 G0 G53 D0 X-200 Y150 Z550 B0
N19 T="7740969"
;RAPORT("TB123456","ToolChangeStart 7740969")
N20 M6
;RAPORT("TB123456","ToolChangeEnd")
N21 STOPRE
N22 MSG(" TLID=940969 D=25.0 R=5.0 Ang=0.0 Len=95.0 ")
N23 ; (Preloading tool)
N24 T="7741292"
N25 S2546 M03
N26 STOPRE
N27 CYCLE832(0.1,3,1)
N28 G0 G53 A181.0711 B-0.0000
N29 TRAORI
N30 G54 D1
N31 D1 
N32 ; DELTA A > 40.1
N33 TRAFOOF
N34 D1
N35 STOPRE
N36 G00 G54 Z291.000
N37 G01 A181.0711 F10000
N38 TRAORI
N39 G54 D1
N40 STOPRE
N41 TRANS 
N42 G00 X-194.327 Y-44.139 Z-73.433 A181.0711 
N43 M348 ; chlodziwo mgla
N44 X-194.327 Y-45.074 Z-23.442 
N45 G01 X-194.327 Y-44.588 Z-20.351 F1909 
N46 X-194.327 Y-43.171 Z-17.562 
N47 X-194.327 Y-40.961 Z-15.347 
N48 X-194.327 Y-38.176 Z-13.923 
N49 X-194.327 Y-35.086 Z-13.430 
N50 X-194.327 Y-29.650 Z-13.428 A181.1174 
N51 X-194.327 Y-24.302 Z-13.417 A181.1098 
N52 X-194.327 Y-19.123 Z-13.411 A181.1053 
N53 X-194.327 Y-14.182 Z-13.407 
N54 X-194.327 Y-9.545 Z-13.403 
N55 X-194.327 Y-5.262 Z-13.399 A181.1061 
N56 X-194.327 Y-1.366 Z-13.396 A181.1113 
N57 X-194.327 Y2.125 Z-13.395 A181.1245 
N58 X-194.327 Y5.205 Z-13.394 A181.1405 
N59 X-194.327 Y7.886 Z-13.392 A181.1466 
N60 X-194.327 Y10.190 Z-13.387 A181.1053 
N61 X-194.327 Y12.146 Z-13.389 
N62 X-194.327 Y13.811 Z-13.391 
N63 X-194.327 Y15.209 Z-13.465 A181.7029 
N64 X-194.327 Y16.402 Z-13.700 A183.6984 
N65 X-194.327 Y17.497 Z-14.392 A189.6393 
N66 X-194.327 Y18.922 Z-16.036 A204.4652 
N67 X-194.327 Y21.248 Z-17.938 A226.3350 
N68 X-194.327 Y23.946 Z-18.811 A247.0318 
N69 X-194.327 Y25.844 Z-18.589 A260.3238 
N70 X-194.327 Y26.775 Z-17.921 A266.6800 
N71 X-194.327 Y27.209 Z-17.119 A269.6759 
N72 X-194.327 Y27.387 Z-16.238 A270.9533 
N73 X-194.327 Y27.440 Z-15.281 A271.3834 
N74 X-194.327 Y27.443 Z-14.243 A271.4569 
N75 X-194.327 Y27.432 Z-13.122 A271.4302 
N76 X-194.327 Y27.423 Z-11.926 A271.4115 
N77 X-194.327 Y27.417 Z-10.665 
N78 X-194.327 Y27.411 Z-9.352 
N79 X-194.327 Y27.406 Z-8.010 A271.4161 
N80 X-194.327 Y27.401 Z-6.661 A271.4282 
N81 X-194.327 Y27.397 Z-5.327 A271.4351 
N82 X-194.327 Y27.392 Z-4.029 A271.4331 
N83 X-194.327 Y27.385 Z-2.786 A271.4119 
N84 X-194.327 Y27.382 Z-1.615 A271.4115 
N85 X-194.327 Y27.380 Z-0.520 
N86 X-194.327 Y27.379 Z0.501 A271.4235 
N87 X-194.327 Y27.424 Z1.433 A271.8129 
N88 X-194.327 Y27.554 Z2.294 A272.9328 
N89 X-194.327 Y27.900 Z3.110 A275.8760 
N90 X-194.327 Y28.758 Z4.003 A283.2368 
N91 X-194.327 Y30.385 Z5.382 A298.2985 
N92 X-194.327 Y32.153 Z7.736 A319.8803 
N93 X-194.327 Y32.885 Z10.541 A341.1006 
N94 X-194.327 Y32.455 Z12.333 A353.6251 
N95 X-194.327 Y31.594 Z13.063 A358.6210 
N96 X-194.327 Y30.560 Z13.337 A0.5146 
N97 X-194.327 Y29.367 Z13.414 A1.0702 
N98 X-194.327 Y27.994 Z13.420 A1.1276 
N99 X-194.327 Y26.421 Z13.412 A1.0735 
N100 X-194.327 Y24.635 Z13.413 A1.0630 
N101 X-194.327 Y22.630 Z13.417 
N102 X-194.327 Y20.413 Z13.422 
N103 X-194.327 Y18.001 Z13.427 
N104 X-194.327 Y15.421 Z13.433 A1.0638 
N105 X-194.327 Y12.709 Z13.439 A1.0638 
N106 X-194.327 Y9.909 Z13.445 A1.0635 
N107 X-194.327 Y7.067 Z13.452 A1.0631 
N108 X-194.327 Y4.235 Z13.458 A1.0630 
N109 X-194.327 Y1.463 Z13.464 A1.0636 
N110 X-194.327 Y-1.204 Z13.470 A1.0665 
N111 X-194.327 Y-3.724 Z13.476 A1.0741 
N112 X-194.327 Y-6.064 Z13.483 A1.0866 
N113 X-194.327 Y-8.202 Z13.489 A1.0989 
N114 X-194.327 Y-10.124 Z13.494 A1.0985 
N115 X-194.327 Y-11.828 Z13.495 A1.0630 
N116 X-194.327 Y-13.320 Z13.502 
N117 X-194.327 Y-14.634 Z13.508 
N118 X-194.327 Y-15.771 Z13.611 A1.8609 
N119 X-194.327 Y-16.776 Z13.922 A4.4448 
N120 X-194.327 Y-17.757 Z14.700 A11.0887 
N121 X-194.327 Y-19.175 Z16.435 A26.7783 
N122 X-194.327 Y-21.606 Z18.358 A49.5701 
N123 X-194.327 Y-24.343 Z19.128 A70.4503 
N124 X-194.327 Y-26.094 Z18.814 A82.7717 
N125 X-194.327 Y-26.851 Z18.127 A87.9969 
N126 X-194.327 Y-27.139 Z17.332 A89.9740 
N127 X-194.327 Y-27.245 Z16.461 A90.7087 
N128 X-194.327 Y-27.281 Z15.509 A90.9624 
N129 X-194.327 Y-27.290 Z14.470 A91.0258 
N130 X-194.327 Y-27.289 Z13.346 A91.0204 
N131 X-194.327 Y-27.287 Z12.143 A91.0000 
N132 X-194.327 Y-27.289 Z10.873 A90.9982 
N133 X-194.327 Y-27.292 Z9.552 
N134 X-194.327 Y-27.295 Z8.198 
N135 X-194.327 Y-27.300 Z6.837 A91.0078 
N136 X-194.327 Y-27.305 Z5.489 A91.0205 
N137 X-194.327 Y-27.309 Z4.178 A91.0291 
N138 X-194.327 Y-27.312 Z2.923 A91.0245 
N139 X-194.327 Y-27.313 Z1.738 A90.9982 
N140 X-194.327 Y-27.318 Z0.636 
N141 X-194.327 Y-27.323 Z-0.391 
N142 X-194.327 Y-27.376 Z-1.335 A91.3929 
N143 X-194.327 Y-27.540 Z-2.202 A92.7235 
N144 X-194.327 Y-27.920 Z-3.027 A95.9178 
N145 X-194.327 Y-28.743 Z-3.916 A103.0114 
N146 X-194.327 Y-30.320 Z-5.259 A117.5814 
N147 X-194.327 Y-32.018 Z-7.472 A137.9240 
N148 X-194.327 Y-32.807 Z-10.137 A158.2293 
N149 X-194.327 Y-32.502 Z-12.108 A172.0339 
N150 X-194.327 Y-31.681 Z-13.018 A178.3144 
N151 X-194.327 Y-30.666 Z-13.322 A180.4233 
N152 X-194.327 Y-29.495 Z-13.407 A181.0326 
N153 X-194.327 Y-28.148 Z-13.424 A181.1817 
N154 X-194.327 Y-26.603 Z-13.422 A181.2056 
N155 X-194.327 Y-24.849 Z-13.415 A181.2005 
N156 X-194.327 Y-22.882 Z-13.408 A181.1959 
N157 X-194.327 Y-20.705 Z-13.402 
N158 X-194.327 Y-18.335 Z-13.395 
N159 X-194.327 Y-15.797 Z-13.388 
N160 X-194.327 Y-13.124 Z-13.380 
N161 X-194.327 Y-10.359 Z-13.372 A181.1960 
N162 X-194.327 Y-7.548 Z-13.363 A181.1980 
N163 X-194.327 Y-4.741 Z-13.355 A181.2013 
N164 X-194.327 Y-1.986 Z-13.346 A181.2046 
N165 X-194.327 Y0.669 Z-13.337 A181.2056 
N166 X-194.327 Y3.187 Z-13.329 A181.2014 
N167 X-194.327 Y5.532 Z-13.321 A181.1959 
N168 X-194.327 Y7.684 Z-13.315 
N169 X-194.327 Y9.629 Z-13.310 A181.2061 
N170 X-194.327 Y11.362 Z-13.319 A181.3250 
N171 X-194.327 Y12.890 Z-13.353 A181.6749 
N172 X-194.327 Y14.228 Z-13.441 A182.5166 
N173 X-194.327 Y15.403 Z-13.633 A184.3236 
N174 X-194.327 Y16.469 Z-14.042 A188.0939 
N175 X-194.327 Y17.569 Z-14.904 A196.0165 
N176 X-194.327 Y19.052 Z-16.324 A210.1399 
N177 X-194.327 Y21.130 Z-17.693 A228.0143 
N178 X-194.327 Y23.376 Z-18.318 A244.7314 
N179 X-194.327 Y25.120 Z-18.159 A256.7441 
N180 X-194.327 Y26.124 Z-17.572 A263.3914 
N181 X-194.327 Y26.682 Z-16.820 A267.0351 
N182 X-194.327 Y27.001 Z-15.974 A269.1253 
N183 X-194.327 Y27.183 Z-15.047 A270.3546 
N184 X-194.327 Y27.282 Z-14.041 A271.0719 
N185 X-194.327 Y27.329 Z-12.960 A271.4637 
N186 X-194.327 Y27.342 Z-11.809 A271.6478 
N187 X-194.327 Y27.336 Z-10.600 A271.7079 
N188 X-194.327 Y27.321 Z-9.346 A271.7105 
N189 X-194.327 Y27.304 Z-8.066 A271.6950 
N190 X-194.327 Y27.289 Z-6.778 A271.6883 
N191 X-194.327 Y27.276 Z-5.502 
N192 X-194.327 Y27.264 Z-4.255 
N193 X-194.327 Y27.253 Z-3.053 A271.7066 
N194 X-194.327 Y27.261 Z-1.915 A271.8706 
N195 X-194.327 Y27.297 Z-0.846 A272.2862 
N196 X-194.327 Y27.382 Z0.149 A273.1515 
N197 X-194.327 Y27.545 Z1.079 A274.7296 
N198 X-194.327 Y27.826 Z1.962 A277.4201 
N199 X-194.327 Y28.309 Z2.850 A282.0123 
N200 X-194.327 Y29.154 Z3.881 A290.1667 
N201 X-194.327 Y30.449 Z5.372 A303.8817 
N202 X-194.327 Y31.676 Z7.527 A321.6984 
N203 X-194.327 Y32.127 Z9.908 A339.0084 
N204 X-194.327 Y31.700 Z11.588 A350.3805 
N205 X-194.327 Y30.842 Z12.435 A355.8873 
N206 X-194.327 Y29.780 Z12.860 A358.5894 
N207 X-194.327 Y28.549 Z13.075 A359.9463 
N208 X-194.327 Y27.139 Z13.180 A0.6144 
N209 X-194.327 Y25.537 Z13.225 A0.9078 
N210 X-194.327 Y23.735 Z13.239 A0.9998 
N211 X-194.327 Y21.731 Z13.240 A1.0007 
N212 X-194.327 Y19.534 Z13.240 A0.9789 
N213 X-194.327 Y17.162 Z13.244 A0.9759 
N214 X-194.327 Y14.642 Z13.250 
N215 X-194.327 Y12.007 Z13.256 
N216 X-194.327 Y9.302 Z13.263 
N217 X-194.327 Y6.571 Z13.271 A0.9784 
N218 X-194.327 Y3.862 Z13.279 A0.9849 
N219 X-194.327 Y1.221 Z13.288 A0.9961 
N220 X-194.327 Y-1.311 Z13.297 A1.0063 
N221 X-194.327 Y-3.697 Z13.305 A1.0057 
N222 X-194.327 Y-5.910 Z13.310 A0.9759 
N223 X-194.327 Y-7.930 Z13.321 
N224 X-194.327 Y-9.758 Z13.331 
N225 X-194.327 Y-11.394 Z13.360 A1.1544 
N226 X-194.327 Y-12.834 Z13.452 A1.9152 
N227 X-194.327 Y-14.106 Z13.644 A3.6290 
N228 X-194.327 Y-15.248 Z14.025 A7.1197 
N229 X-194.327 Y-16.364 Z14.727 A13.6845 
N230 X-194.327 Y-17.661 Z15.822 A24.5491 
N231 X-194.327 Y-19.329 Z17.018 A38.7626 
N232 X-194.327 Y-21.215 Z17.804 A53.0627 
N233 X-194.327 Y-22.994 Z18.014 A65.3600 
N234 X-194.327 Y-24.406 Z17.744 A74.6262 
N235 X-194.327 Y-25.406 Z17.177 A81.0293 
N236 X-194.327 Y-26.079 Z16.442 A85.3258 
N237 X-194.327 Y-26.515 Z15.597 A88.1488 
N238 X-194.327 Y-26.770 Z14.669 A89.8419 
N239 X-194.327 Y-26.894 Z13.667 A90.6916 
N240 X-194.327 Y-26.939 Z12.600 A91.0091 
N241 X-194.327 Y-26.946 Z11.474 A91.0644 
N242 X-194.327 Y-26.944 Z10.301 A91.0455 
N243 X-194.327 Y-26.943 Z9.094 A91.0287 
N244 X-194.327 Y-26.946 Z7.870 A91.0277 
N245 X-194.327 Y-26.949 Z6.645 A91.0142 
N246 X-194.327 Y-26.955 Z5.439 A91.0139 
N247 X-194.327 Y-26.962 Z4.262 
N248 X-194.327 Y-26.969 Z3.118 
N249 X-194.327 Y-27.021 Z2.034 A91.3986 
N250 X-194.327 Y-27.138 Z1.012 A92.3742 
N251 X-194.327 Y-27.349 Z0.049 A94.2407 
N252 X-194.327 Y-27.701 Z-0.876 A97.4550 
N253 X-194.327 Y-28.253 Z-1.814 A102.6630 
N254 X-194.327 Y-28.993 Z-2.848 A110.1089 
N255 X-194.327 Y-29.820 Z-4.065 A119.5339 
N256 X-194.327 Y-30.601 Z-5.531 A130.6274 
N257 X-194.327 Y-31.136 Z-7.217 A142.5767 
N258 X-194.327 Y-31.243 Z-8.934 A153.9559 
N259 X-194.327 Y-30.892 Z-10.478 A163.8007 
N260 X-194.327 Y-30.157 Z-11.720 A171.7056 
N261 X-194.327 Y-29.125 Z-12.515 A176.7930 
N262 X-194.327 Y-27.883 Z-12.949 A179.6414 
N263 X-194.327 Y-26.460 Z-13.135 A180.9313 
N264 X-194.327 Y-24.856 Z-13.185 A181.3514 
N265 X-194.327 Y-23.063 Z-13.182 A181.4179 
N266 X-194.327 Y-21.082 Z-13.167 A181.4002 
N267 X-194.327 Y-18.922 Z-13.153 A181.3927 
N268 X-194.327 Y-16.598 Z-13.140 
N269 X-194.327 Y-14.138 Z-13.126 
N270 X-194.327 Y-11.575 Z-13.113 
N271 X-194.327 Y-8.949 Z-13.099 A181.3949 
N272 X-194.327 Y-6.302 Z-13.085 A181.4017 
N273 X-194.327 Y-3.680 Z-13.071 A181.4080 
N274 X-194.327 Y-1.124 Z-13.057 A181.4103 
N275 X-194.327 Y1.328 Z-13.042 A181.4012 
N276 X-194.327 Y3.641 Z-13.030 A181.3927 
N277 X-194.327 Y5.793 Z-13.020 
N278 X-194.327 Y7.771 Z-13.012 A181.4030 
N279 X-194.327 Y9.560 Z-13.034 A181.6756 
N280 X-194.327 Y11.164 Z-13.115 A182.4897 
N281 X-194.327 Y12.598 Z-13.308 A184.3764 
N282 X-194.327 Y13.898 Z-13.666 A187.9176 
N283 X-194.327 Y15.131 Z-14.214 A193.5421 
N284 X-194.327 Y16.393 Z-14.938 A201.4632 
N285 X-194.327 Y17.764 Z-15.705 A211.1178 
N286 X-194.327 Y19.269 Z-16.365 A221.7691 
N287 X-194.327 Y20.845 Z-16.771 A232.4940 
N288 X-194.327 Y22.357 Z-16.843 A242.3262 
N289 X-194.327 Y23.683 Z-16.597 A250.6923 
N290 X-194.327 Y24.767 Z-16.100 A257.4502 
N291 X-194.327 Y25.580 Z-15.421 A262.5213 
N292 X-194.327 Y26.145 Z-14.617 A266.0618 
N293 X-194.327 Y26.518 Z-13.725 A268.4490 
N294 X-194.327 Y26.751 Z-12.764 A269.9912 
N295 X-194.327 Y26.884 Z-11.745 A270.9280 
N296 X-194.327 Y26.952 Z-10.678 A271.4696 
N297 X-194.327 Y26.982 Z-9.572 A271.7876 
N298 X-194.327 Y26.992 Z-8.440 A272.0037 
N299 X-194.327 Y26.996 Z-7.296 A272.1935 
N300 X-194.327 Y26.998 Z-6.154 A272.4102 
N301 X-194.327 Y27.007 Z-5.027 A272.7050 
N302 X-194.327 Y27.029 Z-3.929 A273.1459 
N303 X-194.327 Y27.075 Z-2.870 A273.8382 
N304 X-194.327 Y27.162 Z-1.855 A274.9401 
N305 X-194.327 Y27.311 Z-0.881 A276.6670 
N306 X-194.327 Y27.547 Z0.061 A279.2901 
N307 X-194.327 Y27.902 Z1.000 A283.1716 
N308 X-194.327 Y28.408 Z1.991 A288.7871 
N309 X-194.327 Y29.050 Z3.110 A296.3920 
N310 X-194.327 Y29.743 Z4.439 A305.9545 
N311 X-194.327 Y30.331 Z6.013 A317.0648 
N312 X-194.327 Y30.600 Z7.735 A328.5705 
N313 X-194.327 Y30.433 Z9.410 A339.3000 
N314 X-194.327 Y29.826 Z10.796 A347.9676 
N315 X-194.327 Y28.880 Z11.761 A353.9402 
N316 X-194.327 Y27.699 Z12.337 A357.4893 
N317 X-194.327 Y26.330 Z12.653 A359.4313 
N318 X-194.327 Y24.784 Z12.806 A0.3844 
N319 X-194.327 Y23.058 Z12.867 A0.7505 
N320 X-194.327 Y21.152 Z12.885 A0.8244 
N321 X-194.327 Y19.074 Z12.890 A0.8026 
N322 X-194.327 Y16.838 Z12.899 A0.7852 
N323 X-194.327 Y14.466 Z12.913 
N324 X-194.327 Y11.990 Z12.928 
N325 X-194.327 Y9.446 Z12.945 A0.7857 
N326 X-194.327 Y6.876 Z12.962 A0.7920 
N327 X-194.327 Y4.321 Z12.980 A0.7992 
N328 X-194.327 Y1.824 Z12.998 A0.8056 
N329 X-194.327 Y-0.579 Z13.016 A0.8063 
N330 X-194.327 Y-2.854 Z13.031 A0.7852 
N331 X-194.327 Y-4.976 Z13.050 
N332 X-194.327 Y-6.936 Z13.068 
N333 X-194.327 Y-8.724 Z13.112 A1.0399 
N334 X-194.327 Y-10.329 Z13.229 A1.9876 
N335 X-194.327 Y-11.770 Z13.446 A3.9678 
N336 X-194.327 Y-13.076 Z13.805 A7.4423 
N337 X-194.327 Y-14.312 Z14.348 A12.9468 
N338 X-194.327 Y-15.569 Z15.057 A20.6591 
N339 X-194.327 Y-16.926 Z15.814 A30.0860 
N340 X-194.327 Y-18.402 Z16.464 A40.4235 
N341 X-194.327 Y-19.932 Z16.867 A50.7112 
N342 X-194.327 Y-21.390 Z16.951 A60.0594 
N343 X-194.327 Y-22.672 Z16.735 A67.9615 
N344 X-194.327 Y-23.728 Z16.281 A74.3149 
N345 X-194.327 Y-24.552 Z15.651 A79.1907 
N346 X-194.327 Y-25.175 Z14.898 A82.8576 
N347 X-194.327 Y-25.636 Z14.051 A85.5628 
N348 X-194.327 Y-25.967 Z13.130 A87.5215 
N349 X-194.327 Y-26.198 Z12.149 A88.9132 
N350 X-194.327 Y-26.352 Z11.118 A89.8633 
N351 X-194.327 Y-26.449 Z10.049 A90.4812 
N352 X-194.327 Y-26.508 Z8.953 A90.8833 
N353 X-194.327 Y-26.548 Z7.844 A91.1947 
N354 X-194.327 Y-26.586 Z6.733 A91.5319 
N355 X-194.327 Y-26.634 Z5.634 A92.0018 
N356 X-194.327 Y-26.705 Z4.558 A92.7263 
N357 X-194.327 Y-26.812 Z3.512 A93.8475 
N358 X-194.327 Y-26.970 Z2.499 A95.5160 
N359 X-194.327 Y-27.185 Z1.517 A97.8631 
N360 X-194.327 Y-27.470 Z0.553 A101.0498 
N361 X-194.327 Y-27.837 Z-0.416 A105.2949 
N362 X-194.327 Y-28.282 Z-1.428 A110.7314 
N363 X-194.327 Y-28.779 Z-2.525 A117.4221 
N364 X-194.327 Y-29.267 Z-3.746 A125.2590 
N365 X-194.327 Y-29.661 Z-5.106 A134.0021 
N366 X-194.327 Y-29.856 Z-6.573 A143.1913 
N367 X-194.327 Y-29.760 Z-8.056 A152.1726 
N368 X-194.327 Y-29.335 Z-9.444 A160.3730 
N369 X-194.327 Y-28.596 Z-10.650 A167.4671 
N370 X-194.327 Y-27.581 Z-11.619 A173.2759 
N371 X-194.327 Y-26.330 Z-12.294 A177.4538 
N372 X-194.327 Y-24.884 Z-12.662 A179.8118 
N373 X-194.327 Y-23.264 Z-12.825 A180.9302 
N374 X-194.327 Y-21.475 Z-12.880 A181.3913 
N375 X-194.327 Y-19.522 Z-12.883 A181.5360 
N376 X-194.327 Y-17.416 Z-12.866 A181.5467 
N377 X-194.327 Y-15.174 Z-12.843 A181.5227 
N378 X-194.327 Y-12.823 Z-12.824 A181.5206 
N379 X-194.327 Y-10.392 Z-12.805 
N380 X-194.327 Y-7.917 Z-12.787 A181.5270 
N381 X-194.327 Y-5.439 Z-12.769 A181.5407 
N382 X-194.327 Y-2.997 Z-12.751 A181.5482 
N383 X-194.327 Y-0.626 Z-12.731 A181.5329 
N384 X-194.327 Y1.640 Z-12.713 A181.5206 
N385 X-194.327 Y3.778 Z-12.700 
N386 X-194.327 Y5.772 Z-12.698 A181.6151 
N387 X-194.327 Y7.602 Z-12.741 A182.1257 
N388 X-194.327 Y9.270 Z-12.852 A183.3197 
N389 X-194.327 Y10.788 Z-13.077 A185.6850 
N390 X-194.327 Y12.190 Z-13.452 A189.6926 
N391 X-194.327 Y13.526 Z-13.944 A195.3244 
N392 X-194.327 Y14.843 Z-14.476 A202.1701 
N393 X-194.327 Y16.187 Z-15.003 A210.0658 
N394 X-194.327 Y17.577 Z-15.448 A218.6456 
N395 X-194.327 Y18.989 Z-15.731 A227.3792 
N396 X-194.327 Y20.363 Z-15.794 A235.6982 
N397 X-194.327 Y21.627 Z-15.624 A243.1751 
N398 X-194.327 Y22.734 Z-15.244 A249.5950 
N399 X-194.327 Y23.663 Z-14.694 A254.9162 
N400 X-194.327 Y24.416 Z-14.011 A259.2054 
N401 X-194.327 Y25.010 Z-13.227 A262.5939 
N402 X-194.327 Y25.468 Z-12.365 A265.2325 
N403 X-194.327 Y25.811 Z-11.442 A267.2385 
N404 X-194.327 Y26.059 Z-10.473 A268.7299 
N405 X-194.327 Y26.235 Z-9.469 A269.8361 
N406 X-194.327 Y26.359 Z-8.441 A270.6736 
N407 X-194.327 Y26.448 Z-7.403 A271.3526 
N408 X-194.327 Y26.521 Z-6.364 A271.9906 
N409 X-194.327 Y26.593 Z-5.335 A272.7225 
N410 X-194.327 Y26.681 Z-4.325 A273.6747 
N411 X-194.327 Y26.795 Z-3.340 A274.9609 
N412 X-194.327 Y26.945 Z-2.383 A276.6928 
N413 X-194.327 Y27.143 Z-1.451 A279.0064 
N414 X-194.327 Y27.398 Z-0.533 A282.0450 
N415 X-194.327 Y27.717 Z0.391 A285.9503 
N416 X-194.327 Y28.105 Z1.351 A290.9082 
N417 X-194.327 Y28.554 Z2.393 A297.1000 
N418 X-194.327 Y29.029 Z3.566 A304.6163 
N419 X-194.327 Y29.453 Z4.904 A313.3589 
N420 X-194.327 Y29.707 Z6.395 A322.9296 
N421 X-194.327 Y29.672 Z7.951 A332.6378 
N422 X-194.327 Y29.283 Z9.438 A341.7531 
N423 X-194.327 Y28.543 Z10.723 A349.6823 
N424 X-194.327 Y27.496 Z11.611 A355.1797 
N425 X-194.327 Y26.228 Z12.119 A358.3278 
N426 X-194.327 Y24.783 Z12.374 A359.9170 
N427 X-194.327 Y23.169 Z12.479 A0.5545 
N428 X-194.327 Y21.388 Z12.510 A0.7003 
N429 X-194.327 Y19.443 Z12.519 A0.6695 
N430 X-194.327 Y17.348 Z12.533 A0.6413 
N431 X-194.327 Y15.118 Z12.553 
N432 X-194.327 Y12.779 Z12.577 
N433 X-194.327 Y10.366 Z12.601 A0.6457 
N434 X-194.327 Y7.915 Z12.627 A0.6544 
N435 X-194.327 Y5.465 Z12.652 A0.6569 
N436 X-194.327 Y3.055 Z12.677 A0.6527 
N437 X-194.327 Y0.720 Z12.701 A0.6413 
N438 X-194.327 Y-1.508 Z12.727 
N439 X-194.327 Y-3.607 Z12.752 
N440 X-194.327 Y-5.565 Z12.783 A0.7246 
N441 X-194.327 Y-7.356 Z12.869 A1.3367 
N442 X-194.327 Y-8.987 Z13.040 A2.8180 
N443 X-194.327 Y-10.471 Z13.326 A5.5613 
N444 X-194.327 Y-11.843 Z13.728 A9.7528 
N445 X-194.327 Y-13.154 Z14.241 A15.5173 
N446 X-194.327 Y-14.463 Z14.815 A22.6950 
N447 X-194.327 Y-15.806 Z15.368 A30.8539 
N448 X-194.327 Y-17.185 Z15.809 A39.4585 
N449 X-194.327 Y-18.557 Z16.062 A47.8969 
N450 X-194.327 Y-19.858 Z16.089 A55.6474 
N451 X-194.327 Y-21.033 Z15.899 A62.4292 
N452 X-194.327 Y-22.056 Z15.527 A68.1819 
N453 X-194.327 Y-22.926 Z15.008 A72.9818 
N454 X-194.327 Y-23.654 Z14.374 A76.9559 
N455 X-194.327 Y-24.258 Z13.649 A80.2404 
N456 X-194.327 Y-24.753 Z12.850 A82.9503 
N457 X-194.327 Y-25.156 Z11.990 A85.1977 
N458 X-194.327 Y-25.484 Z11.082 A87.0825 
N459 X-194.327 Y-25.748 Z10.136 A88.6922 
N460 X-194.327 Y-25.964 Z9.162 A90.1169 
N461 X-194.327 Y-26.144 Z8.171 A91.4483 
N462 X-194.327 Y-26.300 Z7.171 A92.7751 
N463 X-194.327 Y-26.444 Z6.171 A94.1851 
N464 X-194.327 Y-26.586 Z5.179 A95.7720 
N465 X-194.327 Y-26.736 Z4.198 A97.6351 
N466 X-194.327 Y-26.903 Z3.229 A99.8663 
N467 X-194.327 Y-27.093 Z2.271 A102.5541 
N468 X-194.327 Y-27.312 Z1.313 A105.8068 
N469 X-194.327 Y-27.561 Z0.342 A109.7178 
N470 X-194.327 Y-27.835 Z-0.661 A114.3637 
N471 X-194.327 Y-28.118 Z-1.720 A119.7893 
N472 X-194.327 Y-28.378 Z-2.855 A125.9841 
N473 X-194.327 Y-28.570 Z-4.081 A132.8751 
N474 X-194.327 Y-28.637 Z-5.392 A140.3086 
N475 X-194.327 Y-28.510 Z-6.753 A147.9685 
N476 X-194.327 Y-28.136 Z-8.095 A155.4390 
N477 X-194.327 Y-27.491 Z-9.346 A162.3845 
N478 X-194.327 Y-26.580 Z-10.441 A168.5282 
N479 X-194.327 Y-25.427 Z-11.343 A173.7787 
N480 X-194.327 Y-24.057 Z-11.977 A177.6206 
N481 X-194.327 Y-22.506 Z-12.337 A179.9052 
N482 X-194.327 Y-20.797 Z-12.507 A181.0936 
N483 X-194.327 Y-18.941 Z-12.563 A181.6144 
N484 X-194.327 Y-16.950 Z-12.559 A181.7685 
N485 X-194.327 Y-14.837 Z-12.532 A181.7659 
N486 X-194.327 Y-12.626 Z-12.502 A181.7418 
N487 X-194.327 Y-10.342 Z-12.476 
N488 X-194.327 Y-8.016 Z-12.450 A181.7419 
N489 X-194.327 Y-5.685 Z-12.426 A181.7584 
N490 X-194.327 Y-3.383 Z-12.401 A181.7681 
N491 X-194.327 Y-1.141 Z-12.374 A181.7440 
N492 X-194.327 Y1.008 Z-12.352 A181.7418 
N493 X-194.327 Y3.049 Z-12.332 
N494 X-194.327 Y4.962 Z-12.348 A182.0485 
N495 X-194.327 Y6.733 Z-12.440 A183.0727 
N496 X-194.327 Y8.368 Z-12.630 A185.1384 
N497 X-194.327 Y9.882 Z-12.920 A188.4505 
N498 X-194.327 Y11.310 Z-13.303 A193.1043 
N499 X-194.327 Y12.689 Z-13.739 A198.9680 
N500 X-194.327 Y14.051 Z-14.167 A205.7095 
N501 X-194.327 Y15.422 Z-14.549 A213.1710 
N502 X-194.327 Y16.803 Z-14.826 A221.0020 
N503 X-194.327 Y18.165 Z-14.939 A228.7540 
N504 X-194.327 Y19.457 Z-14.859 A236.0086 
N505 X-194.327 Y20.633 Z-14.586 A242.4838 
N506 X-194.327 Y21.665 Z-14.142 A248.0633 
N507 X-194.327 Y22.544 Z-13.558 A252.7349 
N508 X-194.327 Y23.276 Z-12.864 A256.5800 
N509 X-194.327 Y23.877 Z-12.085 A259.6978 
N510 X-194.327 Y24.363 Z-11.240 A262.2060 
N511 X-194.327 Y24.754 Z-10.345 A264.2253 
N512 X-194.327 Y25.068 Z-9.414 A265.8581 
N513 X-194.327 Y25.322 Z-8.459 A267.2099 
N514 X-194.327 Y25.533 Z-7.492 A268.3909 
N515 X-194.327 Y25.715 Z-6.522 A269.5078 
N516 X-194.327 Y25.883 Z-5.561 A270.6592 
N517 X-194.327 Y26.049 Z-4.615 A271.9466 
N518 X-194.327 Y26.224 Z-3.691 A273.4758 
N519 X-194.327 Y26.420 Z-2.792 A275.3492 
N520 X-194.327 Y26.643 Z-1.917 A277.6590 
N521 X-194.327 Y26.904 Z-1.058 A280.5104 
N522 X-194.327 Y27.209 Z-0.203 A284.0246 
N523 X-194.327 Y27.562 Z0.671 A288.3221 
N524 X-194.327 Y27.965 Z1.593 A293.5474 
N525 X-194.327 Y28.404 Z2.603 A299.8395 
N526 X-194.327 Y28.845 Z3.746 A307.2857 
N527 X-194.327 Y29.218 Z5.049 A315.8303 
N528 X-194.327 Y29.420 Z6.500 A325.1631 
N529 X-194.327 Y29.344 Z8.020 A334.7236 
N530 X-194.327 Y28.928 Z9.487 A343.8826 
N531 X-194.327 Y28.162 Z10.729 A351.7361 
N532 X-194.327 Y27.100 Z11.507 A356.6689 
N533 X-194.327 Y25.840 Z11.893 A359.0946 
N534 X-194.327 Y24.413 Z12.063 A0.1319 
N535 X-194.327 Y22.825 Z12.128 A0.4837 
N536 X-194.327 Y21.075 Z12.151 A0.5353 
N537 X-194.327 Y19.167 Z12.164 A0.4959 
N538 X-194.327 Y17.116 Z12.185 A0.4814 
N539 X-194.327 Y14.939 Z12.210 
N540 X-194.327 Y12.660 Z12.238 
N541 X-194.327 Y10.316 Z12.268 A0.4982 
N542 X-194.327 Y7.941 Z12.298 A0.5086 
N543 X-194.327 Y5.570 Z12.327 A0.5033 
N544 X-194.327 Y3.242 Z12.355 A0.4814 
N545 X-194.327 Y0.988 Z12.386 
N546 X-194.327 Y-1.172 Z12.416 
N547 X-194.327 Y-3.209 Z12.466 A0.6888 
N548 X-194.327 Y-5.102 Z12.562 A1.3810 
N549 X-194.327 Y-6.848 Z12.727 A2.8554 
N550 X-194.327 Y-8.455 Z12.993 A5.4994 
N551 X-194.327 Y-9.949 Z13.357 A9.4820 
N552 X-194.327 Y-11.363 Z13.788 A14.7087 
N553 X-194.327 Y-12.737 Z14.245 A21.0029 
N554 X-194.327 Y-14.091 Z14.666 A27.9910 
N555 X-194.327 Y-15.428 Z14.994 A35.2592 
N556 X-194.327 Y-16.726 Z15.181 A42.3912 
N557 X-194.327 Y-17.954 Z15.207 A49.0613 
N558 X-194.327 Y-19.087 Z15.074 A55.1018 
N559 X-194.327 Y-20.115 Z14.803 A60.4779 
N560 X-194.327 Y-21.036 Z14.414 A65.2325 
N561 X-194.327 Y-21.858 Z13.927 A69.4450 
N562 X-194.327 Y-22.588 Z13.358 A73.1983 
N563 X-194.327 Y-23.237 Z12.720 A76.5715 
N564 X-194.327 Y-23.812 Z12.023 A79.6332 
N565 X-194.327 Y-24.321 Z11.275 A82.4465 
N566 X-194.327 Y-24.771 Z10.485 A85.0712 
N567 X-194.327 Y-25.170 Z9.661 A87.5626 
N568 X-194.327 Y-25.522 Z8.809 A89.9727 
N569 X-194.327 Y-25.834 Z7.936 A92.3493 
N570 X-194.327 Y-26.112 Z7.047 A94.7411 
N571 X-194.327 Y-26.360 Z6.148 A97.1955 
N572 X-194.327 Y-26.584 Z5.241 A99.7626 
N573 X-194.327 Y-26.788 Z4.328 A102.4938 
N574 X-194.327 Y-26.977 Z3.410 A105.4383 
N575 X-194.327 Y-27.153 Z2.482 A108.6508 
N576 X-194.327 Y-27.317 Z1.540 A112.1792 
N577 X-194.327 Y-27.466 Z0.575 A116.0711 
N578 X-194.327 Y-27.593 Z-0.422 A120.3665 
N579 X-194.327 Y-27.687 Z-1.462 A125.1003 
N580 X-194.327 Y-27.729 Z-2.555 A130.2876 
N581 X-194.327 Y-27.694 Z-3.709 A135.9356 
N582 X-194.327 Y-27.547 Z-4.921 A141.9918 
N583 X-194.327 Y-27.245 Z-6.170 A148.3051 
N584 X-194.327 Y-26.748 Z-7.418 A154.6725 
N585 X-194.327 Y-26.032 Z-8.620 A160.8939 
N586 X-194.327 Y-25.082 Z-9.719 A166.7151 
N587 X-194.327 Y-23.905 Z-10.673 A171.9985 
N588 X-194.327 Y-22.517 Z-11.419 A176.3800 
N589 X-194.327 Y-20.948 Z-11.890 A179.3099 
N590 X-194.327 Y-19.232 Z-12.133 A180.9672 
N591 X-194.327 Y-17.388 Z-12.225 A181.7679 
N592 X-194.327 Y-15.432 Z-12.231 A182.0516 
N593 X-194.327 Y-13.379 Z-12.197 A182.0861 
N594 X-194.327 Y-11.251 Z-12.155 A182.0562 
N595 X-194.327 Y-9.074 Z-12.117 A182.0527 
N596 X-194.327 Y-6.874 Z-12.080 
N597 X-194.327 Y-4.684 Z-12.044 A182.0539 
N598 X-194.327 Y-2.533 Z-12.009 A182.0527 
N599 X-194.327 Y-0.448 Z-11.976 
N600 X-194.327 Y1.552 Z-11.946 A182.0823 
N601 X-194.327 Y3.442 Z-11.952 A182.4079 
N602 X-194.327 Y5.213 Z-12.022 A183.3497 
N603 X-194.327 Y6.866 Z-12.200 A185.4002 
N604 X-194.327 Y8.417 Z-12.495 A188.8330 
N605 X-194.327 Y9.892 Z-12.856 A193.4625 
N606 X-194.327 Y11.315 Z-13.236 A199.0396 
N607 X-194.327 Y12.714 Z-13.602 A205.4296 
N608 X-194.327 Y14.105 Z-13.911 A212.4065 
N609 X-194.327 Y15.485 Z-14.114 A219.6416 
N610 X-194.327 Y16.827 Z-14.167 A226.7504 
N611 X-194.327 Y18.092 Z-14.048 A233.3859 
N612 X-194.327 Y19.247 Z-13.758 A239.3261 
N613 X-194.327 Y20.271 Z-13.319 A244.4842 
N614 X-194.327 Y21.163 Z-12.756 A248.8787 
N615 X-194.327 Y21.928 Z-12.095 A252.5785 
N616 X-194.327 Y22.581 Z-11.358 A255.6845 
N617 X-194.327 Y23.136 Z-10.563 A258.3028 
N618 X-194.327 Y23.609 Z-9.723 A260.5322 
N619 X-194.327 Y24.014 Z-8.852 A262.4705 
N620 X-194.327 Y24.366 Z-7.962 A264.2075 
N621 X-194.327 Y24.675 Z-7.063 A265.8265 
N622 X-194.327 Y24.954 Z-6.165 A267.4091 
N623 X-194.327 Y25.213 Z-5.275 A269.0362 
N624 X-194.327 Y25.462 Z-4.402 A270.7850 
N625 X-194.327 Y25.708 Z-3.548 A272.7304 
N626 X-194.327 Y25.962 Z-2.716 A274.9491 
N627 X-194.327 Y26.230 Z-1.905 A277.5229 
N628 X-194.327 Y26.521 Z-1.107 A280.5333 
N629 X-194.327 Y26.841 Z-0.310 A284.0760 
N630 X-194.327 Y27.196 Z0.503 A288.2672 
N631 X-194.327 Y27.588 Z1.359 A293.2354 
N632 X-194.327 Y28.012 Z2.295 A299.1359 
N633 X-194.327 Y28.445 Z3.351 A306.1013 
N634 X-194.327 Y28.836 Z4.565 A314.1779 
N635 X-194.327 Y29.097 Z5.940 A323.1928 
N636 X-194.327 Y29.120 Z7.424 A332.6965 
N637 X-194.327 Y28.822 Z8.907 A342.0840 
N638 X-194.327 Y28.171 Z10.213 A350.4038 
N639 X-194.327 Y27.209 Z11.101 A356.1166 
N640 X-194.327 Y26.034 Z11.540 A358.9287 
N641 X-194.327 Y24.696 Z11.718 A0.0222 
N642 X-194.327 Y23.201 Z11.784 A0.3653 
N643 X-194.327 Y21.548 Z11.811 A0.4315 
N644 X-194.327 Y19.739 Z11.828 A0.4123 
N645 X-194.327 Y17.786 Z11.849 A0.3944 
N646 X-194.327 Y15.706 Z11.875 
N647 X-194.327 Y13.520 Z11.903 
N648 X-194.327 Y11.260 Z11.934 A0.4111 
N649 X-194.327 Y8.959 Z11.966 A0.4267 
N650 X-194.327 Y6.652 Z11.997 A0.4283 
N651 X-194.327 Y4.372 Z12.024 A0.3944 
N652 X-194.327 Y2.155 Z12.057 
N653 X-194.327 Y0.016 Z12.090 
N654 X-194.327 Y-2.012 Z12.161 A0.7671 
N655 X-194.327 Y-3.910 Z12.294 A1.7941 
N656 X-194.327 Y-5.674 Z12.498 A3.7130 
N657 X-194.327 Y-7.312 Z12.784 A6.7464 
N658 X-194.327 Y-8.845 Z13.135 A10.9312 
N659 X-194.327 Y-10.294 Z13.504 A15.9975 
N660 X-194.327 Y-11.678 Z13.852 A21.6853 
N661 X-194.327 Y-13.009 Z14.146 A27.7602 
N662 X-194.327 Y-14.289 Z14.360 A33.9719 
N663 X-194.327 Y-15.511 Z14.472 A40.0872 
N664 X-194.327 Y-16.667 Z14.474 A45.9413 
N665 X-194.327 Y-17.749 Z14.367 A51.4453 
N666 X-194.327 Y-18.755 Z14.159 A56.5726 
N667 X-194.327 Y-19.686 Z13.861 A61.3355 
N668 X-194.327 Y-20.543 Z13.481 A65.7665 
N669 X-194.327 Y-21.332 Z13.029 A69.9050 
N670 X-194.327 Y-22.056 Z12.512 A73.7903 
N671 X-194.327 Y-22.718 Z11.935 A77.4580 
N672 X-194.327 Y-23.320 Z11.305 A80.9401 
N673 X-194.327 Y-23.865 Z10.627 A84.2665 
N674 X-194.327 Y-24.355 Z9.905 A87.4661 
N675 X-194.327 Y-24.792 Z9.147 A90.5644 
N676 X-194.327 Y-25.177 Z8.355 A93.5840 
N677 X-194.327 Y-25.512 Z7.536 A96.5495 
N678 X-194.327 Y-25.800 Z6.694 A99.4846 
N679 X-194.327 Y-26.043 Z5.832 A102.4191 
N680 X-194.327 Y-26.245 Z4.954 A105.3845 
N681 X-194.327 Y-26.408 Z4.061 A108.4161 
N682 X-194.327 Y-26.534 Z3.152 A111.5537 
N683 X-194.327 Y-26.627 Z2.227 A114.8367 
N684 X-194.327 Y-26.685 Z1.282 A118.3124 
N685 X-194.327 Y-26.706 Z0.312 A122.0273 
N686 X-194.327 Y-26.687 Z-0.691 A126.0327 
N687 X-194.327 Y-26.618 Z-1.733 A130.3752 
N688 X-194.327 Y-26.485 Z-2.822 A135.0980 
N689 X-194.327 Y-26.265 Z-3.961 A140.2164 
N690 X-194.327 Y-25.932 Z-5.144 A145.7040 
N691 X-194.327 Y-25.450 Z-6.354 A151.4681 
N692 X-194.327 Y-24.788 Z-7.557 A157.3698 
N693 X-194.327 Y-23.922 Z-8.708 A163.1978 
N694 X-194.327 Y-22.842 Z-9.758 A168.7489 
N695 X-194.327 Y-21.553 Z-10.649 A173.7556 
N696 X-194.327 Y-20.076 Z-11.305 A177.6912 
N697 X-194.327 Y-18.448 Z-11.714 A180.3844 
N698 X-194.327 Y-16.699 Z-11.907 A181.8926 
N699 X-194.327 Y-14.851 Z-11.947 A182.5032 
N700 X-194.327 Y-12.918 Z-11.912 A182.6380 
N701 X-194.327 Y-10.918 Z-11.855 A182.6289 
N702 X-194.327 Y-8.871 Z-11.797 A182.6163 
N703 X-194.327 Y-6.804 Z-11.741 A182.6163 
N704 X-194.327 Y-4.742 Z-11.686 A182.6148 
N705 X-194.327 Y-2.712 Z-11.634 
N706 X-194.327 Y-0.732 Z-11.582 
N707 X-194.327 Y1.171 Z-11.549 A182.7616 
N708 X-194.327 Y2.982 Z-11.561 A183.3111 
N709 X-194.327 Y4.693 Z-11.653 A184.6569 
N710 X-194.327 Y6.309 Z-11.861 A187.2441 
N711 X-194.327 Y7.848 Z-12.165 A191.1467 
N712 X-194.327 Y9.328 Z-12.501 A196.0477 
N713 X-194.327 Y10.769 Z-12.831 A201.7485 
N714 X-194.327 Y12.185 Z-13.119 A208.0590 
N715 X-194.327 Y13.579 Z-13.324 A214.7203 
N716 X-194.327 Y14.938 Z-13.406 A221.4023 
N717 X-194.327 Y16.232 Z-13.340 A227.7872 
N718 X-194.327 Y17.434 Z-13.120 A233.6405 
N719 X-194.327 Y18.523 Z-12.758 A238.8467 
N720 X-194.327 Y19.493 Z-12.275 A243.3909 
N721 X-194.327 Y20.348 Z-11.694 A247.3218 
N722 X-194.327 Y21.098 Z-11.036 A250.7171 
N723 X-194.327 Y21.755 Z-10.317 A253.6653 
N724 X-194.327 Y22.331 Z-9.554 A256.2562 
N725 X-194.327 Y22.838 Z-8.757 A258.5720 
N726 X-194.327 Y23.289 Z-7.940 A260.6916 
N727 X-194.327 Y23.692 Z-7.110 A262.6876 
N728 X-194.327 Y24.059 Z-6.279 A264.6284 
N729 X-194.327 Y24.396 Z-5.452 A266.5793 
N730 X-194.327 Y24.713 Z-4.638 A268.6035 
N731 X-194.327 Y25.018 Z-3.840 A270.7631 
N732 X-194.327 Y25.317 Z-3.060 A273.1176 
N733 X-194.327 Y25.619 Z-2.298 A275.7300 
N734 X-194.327 Y25.929 Z-1.551 A278.6678 
N735 X-194.327 Y26.256 Z-0.809 A282.0047 
N736 X-194.327 Y26.604 Z-0.060 A285.8319 
N737 X-194.327 Y26.980 Z0.715 A290.2601 
N738 X-194.327 Y27.385 Z1.545 A295.4264 
N739 X-194.327 Y27.812 Z2.464 A301.4880 
N740 X-194.327 Y28.238 Z3.515 A308.5892 
N741 X-194.327 Y28.608 Z4.728 A316.7731 
N742 X-194.327 Y28.831 Z6.103 A325.8538 
N743 X-194.327 Y28.807 Z7.582 A335.4128 
N744 X-194.327 Y28.454 Z9.043 A344.7967 
N745 X-194.327 Y27.749 Z10.261 A352.7022 
N746 X-194.327 Y26.759 Z10.981 A357.3757 
N747 X-194.327 Y25.585 Z11.303 A359.4364 
N748 X-194.327 Y24.257 Z11.430 A0.1948 
N749 X-194.327 Y22.775 Z11.476 A0.4117 
N750 X-194.327 Y21.139 Z11.496 A0.4285 
N751 X-194.327 Y19.354 Z11.511 A0.3949 
N752 X-194.327 Y17.432 Z11.534 A0.3885 
N753 X-194.327 Y15.389 Z11.560 
N754 X-194.327 Y13.249 Z11.589 A0.3960 
N755 X-194.327 Y11.044 Z11.620 A0.4158 
N756 X-194.327 Y8.807 Z11.650 A0.4284 
N757 X-194.327 Y6.570 Z11.678 A0.4076 
N758 X-194.327 Y4.370 Z11.707 A0.3885 
N759 X-194.327 Y2.229 Z11.741 
N760 X-194.327 Y0.168 Z11.785 A0.5091 
N761 X-194.327 Y-1.774 Z11.889 A1.2138 
N762 X-194.327 Y-3.593 Z12.057 A2.6724 
N763 X-194.327 Y-5.284 Z12.302 A5.1386 
N764 X-194.327 Y-6.862 Z12.614 A8.6925 
N765 X-194.327 Y-8.341 Z12.952 A13.1093 
N766 X-194.327 Y-9.734 Z13.270 A18.0757 
N767 X-194.327 Y-11.057 Z13.557 A23.4825 
N768 X-194.327 Y-12.320 Z13.794 A29.1751 
N769 X-194.327 Y-13.529 Z13.964 A34.9876 
N770 X-194.327 Y-14.685 Z14.055 A40.7715 
N771 X-194.327 Y-15.784 Z14.058 A46.4089 
N772 X-194.327 Y-16.824 Z13.972 A51.8250 
N773 X-194.327 Y-17.802 Z13.800 A56.9830 
N774 X-194.327 Y-18.718 Z13.545 A61.8734 
N775 X-194.327 Y-19.573 Z13.212 A66.5035 
N776 X-194.327 Y-20.366 Z12.808 A70.8882 
N777 X-194.327 Y-21.098 Z12.335 A75.0443 
N778 X-194.327 Y-21.769 Z11.801 A78.9894 
N779 X-194.327 Y-22.379 Z11.209 A82.7399 
N780 X-194.327 Y-22.928 Z10.564 A86.3139 
N781 X-194.327 Y-23.417 Z9.873 A89.7295 
N782 X-194.327 Y-23.846 Z9.140 A93.0057 
N783 X-194.327 Y-24.216 Z8.371 A96.1640 
N784 X-194.327 Y-24.530 Z7.571 A99.2233 
N785 X-194.327 Y-24.789 Z6.744 A102.2099 
N786 X-194.327 Y-24.998 Z5.895 A105.1518 
N787 X-194.327 Y-25.158 Z5.027 A108.0822 
N788 X-194.327 Y-25.273 Z4.142 A111.0396 
N789 X-194.327 Y-25.348 Z3.240 A114.0645 
N790 X-194.327 Y-25.384 Z2.321 A117.2061 
N791 X-194.327 Y-25.383 Z1.381 A120.5150 
N792 X-194.327 Y-25.344 Z0.415 A124.0461 
N793 X-194.327 Y-25.262 Z-0.581 A127.8522 
N794 X-194.327 Y-25.132 Z-1.615 A131.9938 
N795 X-194.327 Y-24.940 Z-2.694 A136.5215 
N796 X-194.327 Y-24.666 Z-3.819 A141.4499 
N797 X-194.327 Y-24.283 Z-4.984 A146.7493 
N798 X-194.327 Y-23.760 Z-6.173 A152.3530 
N799 X-194.327 Y-23.068 Z-7.355 A158.1248 
N800 X-194.327 Y-22.184 Z-8.485 A163.8677 
N801 X-194.327 Y-21.098 Z-9.511 A169.3558 
N802 X-194.327 Y-19.818 Z-10.377 A174.2863 
N803 X-194.327 Y-18.365 Z-11.029 A178.3164 
N804 X-194.327 Y-16.776 Z-11.420 A181.0189 
N805 X-194.327 Y-15.083 Z-11.586 A182.4599 
N806 X-194.327 Y-13.306 Z-11.614 A183.0952 
N807 X-194.327 Y-11.459 Z-11.572 A183.3244 
N808 X-194.327 Y-9.559 Z-11.502 A183.3726 
N809 X-194.327 Y-7.626 Z-11.421 A183.3551 
N810 X-194.327 Y-5.680 Z-11.341 A183.3347 
N811 X-194.327 Y-3.747 Z-11.267 
N812 X-194.327 Y-1.843 Z-11.193 
N813 X-194.327 Y0.009 Z-11.130 A183.4099 
N814 X-194.327 Y1.789 Z-11.114 A183.8802 
N815 X-194.327 Y3.490 Z-11.178 A185.1231 
N816 X-194.327 Y5.111 Z-11.350 A187.5258 
N817 X-194.327 Y6.665 Z-11.605 A191.1095 
N818 X-194.327 Y8.164 Z-11.896 A195.6685 
N819 X-194.327 Y9.624 Z-12.186 A201.0313 
N820 X-194.327 Y11.054 Z-12.432 A206.9513 
N821 X-194.327 Y12.454 Z-12.599 A213.1860 
N822 X-194.327 Y13.811 Z-12.653 A219.4403 
N823 X-194.327 Y15.101 Z-12.573 A225.4398 
N824 X-194.327 Y16.302 Z-12.355 A230.9841 
N825 X-194.327 Y17.399 Z-12.009 A235.9731 
N826 X-194.327 Y18.387 Z-11.555 A240.3946 
N827 X-194.327 Y19.271 Z-11.012 A244.2885 
N828 X-194.327 Y20.058 Z-10.398 A247.7224 
N829 X-194.327 Y20.759 Z-9.731 A250.7730 
N830 X-194.327 Y21.384 Z-9.022 A253.5186 
N831 X-194.327 Y21.945 Z-8.285 A256.0316 
N832 X-194.327 Y22.451 Z-7.529 A258.3805 
N833 X-194.327 Y22.910 Z-6.763 A260.6279 
N834 X-194.327 Y23.331 Z-5.996 A262.8325 
N835 X-194.327 Y23.722 Z-5.233 A265.0498 
N836 X-194.327 Y24.088 Z-4.481 A267.3326 
N837 X-194.327 Y24.439 Z-3.743 A269.7330 
N838 X-194.327 Y24.779 Z-3.021 A272.3008 
N839 X-194.327 Y25.115 Z-2.313 A275.0886 
N840 X-194.327 Y25.455 Z-1.617 A278.1526 
N841 X-194.327 Y25.803 Z-0.924 A281.5559 
N842 X-194.327 Y26.167 Z-0.223 A285.3783 
N843 X-194.327 Y26.551 Z0.504 A289.7187 
N844 X-194.327 Y26.959 Z1.280 A294.7064 
N845 X-194.327 Y27.387 Z2.138 A300.4973 
N846 X-194.327 Y27.819 Z3.118 A307.2564 
N847 X-194.327 Y28.215 Z4.256 A315.0882 
N848 X-194.327 Y28.497 Z5.566 A323.9166 
N849 X-194.327 Y28.564 Z7.011 A333.4218 
N850 X-194.327 Y28.328 Z8.503 A343.1523 
N851 X-194.327 Y27.732 Z9.811 A351.7466 
N852 X-194.327 Y26.827 Z10.595 A356.8732 
N853 X-194.327 Y25.732 Z10.963 A359.2546 
N854 X-194.327 Y24.485 Z11.115 A0.2072 
N855 X-194.327 Y23.090 Z11.168 A0.4846 
N856 X-194.327 Y21.545 Z11.184 A0.4922 
N857 X-194.327 Y19.852 Z11.196 A0.4445 
N858 X-194.327 Y18.023 Z11.218 
N859 X-194.327 Y16.070 Z11.243 
N860 X-194.327 Y14.016 Z11.270 A0.4529 
N861 X-194.327 Y11.893 Z11.300 A0.4694 
N862 X-194.327 Y9.729 Z11.328 A0.4753 
N863 X-194.327 Y7.559 Z11.354 A0.4523 
N864 X-194.327 Y5.415 Z11.384 A0.4445 
N865 X-194.327 Y3.324 Z11.415 
N866 X-194.327 Y1.305 Z11.451 A0.5148 
N867 X-194.327 Y-0.603 Z11.535 A1.0453 
N868 X-194.327 Y-2.391 Z11.683 A2.2840 
N869 X-194.327 Y-4.056 Z11.924 A4.6059 
N870 X-194.327 Y-5.609 Z12.241 A8.0545 
N871 X-194.327 Y-7.061 Z12.575 A12.2812 
N872 X-194.327 Y-8.425 Z12.892 A17.0264 
N873 X-194.327 Y-9.715 Z13.185 A22.2229 
N874 X-194.327 Y-10.945 Z13.439 A27.7482 
N875 X-194.327 Y-12.124 Z13.639 A33.4565 
N876 X-194.327 Y-13.254 Z13.773 A39.2153 
N877 X-194.327 Y-14.337 Z13.829 A44.9076 
N878 X-194.327 Y-15.370 Z13.802 A50.4455 
N879 X-194.327 Y-16.350 Z13.692 A55.7737 
N880 X-194.327 Y-17.274 Z13.499 A60.8650 
N881 X-194.327 Y-18.142 Z13.226 A65.7108 
N882 X-194.327 Y-18.951 Z12.878 A70.3142 
N883 X-194.327 Y-19.700 Z12.460 A74.6826 
N884 X-194.327 Y-20.389 Z11.975 A78.8271 
N885 X-194.327 Y-21.016 Z11.429 A82.7583 
N886 X-194.327 Y-21.580 Z10.827 A86.4910 
N887 X-194.327 Y-22.082 Z10.174 A90.0404 
N888 X-194.327 Y-22.521 Z9.476 A93.4270 
N889 X-194.327 Y-22.899 Z8.739 A96.6724 
N890 X-194.327 Y-23.218 Z7.966 A99.7996 
N891 X-194.327 Y-23.481 Z7.164 A102.8353 
N892 X-194.327 Y-23.688 Z6.337 A105.8039 
N893 X-194.327 Y-23.845 Z5.488 A108.7366 
N894 X-194.327 Y-23.953 Z4.620 A111.6643 
N895 X-194.327 Y-24.016 Z3.734 A114.6244 
N896 X-194.327 Y-24.036 Z2.832 A117.6581 
N897 X-194.327 Y-24.015 Z1.911 A120.8122 
N898 X-194.327 Y-23.955 Z0.968 A124.1369 
N899 X-194.327 Y-23.852 Z-0.001 A127.6911 
N900 X-194.327 Y-23.705 Z-1.003 A131.5434 
N901 X-194.327 Y-23.504 Z-2.045 A135.7579 
N902 X-194.327 Y-23.235 Z-3.131 A140.3780 
N903 X-194.327 Y-22.875 Z-4.261 A145.4147 
N904 X-194.327 Y-22.396 Z-5.425 A150.8351 
N905 X-194.327 Y-21.769 Z-6.596 A156.5251 
N906 X-194.327 Y-20.965 Z-7.734 A162.2898 
N907 X-194.327 Y-19.970 Z-8.785 A167.8737 
N908 X-194.327 Y-18.787 Z-9.691 A172.9751 
N909 X-194.327 Y-17.435 Z-10.395 A177.2387 
N910 X-194.327 Y-15.946 Z-10.865 A180.3818 
N911 X-194.327 Y-14.354 Z-11.124 A182.4401 
N912 X-194.327 Y-12.681 Z-11.213 A183.5723 
N913 X-194.327 Y-10.946 Z-11.188 A184.0276 
N914 X-194.327 Y-9.161 Z-11.104 A184.1171 
N915 X-194.327 Y-7.342 Z-11.004 A184.0921 
N916 X-194.327 Y-5.507 Z-10.906 A184.0711 
N917 X-194.327 Y-3.678 Z-10.812 
N918 X-194.327 Y-1.870 Z-10.720 
N919 X-194.327 Y-0.101 Z-10.648 A184.2299 
N920 X-194.327 Y1.610 Z-10.640 A184.9463 
N921 X-194.327 Y3.256 Z-10.720 A186.5513 
N922 X-194.327 Y4.840 Z-10.890 A189.2362 
N923 X-194.327 Y6.369 Z-11.118 A192.9421 
N924 X-194.327 Y7.855 Z-11.374 A197.5599 
N925 X-194.327 Y9.306 Z-11.613 A202.8564 
N926 X-194.327 Y10.725 Z-11.795 A208.5841 
N927 X-194.327 Y12.103 Z-11.889 A214.4821 
N928 X-194.327 Y13.426 Z-11.870 A220.2929 
N929 X-194.327 Y14.674 Z-11.726 A225.8026 
N930 X-194.327 Y15.830 Z-11.462 A230.8786 
N931 X-194.327 Y16.888 Z-11.091 A235.4714 
N932 X-194.327 Y17.846 Z-10.629 A239.5908 
N933 X-194.327 Y18.710 Z-10.095 A243.2818 
N934 X-194.327 Y19.489 Z-9.504 A246.6056 
N935 X-194.327 Y20.191 Z-8.869 A249.6289 
N936 X-194.327 Y20.825 Z-8.203 A252.4172 
N937 X-194.327 Y21.402 Z-7.515 A255.0314 
N938 X-194.327 Y21.928 Z-6.814 A257.5287 
N939 X-194.327 Y22.411 Z-6.108 A259.9613 
N940 X-194.327 Y22.858 Z-5.403 A262.3789 
N941 X-194.327 Y23.275 Z-4.705 A264.8280 
N942 X-194.327 Y23.670 Z-4.017 A267.3540 
N943 X-194.327 Y24.049 Z-3.342 A270.0012 
N944 X-194.327 Y24.417 Z-2.679 A272.8141 
N945 X-194.327 Y24.781 Z-2.027 A275.8407 
N946 X-194.327 Y25.146 Z-1.380 A279.1337 
N947 X-194.327 Y25.520 Z-0.730 A282.7569 
N948 X-194.327 Y25.907 Z-0.064 A286.7914 
N949 X-194.327 Y26.312 Z0.636 A291.3420 
N950 X-194.327 Y26.739 Z1.398 A296.5468 
N951 X-194.327 Y27.182 Z2.253 A302.5719 
N952 X-194.327 Y27.621 Z3.243 A309.5835 
N953 X-194.327 Y28.009 Z4.401 A317.6670 
N954 X-194.327 Y28.262 Z5.731 A326.7049 
N955 X-194.327 Y28.280 Z7.187 A336.3584 
N956 X-194.327 Y27.983 Z8.673 A346.1947 
N957 X-194.327 Y27.314 Z9.808 A353.6826 
N958 X-194.327 Y26.387 Z10.440 A357.8376 
N959 X-194.327 Y25.293 Z10.737 A359.7811 
N960 X-194.327 Y24.054 Z10.845 A0.4672 
N961 X-194.327 Y22.671 Z10.872 A0.5749 
N962 X-194.327 Y21.141 Z10.879 A0.5169 
N963 X-194.327 Y19.471 Z10.896 A0.5020 
N964 X-194.327 Y17.667 Z10.918 
N965 X-194.327 Y15.748 Z10.942 
N966 X-194.327 Y13.741 Z10.968 A0.5143 
N967 X-194.327 Y11.672 Z10.995 A0.5213 
N968 X-194.327 Y9.573 Z11.021 A0.5194 
N969 X-194.327 Y7.476 Z11.046 A0.5020 
N970 X-194.327 Y5.413 Z11.074 
N971 X-194.327 Y3.410 Z11.102 
N972 X-194.327 Y1.485 Z11.135 A0.5746 
N973 X-194.327 Y-0.327 Z11.227 A1.1935 
N974 X-194.327 Y-2.021 Z11.406 A2.7170 
N975 X-194.327 Y-3.596 Z11.682 A5.4079 
N976 X-194.327 Y-5.064 Z12.011 A9.0593 
N977 X-194.327 Y-6.437 Z12.348 A13.3900 
N978 X-194.327 Y-7.730 Z12.676 A18.2716 
N979 X-194.327 Y-8.957 Z12.979 A23.5749 
N980 X-194.327 Y-10.133 Z13.244 A29.1873 
N981 X-194.327 Y-11.264 Z13.457 A34.9680 
N982 X-194.327 Y-12.354 Z13.603 A40.7874 
N983 X-194.327 Y-13.402 Z13.672 A46.5333 
N984 X-194.327 Y-14.404 Z13.658 A52.1192 
N985 X-194.327 Y-15.357 Z13.559 A57.4920 
N986 X-194.327 Y-16.258 Z13.378 A62.6256 
N987 X-194.327 Y-17.104 Z13.117 A67.5119 
N988 X-194.327 Y-17.893 Z12.780 A72.1525 
N989 X-194.327 Y-18.623 Z12.372 A76.5545 
N990 X-194.327 Y-19.292 Z11.898 A80.7258 
N991 X-194.327 Y-19.898 Z11.362 A84.6776 
N992 X-194.327 Y-20.441 Z10.770 A88.4222 
N993 X-194.327 Y-20.921 Z10.128 A91.9768 
N994 X-194.327 Y-21.337 Z9.441 A95.3619 
N995 X-194.327 Y-21.692 Z8.714 A98.6005 
N996 X-194.327 Y-21.987 Z7.953 A101.7184 
N997 X-194.327 Y-22.225 Z7.163 A104.7393 
N998 X-194.327 Y-22.408 Z6.347 A107.6910 
N999 X-194.327 Y-22.538 Z5.509 A110.6002 
N1000 X-194.327 Y-22.620 Z4.653 A113.4993 
N1001 X-194.327 Y-22.655 Z3.780 A116.4241 
N1002 X-194.327 Y-22.648 Z2.889 A119.4172 
N1003 X-194.327 Y-22.599 Z1.980 A122.5255 
N1004 X-194.327 Y-22.510 Z1.050 A125.8057 
N1005 X-194.327 Y-22.380 Z0.092 A129.3291 
N1006 X-194.327 Y-22.207 Z-0.900 A133.1698 
N1007 X-194.327 Y-21.981 Z-1.933 A137.3898 
N1008 X-194.327 Y-21.686 Z-3.011 A142.0368 
N1009 X-194.327 Y-21.301 Z-4.132 A147.1291 
N1010 X-194.327 Y-20.798 Z-5.284 A152.6115 
N1011 X-194.327 Y-20.144 Z-6.436 A158.3382 
N1012 X-194.327 Y-19.315 Z-7.541 A164.0808 
N1013 X-194.327 Y-18.301 Z-8.538 A169.5133 
N1014 X-194.327 Y-17.111 Z-9.369 A174.3067 
N1015 X-194.327 Y-15.772 Z-10.000 A178.2478 
N1016 X-194.327 Y-14.314 Z-10.423 A181.2185 
N1017 X-194.327 Y-12.767 Z-10.642 A183.1276 
N1018 X-194.327 Y-11.153 Z-10.700 A184.1337 
N1019 X-194.327 Y-9.485 Z-10.659 A184.5665 
N1020 X-194.327 Y-7.778 Z-10.569 A184.7107 
N1021 X-194.327 Y-6.046 Z-10.459 A184.7196 
N1022 X-194.327 Y-4.306 Z-10.343 A184.6793 
N1023 X-194.327 Y-2.577 Z-10.236 
N1024 X-194.327 Y-0.867 Z-10.143 A184.7975 
N1025 X-194.327 Y0.800 Z-10.115 A185.4665 
N1026 X-194.327 Y2.418 Z-10.162 A186.9046 
N1027 X-194.327 Y3.984 Z-10.286 A189.2780 
N1028 X-194.327 Y5.501 Z-10.472 A192.6166 
N1029 X-194.327 Y6.980 Z-10.692 A196.8706 
N1030 X-194.327 Y8.425 Z-10.903 A201.8072 
N1031 X-194.327 Y9.837 Z-11.068 A207.1961 
N1032 X-194.327 Y11.208 Z-11.154 A212.7793 
N1033 X-194.327 Y12.525 Z-11.137 A218.3177 
N1034 X-194.327 Y13.770 Z-11.009 A223.6164 
N1035 X-194.327 Y14.930 Z-10.770 A228.5520 
N1036 X-194.327 Y15.997 Z-10.433 A233.0721 
N1037 X-194.327 Y16.972 Z-10.012 A237.1786 
N1038 X-194.327 Y17.858 Z-9.524 A240.9064 
N1039 X-194.327 Y18.663 Z-8.982 A244.3072 
N1040 X-194.327 Y19.393 Z-8.400 A247.4386 
N1041 X-194.327 Y20.059 Z-7.788 A250.3583 
N1042 X-194.327 Y20.667 Z-7.156 A253.1199 
N1043 X-194.327 Y21.225 Z-6.512 A255.7745 
N1044 X-194.327 Y21.740 Z-5.863 A258.3688 
N1045 X-194.327 Y22.218 Z-5.214 A260.9474 
N1046 X-194.327 Y22.666 Z-4.571 A263.5522 
N1047 X-194.327 Y23.090 Z-3.936 A266.2236 
N1048 X-194.327 Y23.496 Z-3.312 A269.0015 
N1049 X-194.327 Y23.889 Z-2.698 A271.9260 
N1050 X-194.327 Y24.276 Z-2.091 A275.0409 
N1051 X-194.327 Y24.662 Z-1.488 A278.3949 
N1052 X-194.327 Y25.053 Z-0.880 A282.0481 
N1053 X-194.327 Y25.456 Z-0.255 A286.0771 
N1054 X-194.327 Y25.876 Z0.404 A290.5830 
N1055 X-194.327 Y26.315 Z1.122 A295.6988 
N1056 X-194.327 Y26.773 Z1.930 A301.5904 
N1057 X-194.327 Y27.233 Z2.868 A308.4329 
N1058 X-194.327 Y27.655 Z3.972 A316.3412 
N1059 X-194.327 Y27.961 Z5.256 A325.2498 
N1060 X-194.327 Y28.053 Z6.684 A334.8673 
N1061 X-194.327 Y27.844 Z8.171 A344.7998 
N1062 X-194.327 Y27.263 Z9.360 A352.6797 
N1063 X-194.327 Y26.411 Z10.080 A357.4655 
N1064 X-194.327 Y25.385 Z10.423 A359.7525 
N1065 X-194.327 Y24.217 Z10.538 A0.4996 
N1066 X-194.327 Y22.909 Z10.561 A0.5875 
N1067 X-194.327 Y21.459 Z10.566 A0.5279 
N1068 X-194.327 Y19.871 Z10.582 A0.5201 
N1069 X-194.327 Y18.151 Z10.602 
N1070 X-194.327 Y16.315 Z10.624 
N1071 X-194.327 Y14.389 Z10.647 A0.5260 
N1072 X-194.327 Y12.399 Z10.671 A0.5374 
N1073 X-194.327 Y10.375 Z10.696 A0.5476 
N1074 X-194.327 Y8.348 Z10.721 A0.5530 
N1075 X-194.327 Y6.349 Z10.741 A0.5201 
N1076 X-194.327 Y4.409 Z10.767 
N1077 X-194.327 Y2.540 Z10.793 
N1078 X-194.327 Y0.773 Z10.868 A0.9674 
N1079 X-194.327 Y-0.878 Z11.028 A2.2719 
N1080 X-194.327 Y-2.410 Z11.278 A4.6154 
N1081 X-194.327 Y-3.834 Z11.595 A7.9684 
N1082 X-194.327 Y-5.166 Z11.950 A12.1846 
N1083 X-194.327 Y-6.419 Z12.306 A17.0152 
N1084 X-194.327 Y-7.610 Z12.642 A22.2838 
N1085 X-194.327 Y-8.752 Z12.948 A27.9121 
N1086 X-194.327 Y-9.857 Z13.208 A33.7642 
N1087 X-194.327 Y-10.928 Z13.406 A39.6954 
N1088 X-194.327 Y-11.963 Z13.528 A45.5821 
N1089 X-194.327 Y-12.959 Z13.567 A51.3255 
N1090 X-194.327 Y-13.911 Z13.520 A56.8574 
N1091 X-194.327 Y-14.813 Z13.387 A62.1423 
N1092 X-194.327 Y-15.662 Z13.171 A67.1675 
N1093 X-194.327 Y-16.455 Z12.876 A71.9326 
N1094 X-194.327 Y-17.190 Z12.508 A76.4445 
N1095 X-194.327 Y-17.864 Z12.071 A80.7124 
N1096 X-194.327 Y-18.476 Z11.571 A84.7482 
N1097 X-194.327 Y-19.025 Z11.014 A88.5650 
N1098 X-194.327 Y-19.510 Z10.404 A92.1815 
N1099 X-194.327 Y-19.932 Z9.748 A95.6171 
N1100 X-194.327 Y-20.292 Z9.051 A98.8963 
N1101 X-194.327 Y-20.592 Z8.317 A102.0416 
N1102 X-194.327 Y-20.833 Z7.553 A105.0780 
N1103 X-194.327 Y-21.019 Z6.762 A108.0315 
N1104 X-194.327 Y-21.151 Z5.948 A110.9292 
N1105 X-194.327 Y-21.233 Z5.115 A113.8028 
N1106 X-194.327 Y-21.269 Z4.263 A116.6864 
N1107 X-194.327 Y-21.260 Z3.395 A119.6206 
N1108 X-194.327 Y-21.209 Z2.509 A122.6510 
N1109 X-194.327 Y-21.119 Z1.602 A125.8361 
N1110 X-194.327 Y-20.990 Z0.669 A129.2485 
N1111 X-194.327 Y-20.820 Z-0.296 A132.9591 
N1112 X-194.327 Y-20.602 Z-1.299 A137.0337 
N1113 X-194.327 Y-20.322 Z-2.347 A141.5343 
N1114 X-194.327 Y-19.962 Z-3.440 A146.4914 
N1115 X-194.327 Y-19.495 Z-4.567 A151.8646 
N1116 X-194.327 Y-18.889 Z-5.701 A157.5194 
N1117 X-194.327 Y-18.119 Z-6.797 A163.2242 
N1118 X-194.327 Y-17.172 Z-7.795 A168.6516 
N1119 X-194.327 Y-16.055 Z-8.638 A173.4843 
N1120 X-194.327 Y-14.793 Z-9.297 A177.5490 
N1121 X-194.327 Y-13.414 Z-9.758 A180.7014 
N1122 X-194.327 Y-11.947 Z-10.029 A182.9230 
N1123 X-194.327 Y-10.413 Z-10.144 A184.3336 
N1124 X-194.327 Y-8.830 Z-10.138 A185.0737 
N1125 X-194.327 Y-7.210 Z-10.055 A185.3430 
N1126 X-194.327 Y-5.567 Z-9.930 A185.3408 
N1127 X-194.327 Y-3.916 Z-9.804 A185.3088 
N1128 X-194.327 Y-2.265 Z-9.682 
N1129 X-194.327 Y-0.634 Z-9.599 A185.6194 
N1130 X-194.327 Y0.964 Z-9.572 A186.4591 
N1131 X-194.327 Y2.520 Z-9.611 A188.0072 
N1132 X-194.327 Y4.032 Z-9.720 A190.4377 
N1133 X-194.327 Y5.505 Z-9.890 A193.8274 
N1134 X-194.327 Y6.946 Z-10.086 A198.0488 
N1135 X-194.327 Y8.357 Z-10.271 A202.9102 
N1136 X-194.327 Y9.736 Z-10.408 A208.1764 
N1137 X-194.327 Y11.073 Z-10.467 A213.5893 
N1138 X-194.327 Y12.354 Z-10.426 A218.9195 
N1139 X-194.327 Y13.561 Z-10.280 A224.0005 
N1140 X-194.327 Y14.685 Z-10.033 A228.7317 
N1141 X-194.327 Y15.719 Z-9.697 A233.0780 
N1142 X-194.327 Y16.665 Z-9.287 A237.0495 
N1143 X-194.327 Y17.528 Z-8.818 A240.6836 
N1144 X-194.327 Y18.314 Z-8.303 A244.0305 
N1145 X-194.327 Y19.031 Z-7.754 A247.1443 
N1146 X-194.327 Y19.687 Z-7.181 A250.0771 
N1147 X-194.327 Y20.289 Z-6.591 A252.8792 
N1148 X-194.327 Y20.845 Z-5.993 A255.5966 
N1149 X-194.327 Y21.361 Z-5.392 A258.2732 
N1150 X-194.327 Y21.844 Z-4.794 A260.9502 
N1151 X-194.327 Y22.298 Z-4.201 A263.6671 
N1152 X-194.327 Y22.731 Z-3.616 A266.4628 
N1153 X-194.327 Y23.149 Z-3.040 A269.3755 
N1154 X-194.327 Y23.556 Z-2.472 A272.4454 
N1155 X-194.327 Y23.960 Z-1.908 A275.7159 
N1156 X-194.327 Y24.365 Z-1.341 A279.2382 
N1157 X-194.327 Y24.778 Z-0.764 A283.0766 
N1158 X-194.327 Y25.205 Z-0.162 A287.3144 
N1159 X-194.327 Y25.650 Z0.485 A292.0641 
N1160 X-194.327 Y26.117 Z1.202 A297.4710 
N1161 X-194.327 Y26.599 Z2.026 A303.7095 
N1162 X-194.327 Y27.076 Z2.996 A310.9487 
N1163 X-194.327 Y27.494 Z4.145 A319.2621 
N1164 X-194.327 Y27.767 Z5.472 A328.5121 
N1165 X-194.327 Y27.799 Z6.937 A338.4493 
N1166 X-194.327 Y27.490 Z8.355 A347.9717 
N1167 X-194.327 Y26.838 Z9.417 A355.1146 
N1168 X-194.327 Y25.953 Z9.971 A358.8556 
N1169 X-194.327 Y24.919 Z10.173 A0.1998 
N1170 X-194.327 Y23.749 Z10.226 A0.5061 
N1171 X-194.327 Y22.441 Z10.240 A0.5209 
N1172 X-194.327 Y20.995 Z10.249 A0.4929 
N1173 X-194.327 Y19.417 Z10.265 A0.4875 
N1174 X-194.327 Y17.717 Z10.283 
N1175 X-194.327 Y15.914 Z10.303 
N1176 X-194.327 Y14.031 Z10.325 A0.4990 
N1177 X-194.327 Y12.095 Z10.348 A0.5149 
N1178 X-194.327 Y10.138 Z10.370 A0.5257 
N1179 X-194.327 Y8.189 Z10.390 A0.5064 
N1180 X-194.327 Y6.280 Z10.411 A0.4875 
N1181 X-194.327 Y4.433 Z10.435 
N1182 X-194.327 Y2.663 Z10.468 A0.5810 
N1183 X-194.327 Y1.006 Z10.557 A1.1942 
N1184 X-194.327 Y-0.536 Z10.719 A2.5678 
N1185 X-194.327 Y-1.963 Z10.986 A5.0789 
N1186 X-194.327 Y-3.291 Z11.345 A8.7977 
N1187 X-194.327 Y-4.538 Z11.735 A13.3304 
N1188 X-194.327 Y-5.715 Z12.114 A18.3666 
N1189 X-194.327 Y-6.843 Z12.479 A23.8737 
N1190 X-194.327 Y-7.936 Z12.813 A29.7349 
N1191 X-194.327 Y-9.002 Z13.097 A35.7884 
N1192 X-194.327 Y-10.041 Z13.311 A41.8816 
N1193 X-194.327 Y-11.049 Z13.444 A47.8828 
N1194 X-194.327 Y-12.019 Z13.488 A53.6952 
N1195 X-194.327 Y-12.944 Z13.442 A59.2571 
N1196 X-194.327 Y-13.819 Z13.308 A64.5402 
N1197 X-194.327 Y-14.639 Z13.090 A69.5386 
N1198 X-194.327 Y-15.403 Z12.794 A74.2590 
N1199 X-194.327 Y-16.107 Z12.425 A78.7136 
N1200 X-194.327 Y-16.751 Z11.989 A82.9171 
N1201 X-194.327 Y-17.332 Z11.492 A86.8854 
N1202 X-194.327 Y-17.850 Z10.939 A90.6362 
N1203 X-194.327 Y-18.305 Z10.337 A94.1873 
N1204 X-194.327 Y-18.698 Z9.689 A97.5630 
N1205 X-194.327 Y-19.031 Z9.003 A100.7890 
N1206 X-194.327 Y-19.305 Z8.281 A103.8944 
N1207 X-194.327 Y-19.524 Z7.530 A106.9054 
N1208 X-194.327 Y-19.688 Z6.752 A109.8474 
N1209 X-194.327 Y-19.801 Z5.952 A112.7443 
N1210 X-194.327 Y-19.864 Z5.132 A115.6232 
N1211 X-194.327 Y-19.881 Z4.294 A118.5172 
N1212 X-194.327 Y-19.854 Z3.439 A121.4665 
N1213 X-194.327 Y-19.785 Z2.565 A124.5241 
N1214 X-194.327 Y-19.678 Z1.669 A127.7572 
N1215 X-194.327 Y-19.531 Z0.744 A131.2357 
N1216 X-194.327 Y-19.341 Z-0.215 A135.0300 
N1217 X-194.327 Y-19.101 Z-1.215 A139.2151 
N1218 X-194.327 Y-18.796 Z-2.261 A143.8488 
N1219 X-194.327 Y-18.405 Z-3.349 A148.9333 
N1220 X-194.327 Y-17.898 Z-4.462 A154.3860 
N1221 X-194.327 Y-17.246 Z-5.564 A160.0259 
N1222 X-194.327 Y-16.430 Z-6.603 A165.5638 
N1223 X-194.327 Y-15.444 Z-7.521 A170.6755 
N1224 X-194.327 Y-14.307 Z-8.279 A175.1488 
N1225 X-194.327 Y-13.043 Z-8.856 A178.8393 
N1226 X-194.327 Y-11.680 Z-9.250 A181.6999 
N1227 X-194.327 Y-10.242 Z-9.473 A183.7211 
N1228 X-194.327 Y-8.750 Z-9.547 A184.9501 
N1229 X-194.327 Y-7.219 Z-9.514 A185.5661 
N1230 X-194.327 Y-5.660 Z-9.415 A185.7862 
N1231 X-194.327 Y-4.087 Z-9.286 A185.8105 
N1232 X-194.327 Y-2.512 Z-9.157 A185.8449 
N1233 X-194.327 Y-0.947 Z-9.057 A186.1086 
N1234 X-194.327 Y0.593 Z-9.003 A186.8022 
N1235 X-194.327 Y2.102 Z-9.011 A188.1258 
N1236 X-194.327 Y3.574 Z-9.088 A190.2743 
N1237 X-194.327 Y5.012 Z-9.227 A193.3231 
N1238 X-194.327 Y6.420 Z-9.401 A197.2064 
N1239 X-194.327 Y7.802 Z-9.581 A201.8006 
N1240 X-194.327 Y9.158 Z-9.728 A206.8661 
N1241 X-194.327 Y10.477 Z-9.807 A212.1456 
N1242 X-194.327 Y11.745 Z-9.796 A217.3970 
N1243 X-194.327 Y12.946 Z-9.685 A222.4445 
N1244 X-194.327 Y14.068 Z-9.476 A227.1773 
N1245 X-194.327 Y15.105 Z-9.181 A231.5500 
N1246 X-194.327 Y16.056 Z-8.813 A235.5648 
N1247 X-194.327 Y16.925 Z-8.386 A239.2536 
N1248 X-194.327 Y17.719 Z-7.915 A242.6629 
N1249 X-194.327 Y18.445 Z-7.410 A245.8442 
N1250 X-194.327 Y19.111 Z-6.881 A248.8480 
N1251 X-194.327 Y19.724 Z-6.336 A251.7226 
N1252 X-194.327 Y20.290 Z-5.783 A254.5127 
N1253 X-194.327 Y20.818 Z-5.226 A257.2607 
N1254 X-194.327 Y21.311 Z-4.671 A260.0065 
N1255 X-194.327 Y21.778 Z-4.121 A262.7887 
N1256 X-194.327 Y22.224 Z-3.578 A265.6450 
N1257 X-194.327 Y22.654 Z-3.041 A268.6131 
N1258 X-194.327 Y23.075 Z-2.511 A271.7322 
N1259 X-194.327 Y23.492 Z-1.983 A275.0445 
N1260 X-194.327 Y23.912 Z-1.452 A278.6003 
N1261 X-194.327 Y24.339 Z-0.908 A282.4612 
N1262 X-194.327 Y24.780 Z-0.339 A286.7086 
N1263 X-194.327 Y25.240 Z0.275 A291.4510 
N1264 X-194.327 Y25.723 Z0.959 A296.8312 
N1265 X-194.327 Y26.224 Z1.748 A303.0226 
N1266 X-194.327 Y26.723 Z2.682 A310.2016 
N1267 X-194.327 Y27.174 Z3.797 A318.4614 
N1268 X-194.327 Y27.492 Z5.097 A327.6930 
N1269 X-194.327 Y27.579 Z6.543 A337.6342 
N1270 X-194.327 Y27.345 Z8.017 A347.6707 
N1271 X-194.327 Y26.748 Z9.116 A355.1528 
N1272 X-194.327 Y25.914 Z9.649 A358.7567 
N1273 X-194.327 Y24.935 Z9.855 A0.1257 
N1274 X-194.327 Y23.826 Z9.923 A0.5522 
N1275 X-194.327 Y22.584 Z9.942 A0.6250 
N1276 X-194.327 Y21.208 Z9.949 A0.5932 
N1277 X-194.327 Y19.703 Z9.960 A0.5788 
N1278 X-194.327 Y18.079 Z9.976 
N1279 X-194.327 Y16.351 Z9.993 
N1280 X-194.327 Y14.543 Z10.012 A0.5857 
N1281 X-194.327 Y12.682 Z10.031 A0.5949 
N1282 X-194.327 Y10.796 Z10.050 A0.5983 
N1283 X-194.327 Y8.917 Z10.068 A0.5946 
N1284 X-194.327 Y7.072 Z10.085 A0.5788 
N1285 X-194.327 Y5.290 Z10.104 
N1286 X-194.327 Y3.585 Z10.123 
N1287 X-194.327 Y1.983 Z10.180 A0.9226 
N1288 X-194.327 Y0.496 Z10.324 A2.0751 
N1289 X-194.327 Y-0.879 Z10.587 A4.4401 
N1290 X-194.327 Y-2.155 Z10.946 A7.9926 
N1291 X-194.327 Y-3.350 Z11.346 A12.4078 
N1292 X-194.327 Y-4.484 Z11.760 A17.4908 
N1293 X-194.327 Y-5.572 Z12.162 A23.0669 
N1294 X-194.327 Y-6.632 Z12.539 A29.0298 
N1295 X-194.327 Y-7.673 Z12.869 A35.2215 
N1296 X-194.327 Y-8.695 Z13.131 A41.4721 
N1297 X-194.327 Y-9.691 Z13.309 A47.6336 
N1298 X-194.327 Y-10.654 Z13.395 A53.5980 
N1299 X-194.327 Y-11.574 Z13.388 A59.2967 
N1300 X-194.327 Y-12.446 Z13.290 A64.6976 
N1301 X-194.327 Y-13.264 Z13.106 A69.7955 
N1302 X-194.327 Y-14.026 Z12.841 A74.5991 
N1303 X-194.327 Y-14.728 Z12.503 A79.1240 
N1304 X-194.327 Y-15.370 Z12.098 A83.3866 
N1305 X-194.327 Y-15.950 Z11.630 A87.4058 
N1306 X-194.327 Y-16.468 Z11.107 A91.1992 
N1307 X-194.327 Y-16.923 Z10.533 A94.7881 
N1308 X-194.327 Y-17.316 Z9.914 A98.1950 
N1309 X-194.327 Y-17.649 Z9.255 A101.4463 
N1310 X-194.327 Y-17.924 Z8.561 A104.5692 
N1311 X-194.327 Y-18.143 Z7.836 A107.5914 
N1312 X-194.327 Y-18.308 Z7.083 A110.5385 
N1313 X-194.327 Y-18.421 Z6.308 A113.4354 
N1314 X-194.327 Y-18.485 Z5.512 A116.3085 
N1315 X-194.327 Y-18.501 Z4.697 A119.1885 
N1316 X-194.327 Y-18.473 Z3.865 A122.1154 
N1317 X-194.327 Y-18.404 Z3.013 A125.1438 
N1318 X-194.327 Y-18.295 Z2.138 A128.3402 
N1319 X-194.327 Y-18.148 Z1.235 A131.7718 
N1320 X-194.327 Y-17.959 Z0.298 A135.5134 
N1321 X-194.327 Y-17.721 Z-0.681 A139.6455 
N1322 X-194.327 Y-17.422 Z-1.705 A144.2221 
N1323 X-194.327 Y-17.038 Z-2.770 A149.2426 
N1324 X-194.327 Y-16.544 Z-3.859 A154.6219 
N1325 X-194.327 Y-15.911 Z-4.937 A160.1682 
N1326 X-194.327 Y-15.119 Z-5.949 A165.5869 
N1327 X-194.327 Y-14.169 Z-6.846 A170.5974 
N1328 X-194.327 Y-13.075 Z-7.593 A175.0124 
N1329 X-194.327 Y-11.860 Z-8.169 A178.7008 
N1330 X-194.327 Y-10.553 Z-8.569 A181.5947 
N1331 X-194.327 Y-9.175 Z-8.805 A183.6801 
N1332 X-194.327 Y-7.747 Z-8.900 A185.0463 
N1333 X-194.327 Y-6.284 Z-8.888 A185.8136 
N1334 X-194.327 Y-4.799 Z-8.801 A186.1411 
N1335 X-194.327 Y-3.303 Z-8.680 A186.2538 
N1336 X-194.327 Y-1.805 Z-8.560 A186.3989 
N1337 X-194.327 Y-0.319 Z-8.467 A186.7903 
N1338 X-194.327 Y1.145 Z-8.423 A187.6436 
N1339 X-194.327 Y2.581 Z-8.441 A189.1678 
N1340 X-194.327 Y3.986 Z-8.524 A191.4900 
N1341 X-194.327 Y5.362 Z-8.659 A194.6516 
N1342 X-194.327 Y6.714 Z-8.829 A198.6261 
N1343 X-194.327 Y8.044 Z-8.998 A203.2420 
N1344 X-194.327 Y9.348 Z-9.130 A208.2662 
N1345 X-194.327 Y10.616 Z-9.192 A213.4374 
N1346 X-194.327 Y11.831 Z-9.166 A218.5434 
N1347 X-194.327 Y12.981 Z-9.047 A223.4297 
N1348 X-194.327 Y14.053 Z-8.838 A228.0099 
N1349 X-194.327 Y15.044 Z-8.550 A232.2530 
N1350 X-194.327 Y15.955 Z-8.197 A236.1685 
N1351 X-194.327 Y16.790 Z-7.793 A239.7901 
N1352 X-194.327 Y17.555 Z-7.348 A243.1627 
N1353 X-194.327 Y18.256 Z-6.875 A246.3338 
N1354 X-194.327 Y18.902 Z-6.381 A249.3507 
N1355 X-194.327 Y19.498 Z-5.874 A252.2572 
N1356 X-194.327 Y20.052 Z-5.359 A255.0952 
N1357 X-194.327 Y20.570 Z-4.843 A257.9038 
N1358 X-194.327 Y21.057 Z-4.329 A260.7207 
N1359 X-194.327 Y21.520 Z-3.819 A263.5826 
N1360 X-194.327 Y21.965 Z-3.314 A266.5260 
N1361 X-194.327 Y22.397 Z-2.815 A269.5888 
N1362 X-194.327 Y22.822 Z-2.319 A272.8106 
N1363 X-194.327 Y23.246 Z-1.821 A276.2372 
N1364 X-194.327 Y23.675 Z-1.316 A279.9231 
N1365 X-194.327 Y24.116 Z-0.791 A283.9384 
N1366 X-194.327 Y24.573 Z-0.233 A288.3760 
N1367 X-194.327 Y25.053 Z0.381 A293.3605 
N1368 X-194.327 Y25.558 Z1.079 A299.0525 
N1369 X-194.327 Y26.079 Z1.900 A305.6402 
N1370 X-194.327 Y26.590 Z2.885 A313.2914 
N1371 X-194.327 Y27.027 Z4.065 A322.0426 
N1372 X-194.327 Y27.295 Z5.427 A331.7121 
N1373 X-194.327 Y27.302 Z6.932 A342.1237 
N1374 X-194.327 Y26.941 Z8.300 A351.5193 
N1375 X-194.327 Y26.262 Z9.113 A357.0543 
N1376 X-194.327 Y25.408 Z9.495 A359.6619 
N1377 X-194.327 Y24.425 Z9.637 A0.6346 
N1378 X-194.327 Y23.317 Z9.669 A0.8378 
N1379 X-194.327 Y22.080 Z9.669 A0.7926 
N1380 X-194.327 Y20.717 Z9.674 A0.7680 
N1381 X-194.327 Y19.230 Z9.686 
N1382 X-194.327 Y17.631 Z9.698 
N1383 X-194.327 Y15.941 Z9.711 
N1384 X-194.327 Y14.185 Z9.726 A0.7780 
N1385 X-194.327 Y12.389 Z9.741 A0.7926 
N1386 X-194.327 Y10.582 Z9.757 A0.8087 
N1387 X-194.327 Y8.792 Z9.771 A0.8131 
N1388 X-194.327 Y7.046 Z9.779 A0.7680 
N1389 X-194.327 Y5.374 Z9.795 
N1390 X-194.327 Y3.775 Z9.811 
N1391 X-194.327 Y2.284 Z9.889 A1.3178 
N1392 X-194.327 Y0.905 Z10.057 A2.7316 
N1393 X-194.327 Y-0.365 Z10.329 A5.2557 
N1394 X-194.327 Y-1.544 Z10.704 A9.0009 
N1395 X-194.327 Y-2.657 Z11.142 A13.7496 
N1396 X-194.327 Y-3.718 Z11.581 A19.0680 
N1397 X-194.327 Y-4.749 Z12.008 A24.8592 
N1398 X-194.327 Y-5.763 Z12.408 A31.0186 
N1399 X-194.327 Y-6.768 Z12.756 A37.3745 
N1400 X-194.327 Y-7.761 Z13.031 A43.7452 
N1401 X-194.327 Y-8.730 Z13.215 A49.9745 
N1402 X-194.327 Y-9.668 Z13.304 A55.9654 
N1403 X-194.327 Y-10.563 Z13.297 A61.6616 
N1404 X-194.327 Y-11.409 Z13.199 A67.0408 
N1405 X-194.327 Y-12.201 Z13.015 A72.1053 
N1406 X-194.327 Y-12.936 Z12.752 A76.8701 
N1407 X-194.327 Y-13.613 Z12.418 A81.3531 
N1408 X-194.327 Y-14.229 Z12.017 A85.5735 
N1409 X-194.327 Y-14.784 Z11.557 A89.5497 
N1410 X-194.327 Y-15.276 Z11.043 A93.3019 
N1411 X-194.327 Y-15.707 Z10.480 A96.8505 
N1412 X-194.327 Y-16.077 Z9.874 A100.2219 
N1413 X-194.327 Y-16.387 Z9.230 A103.4432 
N1414 X-194.327 Y-16.641 Z8.552 A106.5440 
N1415 X-194.327 Y-16.840 Z7.843 A109.5502 
N1416 X-194.327 Y-16.986 Z7.109 A112.4863 
N1417 X-194.327 Y-17.081 Z6.351 A115.3752 
N1418 X-194.327 Y-17.126 Z5.574 A118.2440 
N1419 X-194.327 Y-17.126 Z4.777 A121.1282 
N1420 X-194.327 Y-17.082 Z3.961 A124.0777 
N1421 X-194.327 Y-16.999 Z3.123 A127.1544 
N1422 X-194.327 Y-16.876 Z2.260 A130.4180 
N1423 X-194.327 Y-16.714 Z1.367 A133.9356 
N1424 X-194.327 Y-16.509 Z0.437 A137.7850 
N1425 X-194.327 Y-16.250 Z-0.534 A142.0285 
N1426 X-194.327 Y-15.924 Z-1.546 A146.6901 
N1427 X-194.327 Y-15.507 Z-2.589 A151.7293 
N1428 X-194.327 Y-14.974 Z-3.639 A157.0159 
N1429 X-194.327 Y-14.301 Z-4.655 A162.3221 
N1430 X-194.327 Y-13.482 Z-5.591 A167.3974 
N1431 X-194.327 Y-12.520 Z-6.409 A172.0481 
N1432 X-194.327 Y-11.434 Z-7.081 A176.1133 
N1433 X-194.327 Y-10.246 Z-7.592 A179.4777 
N1434 X-194.327 Y-8.978 Z-7.942 A182.0958 
N1435 X-194.327 Y-7.653 Z-8.146 A184.0079 
N1436 X-194.327 Y-6.287 Z-8.228 A185.2883 
N1437 X-194.327 Y-4.894 Z-8.219 A186.0850 
N1438 X-194.327 Y-3.483 Z-8.155 A186.5975 
N1439 X-194.327 Y-2.066 Z-8.068 A187.0286 
N1440 X-194.327 Y-0.651 Z-7.987 A187.5946 
N1441 X-194.327 Y0.752 Z-7.939 A188.5310 
N1442 X-194.327 Y2.138 Z-7.939 A190.0260 
N1443 X-194.327 Y3.501 Z-7.989 A192.1965 
N1444 X-194.327 Y4.843 Z-8.086 A195.1136 
N1445 X-194.327 Y6.163 Z-8.209 A198.7356 
N1446 X-194.327 Y7.461 Z-8.330 A202.9134 
N1447 X-194.327 Y8.730 Z-8.419 A207.4441 
N1448 X-194.327 Y9.959 Z-8.448 A212.1025 
N1449 X-194.327 Y11.136 Z-8.404 A216.7230 
N1450 X-194.327 Y12.252 Z-8.287 A221.2078 
N1451 X-194.327 Y13.303 Z-8.100 A225.5182 
N1452 X-194.327 Y14.288 Z-7.854 A229.6398 
N1453 X-194.327 Y15.206 Z-7.555 A233.5646 
N1454 X-194.327 Y16.058 Z-7.211 A237.2938 
N1455 X-194.327 Y16.848 Z-6.832 A240.8398 
N1456 X-194.327 Y17.579 Z-6.424 A244.2264 
N1457 X-194.327 Y18.256 Z-5.995 A247.4825 
N1458 X-194.327 Y18.885 Z-5.552 A250.6379 
N1459 X-194.327 Y19.471 Z-5.099 A253.7229 
N1460 X-194.327 Y20.019 Z-4.640 A256.7663 
N1461 X-194.327 Y20.535 Z-4.180 A259.7975 
N1462 X-194.327 Y21.022 Z-3.721 A262.8457 
N1463 X-194.327 Y21.488 Z-3.263 A265.9418 
N1464 X-194.327 Y21.937 Z-2.807 A269.1187 
N1465 X-194.327 Y22.376 Z-2.350 A272.4129 
N1466 X-194.327 Y22.809 Z-1.891 A275.8678 
N1467 X-194.327 Y23.243 Z-1.421 A279.5362 
N1468 X-194.327 Y23.684 Z-0.933 A283.4871 
N1469 X-194.327 Y24.140 Z-0.412 A287.8118 
N1470 X-194.327 Y24.617 Z0.160 A292.6345 
N1471 X-194.327 Y25.119 Z0.812 A298.1180 
N1472 X-194.327 Y25.644 Z1.579 A304.4642 
N1473 X-194.327 Y26.172 Z2.507 A311.8779 
N1474 X-194.327 Y26.650 Z3.634 A320.4685 
N1475 X-194.327 Y26.987 Z4.966 A330.1350 
N1476 X-194.327 Y27.087 Z6.486 A340.8391 
N1477 X-194.327 Y26.815 Z7.914 A350.7496 
N1478 X-194.327 Y26.205 Z8.802 A356.8629 
N1479 X-194.327 Y25.412 Z9.227 A359.8161 
N1480 X-194.327 Y24.495 Z9.373 A0.8463 
N1481 X-194.327 Y23.458 Z9.396 A1.0095 
N1482 X-194.327 Y22.296 Z9.390 A0.9438 
N1483 X-194.327 Y21.012 Z9.393 A0.9306 
N1484 X-194.327 Y19.605 Z9.400 
N1485 X-194.327 Y18.087 Z9.408 
N1486 X-194.327 Y16.479 Z9.416 
N1487 X-194.327 Y14.803 Z9.425 A0.9382 
N1488 X-194.327 Y13.083 Z9.435 A0.9493 
N1489 X-194.327 Y11.347 Z9.444 A0.9602 
N1490 X-194.327 Y9.625 Z9.452 A0.9608 
N1491 X-194.327 Y7.942 Z9.457 A0.9306 
N1492 X-194.327 Y6.326 Z9.467 
N1493 X-194.327 Y4.786 Z9.477 
N1494 X-194.327 Y3.343 Z9.510 A1.1475 
N1495 X-194.327 Y2.014 Z9.614 A1.9994 
N1496 X-194.327 Y0.795 Z9.833 A3.9375 
N1497 X-194.327 Y-0.331 Z10.202 A7.3745 
N1498 X-194.327 Y-1.392 Z10.667 A12.0461 
N1499 X-194.327 Y-2.406 Z11.150 A17.4006 
N1500 X-194.327 Y-3.396 Z11.634 A23.3170 
N1501 X-194.327 Y-4.380 Z12.098 A29.6743 
N1502 X-194.327 Y-5.367 Z12.514 A36.2828 
N1503 X-194.327 Y-6.352 Z12.855 A42.9397 
N1504 X-194.327 Y-7.322 Z13.102 A49.4537 
N1505 X-194.327 Y-8.262 Z13.243 A55.6844 
N1506 X-194.327 Y-9.161 Z13.283 A61.5791 
N1507 X-194.327 Y-10.010 Z13.225 A67.1220 
N1508 X-194.327 Y-10.805 Z13.078 A72.3153 
N1509 X-194.327 Y-11.542 Z12.850 A77.1795 
N1510 X-194.327 Y-12.219 Z12.548 A81.7395 
N1511 X-194.327 Y-12.836 Z12.179 A86.0192 
N1512 X-194.327 Y-13.391 Z11.750 A90.0423 
N1513 X-194.327 Y-13.885 Z11.266 A93.8318 
N1514 X-194.327 Y-14.317 Z10.734 A97.4107 
N1515 X-194.327 Y-14.689 Z10.158 A100.8055 
N1516 X-194.327 Y-15.001 Z9.543 A104.0418 
N1517 X-194.327 Y-15.257 Z8.893 A107.1497 
N1518 X-194.327 Y-15.458 Z8.213 A110.1565 
N1519 X-194.327 Y-15.606 Z7.505 A113.0875 
N1520 X-194.327 Y-15.703 Z6.774 A115.9653 
N1521 X-194.327 Y-15.751 Z6.022 A118.8163 
N1522 X-194.327 Y-15.753 Z5.250 A121.6779 
N1523 X-194.327 Y-15.714 Z4.458 A124.6066 
N1524 X-194.327 Y-15.635 Z3.644 A127.6555 
N1525 X-194.327 Y-15.517 Z2.808 A130.8690 
N1526 X-194.327 Y-15.359 Z1.944 A134.3072 
N1527 X-194.327 Y-15.159 Z1.049 A138.0373 
N1528 X-194.327 Y-14.910 Z0.119 A142.1095 
N1529 X-194.327 Y-14.599 Z-0.845 A146.5400 
N1530 X-194.327 Y-14.207 Z-1.833 A151.2912 
N1531 X-194.327 Y-13.713 Z-2.824 A156.2427 
N1532 X-194.327 Y-13.100 Z-3.784 A161.2026 
N1533 X-194.327 Y-12.361 Z-4.679 A165.9893 
N1534 X-194.327 Y-11.498 Z-5.478 A170.4432 
N1535 X-194.327 Y-10.523 Z-6.159 A174.4388 
N1536 X-194.327 Y-9.453 Z-6.706 A177.8888 
N1537 X-194.327 Y-8.306 Z-7.120 A180.7705 
N1538 X-194.327 Y-7.100 Z-7.409 A183.1078 
N1539 X-194.327 Y-5.849 Z-7.590 A184.9821 
N1540 X-194.327 Y-4.564 Z-7.687 A186.5158 
N1541 X-194.327 Y-3.256 Z-7.723 A187.8521 
N1542 X-194.327 Y-1.932 Z-7.723 A189.1585 
N1543 X-194.327 Y-0.600 Z-7.708 A190.6008 
N1544 X-194.327 Y0.733 Z-7.693 A192.3082 
N1545 X-194.327 Y2.063 Z-7.683 A194.3741 
N1546 X-194.327 Y3.381 Z-7.678 A196.8422 
N1547 X-194.327 Y4.683 Z-7.669 A199.6906 
N1548 X-194.327 Y5.962 Z-7.645 A202.8625 
N1549 X-194.327 Y7.209 Z-7.594 A206.2745 
N1550 X-194.327 Y8.416 Z-7.508 A209.8410 
N1551 X-194.327 Y9.578 Z-7.382 A213.4945 
N1552 X-194.327 Y10.689 Z-7.216 A217.1877 
N1553 X-194.327 Y11.746 Z-7.012 A220.8947 
N1554 X-194.327 Y12.749 Z-6.775 A224.6004 
N1555 X-194.327 Y13.698 Z-6.508 A228.2911 
N1556 X-194.327 Y14.592 Z-6.215 A231.9475 
N1557 X-194.327 Y15.431 Z-5.898 A235.5452 
N1558 X-194.327 Y16.216 Z-5.561 A239.0630 
N1559 X-194.327 Y16.947 Z-5.208 A242.4916 
N1560 X-194.327 Y17.627 Z-4.844 A245.8359 
N1561 X-194.327 Y18.262 Z-4.473 A249.1129 
N1562 X-194.327 Y18.857 Z-4.100 A252.3488 
N1563 X-194.327 Y19.418 Z-3.726 A255.5744 
N1564 X-194.327 Y19.952 Z-3.354 A258.8232 
N1565 X-194.327 Y20.467 Z-2.985 A262.1302 
N1566 X-194.327 Y20.967 Z-2.616 A265.5304 
N1567 X-194.327 Y21.459 Z-2.246 A269.0580 
N1568 X-194.327 Y21.948 Z-1.871 A272.7459 
N1569 X-194.327 Y22.438 Z-1.485 A276.6268 
N1570 X-194.327 Y22.932 Z-1.080 A280.7346 
N1571 X-194.327 Y23.433 Z-0.647 A285.1085 
N1572 X-194.327 Y23.941 Z-0.176 A289.7954 
N1573 X-194.327 Y24.455 Z0.349 A294.8503 
N1574 X-194.327 Y24.970 Z0.943 A300.3382 
N1575 X-194.327 Y25.476 Z1.626 A306.3327 
N1576 X-194.327 Y25.955 Z2.419 A312.8967 
N1577 X-194.327 Y26.376 Z3.333 A320.0532 
N1578 X-194.327 Y26.693 Z4.370 A327.7506 
N1579 X-194.327 Y26.853 Z5.507 A335.8452 
N1580 X-194.327 Y26.807 Z6.682 A344.0196 
N1581 X-194.327 Y26.521 Z7.779 A351.6095 
N1582 X-194.327 Y26.012 Z8.607 A357.4100 
N1583 X-194.327 Y25.345 Z9.113 A1.0937 
N1584 X-194.327 Y24.565 Z9.389 A3.3122 
N1585 X-194.327 Y23.686 Z9.522 A4.6621 
N1586 X-194.327 Y22.710 Z9.558 A5.4293 
N1587 X-194.327 Y21.642 Z9.521 A5.7384 
N1588 X-194.327 Y20.486 Z9.441 A5.7277 
N1589 X-194.327 Y19.247 Z9.349 A5.5512 
N1590 X-194.327 Y17.932 Z9.269 A5.3193 
N1591 X-194.327 Y16.551 Z9.220 A5.1385 
N1592 X-194.327 Y15.119 Z9.224 
N1593 X-194.327 Y13.639 Z9.253 
N1594 X-194.327 Y12.133 Z9.303 
N1595 X-194.327 Y10.627 Z9.368 
N1596 X-194.327 Y9.142 Z9.443 
N1597 X-194.327 Y7.692 Z9.520 
N1598 X-194.327 Y6.285 Z9.593 
N1599 X-194.327 Y4.922 Z9.649 
N1600 X-194.327 Y3.599 Z9.677 
N1601 X-194.327 Y2.365 Z9.764 A5.8785 
N1602 X-194.327 Y1.245 Z9.963 A7.8215 
N1603 X-194.327 Y0.222 Z10.257 A10.9161 
N1604 X-194.327 Y-0.722 Z10.641 A15.1306 
N1605 X-194.327 Y-1.618 Z11.067 A20.1134 
N1606 X-194.327 Y-2.493 Z11.515 A25.7026 
N1607 X-194.327 Y-3.366 Z11.950 A31.6759 
N1608 X-194.327 Y-4.246 Z12.339 A37.8065 
N1609 X-194.327 Y-5.130 Z12.661 A43.9569 
N1610 X-194.327 Y-6.009 Z12.904 A50.0090 
N1611 X-194.327 Y-6.873 Z13.060 A55.8748 
N1612 X-194.327 Y-7.713 Z13.126 A61.5066 
N1613 X-194.327 Y-8.522 Z13.105 A66.8888 
N1614 X-194.327 Y-9.292 Z13.001 A72.0153 
N1615 X-194.327 Y-10.018 Z12.818 A76.8838 
N1616 X-194.327 Y-10.696 Z12.562 A81.4992 
N1617 X-194.327 Y-11.320 Z12.237 A85.8666 
N1618 X-194.327 Y-11.888 Z11.851 A89.9971 
N1619 X-194.327 Y-12.398 Z11.408 A93.9026 
N1620 X-194.327 Y-12.848 Z10.915 A97.6006 
N1621 X-194.327 Y-13.238 Z10.376 A101.1104 
N1622 X-194.327 Y-13.569 Z9.797 A104.4551 
N1623 X-194.327 Y-13.843 Z9.181 A107.6611 
N1624 X-194.327 Y-14.061 Z8.533 A110.7546 
N1625 X-194.327 Y-14.224 Z7.856 A113.7636 
N1626 X-194.327 Y-14.337 Z7.153 A116.7231 
N1627 X-194.327 Y-14.401 Z6.425 A119.6627 
N1628 X-194.327 Y-14.411 Z5.680 A122.5526 
N1629 X-194.327 Y-14.369 Z4.920 A125.4139 
N1630 X-194.327 Y-14.293 Z4.134 A128.4291 
N1631 X-194.327 Y-14.183 Z3.320 A131.6553 
N1632 X-194.327 Y-14.027 Z2.485 A135.0362 
N1633 X-194.327 Y-13.824 Z1.630 A138.5976 
N1634 X-194.327 Y-13.568 Z0.754 A142.3710 
N1635 X-194.327 Y-13.252 Z-0.139 A146.3586 
N1636 X-194.327 Y-12.867 Z-1.042 A150.5388 
N1637 X-194.327 Y-12.400 Z-1.942 A154.8584 
N1638 X-194.327 Y-11.844 Z-2.824 A159.2409 
N1639 X-194.327 Y-11.191 Z-3.667 A163.5890 
N1640 X-194.327 Y-10.441 Z-4.450 A167.8058 
N1641 X-194.327 Y-9.596 Z-5.156 A171.8000 
N1642 X-194.327 Y-8.666 Z-5.770 A175.5050 
N1643 X-194.327 Y-7.660 Z-6.284 A178.8823 
N1644 X-194.327 Y-6.591 Z-6.698 A181.9289 
N1645 X-194.327 Y-5.470 Z-7.016 A184.6730 
N1646 X-194.327 Y-4.308 Z-7.247 A187.1679 
N1647 X-194.327 Y-3.114 Z-7.403 A189.4887 
N1648 X-194.327 Y-1.894 Z-7.496 A191.7201 
N1649 X-194.327 Y-0.657 Z-7.538 A193.9473 
N1650 X-194.327 Y0.593 Z-7.538 A196.2476 
N1651 X-194.327 Y1.848 Z-7.503 A198.6787 
N1652 X-194.327 Y3.102 Z-7.435 A201.2723 
N1653 X-194.327 Y4.348 Z-7.334 A204.0318 
N1654 X-194.327 Y5.575 Z-7.197 A206.9299 
N1655 X-194.327 Y6.774 Z-7.021 A209.9152 
N1656 X-194.327 Y7.935 Z-6.802 A212.9271 
N1657 X-194.327 Y9.047 Z-6.542 A215.9161 
N1658 X-194.327 Y10.104 Z-6.247 A218.8563 
N1659 X-194.327 Y11.103 Z-5.924 A221.7480 
N1660 X-194.327 Y12.043 Z-5.583 A224.6089 
N1661 X-194.327 Y12.926 Z-5.233 A227.4575 
N1662 X-194.327 Y13.755 Z-4.881 A230.3126 
N1663 X-194.327 Y14.532 Z-4.533 A233.1953 
N1664 X-194.327 Y15.264 Z-4.194 A236.1275 
N1665 X-194.327 Y15.956 Z-3.868 A239.1339 
N1666 X-194.327 Y16.614 Z-3.556 A242.2393 
N1667 X-194.327 Y17.247 Z-3.261 A245.4674 
N1668 X-194.327 Y17.859 Z-2.979 A248.8392 
N1669 X-194.327 Y18.459 Z-2.709 A252.3726 
N1670 X-194.327 Y19.051 Z-2.448 A256.0828 
N1671 X-194.327 Y19.641 Z-2.188 A259.9796 
N1672 X-194.327 Y20.231 Z-1.924 A264.0691 
N1673 X-194.327 Y20.823 Z-1.649 A268.3502 
N1674 X-194.327 Y21.417 Z-1.355 A272.8178 
N1675 X-194.327 Y22.010 Z-1.035 A277.4643 
N1676 X-194.327 Y22.601 Z-0.681 A282.2851 
N1677 X-194.327 Y23.184 Z-0.285 A287.2785 
N1678 X-194.327 Y23.756 Z0.159 A292.4457 
N1679 X-194.327 Y24.308 Z0.657 A297.7933 
N1680 X-194.327 Y24.834 Z1.217 A303.3328 
N1681 X-194.327 Y25.322 Z1.843 A309.0761 
N1682 X-194.327 Y25.759 Z2.540 A315.0285 
N1683 X-194.327 Y26.129 Z3.308 A321.1769 
N1684 X-194.327 Y26.409 Z4.139 A327.4823 
N1685 X-194.327 Y26.579 Z5.019 A333.8718 
N1686 X-194.327 Y26.618 Z5.923 A340.2322 
N1687 X-194.327 Y26.510 Z6.813 A346.3998 
N1688 X-194.327 Y26.251 Z7.644 A352.1585 
N1689 X-194.327 Y25.848 Z8.376 A357.3259 
N1690 X-194.327 Y25.316 Z8.974 A1.7520 
N1691 X-194.327 Y24.675 Z9.419 A5.3327 
N1692 X-194.327 Y23.944 Z9.709 A8.0639 
N1693 X-194.327 Y23.141 Z9.851 A9.9663 
N1694 X-194.327 Y22.277 Z9.864 A11.1122 
N1695 X-194.327 Y21.361 Z9.780 A11.6326 
N1696 X-194.327 Y20.398 Z9.632 A11.6685 
N1697 X-194.327 Y19.389 Z9.456 A11.3853 
N1698 X-194.327 Y18.331 Z9.293 A10.9909 
N1699 X-194.327 Y17.222 Z9.170 A10.6242 
N1700 X-194.327 Y16.074 Z9.133 A10.5615 
N1701 X-194.327 Y14.876 Z9.146 
N1702 X-194.327 Y13.639 Z9.198 
N1703 X-194.327 Y12.388 Z9.284 
N1704 X-194.327 Y11.142 Z9.398 
N1705 X-194.327 Y9.914 Z9.532 
N1706 X-194.327 Y8.710 Z9.679 
N1707 X-194.327 Y7.531 Z9.829 
N1708 X-194.327 Y6.370 Z9.970 
N1709 X-194.327 Y5.217 Z10.089 
N1710 X-194.327 Y4.068 Z10.168 
N1711 X-194.327 Y2.918 Z10.189 
N1712 X-194.327 Y1.854 Z10.335 A11.9406 
N1713 X-194.327 Y0.871 Z10.565 A14.4975 
N1714 X-194.327 Y-0.031 Z10.879 A18.2002 
N1715 X-194.327 Y-0.869 Z11.259 A22.8408 
N1716 X-194.327 Y-1.670 Z11.654 A27.9974 
N1717 X-194.327 Y-2.453 Z12.039 A33.4432 
N1718 X-194.327 Y-3.231 Z12.384 A38.9635 
N1719 X-194.327 Y-4.003 Z12.661 A44.3468 
N1720 X-194.327 Y-4.767 Z12.867 A49.5845 
N1721 X-194.327 Y-5.522 Z13.005 A54.6765 
N1722 X-194.327 Y-6.265 Z13.075 A59.6309 
N1723 X-194.327 Y-6.995 Z13.077 A64.4631 
N1724 X-194.327 Y-7.709 Z13.013 A69.1921 
N1725 X-194.327 Y-8.406 Z12.883 A73.8264 
N1726 X-194.327 Y-9.080 Z12.687 A78.3641 
N1727 X-194.327 Y-9.724 Z12.426 A82.7930 
N1728 X-194.327 Y-10.331 Z12.100 A87.0996 
N1729 X-194.327 Y-10.895 Z11.714 A91.2680 
N1730 X-194.327 Y-11.410 Z11.271 A95.2883 
N1731 X-194.327 Y-11.871 Z10.775 A99.1548 
N1732 X-194.327 Y-12.273 Z10.232 A102.8654 
N1733 X-194.327 Y-12.615 Z9.647 A106.4193 
N1734 X-194.327 Y-12.894 Z9.026 A109.8140 
N1735 X-194.327 Y-13.108 Z8.374 A113.0491 
N1736 X-194.327 Y-13.258 Z7.698 A116.1320 
N1737 X-194.327 Y-13.346 Z7.001 A119.0871 
N1738 X-194.327 Y-13.378 Z6.287 A121.9577 
N1739 X-194.327 Y-13.359 Z5.555 A124.7968 
N1740 X-194.327 Y-13.293 Z4.808 A127.6409 
N1741 X-194.327 Y-13.182 Z4.046 A130.5310 
N1742 X-194.327 Y-13.030 Z3.268 A133.5274 
N1743 X-194.327 Y-12.840 Z2.471 A136.6827 
N1744 X-194.327 Y-12.610 Z1.654 A140.0436 
N1745 X-194.327 Y-12.338 Z0.817 A143.6475 
N1746 X-194.327 Y-12.015 Z-0.035 A147.4827 
N1747 X-194.327 Y-11.631 Z-0.893 A151.4879 
N1748 X-194.327 Y-11.176 Z-1.741 A155.5920 
N1749 X-194.327 Y-10.644 Z-2.569 A159.7382 
N1750 X-194.327 Y-10.032 Z-3.364 A163.8928 
N1751 X-194.327 Y-9.339 Z-4.114 A168.0123 
N1752 X-194.327 Y-8.565 Z-4.807 A172.0412 
N1753 X-194.327 Y-7.714 Z-5.430 A175.9306 
N1754 X-194.327 Y-6.791 Z-5.975 A179.6519 
N1755 X-194.327 Y-5.803 Z-6.436 A183.1918 
N1756 X-194.327 Y-4.759 Z-6.811 A186.5530 
N1757 X-194.327 Y-3.666 Z-7.100 A189.7500 
N1758 X-194.327 Y-2.533 Z-7.305 A192.8052 
N1759 X-194.327 Y-1.367 Z-7.430 A195.7449 
N1760 X-194.327 Y-0.177 Z-7.477 A198.5926 
N1761 X-194.327 Y1.028 Z-7.451 A201.3658 
N1762 X-194.327 Y2.239 Z-7.354 A204.0698 
N1763 X-194.327 Y3.443 Z-7.190 A206.6972 
N1764 X-194.327 Y4.629 Z-6.962 A209.2281 
N1765 X-194.327 Y5.786 Z-6.675 A211.6328 
N1766 X-194.327 Y6.903 Z-6.336 A213.8957 
N1767 X-194.327 Y7.971 Z-5.956 A216.0275 
N1768 X-194.327 Y8.987 Z-5.551 A218.0683 
N1769 X-194.327 Y9.951 Z-5.136 A220.0912 
N1770 X-194.327 Y10.866 Z-4.727 A222.1813 
N1771 X-194.327 Y11.735 Z-4.333 A224.3966 
N1772 X-194.327 Y12.559 Z-3.962 A226.7639 
N1773 X-194.327 Y13.340 Z-3.616 A229.2989 
N1774 X-194.327 Y14.081 Z-3.299 A232.0094 
N1775 X-194.327 Y14.787 Z-3.009 A234.9010 
N1776 X-194.327 Y15.464 Z-2.748 A237.9864 
N1777 X-194.327 Y16.118 Z-2.513 A241.2809 
N1778 X-194.327 Y16.758 Z-2.302 A244.7979 
N1779 X-194.327 Y17.390 Z-2.109 A248.5488 
N1780 X-194.327 Y18.022 Z-1.928 A252.5382 
N1781 X-194.327 Y18.658 Z-1.749 A256.7664 
N1782 X-194.327 Y19.301 Z-1.564 A261.2207 
N1783 X-194.327 Y19.949 Z-1.363 A265.8794 
N1784 X-194.327 Y20.601 Z-1.136 A270.7170 
N1785 X-194.327 Y21.253 Z-0.876 A275.7141 
N1786 X-194.327 Y21.900 Z-0.574 A280.8522 
N1787 X-194.327 Y22.536 Z-0.225 A286.1132 
N1788 X-194.327 Y23.154 Z0.176 A291.4819 
N1789 X-194.327 Y23.745 Z0.632 A296.9471 
N1790 X-194.327 Y24.302 Z1.147 A302.5043 
N1791 X-194.327 Y24.816 Z1.720 A308.1516 
N1792 X-194.327 Y25.276 Z2.352 A313.8838 
N1793 X-194.327 Y25.671 Z3.039 A319.6897 
N1794 X-194.327 Y25.988 Z3.777 A325.5443 
N1795 X-194.327 Y26.215 Z4.554 A331.4181 
N1796 X-194.327 Y26.338 Z5.357 A337.2596 
N1797 X-194.327 Y26.349 Z6.165 A343.0016 
N1798 X-194.327 Y26.240 Z6.954 A348.5381 
N1799 X-194.327 Y26.010 Z7.697 A353.7721 
N1800 X-194.327 Y25.664 Z8.365 A358.5916 
N1801 X-194.327 Y25.212 Z8.938 A2.9086 
N1802 X-194.327 Y24.664 Z9.399 A6.6615 
N1803 X-194.327 Y24.035 Z9.734 A9.7753 
N1804 X-194.327 Y23.339 Z9.941 A12.2341 
N1805 X-194.327 Y22.588 Z10.026 A14.0528 
N1806 X-194.327 Y21.796 Z10.001 A15.2492 
N1807 X-194.327 Y20.974 Z9.888 A15.8964 
N1808 X-194.327 Y20.128 Z9.716 A16.1086 
N1809 X-194.327 Y19.263 Z9.511 A15.9683 
N1810 X-194.327 Y18.377 Z9.302 A15.5968 
N1811 X-194.327 Y17.465 Z9.123 A15.1725 
N1812 X-194.327 Y16.523 Z8.996 A14.8052 
N1813 X-194.327 Y15.557 Z8.962 A14.7432 
N1814 X-194.327 Y14.558 Z8.985 
N1815 X-194.327 Y13.535 Z9.054 
N1816 X-194.327 Y12.504 Z9.165 
N1817 X-194.327 Y11.476 Z9.311 
N1818 X-194.327 Y10.458 Z9.485 
N1819 X-194.327 Y9.453 Z9.678 
N1820 X-194.327 Y8.458 Z9.880 
N1821 X-194.327 Y7.468 Z10.079 
N1822 X-194.327 Y6.481 Z10.263 
N1823 X-194.327 Y5.492 Z10.420 
N1824 X-194.327 Y4.498 Z10.534 
N1825 X-194.327 Y3.499 Z10.591 
N1826 X-194.327 Y2.507 Z10.600 A14.9036 
N1827 X-194.327 Y1.592 Z10.743 A16.5132 
N1828 X-194.327 Y0.736 Z10.953 A19.1478 
N1829 X-194.327 Y-0.056 Z11.261 A22.9775 
N1830 X-194.327 Y-0.805 Z11.643 A27.7565 
N1831 X-194.327 Y-1.537 Z12.045 A33.0505 
N1832 X-194.327 Y-2.265 Z12.432 A38.5818 
N1833 X-194.327 Y-2.996 Z12.770 A44.1049 
N1834 X-194.327 Y-3.723 Z13.027 A49.3899 
N1835 X-194.327 Y-4.441 Z13.205 A54.4513 
N1836 X-194.327 Y-5.147 Z13.309 A59.3115 
N1837 X-194.327 Y-5.839 Z13.343 A63.9950 
N1838 X-194.327 Y-6.514 Z13.309 A68.5208 
N1839 X-194.327 Y-7.170 Z13.209 A72.9046 
N1840 X-194.327 Y-7.803 Z13.045 A77.1662 
N1841 X-194.327 Y-8.413 Z12.820 A81.3323 
N1842 X-194.327 Y-8.997 Z12.535 A85.4199 
N1843 X-194.327 Y-9.550 Z12.191 A89.4294 
N1844 X-194.327 Y-10.067 Z11.789 A93.3555 
N1845 X-194.327 Y-10.542 Z11.334 A97.1869 
N1846 X-194.327 Y-10.968 Z10.827 A100.9139 
N1847 X-194.327 Y-11.342 Z10.274 A104.5281 
N1848 X-194.327 Y-11.659 Z9.680 A108.0209 
N1849 X-194.327 Y-11.916 Z9.051 A111.3839 
N1850 X-194.327 Y-12.110 Z8.393 A114.6073 
N1851 X-194.327 Y-12.240 Z7.712 A117.6881 
N1852 X-194.327 Y-12.310 Z7.012 A120.6498 
N1853 X-194.327 Y-12.324 Z6.298 A123.5260 
N1854 X-194.327 Y-12.283 Z5.573 A126.3277 
N1855 X-194.327 Y-12.192 Z4.840 A129.0853 
N1856 X-194.327 Y-12.058 Z4.099 A131.8634 
N1857 X-194.327 Y-11.886 Z3.347 A134.7233 
N1858 X-194.327 Y-11.681 Z2.582 A137.7317 
N1859 X-194.327 Y-11.444 Z1.800 A140.9564 
N1860 X-194.327 Y-11.173 Z1.001 A144.4227 
N1861 X-194.327 Y-10.860 Z0.192 A148.0957 
N1862 X-194.327 Y-10.496 Z-0.620 A151.9422 
N1863 X-194.327 Y-10.076 Z-1.429 A155.9354 
N1864 X-194.327 Y-9.593 Z-2.228 A160.0644 
N1865 X-194.327 Y-9.042 Z-3.008 A164.3055 
N1866 X-194.327 Y-8.418 Z-3.760 A168.6210 
N1867 X-194.327 Y-7.717 Z-4.470 A172.9589 
N1868 X-194.327 Y-6.937 Z-5.124 A177.2708 
N1869 X-194.327 Y-6.081 Z-5.709 A181.5122 
N1870 X-194.327 Y-5.153 Z-6.215 A185.6442 
N1871 X-194.327 Y-4.158 Z-6.630 A189.6334 
N1872 X-194.327 Y-3.105 Z-6.948 A193.4510 
N1873 X-194.327 Y-2.005 Z-7.162 A197.0720 
N1874 X-194.327 Y-0.869 Z-7.270 A200.4735 
N1875 X-194.327 Y0.290 Z-7.272 A203.6315 
N1876 X-194.327 Y1.457 Z-7.169 A206.5238 
N1877 X-194.327 Y2.620 Z-6.966 A209.1257 
N1878 X-194.327 Y3.764 Z-6.673 A211.4238 
N1879 X-194.327 Y4.877 Z-6.302 A213.4190 
N1880 X-194.327 Y5.951 Z-5.867 A215.1264 
N1881 X-194.327 Y6.977 Z-5.388 A216.5870 
N1882 X-194.327 Y7.953 Z-4.881 A217.8594 
N1883 X-194.327 Y8.877 Z-4.368 A219.0240 
N1884 X-194.327 Y9.752 Z-3.867 A220.1916 
N1885 X-194.327 Y10.583 Z-3.399 A221.4880 
N1886 X-194.327 Y11.374 Z-2.975 A223.0193 
N1887 X-194.327 Y12.130 Z-2.606 A224.8645 
N1888 X-194.327 Y12.858 Z-2.294 A227.0819 
N1889 X-194.327 Y13.564 Z-2.039 A229.6946 
N1890 X-194.327 Y14.250 Z-1.835 A232.6840 
N1891 X-194.327 Y14.922 Z-1.675 A236.0307 
N1892 X-194.327 Y15.589 Z-1.551 A239.7383 
N1893 X-194.327 Y16.261 Z-1.454 A243.8035 
N1894 X-194.327 Y16.943 Z-1.373 A248.2137 
N1895 X-194.327 Y17.641 Z-1.294 A252.9405 
N1896 X-194.327 Y18.352 Z-1.202 A257.9295 
N1897 X-194.327 Y19.073 Z-1.084 A263.1193 
N1898 X-194.327 Y19.796 Z-0.930 A268.4529 
N1899 X-194.327 Y20.515 Z-0.731 A273.8875 
N1900 X-194.327 Y21.221 Z-0.481 A279.3808 
N1901 X-194.327 Y21.905 Z-0.179 A284.8946 
N1902 X-194.327 Y22.559 Z0.178 A290.4022 
N1903 X-194.327 Y23.176 Z0.589 A295.8865 
N1904 X-194.327 Y23.749 Z1.050 A301.3382 
N1905 X-194.327 Y24.273 Z1.560 A306.7559 
N1906 X-194.327 Y24.743 Z2.115 A312.1466 
N1907 X-194.327 Y25.154 Z2.714 A317.5233 
N1908 X-194.327 Y25.502 Z3.354 A322.8984 
N1909 X-194.327 Y25.781 Z4.030 A328.2870 
N1910 X-194.327 Y25.984 Z4.740 A333.6990 
N1911 X-194.327 Y26.105 Z5.476 A339.1392 
N1912 X-194.327 Y26.135 Z6.229 A344.5898 
N1913 X-194.327 Y26.066 Z6.984 A350.0055 
N1914 X-194.327 Y25.894 Z7.720 A355.3206 
N1915 X-194.327 Y25.618 Z8.409 A0.4105 
N1916 X-194.327 Y25.243 Z9.026 A5.1623 
N1917 X-194.327 Y24.781 Z9.544 A9.4420 
N1918 X-194.327 Y24.249 Z9.940 A13.1051 
N1919 X-194.327 Y23.663 Z10.203 A16.0786 
N1920 X-194.327 Y23.039 Z10.334 A18.3507 
N1921 X-194.327 Y22.389 Z10.344 A19.9403 
N1922 X-194.327 Y21.723 Z10.253 A20.9293 
N1923 X-194.327 Y21.045 Z10.089 A21.4402 
N1924 X-194.327 Y20.359 Z9.879 A21.5913 
N1925 X-194.327 Y19.664 Z9.648 A21.4868 
N1926 X-194.327 Y18.956 Z9.422 A21.2494 
N1927 X-194.327 Y18.230 Z9.221 A20.9694 
N1928 X-194.327 Y17.485 Z9.057 A20.6977 
N1929 X-194.327 Y16.716 Z8.943 A20.4768 
N1930 X-194.327 Y15.927 Z8.880 A20.3058 
N1931 X-194.327 Y15.124 Z8.890 A20.2902 
N1932 X-194.327 Y14.307 Z8.950 
N1933 X-194.327 Y13.481 Z9.057 
N1934 X-194.327 Y12.646 Z9.209 
N1935 X-194.327 Y11.801 Z9.399 
N1936 X-194.327 Y10.948 Z9.621 
N1937 X-194.327 Y10.087 Z9.864 
N1938 X-194.327 Y9.219 Z10.118 
N1939 X-194.327 Y8.348 Z10.370 
N1940 X-194.327 Y7.476 Z10.608 
N1941 X-194.327 Y6.605 Z10.820 
N1942 X-194.327 Y5.737 Z10.996 
N1943 X-194.327 Y4.873 Z11.128 
N1944 X-194.327 Y4.013 Z11.207 
N1945 X-194.327 Y3.157 Z11.227 
N1946 X-194.327 Y2.306 Z11.181 A20.3032 
N1947 X-194.327 Y1.504 Z11.245 A21.5162 
N1948 X-194.327 Y0.744 Z11.374 A23.6671 
N1949 X-194.327 Y0.026 Z11.603 A26.9593 
N1950 X-194.327 Y-0.663 Z11.938 A31.3839 
N1951 X-194.327 Y-1.349 Z12.322 A36.5295 
N1952 X-194.327 Y-2.048 Z12.715 A42.1001 
N1953 X-194.327 Y-2.766 Z13.075 A47.8178 
N1954 X-194.327 Y-3.493 Z13.363 A53.4164 
N1955 X-194.327 Y-4.219 Z13.562 A58.7759 
N1956 X-194.327 Y-4.933 Z13.677 A63.8938 
N1957 X-194.327 Y-5.629 Z13.709 A68.7707 
N1958 X-194.327 Y-6.299 Z13.663 A73.4127 
N1959 X-194.327 Y-6.936 Z13.544 A77.8209 
N1960 X-194.327 Y-7.537 Z13.355 A81.9983 
N1961 X-194.327 Y-8.096 Z13.103 A85.9616 
N1962 X-194.327 Y-8.614 Z12.791 A89.7372 
N1963 X-194.327 Y-9.089 Z12.424 A93.3592 
N1964 X-194.327 Y-9.524 Z12.006 A96.8605 
N1965 X-194.327 Y-9.917 Z11.538 A100.2683 
N1966 X-194.327 Y-10.266 Z11.024 A103.5981 
N1967 X-194.327 Y-10.568 Z10.468 A106.8425 
N1968 X-194.327 Y-10.816 Z9.877 A109.9671 
N1969 X-194.327 Y-11.004 Z9.257 A112.9349 
N1970 X-194.327 Y-11.132 Z8.615 A115.7444 
N1971 X-194.327 Y-11.207 Z7.954 A118.4466 
N1972 X-194.327 Y-11.238 Z7.275 A121.1280 
N1973 X-194.327 Y-11.231 Z6.578 A123.8332 
N1974 X-194.327 Y-11.187 Z5.866 A126.5785 
N1975 X-194.327 Y-11.108 Z5.142 A129.3910 
N1976 X-194.327 Y-10.995 Z4.406 A132.2992 
N1977 X-194.327 Y-10.852 Z3.660 A135.3325 
N1978 X-194.327 Y-10.678 Z2.903 A138.5279 
N1979 X-194.327 Y-10.474 Z2.133 A141.9240 
N1980 X-194.327 Y-10.234 Z1.353 A145.5192 
N1981 X-194.327 Y-9.955 Z0.565 A149.3068 
N1982 X-194.327 Y-9.629 Z-0.228 A153.2845 
N1983 X-194.327 Y-9.249 Z-1.022 A157.4526 
N1984 X-194.327 Y-8.810 Z-1.812 A161.8002 
N1985 X-194.327 Y-8.301 Z-2.589 A166.2996 
N1986 X-194.327 Y-7.716 Z-3.343 A170.9121 
N1987 X-194.327 Y-7.049 Z-4.058 A175.5824 
N1988 X-194.327 Y-6.297 Z-4.717 A180.2496 
N1989 X-194.327 Y-5.460 Z-5.302 A184.8455 
N1990 X-194.327 Y-4.545 Z-5.798 A189.3025 
N1991 X-194.327 Y-3.559 Z-6.188 A193.5581 
N1992 X-194.327 Y-2.514 Z-6.463 A197.5574 
N1993 X-194.327 Y-1.425 Z-6.616 A201.2533 
N1994 X-194.327 Y-0.307 Z-6.644 A204.6077 
N1995 X-194.327 Y0.823 Z-6.550 A207.5911 
N1996 X-194.327 Y1.952 Z-6.341 A210.1958 
N1997 X-194.327 Y3.067 Z-6.032 A212.4362 
N1998 X-194.327 Y4.157 Z-5.639 A214.3388 
N1999 X-194.327 Y5.212 Z-5.177 A215.9240 
N2000 X-194.327 Y6.222 Z-4.662 A217.2043 
N2001 X-194.327 Y7.180 Z-4.114 A218.2108 
N2002 X-194.327 Y8.081 Z-3.550 A218.9969 
N2003 X-194.327 Y8.925 Z-2.991 A219.6343 
N2004 X-194.327 Y9.712 Z-2.456 A220.2242 
N2005 X-194.327 Y10.448 Z-1.966 A220.9121 
N2006 X-194.327 Y11.143 Z-1.538 A221.8482 
N2007 X-194.327 Y11.802 Z-1.181 A223.1201 
N2008 X-194.327 Y12.424 Z-0.893 A224.7231 
N2009 X-194.327 Y13.010 Z-0.668 A226.6182 
N2010 X-194.327 Y13.565 Z-0.500 A228.8018 
N2011 X-194.327 Y14.104 Z-0.392 A231.3355 
N2012 X-194.327 Y14.654 Z-0.348 A234.3968 
N2013 X-194.327 Y15.281 Z-0.390 A238.4652 
N2014 X-194.327 Y16.096 Z-0.533 A244.3445 
N2015 X-194.327 Y17.155 Z-0.713 A252.2449 
N2016 X-194.327 Y18.284 Z-0.788 A260.6530 
N2017 X-194.327 Y19.278 Z-0.722 A268.0562 
N2018 X-194.327 Y20.142 Z-0.559 A274.5882 
N2019 X-194.327 Y20.911 Z-0.329 A280.5602 
N2020 X-194.327 Y21.598 Z-0.049 A286.0822 
N2021 X-194.327 Y22.214 Z0.270 A291.2506 
N2022 X-194.327 Y22.768 Z0.621 A296.1366 
N2023 X-194.327 Y23.270 Z1.000 A300.8194 
N2024 X-194.327 Y23.725 Z1.408 A305.3658 
N2025 X-194.327 Y24.138 Z1.843 A309.8357 
N2026 X-194.327 Y24.514 Z2.308 A314.2848 
N2027 X-194.327 Y24.854 Z2.807 A318.7747 
N2028 X-194.327 Y25.158 Z3.347 A323.3771 
N2029 X-194.327 Y25.426 Z3.935 A328.1767 
N2030 X-194.327 Y25.651 Z4.581 A333.2441 
N2031 X-194.327 Y25.824 Z5.292 A338.6667 
N2032 X-194.327 Y25.931 Z6.089 A344.6135 
N2033 X-194.327 Y25.961 Z7.068 A351.8785 
N2034 X-194.327 Y25.839 Z8.390 A1.7799 
N2035 X-194.327 Y25.460 Z9.665 A11.6707 
N2036 X-194.327 Y25.001 Z10.380 A17.7595 
N2037 X-194.327 Y24.592 Z10.630 A20.5207 
N2038 X-194.327 Y24.198 Z10.672 A21.8518 
N2039 X-194.327 Y23.772 Z10.647 A22.8442 
N2040 X-194.327 Y23.302 Z10.584 A23.7541 
N2041 X-194.327 Y22.790 Z10.479 A24.5374 
N2042 X-194.327 Y22.246 Z10.328 A25.1376 
N2043 X-194.327 Y21.675 Z10.137 A25.5475 
N2044 X-194.327 Y21.085 Z9.914 A25.7636 
N2045 X-194.327 Y20.480 Z9.669 A25.7967 
N2046 X-194.327 Y19.862 Z9.420 A25.7099 
N2047 X-194.327 Y19.227 Z9.189 A25.6104 
N2048 X-194.327 Y18.574 Z8.988 A25.5453 
N2049 X-194.327 Y17.909 Z8.821 A25.4890 
N2050 X-194.327 Y17.237 Z8.687 A25.3922 
N2051 X-194.327 Y16.563 Z8.582 A25.1987 
N2052 X-194.327 Y15.890 Z8.506 A24.8821 
N2053 X-194.327 Y15.215 Z8.462 A24.4539 
N2054 X-194.327 Y14.530 Z8.457 A23.9499 
N2055 X-194.327 Y13.822 Z8.504 A23.4450 
N2056 X-194.327 Y13.088 Z8.610 A22.9923 
N2057 X-194.327 Y12.324 Z8.778 A22.6318 
N2058 X-194.327 Y11.538 Z8.996 A22.3601 
N2059 X-194.327 Y10.741 Z9.260 A22.2197 
N2060 X-194.327 Y9.947 Z9.557 A22.2264 
N2061 X-194.327 Y9.163 Z9.875 A22.3763 
N2062 X-194.327 Y8.394 Z10.200 A22.6478 
N2063 X-194.327 Y7.641 Z10.518 A22.9928 
N2064 X-194.327 Y6.901 Z10.804 A23.2906 
N2065 X-194.327 Y6.169 Z11.042 A23.4798 
N2066 X-194.327 Y5.443 Z11.226 A23.5350 
N2067 X-194.327 Y4.716 Z11.352 A23.4703 
N2068 X-194.327 Y3.981 Z11.425 A23.3483 
N2069 X-194.327 Y3.232 Z11.455 A23.2841 
N2070 X-194.327 Y2.469 Z11.491 A23.6703 
N2071 X-194.327 Y1.700 Z11.571 A24.8579 
N2072 X-194.327 Y0.945 Z11.707 A26.9889 
N2073 X-194.327 Y0.230 Z11.901 A30.0351 
N2074 X-194.327 Y-0.440 Z12.179 A34.0480 
N2075 X-194.327 Y-1.089 Z12.517 A38.7847 
N2076 X-194.327 Y-1.746 Z12.890 A44.0913 
N2077 X-194.327 Y-2.439 Z13.270 A49.8385 
N2078 X-194.327 Y-3.180 Z13.616 A55.8569 
N2079 X-194.327 Y-3.962 Z13.883 A61.9360 
N2080 X-194.327 Y-4.778 Z14.060 A68.0628 
N2081 X-194.327 Y-5.597 Z14.133 A74.0730 
N2082 X-194.327 Y-6.379 Z14.098 A79.7392 
N2083 X-194.327 Y-7.083 Z13.960 A84.8418 
N2084 X-194.327 Y-7.680 Z13.736 A89.2323 
N2085 X-194.327 Y-8.171 Z13.447 A92.9477 
N2086 X-194.327 Y-8.577 Z13.106 A96.1648 
N2087 X-194.327 Y-8.918 Z12.720 A99.0622 
N2088 X-194.327 Y-9.208 Z12.291 A101.7542 
N2089 X-194.327 Y-9.454 Z11.822 A104.3140 
N2090 X-194.327 Y-9.661 Z11.315 A106.7885 
N2091 X-194.327 Y-9.826 Z10.772 A109.1816 
N2092 X-194.327 Y-9.946 Z10.201 A111.4640 
N2093 X-194.327 Y-10.025 Z9.604 A113.6770 
N2094 X-194.327 Y-10.064 Z8.986 A115.8332 
N2095 X-194.327 Y-10.036 Z8.368 A117.6691 
N2096 X-194.327 Y-9.980 Z7.737 A119.4987 
N2097 X-194.327 Y-9.966 Z7.055 A121.9604 
N2098 X-194.327 Y-9.953 Z6.344 A124.7522 
N2099 X-194.327 Y-9.917 Z5.619 A127.6868 
N2100 X-194.327 Y-9.865 Z4.876 A130.8481 
N2101 X-194.327 Y-9.794 Z4.114 A134.2651 
N2102 X-194.327 Y-9.702 Z3.335 A137.9428 
N2103 X-194.327 Y-9.580 Z2.538 A141.8686 
N2104 X-194.327 Y-9.421 Z1.728 A146.0309 
N2105 X-194.327 Y-9.216 Z0.906 A150.4113 
N2106 X-194.327 Y-8.955 Z0.077 A154.9901 
N2107 X-194.327 Y-8.629 Z-0.752 A159.7404 
N2108 X-194.327 Y-8.226 Z-1.572 A164.6199 
N2109 X-194.327 Y-7.739 Z-2.368 A169.5793 
N2110 X-194.327 Y-7.160 Z-3.125 A174.5526 
N2111 X-194.327 Y-6.487 Z-3.824 A179.4684 
N2112 X-194.327 Y-5.720 Z-4.445 A184.2485 
N2113 X-194.327 Y-4.866 Z-4.970 A188.8203 
N2114 X-194.327 Y-3.935 Z-5.384 A193.1274 
N2115 X-194.327 Y-2.939 Z-5.679 A197.1302 
N2116 X-194.327 Y-1.892 Z-5.849 A200.7956 
N2117 X-194.327 Y-0.809 Z-5.893 A204.0975 
N2118 X-194.327 Y0.294 Z-5.812 A207.0117 
N2119 X-194.327 Y1.402 Z-5.615 A209.5322 
N2120 X-194.327 Y2.503 Z-5.316 A211.6808 
N2121 X-194.327 Y3.586 Z-4.932 A213.4972 
N2122 X-194.327 Y4.641 Z-4.480 A215.0200 
N2123 X-194.327 Y5.658 Z-3.979 A216.2773 
N2124 X-194.327 Y6.628 Z-3.446 A217.2958 
N2125 X-194.327 Y7.544 Z-2.897 A218.1096 
N2126 X-194.327 Y8.398 Z-2.350 A218.7523 
N2127 X-194.327 Y9.187 Z-1.818 A219.2513 
N2128 X-194.327 Y9.905 Z-1.311 A219.6249 
N2129 X-194.327 Y10.550 Z-0.837 A219.8831 
N2130 X-194.327 Y11.122 Z-0.401 A220.0363 
N2131 X-194.327 Y11.621 Z-0.007 A220.1075 
N2132 X-194.327 Y12.056 Z0.338 A220.1566 
N2133 X-194.327 Y12.443 Z0.623 A220.3432 
N2134 X-194.327 Y12.822 Z0.809 A221.0861 
N2135 X-194.327 Y13.285 Z0.812 A223.3602 
N2136 X-194.327 Y14.009 Z0.518 A228.7819 
N2137 X-194.327 Y15.192 Z-0.052 A238.4986 
N2138 X-194.327 Y16.681 Z-0.542 A250.2248 
N2139 X-194.327 Y17.999 Z-0.713 A260.1699 
N2140 X-194.327 Y19.059 Z-0.676 A268.0897 
N2141 X-194.327 Y19.925 Z-0.529 A274.6389 
N2142 X-194.327 Y20.662 Z-0.321 A280.3492 
N2143 X-194.327 Y21.303 Z-0.072 A285.4790 
N2144 X-194.327 Y21.869 Z0.206 A290.1799 
N2145 X-194.327 Y22.376 Z0.508 A294.5794 
N2146 X-194.327 Y22.837 Z0.831 A298.7725 
N2147 X-194.327 Y23.260 Z1.176 A302.8390 
N2148 X-194.327 Y23.651 Z1.544 A306.8420 
N2149 X-194.327 Y24.015 Z1.938 A310.8365 
N2150 X-194.327 Y24.354 Z2.360 A314.8744 
N2151 X-194.327 Y24.670 Z2.817 A319.0110 
N2152 X-194.327 Y24.962 Z3.313 A323.3085 
N2153 X-194.327 Y25.230 Z3.859 A327.8387 
N2154 X-194.327 Y25.468 Z4.466 A332.6995 
N2155 X-194.327 Y25.668 Z5.147 A337.9947 
N2156 X-194.327 Y25.817 Z5.924 A343.8966 
N2157 X-194.327 Y25.890 Z6.826 A350.6477 
N2158 X-194.327 Y25.845 Z7.921 A358.8384 
N2159 X-194.327 Y25.586 Z9.252 A8.9873 
N2160 X-194.327 Y25.092 Z10.445 A18.6235 
N2161 X-194.327 Y24.571 Z11.139 A24.9371 
N2162 X-194.327 Y24.150 Z11.400 A28.0847 
N2163 X-194.327 Y23.807 Z11.410 A29.3538 
N2164 X-194.327 Y23.489 Z11.293 A29.7130 
N2165 X-194.327 Y23.162 Z11.118 A29.7079 
N2166 X-194.327 Y22.803 Z10.917 A29.6150 
N2167 X-194.327 Y22.403 Z10.708 A29.5634 
N2168 X-194.327 Y21.957 Z10.496 A29.5884 
N2169 X-194.327 Y21.466 Z10.282 A29.6708 
N2170 X-194.327 Y20.936 Z10.066 A29.7692 
N2171 X-194.327 Y20.371 Z9.852 A29.8663 
N2172 X-194.327 Y19.776 Z9.647 A29.9655 
N2173 X-194.327 Y19.159 Z9.459 A30.0638 
N2174 X-194.327 Y18.528 Z9.291 A30.1335 
N2175 X-194.327 Y17.893 Z9.147 A30.1327 
N2176 X-194.327 Y17.261 Z9.024 A30.0142 
N2177 X-194.327 Y16.637 Z8.922 A29.7520 
N2178 X-194.327 Y16.016 Z8.827 A29.2325 
N2179 X-194.327 Y15.389 Z8.731 A28.3966 
N2180 X-194.327 Y14.740 Z8.644 A27.2921 
N2181 X-194.327 Y14.055 Z8.578 A25.9838 
N2182 X-194.327 Y13.323 Z8.542 A24.5247 
N2183 X-194.327 Y12.551 Z8.574 A23.1857 
N2184 X-194.327 Y11.754 Z8.686 A22.1105 
N2185 X-194.327 Y10.950 Z8.877 A21.3783 
N2186 X-194.327 Y10.156 Z9.142 A21.0636 
N2187 X-194.327 Y9.383 Z9.483 A21.2466 
N2188 X-194.327 Y8.637 Z9.883 A21.8824 
N2189 X-194.327 Y7.914 Z10.315 A22.8460 
N2190 X-194.327 Y7.208 Z10.753 A24.0010 
N2191 X-194.327 Y6.511 Z11.169 A25.1979 
N2192 X-194.327 Y5.816 Z11.534 A26.2743 
N2193 X-194.327 Y5.114 Z11.813 A27.0391 
N2194 X-194.327 Y4.401 Z12.001 A27.4843 
N2195 X-194.327 Y3.672 Z12.101 A27.6813 
N2196 X-194.327 Y2.918 Z12.134 A27.8258 
N2197 X-194.327 Y2.139 Z12.154 A28.3629 
N2198 X-194.327 Y1.354 Z12.195 A29.6010 
N2199 X-194.327 Y0.595 Z12.259 A31.5579 
N2200 X-194.327 Y-0.113 Z12.362 A34.2508 
N2201 X-194.327 Y-0.777 Z12.553 A37.8851 
N2202 X-194.327 Y-1.424 Z12.819 A42.3293 
N2203 X-194.327 Y-2.087 Z13.137 A47.4609 
N2204 X-194.327 Y-2.794 Z13.470 A53.1349 
N2205 X-194.327 Y-3.555 Z13.773 A59.1625 
N2206 X-194.327 Y-4.361 Z13.997 A65.3123 
N2207 X-194.327 Y-5.188 Z14.123 A71.4457 
N2208 X-194.327 Y-5.998 Z14.139 A77.3518 
N2209 X-194.327 Y-6.748 Z14.047 A82.7865 
N2210 X-194.327 Y-7.396 Z13.859 A87.5166 
N2211 X-194.327 Y-7.927 Z13.597 A91.4726 
N2212 X-194.327 Y-8.355 Z13.281 A94.7970 
N2213 X-194.327 Y-8.707 Z12.919 A97.6976 
N2214 X-194.327 Y-9.001 Z12.517 A100.3216 
N2215 X-194.327 Y-9.246 Z12.078 A102.7515 
N2216 X-194.327 Y-9.448 Z11.605 A105.0332 
N2217 X-194.327 Y-9.608 Z11.103 A107.1876 
N2218 X-194.327 Y-9.730 Z10.575 A109.2497 
N2219 X-194.327 Y-9.821 Z10.024 A111.2724 
N2220 X-194.327 Y-9.888 Z9.455 A113.3046 
N2221 X-194.327 Y-9.935 Z8.870 A115.3798 
N2222 X-194.327 Y-9.964 Z8.276 A117.5091 
N2223 X-194.327 Y-18.833 Z3.657 
N2224 G00 X-194.327 Y-63.180 Z-19.437 
N2225 X-197.607 Y-87.260 Z29.630 A91.5558 
N2226 X-197.607 Y-37.279 Z30.987 
N2227 G01 X-197.607 Y-34.184 Z30.528 F1909 
N2228 X-197.607 Y-31.383 Z29.134 
N2229 X-197.607 Y-29.149 Z26.944 
N2230 X-197.607 Y-27.702 Z24.170 
N2231 X-197.607 Y-27.182 Z21.084 
N2232 X-197.607 Y-27.161 Z18.437 A91.5897 
N2233 X-197.607 Y-27.145 Z15.836 A91.6822 
N2234 X-197.607 Y-27.128 Z13.318 A91.7730 
N2235 X-197.607 Y-27.103 Z10.921 A91.7861 
N2236 X-197.607 Y-27.069 Z8.670 A91.6845 
N2237 X-197.607 Y-27.056 Z6.592 A91.6768 
N2238 X-197.607 Y-27.048 Z4.674 
N2239 X-197.607 Y-27.071 Z2.915 A91.9528 
N2240 X-197.607 Y-27.202 Z1.327 A93.2135 
N2241 X-197.607 Y-27.501 Z-0.130 A96.1128 
N2242 X-197.607 Y-28.066 Z-1.533 A101.7472 
N2243 X-197.607 Y-28.935 Z-3.038 A111.0336 
N2244 X-197.607 Y-30.062 Z-4.925 A125.0612 
N2245 X-197.607 Y-30.943 Z-7.296 A142.1343 
N2246 X-197.607 Y-31.001 Z-9.638 A157.6048 
N2247 X-197.607 Y-30.303 Z-11.405 A168.7748 
N2248 X-197.607 Y-29.172 Z-12.527 A175.9376 
N2249 X-197.607 Y-27.803 Z-13.068 A179.4752 
N2250 X-197.607 Y-26.266 Z-13.264 A180.8074 
N2251 X-197.607 Y-24.562 Z-13.314 A181.1931 
N2252 X-197.607 Y-22.683 Z-13.316 A181.2620 
N2253 X-197.607 Y-20.625 Z-13.306 A181.2469 
N2254 X-197.607 Y-18.397 Z-13.297 A181.2292 
N2255 X-197.607 Y-16.014 Z-13.292 
N2256 X-197.607 Y-13.502 Z-13.287 
N2257 X-197.607 Y-10.895 Z-13.282 
N2258 X-197.607 Y-8.233 Z-13.277 
N2259 X-197.607 Y-5.560 Z-13.272 A181.2317 
N2260 X-197.607 Y-2.920 Z-13.268 A181.2418 
N2261 X-197.607 Y-0.356 Z-13.264 A181.2628 
N2262 X-197.607 Y2.096 Z-13.261 A181.2853 
N2263 X-197.607 Y4.403 Z-13.257 A181.2899 
N2264 X-197.607 Y6.543 Z-13.247 A181.2292 
N2265 X-197.607 Y8.498 Z-13.249 
N2266 X-197.607 Y10.286 Z-13.251 
N2267 X-197.607 Y11.886 Z-13.344 A182.0031 
N2268 X-197.607 Y13.326 Z-13.577 A184.1008 
N2269 X-197.607 Y14.647 Z-14.019 A188.2773 
N2270 X-197.607 Y15.955 Z-14.741 A195.4415 
N2271 X-197.607 Y17.399 Z-15.680 A205.7567 
N2272 X-197.607 Y19.089 Z-16.609 A218.3443 
N2273 X-197.607 Y20.983 Z-17.247 A231.7828 
N2274 X-197.607 Y22.790 Z-17.369 A243.7485 
N2275 X-197.607 Y24.254 Z-17.026 A252.9964 
N2276 X-197.607 Y25.329 Z-16.385 A259.6511 
N2277 X-197.607 Y26.080 Z-15.571 A264.3072 
N2278 X-197.607 Y26.592 Z-14.647 A267.5574 
N2279 X-197.607 Y26.919 Z-13.643 A269.7260 
N2280 X-197.607 Y27.102 Z-12.576 A271.0338 
N2281 X-197.607 Y27.186 Z-11.455 A271.7294 
N2282 X-197.607 Y27.209 Z-10.290 A272.0387 
N2283 X-197.607 Y27.200 Z-9.093 A272.1375 
N2284 X-197.607 Y27.176 Z-7.876 A272.1333 
N2285 X-197.607 Y27.149 Z-6.655 A272.0998 
N2286 X-197.607 Y27.129 Z-5.443 
N2287 X-197.607 Y27.108 Z-4.247 A272.1014 
N2288 X-197.607 Y27.122 Z-3.091 A272.3748 
N2289 X-197.607 Y27.181 Z-1.979 A273.0586 
N2290 X-197.607 Y27.313 Z-0.912 A274.4315 
N2291 X-197.607 Y27.544 Z0.117 A276.7795 
N2292 X-197.607 Y27.894 Z1.134 A280.3976 
N2293 X-197.607 Y28.398 Z2.189 A285.7679 
N2294 X-197.607 Y29.107 Z3.389 A293.7253 
N2295 X-197.607 Y29.986 Z4.897 A304.9620 
N2296 X-197.607 Y30.768 Z6.813 A318.9256 
N2297 X-197.607 Y31.041 Z8.910 A333.1506 
N2298 X-197.607 Y30.654 Z10.750 A345.0119 
N2299 X-197.607 Y29.768 Z12.090 A353.6424 
N2300 X-197.607 Y28.570 Z12.797 A358.2191 
N2301 X-197.607 Y27.178 Z13.087 A0.1015 
N2302 X-197.607 Y25.613 Z13.189 A0.7635 
N2303 X-197.607 Y23.867 Z13.217 A0.9390 
N2304 X-197.607 Y21.935 Z13.220 A0.9404 
N2305 X-197.607 Y19.821 Z13.221 A0.9033 
N2306 X-197.607 Y17.538 Z13.230 
N2307 X-197.607 Y15.103 Z13.241 
N2308 X-197.607 Y12.549 Z13.252 
N2309 X-197.607 Y9.914 Z13.264 
N2310 X-197.607 Y7.239 Z13.275 A0.9053 
N2311 X-197.607 Y4.570 Z13.287 A0.9091 
N2312 X-197.607 Y1.950 Z13.299 A0.9195 
N2313 X-197.607 Y-0.580 Z13.310 A0.9316 
N2314 X-197.607 Y-2.982 Z13.321 A0.9387 
N2315 X-197.607 Y-5.229 Z13.328 A0.9163 
N2316 X-197.607 Y-7.299 Z13.338 A0.9033 
N2317 X-197.607 Y-9.187 Z13.350 
N2318 X-197.607 Y-10.896 Z13.373 A1.0161 
N2319 X-197.607 Y-12.419 Z13.468 A1.7773 
N2320 X-197.607 Y-13.784 Z13.710 A3.8835 
N2321 X-197.607 Y-15.055 Z14.279 A9.0113 
N2322 X-197.607 Y-16.363 Z15.151 A17.5192 
N2323 X-197.607 Y-17.842 Z16.143 A28.6291 
N2324 X-197.607 Y-19.727 Z17.204 A43.3911 
N2325 X-197.607 Y-21.683 Z17.715 A57.1464 
N2326 X-197.607 Y-23.411 Z17.656 A68.4871 
N2327 X-197.607 Y-24.712 Z17.174 A76.6959 
N2328 X-197.607 Y-25.625 Z16.453 A82.3969 
N2329 X-197.607 Y-26.230 Z15.594 A86.1985 
N2330 X-197.607 Y-26.608 Z14.644 A88.6081 
N2331 X-197.607 Y-26.832 Z13.624 A90.0859 
N2332 X-197.607 Y-26.952 Z12.545 A90.9299 
N2333 X-197.607 Y-27.004 Z11.414 A91.3476 
N2334 X-197.607 Y-27.017 Z10.240 A91.5160 
N2335 X-197.607 Y-27.015 Z9.035 A91.5920 
N2336 X-197.607 Y-27.015 Z7.813 A91.6892 
N2337 X-197.607 Y-27.022 Z6.589 A91.8695 
N2338 X-197.607 Y-27.040 Z5.378 A92.1657 
N2339 X-197.607 Y-27.071 Z4.194 A92.6157 
N2340 X-197.607 Y-27.124 Z3.047 A93.3062 
N2341 X-197.607 Y-27.217 Z1.942 A94.4168 
N2342 X-197.607 Y-27.381 Z0.877 A96.2453 
N2343 X-197.607 Y-27.652 Z-0.164 A99.1826 
N2344 X-197.607 Y-28.055 Z-1.216 A103.5932 
N2345 X-197.607 Y-28.606 Z-2.339 A109.8819 
N2346 X-197.607 Y-29.320 Z-3.648 A118.7259 
N2347 X-197.607 Y-30.087 Z-5.268 A130.3058 
N2348 X-197.607 Y-30.608 Z-7.176 A143.4163 
N2349 X-197.607 Y-30.600 Z-9.087 A155.7543 
N2350 X-197.607 Y-30.045 Z-10.682 A165.6523 
N2351 X-197.607 Y-29.091 Z-11.836 A172.7651 
N2352 X-197.607 Y-27.868 Z-12.528 A177.0212 
N2353 X-197.607 Y-26.453 Z-12.881 A179.1760 
N2354 X-197.607 Y-24.865 Z-13.057 A180.2422 
N2355 X-197.607 Y-23.104 Z-13.146 A180.8174 
N2356 X-197.607 Y-21.170 Z-13.190 A181.1486 
N2357 X-197.607 Y-19.069 Z-13.204 A181.3266 
N2358 X-197.607 Y-16.817 Z-13.200 A181.3987 
N2359 X-197.607 Y-14.436 Z-13.184 A181.4095 
N2360 X-197.607 Y-11.956 Z-13.166 A181.4031 
N2361 X-197.607 Y-9.413 Z-13.150 A181.4052 
N2362 X-197.607 Y-6.845 Z-13.134 A181.4163 
N2363 X-197.607 Y-4.295 Z-13.118 A181.4186 
N2364 X-197.607 Y-1.799 Z-13.101 A181.4005 
N2365 X-197.607 Y0.604 Z-13.088 
N2366 X-197.607 Y2.892 Z-13.076 A181.4029 
N2367 X-197.607 Y5.032 Z-13.089 A181.6261 
N2368 X-197.607 Y7.012 Z-13.132 A182.1674 
N2369 X-197.607 Y8.825 Z-13.223 A183.2393 
N2370 X-197.607 Y10.478 Z-13.383 A185.1187 
N2371 X-197.607 Y11.992 Z-13.643 A188.1679 
N2372 X-197.607 Y13.411 Z-14.038 A192.8518 
N2373 X-197.607 Y14.812 Z-14.588 A199.6056 
N2374 X-197.607 Y16.278 Z-15.224 A208.3277 
N2375 X-197.607 Y17.848 Z-15.802 A218.3492 
N2376 X-197.607 Y19.472 Z-16.164 A228.6674 
N2377 X-197.607 Y21.020 Z-16.207 A238.1482 
N2378 X-197.607 Y22.372 Z-15.942 A246.1478 
N2379 X-197.607 Y23.470 Z-15.435 A252.4609 
N2380 X-197.607 Y24.324 Z-14.762 A257.2568 
N2381 X-197.607 Y24.978 Z-13.976 A260.8704 
N2382 X-197.607 Y25.476 Z-13.112 A263.6064 
N2383 X-197.607 Y25.857 Z-12.187 A265.7024 
N2384 X-197.607 Y26.157 Z-11.215 A267.3887 
N2385 X-197.607 Y26.403 Z-10.206 A268.8703 
N2386 X-197.607 Y26.617 Z-9.167 A270.2922 
N2387 X-197.607 Y26.809 Z-8.107 A271.7418 
N2388 X-197.607 Y26.984 Z-7.035 A273.2751 
N2389 X-197.607 Y27.146 Z-5.960 A274.9313 
N2390 X-197.607 Y27.295 Z-4.889 A276.7325 
N2391 X-197.607 Y27.433 Z-3.829 A278.6999 
N2392 X-197.607 Y27.564 Z-2.784 A280.8874 
N2393 X-197.607 Y27.700 Z-1.750 A283.3930 
N2394 X-197.607 Y27.850 Z-0.720 A286.3574 
N2395 X-197.607 Y28.030 Z0.323 A289.9743 
N2396 X-197.607 Y28.259 Z1.413 A294.5570 
N2397 X-197.607 Y28.568 Z2.612 A300.6831 
N2398 X-197.607 Y28.957 Z4.020 A309.0385 
N2399 X-197.607 Y29.275 Z5.672 A319.3298 
N2400 X-197.607 Y29.284 Z7.442 A330.1748 
N2401 X-197.607 Y28.849 Z9.081 A339.9250 
N2402 X-197.607 Y27.978 Z10.282 A346.6077 
N2403 X-197.607 Y26.832 Z11.158 A351.2926 
N2404 X-197.607 Y25.479 Z11.823 A354.8813 
N2405 X-197.607 Y23.941 Z12.301 A357.5326 
N2406 X-197.607 Y22.233 Z12.615 A359.3441 
N2407 X-197.607 Y20.368 Z12.789 A0.3942 
N2408 X-197.607 Y18.358 Z12.860 A0.8254 
N2409 X-197.607 Y16.218 Z12.875 A0.8906 
N2410 X-197.607 Y13.968 Z12.876 A0.8287 
N2411 X-197.607 Y11.637 Z12.888 A0.8091 
N2412 X-197.607 Y9.250 Z12.906 
N2413 X-197.607 Y6.842 Z12.926 A0.8190 
N2414 X-197.607 Y4.453 Z12.948 A0.8499 
N2415 X-197.607 Y2.116 Z12.969 A0.8674 
