; PROGRAM NAME: B12345640
; ORDER       : B123456
; OPER. NAME  : Slot Roughing:127
; OPER. DESCR.: roughig slot/BH_zgr
; OPER. TYPE  : slotMillRough
; GEO. OPTION : 1
; MACHINE     : HSTM_500_SIM840D_Py
;             : HSTM500 - HAMUEL: 5-axis milling machine - SIM840D Traori PP_Script
; CONTROL     : SINUMERIK 840D
; created:   2023-06-06 12:04:55.307933
;-------DODATKOWE DANE-------------------
; PROGRAMISTA : Mariusz Malec
; PARTID      : 306T001953P1010_-
;  ae         : 8.0
;  ap         : 1.5
;  fin_offset : 0.5
;  lean_angle : 0.0
;----------------------------------------
;RAPORT("TB123456","Slot Roughing:127")
N10 TRAFOOF
N11 D0
N12 G90 G94
N13 G0 G53 D0 Z550 B0
N14 STOPRE
M9 ; chlodziwo wyl
; --- Slot Roughing:127 - roughig slot/BH_zgr ---
N16 ;ToolChange : concat=None ,current_tdmid=None, PP.tdmId=940689
N17 TRAFOOF
N18 G0 G53 D0 X-200 Y150 Z550 B0
N19 T="7740689"
;RAPORT("TB123456","ToolChangeStart 7740689")
N20 M6
;RAPORT("TB123456","ToolChangeEnd")
N21 STOPRE
N22 MSG(" TLID=940689 D=16.0 R=3.1 Ang=0.0 Len=124.0 ")
N23 ; (Preloading tool)
N24 T="7740728"
N25 S4376 M03
N26 STOPRE
N27 CYCLE832(0.1,3,1)
N28 G0 G53 A47.0000 B0.0000
N29 TRAORI
N30 G54 D1
N31 FFWON
N32 COMPOF
N33 STOPRE
N34 D1 
N35 ; DELTA A > 40.1
N36 TRAFOOF
N37 D1
N38 STOPRE
N39 G00 G54 Z262.000
N40 G01 A47.0000 F10000
N41 TRAORI
N42 G54 D1
N43 STOPRE
N44 TRANS 
N45 G00 X-162.463 Y-26.488 Z59.683 A47.0000 
N46 M342 ; chlodziwo woda
N47 X-162.463 Y10.080 Z25.583 
N48 G01 X-162.756 Y3.263 Z18.273 F1312 
N49 X-162.829 Y1.559 Z16.445 F656 
N50 X-162.835 Y1.417 Z16.294 F874 
N51 X-162.843 Y1.236 Z16.099 F1093 
N52 X-162.852 Y1.013 Z15.861 F1312 
N53 X-162.866 Y0.680 Z15.503 F1312 
N54 X-162.974 Y-2.926 Z11.636 F1312 
N55 X-162.980 Y-7.094 Z7.166 F1312 
N56 X-162.872 Y-10.984 Z2.995 F1312 
N57 X-162.688 Y-14.385 Z-0.652 F1312 
N58 X-162.444 Y-17.516 Z-4.010 F1312 
N59 X-162.185 Y-20.136 Z-6.819 F1312 
N60 X-161.892 Y-22.629 Z-9.492 F1312 
N61 X-161.651 Y-24.436 Z-11.431 F1312 
N62 X-161.577 Y-24.961 Z-11.993 F1312 
N63 X-161.543 Y-25.205 Z-12.255 F1639 
N64 X-161.501 Y-25.504 Z-12.576 F1967 
N65 X-161.455 Y-25.832 Z-12.927 F2031 
N66 X-161.404 Y-26.181 Z-13.302 F2222 
N67 X-161.343 Y-26.572 Z-13.721 F2541 
N68 X-161.266 Y-27.025 Z-14.207 F2987 
N69 X-161.160 Y-27.560 Z-14.780 F3529 
N70 X-161.007 Y-28.174 Z-15.439 F3975 
N71 X-160.778 Y-28.843 Z-16.156 F4294 
N72 X-160.428 Y-29.531 Z-16.895 F4485 
N73 X-159.924 Y-30.197 Z-17.608 F4549 
N74 X-159.240 Y-30.814 Z-18.270 F4549 
N75 X-158.390 Y-31.290 Z-18.781 F4484 
N76 X-157.479 Y-31.161 Z-18.642 F4291 
N77 X-157.301 Y-30.486 Z-17.919 F3969 
N78 X-157.306 Y-29.861 Z-17.249 F3519 
N79 X-157.351 Y-29.322 Z-16.671 F2940 
N80 X-157.399 Y-28.891 Z-16.208 F2264 
N81 X-157.440 Y-28.566 Z-15.859 F1685 
N82 X-157.472 Y-28.326 Z-15.602 F1235 
N83 X-157.496 Y-28.149 Z-15.412 F913 
N84 X-157.515 Y-28.015 Z-15.269 F720 
N85 X-157.531 Y-27.902 Z-15.148 F656 
N86 X-157.770 Y-26.205 Z-13.328 F656 
N87 X-157.789 Y-26.064 Z-13.177 F874 
N88 X-157.815 Y-25.883 Z-12.983 F1093 
N89 X-157.846 Y-25.662 Z-12.745 F1312 
N90 X-158.235 Y-22.895 Z-9.778 F1312 
N91 X-158.536 Y-20.411 Z-7.114 F1312 
N92 X-158.826 Y-17.545 Z-4.041 F1312 
N93 X-159.066 Y-14.531 Z-0.809 F1312 
N94 X-159.264 Y-10.934 Z3.048 F1312 
N95 X-159.374 Y-6.877 Z7.400 F1312 
N96 X-159.360 Y-2.657 Z11.924 F1312 
N97 X-159.216 Y1.535 Z16.420 F1312 
N98 X-159.208 Y1.781 Z16.684 F1639 
N99 X-159.197 Y2.081 Z17.005 F1967 
N100 X-159.185 Y2.434 Z17.383 F2040 
N101 X-159.172 Y2.812 Z17.788 F2258 
N102 X-159.160 Y3.244 Z18.248 F2622 
N103 X-159.153 Y3.756 Z18.787 F3131 
N104 X-159.158 Y4.368 Z19.422 F3641 
N105 X-159.197 Y5.072 Z20.125 F4004 
N106 X-159.317 Y5.853 Z20.846 F4223 
N107 X-159.611 Y6.695 Z21.499 F4295 
N108 X-160.191 Y7.493 Z21.887 F4295 
N109 X-161.007 Y7.637 Z21.410 F4223 
N110 X-161.271 Y7.029 Z20.574 F4004 
N111 X-161.372 Y6.384 Z19.823 F3640 
N112 X-161.424 Y5.795 Z19.169 F3131 
N113 X-161.454 Y5.301 Z18.630 F2475 
N114 X-161.473 Y4.925 Z18.224 F1820 
N115 X-161.485 Y4.650 Z17.928 F1311 
N116 X-161.494 Y4.453 Z17.716 F947 
N117 X-161.500 Y4.307 Z17.559 F728 
N118 X-161.505 Y4.186 Z17.430 F656 
N119 X-161.578 Y2.482 Z15.603 F656 
N120 X-161.584 Y2.341 Z15.451 F874 
N121 X-161.592 Y2.159 Z15.256 F1093 
N122 X-161.601 Y1.937 Z15.018 F1312 
N123 X-161.617 Y1.570 Z14.624 F1312 
N124 X-161.724 Y-2.019 Z10.776 F1312 
N125 X-161.730 Y-6.172 Z6.322 F1312 
N126 X-161.623 Y-10.046 Z2.168 F1312 
N127 X-161.439 Y-13.434 Z-1.466 F1312 
N128 X-161.196 Y-16.554 Z-4.811 F1312 
N129 X-160.938 Y-19.169 Z-7.615 F1312 
N130 X-160.645 Y-21.654 Z-10.280 F1312 
N131 X-160.407 Y-23.441 Z-12.196 F1312 
N132 X-160.326 Y-24.019 Z-12.817 F1312 
N133 X-160.291 Y-24.264 Z-13.079 F1639 
N134 X-160.250 Y-24.562 Z-13.399 F1967 
N135 X-160.205 Y-24.881 Z-13.741 F2028 
N136 X-160.156 Y-25.220 Z-14.104 F2209 
N137 X-160.100 Y-25.597 Z-14.508 F2511 
N138 X-160.030 Y-26.032 Z-14.974 F2933 
N139 X-159.941 Y-26.542 Z-15.522 F3446 
N140 X-159.821 Y-27.128 Z-16.150 F3869 
N141 X-159.656 Y-27.768 Z-16.836 F4170 
N142 X-159.420 Y-28.437 Z-17.554 F4351 
N143 X-159.084 Y-29.107 Z-18.272 F4412 
N144 X-158.602 Y-29.781 Z-18.995 F4412 
N145 X-157.963 Y-30.348 Z-19.603 F4350 
N146 X-157.302 Y-30.125 Z-19.364 F4163 
N147 X-157.257 Y-29.470 Z-18.662 F3853 
N148 X-157.296 Y-28.873 Z-18.021 F3418 
N149 X-157.350 Y-28.360 Z-17.472 F2860 
N150 X-157.400 Y-27.949 Z-17.031 F2208 
N151 X-157.441 Y-27.637 Z-16.696 F1649 
N152 X-157.473 Y-27.404 Z-16.447 F1214 
N153 X-157.497 Y-27.232 Z-16.262 F904 
N154 X-157.515 Y-27.100 Z-16.120 F718 
N155 X-157.531 Y-26.988 Z-16.000 F656 
N156 X-157.770 Y-25.291 Z-14.180 F656 
N157 X-157.789 Y-25.150 Z-14.029 F874 
N158 X-157.815 Y-24.969 Z-13.835 F1093 
N159 X-157.846 Y-24.748 Z-13.598 F1312 
N160 X-158.237 Y-21.969 Z-10.618 F1312 
N161 X-158.537 Y-19.487 Z-7.957 F1312 
N162 X-158.826 Y-16.628 Z-4.890 F1312 
N163 X-159.066 Y-13.616 Z-1.660 F1312 
N164 X-159.264 Y-10.020 Z2.196 F1312 
N165 X-159.374 Y-5.963 Z6.547 F1312 
N166 X-159.360 Y-1.746 Z11.069 F1312 
N167 X-159.216 Y2.450 Z15.568 F1312 
N168 X-159.208 Y2.695 Z15.831 F1639 
N169 X-159.197 Y2.995 Z16.153 F1967 
N170 F1312 
N171 G00 X-159.197 Y-33.573 Z50.253 
;RAPORT("TB123456","Slot Roughing:127 End")
;trailer : concat=None
; points cnt = 123
N173 MSG (" --- GROUPED OF SUBPROGRAM --- ")
N174 FGROUP()
N175 TRAFOOF
; PROGRAM NAME: B12345640
; ORDER       : B123456
; OPER. NAME  : Slot Roughing:128
; OPER. DESCR.: roughig slot
; OPER. TYPE  : slotMillRough
; GEO. OPTION : 1
; MACHINE     : HSTM_500_SIM840D_Py
;             : HSTM500 - HAMUEL: 5-axis milling machine - SIM840D Traori PP_Script
; CONTROL     : SINUMERIK 840D
; created:   2023-06-06 12:04:58.513864
;-------DODATKOWE DANE-------------------
; PROGRAMISTA : Mariusz Malec
; PARTID      : 306T001953P1010_-
;  ae         : 8.0
;  ap         : 1.5
;  fin_offset : 0.5
;  lean_angle : 0.0
;----------------------------------------
;RAPORT("TB123456","Slot Roughing:128")
N10 TRAFOOF
N11 D0
N12 G90 G94
N13 G0 G53 D0 Z550 B0
N14 STOPRE
M9 ; chlodziwo wyl
; --- Slot Roughing:128 - roughig slot ---
N16 ;ToolChange : concat=None ,current_tdmid=None, PP.tdmId=940689
N17 TRAFOOF
N18 G0 G53 D0 Z550 B0
N19 STOPRE
N20 MSG(" TLID=940689 D=16.0 R=3.1 Ang=0.0 Len=124.0 ")
N21 S4376 M03
N22 STOPRE
N23 CYCLE832(0.1,3,1)
N24 G0 G53 A227.0000 B-0.0000
N25 TRAORI
N26 G54 D1
N27 FFWON
N28 COMPOF
N29 STOPRE
N30 D1 
N31 ; DELTA A > 40.1
N32 TRAFOOF
N33 D1
N34 STOPRE
N35 G00 G54 Z262.000
N36 G01 A227.0000 F10000
N37 TRAORI
N38 G54 D1
N39 STOPRE
N40 TRANS 
N41 G00 X-162.453 Y28.582 Z-55.016 A227.0000 
N42 M342 ; chlodziwo woda
N43 X-162.453 Y-7.986 Z-20.916 
N44 G01 X-162.717 Y-1.168 Z-13.605 F1312 
N45 X-162.783 Y0.536 Z-11.777 F656 
N46 X-162.788 Y0.678 Z-11.625 F874 
N47 X-162.795 Y0.860 Z-11.430 F1093 
N48 X-162.804 Y1.082 Z-11.192 F1312 
N49 X-162.808 Y1.151 Z-11.118 F1312 
N50 X-162.950 Y4.833 Z-7.169 F1312 
N51 X-162.991 Y8.999 Z-2.702 F1312 
N52 X-162.910 Y13.079 Z1.673 F1312 
N53 X-162.751 Y16.455 Z5.293 F1312 
N54 X-162.520 Y19.704 Z8.778 F1312 
N55 X-162.285 Y22.254 Z11.512 F1312 
N56 X-162.012 Y24.728 Z14.166 F1312 
N57 X-161.826 Y26.212 Z15.757 F1312 
N58 X-161.720 Y27.021 Z16.624 F1312 
N59 X-161.689 Y27.266 Z16.886 F1639 
N60 X-161.650 Y27.564 Z17.207 F1967 
N61 X-161.605 Y27.897 Z17.564 F2033 
N62 X-161.556 Y28.251 Z17.944 F2229 
N63 X-161.497 Y28.649 Z18.370 F2556 
N64 X-161.421 Y29.112 Z18.867 F3014 
N65 X-161.315 Y29.660 Z19.455 F3571 
N66 X-161.161 Y30.291 Z20.131 F4029 
N67 X-160.929 Y30.979 Z20.868 F4356 
N68 X-160.579 Y31.689 Z21.630 F4552 
N69 X-160.090 Y32.384 Z22.375 F4618 
N70 X-159.454 Y33.040 Z23.078 F4618 
N71 X-158.683 Y33.602 Z23.682 F4552 
N72 X-157.705 Y33.786 Z23.878 F4356 
N73 X-157.410 Y33.124 Z23.169 F4028 
N74 X-157.401 Y32.485 Z22.484 F3570 
N75 X-157.440 Y31.933 Z21.892 F2980 
N76 X-157.486 Y31.491 Z21.418 F2293 
N77 X-157.526 Y31.159 Z21.062 F1703 
N78 X-157.556 Y30.916 Z20.801 F1245 
N79 X-157.580 Y30.737 Z20.609 F917 
N80 X-157.598 Y30.602 Z20.464 F721 
N81 X-157.613 Y30.488 Z20.342 F656 
N82 X-157.844 Y28.790 Z18.521 F656 
N83 X-157.864 Y28.649 Z18.370 F874 
N84 X-157.888 Y28.468 Z18.176 F1093 
N85 X-157.918 Y28.247 Z17.939 F1312 
N86 X-158.329 Y25.231 Z14.704 F1312 
N87 X-158.612 Y22.783 Z12.080 F1312 
N88 X-158.891 Y19.874 Z8.960 F1312 
N89 X-159.109 Y16.944 Z5.818 F1312 
N90 X-159.296 Y13.188 Z1.790 F1312 
N91 X-159.382 Y9.103 Z-2.590 F1312 
N92 X-159.341 Y4.873 Z-7.127 F1312 
N93 X-159.191 Y1.046 Z-11.231 F1312 
N94 X-159.181 Y0.800 Z-11.494 F1639 
N95 X-159.170 Y0.500 Z-11.816 F1967 
N96 X-159.156 Y0.145 Z-12.197 F2041 
N97 X-159.143 Y-0.237 Z-12.606 F2263 
N98 X-159.131 Y-0.674 Z-13.070 F2632 
N99 X-159.123 Y-1.192 Z-13.616 F3150 
N100 X-159.128 Y-1.813 Z-14.259 F3667 
N101 X-159.168 Y-2.527 Z-14.973 F4036 
N102 X-159.286 Y-3.320 Z-15.709 F4258 
N103 X-159.556 Y-4.172 Z-16.391 F4332 
N104 X-160.037 Y-4.998 Z-16.885 F4332 
N105 X-160.881 Y-5.495 Z-16.757 F4258 
N106 X-161.220 Y-4.931 Z-15.911 F4037 
N107 X-161.331 Y-4.281 Z-15.148 F3670 
N108 X-161.386 Y-3.685 Z-14.485 F3155 
N109 X-161.417 Y-3.185 Z-13.940 F2494 
N110 X-161.436 Y-2.804 Z-13.528 F1832 
N111 X-161.449 Y-2.526 Z-13.229 F1317 
N112 X-161.457 Y-2.327 Z-13.015 F950 
N113 X-161.463 Y-2.180 Z-12.857 F729 
N114 X-161.467 Y-2.059 Z-12.728 F656 
N115 X-161.533 Y-0.355 Z-10.900 F656 
N116 X-161.539 Y-0.213 Z-10.748 F874 
N117 X-161.546 Y-0.031 Z-10.553 F1093 
N118 X-161.554 Y0.191 Z-10.315 F1312 
N119 X-161.558 Y0.267 Z-10.233 F1312 
N120 X-161.700 Y3.947 Z-6.287 F1312 
N121 X-161.741 Y8.139 Z-1.791 F1312 
N122 X-161.660 Y12.163 Z2.524 F1312 
N123 X-161.501 Y15.526 Z6.130 F1312 
N124 X-161.271 Y18.758 Z9.596 F1312 
N125 X-161.035 Y21.314 Z12.337 F1312 
N126 X-160.762 Y23.781 Z14.982 F1312 
N127 X-160.581 Y25.222 Z16.528 F1312 
N128 X-160.465 Y26.114 Z17.485 F1312 
N129 X-160.433 Y26.359 Z17.747 F1639 
N130 X-160.394 Y26.658 Z18.067 F1967 
N131 X-160.351 Y26.982 Z18.415 F2030 
N132 X-160.304 Y27.326 Z18.784 F2216 
N133 X-160.249 Y27.710 Z19.196 F2526 
N134 X-160.181 Y28.155 Z19.673 F2961 
N135 X-160.092 Y28.679 Z20.235 F3489 
N136 X-159.972 Y29.281 Z20.881 F3924 
N137 X-159.804 Y29.940 Z21.587 F4234 
N138 X-159.566 Y30.631 Z22.328 F4421 
N139 X-159.236 Y31.325 Z23.072 F4483 
N140 X-158.786 Y32.023 Z23.821 F4483 
N141 X-158.221 Y32.650 Z24.493 F4420 
N142 X-157.455 Y32.777 Z24.630 F4230 
N143 X-157.359 Y32.110 Z23.914 F3913 
N144 X-157.388 Y31.498 Z23.258 F3471 
N145 X-157.439 Y30.970 Z22.691 F2901 
N146 X-157.487 Y30.550 Z22.241 F2237 
N147 X-157.527 Y30.233 Z21.902 F1668 
N148 X-157.557 Y29.998 Z21.649 F1225 
N149 X-157.580 Y29.823 Z21.462 F909 
N150 X-157.598 Y29.689 Z21.318 F719 
N151 X-157.614 Y29.574 Z21.194 F656 
N152 X-157.845 Y27.876 Z19.374 F656 
N153 X-157.864 Y27.735 Z19.223 F874 
N154 X-157.888 Y27.554 Z19.029 F1093 
N155 X-157.918 Y27.333 Z18.791 F1312 
N156 X-158.333 Y24.283 Z15.521 F1312 
N157 X-158.615 Y21.838 Z12.899 F1312 
N158 X-158.892 Y18.946 Z9.798 F1312 
N159 X-159.110 Y16.012 Z6.651 F1312 
N160 X-159.296 Y12.256 Z2.624 F1312 
N161 X-159.382 Y8.133 Z-1.798 F1312 
N162 X-159.341 Y3.945 Z-6.289 F1312 
N163 X-159.191 Y0.131 Z-10.379 F1312 
N164 X-159.181 Y-0.114 Z-10.642 F1639 
N165 X-159.170 Y-0.414 Z-10.963 F1967 
N166 F1312 
N167 G00 X-159.170 Y36.154 Z-45.063 
;RAPORT("TB123456","Slot Roughing:128 End")
;trailer : concat=None
; points cnt = 123
N169 M9 ; chlodziwo wyl.
N170 MSG (" --- KONIEC PODPROGRAMU --- ")
N171 FGROUP()
N172 TRAFOOF
N173 STOPRE
N174 G0 G53 D0 Z550.0 M9 M5
N175 G0 G53 Y150 A0 B0
N176 M17
