; PROGRAM NAME: B12345641
; ORDER       : B123456
; OPER. NAME  : Side Milling:129
; OPER. DESCR.: Side Milling/HHU_zgr
; OPER. TYPE  : sideMill
; GEO. OPTION : 3
; MACHINE     : HSTM_500_SIM840D_Py
;             : HSTM500 - HAMUEL: 5-axis milling machine - SIM840D Traori PP_Script
; CONTROL     : SINUMERIK 840D
; created:   2023-06-06 12:05:01.654747
;-------DODATKOWE DANE-------------------
; PROGRAMISTA : Mariusz Malec
; PARTID      : 306T001953P1010_-
;  ap         : 16.0
;  ae         : 5.6
;  lean_angle : 0.0
;  fin_offset : 0.2
;----------------------------------------
;RAPORT("TB123456","Side Milling:129")
N10 TRAFOOF
N11 D0
N12 G90 G94
N13 G0 G53 D0 Z550 B0
N14 STOPRE
M9 ; chlodziwo wyl
; --- Side Milling:129 - Side Milling/HHU_zgr ---
N16 ;ToolChange : concat=None ,current_tdmid=None, PP.tdmId=940728
N17 TRAFOOF
N18 G0 G53 D0 X-200 Y150 Z550 B0
N19 T="7740728"
;RAPORT("TB123456","ToolChangeStart 7740728")
N20 M6
;RAPORT("TB123456","ToolChangeEnd")
N21 STOPRE
N22 MSG(" TLID=940728 D=7.0 R=2.4 Ang=0.0 Len=111.0 ")
N23 ; (Preloading tool)
N24 T="7740729"
N25 S7730 M03
N26 STOPRE
N27 CYCLE832(0.01,1,1)
N28 G0 G53 A47.0000 B0.0000
N29 TRAORI
N30 G54 D1
N31 D1 
STOPRE
E_ZDARZ=500002
;ACS_ROUGH_SLOT=7740728
STOPRE
N32 ; DELTA A > 40.1
N33 TRAFOOF
N34 D1
N35 STOPRE
N36 G00 G54 Z275.000
N37 G01 A47.0000 F10000
N38 TRAORI
N39 G54 D1
N40 STOPRE
N41 TRANS 
N42 G00 X-152.162 Y-74.694 Z18.032 A47.0000 
N43 M342 ; chlodziwo woda
N44 X-152.162 Y-38.127 Z-16.068 
N45 G01 X-152.203 Y-35.534 Z-17.819 F579 
N46 X-152.321 Y-32.530 Z-18.685 
N47 X-152.504 Y-29.408 Z-18.581 
N48 X-152.736 Y-26.475 Z-17.518 
N49 ;NTE
N50 D1 
N51 G41 X-152.993 Y-24.017 Z-15.600 
N52 X-153.009 Y-23.881 Z-15.454 
N53 X-153.026 Y-23.745 Z-15.308 
N54 X-153.043 Y-23.609 Z-15.163 
N55 X-153.059 Y-23.473 Z-15.017 
N56 X-153.076 Y-23.337 Z-14.871 
N57 X-153.092 Y-23.205 Z-14.729 
N58 X-153.108 Y-23.073 Z-14.588 
N59 X-153.124 Y-22.941 Z-14.446 
N60 X-153.141 Y-22.809 Z-14.304 
N61 X-153.157 Y-22.676 Z-14.162 
N62 X-153.173 Y-22.544 Z-14.021 
N63 X-153.189 Y-22.412 Z-13.879 
N64 X-153.205 Y-22.280 Z-13.737 
N65 X-153.221 Y-22.148 Z-13.596 
N66 X-153.238 Y-22.016 Z-13.454 
N67 X-153.254 Y-21.883 Z-13.312 
N68 X-153.270 Y-21.751 Z-13.170 
N69 X-153.286 Y-21.619 Z-13.029 
N70 X-153.302 Y-21.487 Z-12.887 
N71 X-153.318 Y-21.355 Z-12.745 
N72 X-153.334 Y-21.223 Z-12.604 
N73 X-153.351 Y-21.091 Z-12.462 
N74 X-153.367 Y-20.958 Z-12.320 
N75 X-153.383 Y-20.828 Z-12.180 
N76 X-153.399 Y-20.697 Z-12.039 
N77 X-153.415 Y-20.566 Z-11.899 
N78 X-153.431 Y-20.435 Z-11.759 
N79 X-153.447 Y-20.304 Z-11.618 
N80 X-153.463 Y-20.173 Z-11.478 
N81 X-153.479 Y-20.042 Z-11.337 
N82 X-153.495 Y-19.911 Z-11.197 
N83 X-153.511 Y-19.780 Z-11.057 
N84 X-153.527 Y-19.649 Z-10.916 
N85 X-153.543 Y-19.518 Z-10.776 
N86 X-153.559 Y-19.387 Z-10.635 
N87 X-153.575 Y-19.257 Z-10.495 
N88 X-153.591 Y-19.126 Z-10.355 
N89 X-153.607 Y-18.995 Z-10.214 
N90 X-153.623 Y-18.864 Z-10.074 
N91 X-153.639 Y-18.733 Z-9.934 
N92 X-153.655 Y-18.602 Z-9.793 
N93 X-153.671 Y-18.471 Z-9.653 
N94 X-153.687 Y-18.340 Z-9.512 
N95 X-153.703 Y-18.209 Z-9.372 
N96 X-153.719 Y-18.078 Z-9.232 
N97 X-153.735 Y-17.947 Z-9.091 
N98 X-153.751 Y-17.817 Z-8.951 
N99 X-153.767 Y-17.686 Z-8.810 
N100 X-153.783 Y-17.555 Z-8.670 
N101 X-153.797 Y-17.424 Z-8.530 
N102 X-153.809 Y-17.293 Z-8.389 
N103 X-153.821 Y-17.161 Z-8.248 
N104 X-153.834 Y-17.030 Z-8.108 
N105 X-153.846 Y-16.899 Z-7.967 
N106 X-153.858 Y-16.768 Z-7.827 
N107 X-153.870 Y-16.637 Z-7.686 
N108 X-153.883 Y-16.506 Z-7.545 
N109 X-153.895 Y-16.375 Z-7.405 
N110 X-153.907 Y-16.244 Z-7.264 
N111 X-153.919 Y-16.113 Z-7.124 
N112 X-153.932 Y-15.982 Z-6.983 
N113 X-153.944 Y-15.850 Z-6.842 
N114 X-153.956 Y-15.719 Z-6.702 
N115 X-153.968 Y-15.588 Z-6.561 
N116 X-153.981 Y-15.457 Z-6.421 
N117 X-153.993 Y-15.326 Z-6.280 
N118 X-154.005 Y-15.195 Z-6.140 
N119 X-154.017 Y-15.064 Z-5.999 
N120 X-154.030 Y-14.933 Z-5.858 
N121 X-154.042 Y-14.802 Z-5.718 
N122 X-154.054 Y-14.671 Z-5.577 
N123 X-154.066 Y-14.539 Z-5.437 
N124 X-154.079 Y-14.408 Z-5.296 
N125 X-154.091 Y-14.277 Z-5.155 
N126 X-154.103 Y-14.146 Z-5.015 
N127 X-154.115 Y-14.015 Z-4.874 
N128 X-154.128 Y-13.884 Z-4.734 
N129 X-154.140 Y-13.753 Z-4.593 
N130 X-154.152 Y-13.622 Z-4.452 
N131 X-154.164 Y-13.491 Z-4.312 
N132 X-154.177 Y-13.360 Z-4.171 
N133 X-154.187 Y-13.228 Z-4.031 
N134 X-154.196 Y-13.097 Z-3.890 
N135 X-154.205 Y-12.966 Z-3.749 
N136 X-154.214 Y-12.835 Z-3.608 
N137 X-154.223 Y-12.703 Z-3.468 
N138 X-154.232 Y-12.572 Z-3.327 
N139 X-154.241 Y-12.441 Z-3.186 
N140 X-154.250 Y-12.310 Z-3.046 
N141 X-154.259 Y-12.179 Z-2.905 
N142 X-154.267 Y-12.047 Z-2.764 
N143 X-154.276 Y-11.916 Z-2.623 
N144 X-154.285 Y-11.785 Z-2.483 
N145 X-154.294 Y-11.654 Z-2.342 
N146 X-154.303 Y-11.522 Z-2.201 
N147 X-154.312 Y-11.391 Z-2.061 
N148 X-154.321 Y-11.260 Z-1.920 
N149 X-154.330 Y-11.129 Z-1.779 
N150 X-154.339 Y-10.998 Z-1.638 
N151 X-154.348 Y-10.866 Z-1.498 
N152 X-154.356 Y-10.735 Z-1.357 
N153 X-154.362 Y-10.604 Z-1.216 
N154 X-154.368 Y-10.472 Z-1.075 
N155 X-154.375 Y-10.341 Z-0.935 
N156 X-154.381 Y-10.210 Z-0.794 
N157 X-154.387 Y-10.079 Z-0.653 
N158 X-154.394 Y-9.947 Z-0.512 
N159 X-154.400 Y-9.816 Z-0.371 
N160 X-154.406 Y-9.685 Z-0.231 
N161 X-154.412 Y-9.553 Z-0.090 
N162 X-154.419 Y-9.422 Z0.051 
N163 X-154.425 Y-9.291 Z0.192 
N164 X-154.431 Y-9.160 Z0.333 
N165 X-154.438 Y-9.028 Z0.473 
N166 X-154.444 Y-8.897 Z0.614 
N167 X-154.450 Y-8.766 Z0.755 
N168 X-154.457 Y-8.634 Z0.896 
N169 X-154.463 Y-8.503 Z1.037 
N170 X-154.469 Y-8.372 Z1.177 
N171 X-154.475 Y-8.240 Z1.318 
N172 X-154.482 Y-8.109 Z1.459 
N173 X-154.488 Y-7.978 Z1.600 
N174 X-154.494 Y-7.847 Z1.741 
N175 X-154.497 Y-7.715 Z1.882 
N176 X-154.500 Y-7.584 Z2.022 
N177 X-154.503 Y-7.452 Z2.163 
N178 X-154.506 Y-7.321 Z2.304 
N179 X-154.510 Y-7.190 Z2.445 
N180 X-154.513 Y-7.058 Z2.586 
N181 X-154.516 Y-6.927 Z2.727 
N182 X-154.519 Y-6.796 Z2.868 
N183 X-154.522 Y-6.664 Z3.008 
N184 X-154.526 Y-6.533 Z3.149 
N185 X-154.529 Y-6.402 Z3.290 
N186 X-154.532 Y-6.270 Z3.431 
N187 X-154.535 Y-6.139 Z3.572 
N188 X-154.538 Y-6.008 Z3.713 
N189 X-154.542 Y-5.876 Z3.853 
N190 X-154.545 Y-5.745 Z3.994 
N191 X-154.548 Y-5.614 Z4.135 
N192 X-154.551 Y-5.482 Z4.276 
N193 X-154.554 Y-5.351 Z4.417 
N194 X-154.558 Y-5.220 Z4.558 
N195 X-154.561 Y-5.088 Z4.699 
N196 X-154.564 Y-4.957 Z4.839 
N197 X-154.567 Y-4.825 Z4.980 
N198 X-154.570 Y-4.694 Z5.121 
N199 X-154.574 Y-4.563 Z5.262 
N200 X-154.575 Y-4.431 Z5.403 
N201 X-154.575 Y-4.300 Z5.544 
N202 X-154.575 Y-4.169 Z5.685 
N203 X-154.574 Y-4.037 Z5.826 
N204 X-154.574 Y-3.906 Z5.966 
N205 X-154.574 Y-3.775 Z6.107 
N206 X-154.574 Y-3.643 Z6.248 
N207 X-154.574 Y-3.512 Z6.389 
N208 X-154.573 Y-3.381 Z6.530 
N209 X-154.573 Y-3.249 Z6.671 
N210 X-154.573 Y-3.118 Z6.812 
N211 X-154.573 Y-2.986 Z6.953 
N212 X-154.572 Y-2.855 Z7.093 
N213 X-154.572 Y-2.724 Z7.234 
N214 X-154.572 Y-2.592 Z7.375 
N215 X-154.572 Y-2.461 Z7.516 
N216 X-154.571 Y-2.330 Z7.657 
N217 X-154.571 Y-2.198 Z7.798 
N218 X-154.571 Y-2.067 Z7.939 
N219 X-154.571 Y-1.935 Z8.079 
N220 X-154.570 Y-1.804 Z8.220 
N221 X-154.570 Y-1.673 Z8.361 
N222 X-154.570 Y-1.541 Z8.502 
N223 X-154.570 Y-1.410 Z8.643 
N224 X-154.570 Y-1.279 Z8.784 
N225 X-154.569 Y-1.147 Z8.925 
N226 X-154.569 Y-1.016 Z9.066 
N227 X-154.569 Y-0.885 Z9.206 
N228 X-154.569 Y-0.752 Z9.349 
N229 X-154.568 Y-0.619 Z9.491 
N230 X-154.568 Y-0.487 Z9.633 
N231 X-154.568 Y-0.354 Z9.775 
N232 X-154.568 Y-0.221 Z9.918 
N233 X-154.567 Y-0.089 Z10.060 
N234 X-154.567 Y0.044 Z10.202 
N235 X-154.567 Y0.176 Z10.344 
N236 X-154.567 Y0.309 Z10.486 
N237 X-154.566 Y0.442 Z10.629 
N238 X-154.566 Y0.574 Z10.771 
N239 X-154.566 Y0.707 Z10.913 
N240 X-154.566 Y0.839 Z11.055 
N241 X-154.566 Y0.972 Z11.197 
N242 X-154.565 Y1.105 Z11.340 
N243 X-154.565 Y1.237 Z11.482 
N244 X-154.565 Y1.370 Z11.624 
N245 X-154.565 Y1.502 Z11.766 
N246 G40 X-154.563 Y1.646 Z11.920 F702
N247 X-154.563 Y1.646 Z11.920 
N248 X-154.559 Y1.846 Z12.135 F1074 
N249 X-154.555 Y2.161 Z12.472 F1693 
N250 X-154.549 Y2.628 Z12.973 F2312 
N251 X-154.545 Y3.210 Z13.597 F2683 
N252 X-154.548 Y3.848 Z14.282 F2807 
N253 X-154.562 Y4.484 Z14.963 
N254 X-154.589 Y5.119 Z15.644 
N255 X-154.634 Y5.753 Z16.324 
N256 X-154.703 Y6.387 Z17.004 
N257 X-154.799 Y7.018 Z17.681 
N258 X-154.928 Y7.647 Z18.356 
N259 X-155.108 Y8.271 Z19.024 
N260 X-155.505 Y8.739 Z19.526 
N261 X-155.664 Y8.117 Z18.860 
N262 X-155.714 Y7.476 Z18.172 
N263 X-155.739 Y6.841 Z17.491 F2683 
N264 X-155.751 Y6.277 Z16.886 F2312 
N265 X-155.758 Y5.804 Z16.379 F1693 
N266 X-155.762 Y5.471 Z16.022 F1074 
N267 X-155.764 Y5.255 Z15.791 F702 
N268 ;NNTE
N269 D2 
N270 G41 X-155.766 Y5.116 Z15.641 F579 
N271 X-155.770 Y4.979 Z15.495 
N272 X-155.773 Y4.843 Z15.348 
N273 X-155.776 Y4.706 Z15.202 
N274 X-155.780 Y4.570 Z15.056 
N275 X-155.783 Y4.434 Z14.910 
N276 X-155.786 Y4.301 Z14.767 
N277 X-155.790 Y4.169 Z14.625 
N278 X-155.793 Y4.036 Z14.483 
N279 X-155.796 Y3.903 Z14.341 
N280 X-155.800 Y3.771 Z14.199 
N281 X-155.803 Y3.638 Z14.056 
N282 X-155.806 Y3.506 Z13.914 
N283 X-155.809 Y3.373 Z13.772 
N284 X-155.813 Y3.240 Z13.630 
N285 X-155.816 Y3.108 Z13.488 
N286 X-155.819 Y2.975 Z13.346 
N287 X-155.823 Y2.843 Z13.203 
N288 X-155.826 Y2.710 Z13.061 
N289 X-155.829 Y2.577 Z12.919 
N290 X-155.833 Y2.445 Z12.777 
N291 X-155.836 Y2.312 Z12.635 
N292 X-155.839 Y2.180 Z12.492 
N293 X-155.842 Y2.047 Z12.350 
N294 X-155.846 Y1.916 Z12.209 
N295 X-155.849 Y1.784 Z12.069 
N296 X-155.852 Y1.653 Z11.928 
N297 X-155.855 Y1.522 Z11.787 
N298 X-155.859 Y1.391 Z11.646 
N299 X-155.862 Y1.259 Z11.505 
N300 X-155.865 Y1.128 Z11.365 
N301 X-155.869 Y0.997 Z11.224 
N302 X-155.872 Y0.865 Z11.083 
N303 X-155.875 Y0.734 Z10.942 
N304 X-155.878 Y0.603 Z10.802 
N305 X-155.882 Y0.472 Z10.661 
N306 X-155.885 Y0.340 Z10.520 
N307 X-155.888 Y0.209 Z10.379 
N308 X-155.891 Y0.078 Z10.238 
N309 X-155.895 Y-0.054 Z10.098 
N310 X-155.898 Y-0.185 Z9.957 
N311 X-155.901 Y-0.316 Z9.816 
N312 X-155.904 Y-0.447 Z9.675 
N313 X-155.908 Y-0.579 Z9.534 
N314 X-155.911 Y-0.710 Z9.394 
N315 X-155.914 Y-0.841 Z9.253 
N316 X-155.917 Y-0.973 Z9.112 
N317 X-155.921 Y-1.104 Z8.971 
N318 X-155.924 Y-1.235 Z8.831 
N319 X-155.924 Y-1.366 Z8.690 
N320 X-155.923 Y-1.498 Z8.549 
N321 X-155.923 Y-1.629 Z8.408 
N322 X-155.923 Y-1.760 Z8.267 
N323 X-155.923 Y-1.892 Z8.126 
N324 X-155.923 Y-2.023 Z7.986 
N325 X-155.923 Y-2.154 Z7.845 
N326 X-155.923 Y-2.286 Z7.704 
N327 X-155.922 Y-2.417 Z7.563 
N328 X-155.922 Y-2.548 Z7.422 
N329 X-155.922 Y-2.679 Z7.282 
N330 X-155.922 Y-2.811 Z7.141 
N331 X-155.922 Y-2.942 Z7.000 
N332 X-155.922 Y-3.073 Z6.859 
N333 X-155.922 Y-3.205 Z6.718 
N334 X-155.921 Y-3.336 Z6.578 
N335 X-155.921 Y-3.467 Z6.437 
N336 X-155.921 Y-3.599 Z6.296 
N337 X-155.921 Y-3.730 Z6.155 
N338 X-155.921 Y-3.861 Z6.014 
N339 X-155.921 Y-3.993 Z5.874 
N340 X-155.920 Y-4.124 Z5.733 
N341 X-155.920 Y-4.255 Z5.592 
N342 X-155.920 Y-4.386 Z5.451 
N343 X-155.920 Y-4.518 Z5.310 
N344 X-155.920 Y-4.649 Z5.170 
N345 X-155.920 Y-4.780 Z5.029 
N346 X-155.920 Y-4.912 Z4.888 
N347 X-155.916 Y-5.043 Z4.747 
N348 X-155.913 Y-5.174 Z4.606 
N349 X-155.909 Y-5.306 Z4.466 
N350 X-155.906 Y-5.437 Z4.325 
N351 X-155.902 Y-5.568 Z4.184 
N352 X-155.899 Y-5.699 Z4.043 
N353 X-155.895 Y-5.831 Z3.902 
N354 X-155.892 Y-5.962 Z3.762 
N355 X-155.888 Y-6.093 Z3.621 
N356 X-155.885 Y-6.224 Z3.480 
N357 X-155.881 Y-6.356 Z3.339 
N358 X-155.878 Y-6.487 Z3.199 
N359 X-155.874 Y-6.618 Z3.058 
N360 X-155.871 Y-6.750 Z2.917 
N361 X-155.867 Y-6.881 Z2.776 
N362 X-155.864 Y-7.012 Z2.635 
N363 X-155.860 Y-7.143 Z2.495 
N364 X-155.857 Y-7.275 Z2.354 
N365 X-155.853 Y-7.406 Z2.213 
N366 X-155.850 Y-7.537 Z2.072 
N367 X-155.846 Y-7.669 Z1.931 
N368 X-155.842 Y-7.800 Z1.791 
N369 X-155.839 Y-7.931 Z1.650 
N370 X-155.835 Y-8.062 Z1.509 
N371 X-155.831 Y-8.194 Z1.368 
N372 X-155.824 Y-8.325 Z1.228 
N373 X-155.818 Y-8.456 Z1.087 
N374 X-155.812 Y-8.587 Z0.946 
N375 X-155.805 Y-8.719 Z0.805 
N376 X-155.799 Y-8.850 Z0.665 
N377 X-155.793 Y-8.981 Z0.524 
N378 X-155.786 Y-9.112 Z0.383 
N379 X-155.780 Y-9.244 Z0.243 
N380 X-155.774 Y-9.375 Z0.102 
N381 X-155.767 Y-9.506 Z-0.039 
N382 X-155.761 Y-9.637 Z-0.180 
N383 X-155.755 Y-9.769 Z-0.320 
N384 X-155.748 Y-9.900 Z-0.461 
N385 X-155.742 Y-10.031 Z-0.602 
N386 X-155.735 Y-10.162 Z-0.743 
N387 X-155.729 Y-10.293 Z-0.883 
N388 X-155.723 Y-10.425 Z-1.024 
N389 X-155.716 Y-10.556 Z-1.165 
N390 X-155.710 Y-10.687 Z-1.306 
N391 X-155.701 Y-10.818 Z-1.446 
N392 X-155.692 Y-10.949 Z-1.587 
N393 X-155.682 Y-11.081 Z-1.727 
N394 X-155.672 Y-11.212 Z-1.868 
N395 X-155.663 Y-11.343 Z-2.009 
N396 X-155.653 Y-11.474 Z-2.149 
N397 X-155.644 Y-11.605 Z-2.290 
N398 X-155.634 Y-11.736 Z-2.431 
N399 X-155.625 Y-11.867 Z-2.571 
N400 X-155.615 Y-11.999 Z-2.712 
N401 X-155.606 Y-12.130 Z-2.853 
N402 X-155.596 Y-12.261 Z-2.993 
N403 X-155.586 Y-12.392 Z-3.134 
N404 X-155.577 Y-12.523 Z-3.274 
N405 X-155.567 Y-12.654 Z-3.415 
N406 X-155.558 Y-12.785 Z-3.556 
N407 X-155.548 Y-12.917 Z-3.696 
N408 X-155.539 Y-13.048 Z-3.837 
N409 X-155.529 Y-13.179 Z-3.978 
N410 X-155.519 Y-13.310 Z-4.118 
N411 X-155.510 Y-13.441 Z-4.259 
N412 X-155.500 Y-13.572 Z-4.399 
N413 X-155.491 Y-13.703 Z-4.540 
N414 X-155.481 Y-13.835 Z-4.681 
N415 X-155.472 Y-13.966 Z-4.821 
N416 X-155.462 Y-14.097 Z-4.962 
N417 X-155.452 Y-14.228 Z-5.103 
N418 X-155.443 Y-14.359 Z-5.243 
N419 X-155.433 Y-14.490 Z-5.384 
N420 X-155.424 Y-14.621 Z-5.525 
N421 X-155.413 Y-14.753 Z-5.665 
N422 X-155.400 Y-14.884 Z-5.806 
N423 X-155.387 Y-15.015 Z-5.946 
N424 X-155.374 Y-15.146 Z-6.087 
N425 X-155.361 Y-15.277 Z-6.227 
N426 X-155.348 Y-15.408 Z-6.368 
N427 X-155.335 Y-15.539 Z-6.508 
N428 X-155.322 Y-15.670 Z-6.649 
N429 X-155.309 Y-15.801 Z-6.789 
N430 X-155.296 Y-15.932 Z-6.930 
N431 X-155.283 Y-16.063 Z-7.070 
N432 X-155.270 Y-16.194 Z-7.210 
N433 X-155.257 Y-16.325 Z-7.351 
N434 X-155.244 Y-16.456 Z-7.491 
N435 X-155.230 Y-16.587 Z-7.632 
N436 X-155.217 Y-16.718 Z-7.772 
N437 X-155.204 Y-16.849 Z-7.913 
N438 X-155.191 Y-16.980 Z-8.053 
N439 X-155.178 Y-17.111 Z-8.194 
N440 X-155.165 Y-17.242 Z-8.334 
N441 X-155.152 Y-17.373 Z-8.475 
N442 X-155.139 Y-17.504 Z-8.615 
N443 X-155.126 Y-17.635 Z-8.756 
N444 X-155.113 Y-17.766 Z-8.896 
N445 X-155.100 Y-17.897 Z-9.037 
N446 X-155.086 Y-18.029 Z-9.179 
N447 X-155.073 Y-18.161 Z-9.320 
N448 X-155.060 Y-18.294 Z-9.462 
N449 X-155.047 Y-18.426 Z-9.604 
N450 X-155.034 Y-18.558 Z-9.746 
N451 X-155.020 Y-18.690 Z-9.888 
N452 X-155.007 Y-18.823 Z-10.030 
N453 X-154.994 Y-18.955 Z-10.172 
N454 X-154.981 Y-19.087 Z-10.314 
N455 X-154.968 Y-19.220 Z-10.456 
N456 X-154.954 Y-19.352 Z-10.597 
N457 X-154.941 Y-19.484 Z-10.739 
N458 X-154.928 Y-19.617 Z-10.881 
N459 X-154.915 Y-19.749 Z-11.023 
N460 X-154.902 Y-19.881 Z-11.165 
N461 X-154.888 Y-20.014 Z-11.307 
N462 X-154.875 Y-20.146 Z-11.449 
N463 X-154.862 Y-20.278 Z-11.591 
N464 G40 X-154.183 Y-27.082 Z-18.887 F579
N465 X-154.183 Y-27.082 Z-18.887 
N466 G00 X-154.183 Y-63.650 Z15.213 
;RAPORT("TB123456","Side Milling:129 End")
;trailer : concat=None
; points cnt = 415
N468 MSG (" --- GROUPED OF SUBPROGRAM --- ")
N469 FGROUP()
N470 TRAFOOF
; PROGRAM NAME: B12345641
; ORDER       : B123456
; OPER. NAME  : Side Milling:130
; OPER. DESCR.: HHU rough milling NGA
; OPER. TYPE  : sideMill
; GEO. OPTION : 3
; MACHINE     : HSTM_500_SIM840D_Py
;             : HSTM500 - HAMUEL: 5-axis milling machine - SIM840D Traori PP_Script
; CONTROL     : SINUMERIK 840D
; created:   2023-06-06 12:05:06.027528
;-------DODATKOWE DANE-------------------
; PROGRAMISTA : Mariusz Malec
; PARTID      : 306T001953P1010_-
;  ap         : 16.0
;  ae         : 5.6
;  lean_angle : 0.0
;  fin_offset : 0.2
;----------------------------------------
;RAPORT("TB123456","Side Milling:130")
N10 TRAFOOF
N11 D0
N12 G90 G94
N13 G0 G53 D0 Z550 B0
N14 STOPRE
M9 ; chlodziwo wyl
; --- Side Milling:130 - HHU rough milling NGA ---
N16 ;ToolChange : concat=None ,current_tdmid=None, PP.tdmId=940728
N17 TRAFOOF
N18 G0 G53 D0 Z550 B0
N19 STOPRE
N20 MSG(" TLID=940728 D=7.0 R=2.4 Ang=0.0 Len=111.0 ")
N21 S7730 M03
N22 STOPRE
N23 CYCLE832(0.01,1,1)
N24 G0 G53 A227.0000 B-0.0000
N25 TRAORI
N26 G54 D3
N27 D3 
STOPRE
E_ZDARZ=500002
;ACS_ROUGH_SLOT=7740728
STOPRE
N28 ; DELTA A > 40.1
N29 TRAFOOF
N30 D3
N31 STOPRE
N32 G00 G54 Z275.000
N33 G01 A227.0000 F10000
N34 TRAORI
N35 G54 D3
N36 STOPRE
N37 TRANS 
N38 G00 X-152.259 Y77.289 Z-12.828 A227.0000 
N39 M342 ; chlodziwo woda
N40 X-152.259 Y40.721 Z21.272 
N41 G01 X-152.299 Y38.128 Z23.022 F579 
N42 X-152.413 Y35.124 Z23.888 
N43 X-152.592 Y32.002 Z23.784 
N44 X-152.817 Y29.068 Z22.721 
N45 ;NTA
N46 D3 
N47 G41 X-153.067 Y26.610 Z20.802 
N48 X-153.083 Y26.474 Z20.656 
N49 X-153.099 Y26.338 Z20.510 
N50 X-153.115 Y26.202 Z20.364 
N51 X-153.132 Y26.066 Z20.219 
N52 X-153.148 Y25.930 Z20.073 
N53 X-153.164 Y25.798 Z19.931 
N54 X-153.179 Y25.666 Z19.789 
N55 X-153.195 Y25.533 Z19.648 
N56 X-153.211 Y25.401 Z19.506 
N57 X-153.226 Y25.269 Z19.364 
N58 X-153.242 Y25.137 Z19.222 
N59 X-153.258 Y25.005 Z19.081 
N60 X-153.273 Y24.873 Z18.939 
N61 X-153.289 Y24.740 Z18.797 
N62 X-153.305 Y24.608 Z18.655 
N63 X-153.321 Y24.476 Z18.514 
N64 X-153.336 Y24.344 Z18.372 
N65 X-153.352 Y24.212 Z18.230 
N66 X-153.368 Y24.079 Z18.089 
N67 X-153.383 Y23.947 Z17.947 
N68 X-153.399 Y23.815 Z17.805 
N69 X-153.415 Y23.683 Z17.663 
N70 X-153.431 Y23.551 Z17.522 
N71 X-153.446 Y23.420 Z17.381 
N72 X-153.462 Y23.289 Z17.241 
N73 X-153.477 Y23.158 Z17.100 
N74 X-153.493 Y23.027 Z16.960 
N75 X-153.508 Y22.896 Z16.820 
N76 X-153.524 Y22.765 Z16.679 
N77 X-153.539 Y22.634 Z16.539 
N78 X-153.555 Y22.503 Z16.398 
N79 X-153.571 Y22.373 Z16.258 
N80 X-153.586 Y22.242 Z16.118 
N81 X-153.602 Y22.111 Z15.977 
N82 X-153.617 Y21.980 Z15.837 
N83 X-153.633 Y21.849 Z15.697 
N84 X-153.648 Y21.718 Z15.556 
N85 X-153.664 Y21.587 Z15.416 
N86 X-153.680 Y21.456 Z15.275 
N87 X-153.695 Y21.325 Z15.135 
N88 X-153.711 Y21.194 Z14.995 
N89 X-153.726 Y21.063 Z14.854 
N90 X-153.742 Y20.933 Z14.714 
N91 X-153.757 Y20.802 Z14.573 
N92 X-153.773 Y20.671 Z14.433 
N93 X-153.788 Y20.540 Z14.293 
N94 X-153.804 Y20.409 Z14.152 
N95 X-153.820 Y20.278 Z14.012 
N96 X-153.835 Y20.147 Z13.872 
N97 X-153.847 Y20.016 Z13.731 
N98 X-153.859 Y19.885 Z13.590 
N99 X-153.871 Y19.754 Z13.450 
N100 X-153.883 Y19.623 Z13.309 
N101 X-153.895 Y19.492 Z13.169 
N102 X-153.906 Y19.361 Z13.028 
N103 X-153.918 Y19.229 Z12.888 
N104 X-153.930 Y19.098 Z12.747 
N105 X-153.942 Y18.967 Z12.606 
N106 X-153.954 Y18.836 Z12.466 
N107 X-153.966 Y18.705 Z12.325 
N108 X-153.977 Y18.574 Z12.185 
N109 X-153.989 Y18.443 Z12.044 
N110 X-154.001 Y18.312 Z11.903 
N111 X-154.013 Y18.181 Z11.763 
N112 X-154.025 Y18.050 Z11.622 
N113 X-154.037 Y17.919 Z11.482 
N114 X-154.049 Y17.787 Z11.341 
N115 X-154.060 Y17.656 Z11.201 
N116 X-154.072 Y17.525 Z11.060 
N117 X-154.084 Y17.394 Z10.919 
N118 X-154.096 Y17.263 Z10.779 
N119 X-154.108 Y17.132 Z10.638 
N120 X-154.120 Y17.001 Z10.498 
N121 X-154.132 Y16.870 Z10.357 
N122 X-154.143 Y16.739 Z10.217 
N123 X-154.155 Y16.608 Z10.076 
N124 X-154.167 Y16.477 Z9.935 
N125 X-154.179 Y16.345 Z9.795 
N126 X-154.191 Y16.214 Z9.654 
N127 X-154.203 Y16.083 Z9.514 
N128 X-154.213 Y15.952 Z9.373 
N129 X-154.222 Y15.821 Z9.232 
N130 X-154.231 Y15.690 Z9.092 
N131 X-154.239 Y15.559 Z8.951 
N132 X-154.248 Y15.427 Z8.810 
N133 X-154.256 Y15.296 Z8.670 
N134 X-154.265 Y15.165 Z8.529 
N135 X-154.273 Y15.034 Z8.388 
N136 X-154.282 Y14.902 Z8.247 
N137 X-154.291 Y14.771 Z8.107 
N138 X-154.299 Y14.640 Z7.966 
N139 X-154.308 Y14.509 Z7.825 
N140 X-154.316 Y14.378 Z7.685 
N141 X-154.325 Y14.246 Z7.544 
N142 X-154.334 Y14.115 Z7.403 
N143 X-154.342 Y13.984 Z7.262 
N144 X-154.351 Y13.853 Z7.122 
N145 X-154.359 Y13.722 Z6.981 
N146 X-154.368 Y13.590 Z6.840 
N147 X-154.376 Y13.459 Z6.700 
N148 X-154.382 Y13.328 Z6.559 
N149 X-154.388 Y13.197 Z6.418 
N150 X-154.394 Y13.065 Z6.277 
N151 X-154.400 Y12.934 Z6.137 
N152 X-154.406 Y12.803 Z5.996 
N153 X-154.411 Y12.672 Z5.855 
N154 X-154.417 Y12.540 Z5.714 
N155 X-154.423 Y12.409 Z5.573 
N156 X-154.429 Y12.278 Z5.433 
N157 X-154.435 Y12.146 Z5.292 
N158 X-154.441 Y12.015 Z5.151 
N159 X-154.447 Y11.884 Z5.010 
N160 X-154.453 Y11.753 Z4.870 
N161 X-154.459 Y11.621 Z4.729 
N162 X-154.465 Y11.490 Z4.588 
N163 X-154.470 Y11.359 Z4.447 
N164 X-154.476 Y11.227 Z4.306 
N165 X-154.482 Y11.096 Z4.166 
N166 X-154.488 Y10.965 Z4.025 
N167 X-154.494 Y10.834 Z3.884 
N168 X-154.500 Y10.702 Z3.743 
N169 X-154.506 Y10.571 Z3.603 
N170 X-154.510 Y10.440 Z3.462 
N171 X-154.512 Y10.308 Z3.321 
N172 X-154.515 Y10.177 Z3.180 
N173 X-154.518 Y10.046 Z3.039 
N174 X-154.521 Y9.914 Z2.898 
N175 X-154.523 Y9.783 Z2.758 
N176 X-154.526 Y9.652 Z2.617 
N177 X-154.529 Y9.520 Z2.476 
N178 X-154.532 Y9.389 Z2.335 
N179 X-154.534 Y9.258 Z2.194 
N180 X-154.537 Y9.126 Z2.053 
N181 X-154.540 Y8.995 Z1.913 
N182 X-154.543 Y8.864 Z1.772 
N183 X-154.545 Y8.733 Z1.631 
N184 X-154.548 Y8.601 Z1.490 
N185 X-154.551 Y8.470 Z1.349 
N186 X-154.554 Y8.339 Z1.208 
N187 X-154.556 Y8.207 Z1.068 
N188 X-154.559 Y8.076 Z0.927 
N189 X-154.562 Y7.945 Z0.786 
N190 X-154.565 Y7.813 Z0.645 
N191 X-154.568 Y7.682 Z0.504 
N192 X-154.570 Y7.551 Z0.363 
N193 X-154.573 Y7.419 Z0.223 
N194 X-154.576 Y7.288 Z0.082 
N195 X-154.579 Y7.157 Z-0.059 
N196 X-154.580 Y7.025 Z-0.200 
N197 X-154.579 Y6.894 Z-0.341 
N198 X-154.578 Y6.763 Z-0.482 
N199 X-154.578 Y6.631 Z-0.622 
N200 X-154.577 Y6.500 Z-0.763 
N201 X-154.576 Y6.369 Z-0.904 
N202 X-154.575 Y6.237 Z-1.045 
N203 X-154.575 Y6.106 Z-1.186 
N204 X-154.574 Y5.975 Z-1.327 
N205 X-154.573 Y5.843 Z-1.467 
N206 X-154.573 Y5.712 Z-1.608 
N207 X-154.572 Y5.581 Z-1.749 
N208 X-154.571 Y5.449 Z-1.890 
N209 X-154.571 Y5.318 Z-2.031 
N210 X-154.570 Y5.187 Z-2.172 
N211 X-154.569 Y5.055 Z-2.313 
N212 X-154.568 Y4.924 Z-2.453 
N213 X-154.568 Y4.793 Z-2.594 
N214 X-154.567 Y4.661 Z-2.735 
N215 X-154.566 Y4.530 Z-2.876 
N216 X-154.566 Y4.399 Z-3.017 
N217 X-154.565 Y4.267 Z-3.158 
N218 X-154.564 Y4.136 Z-3.298 
N219 X-154.564 Y4.004 Z-3.439 
N220 X-154.563 Y3.873 Z-3.580 
N221 X-154.562 Y3.742 Z-3.721 
N222 X-154.561 Y3.610 Z-3.862 
N223 X-154.561 Y3.479 Z-4.003 
N224 X-154.560 Y3.347 Z-4.145 
N225 X-154.559 Y3.214 Z-4.287 
N226 X-154.559 Y3.081 Z-4.429 
N227 X-154.558 Y2.949 Z-4.571 
N228 X-154.557 Y2.816 Z-4.714 
N229 X-154.557 Y2.683 Z-4.856 
N230 X-154.556 Y2.551 Z-4.998 
N231 X-154.555 Y2.418 Z-5.140 
N232 X-154.554 Y2.286 Z-5.283 
N233 X-154.554 Y2.153 Z-5.425 
N234 X-154.553 Y2.020 Z-5.567 
N235 X-154.552 Y1.888 Z-5.709 
N236 X-154.552 Y1.755 Z-5.851 
N237 X-154.551 Y1.623 Z-5.994 
N238 X-154.550 Y1.490 Z-6.136 
N239 X-154.549 Y1.357 Z-6.278 
N240 X-154.549 Y1.225 Z-6.420 
N241 X-154.548 Y1.092 Z-6.562 
N242 G40 X-154.545 Y0.948 Z-6.717 F704
N243 X-154.545 Y0.948 Z-6.717 
N244 X-154.541 Y0.744 Z-6.935 F1082 
N245 X-154.534 Y0.424 Z-7.279 F1711 
N246 X-154.525 Y-0.052 Z-7.790 F2340 
N247 X-154.518 Y-0.646 Z-8.426 F2718 
N248 X-154.517 Y-1.298 Z-9.126 F2844 
N249 X-154.527 Y-1.942 Z-9.816 
N250 X-154.550 Y-2.585 Z-10.506 
N251 X-154.592 Y-3.228 Z-11.195 
N252 X-154.656 Y-3.870 Z-11.884 
N253 X-154.744 Y-4.511 Z-12.571 
N254 X-154.863 Y-5.149 Z-13.255 
N255 X-155.022 Y-5.783 Z-13.935 
N256 X-155.287 Y-6.399 Z-14.595 
N257 X-155.586 Y-5.941 Z-14.105 
N258 X-155.644 Y-5.309 Z-13.427 
N259 X-155.674 Y-4.639 Z-12.708 F2718 
N260 X-155.690 Y-4.069 Z-12.098 F2340 
N261 X-155.699 Y-3.601 Z-11.595 F1711 
N262 X-155.704 Y-3.269 Z-11.239 F1082 
N263 X-155.707 Y-3.045 Z-10.999 F704 
N264 ;NNTA
N265 D4 
N266 G41 X-155.710 Y-2.882 Z-10.824 F579 
N267 X-155.715 Y-2.745 Z-10.678 
N268 X-155.719 Y-2.609 Z-10.531 
N269 X-155.724 Y-2.473 Z-10.385 
N270 X-155.728 Y-2.336 Z-10.239 
N271 X-155.732 Y-2.200 Z-10.093 
N272 X-155.737 Y-2.067 Z-9.951 
N273 X-155.741 Y-1.935 Z-9.808 
N274 X-155.745 Y-1.802 Z-9.666 
N275 X-155.749 Y-1.670 Z-9.524 
N276 X-155.754 Y-1.537 Z-9.382 
N277 X-155.758 Y-1.405 Z-9.240 
N278 X-155.762 Y-1.272 Z-9.098 
N279 X-155.766 Y-1.139 Z-8.955 
N280 X-155.771 Y-1.007 Z-8.813 
N281 X-155.775 Y-0.874 Z-8.671 
N282 X-155.779 Y-0.742 Z-8.529 
N283 X-155.783 Y-0.609 Z-8.387 
N284 X-155.788 Y-0.476 Z-8.245 
N285 X-155.792 Y-0.344 Z-8.102 
N286 X-155.796 Y-0.211 Z-7.960 
N287 X-155.800 Y-0.079 Z-7.818 
N288 X-155.805 Y0.054 Z-7.676 
N289 X-155.809 Y0.186 Z-7.534 
N290 X-155.813 Y0.318 Z-7.393 
N291 X-155.817 Y0.449 Z-7.252 
N292 X-155.821 Y0.580 Z-7.111 
N293 X-155.826 Y0.711 Z-6.971 
N294 X-155.830 Y0.843 Z-6.830 
N295 X-155.834 Y0.974 Z-6.689 
N296 X-155.838 Y1.105 Z-6.548 
N297 X-155.843 Y1.236 Z-6.408 
N298 X-155.847 Y1.368 Z-6.267 
N299 X-155.851 Y1.499 Z-6.126 
N300 X-155.855 Y1.630 Z-5.985 
N301 X-155.859 Y1.762 Z-5.845 
N302 X-155.864 Y1.893 Z-5.704 
N303 X-155.868 Y2.024 Z-5.563 
N304 X-155.872 Y2.155 Z-5.422 
N305 X-155.876 Y2.287 Z-5.282 
N306 X-155.880 Y2.418 Z-5.141 
N307 X-155.885 Y2.549 Z-5.000 
N308 X-155.889 Y2.680 Z-4.859 
N309 X-155.893 Y2.812 Z-4.718 
N310 X-155.897 Y2.943 Z-4.578 
N311 X-155.901 Y3.074 Z-4.437 
N312 X-155.905 Y3.205 Z-4.296 
N313 X-155.906 Y3.337 Z-4.155 
N314 X-155.907 Y3.468 Z-4.015 
N315 X-155.908 Y3.599 Z-3.874 
N316 X-155.909 Y3.731 Z-3.733 
N317 X-155.910 Y3.862 Z-3.592 
N318 X-155.911 Y3.993 Z-3.451 
N319 X-155.912 Y4.124 Z-3.311 
N320 X-155.913 Y4.256 Z-3.170 
N321 X-155.914 Y4.387 Z-3.029 
N322 X-155.915 Y4.518 Z-2.888 
N323 X-155.915 Y4.650 Z-2.748 
N324 X-155.916 Y4.781 Z-2.607 
N325 X-155.917 Y4.912 Z-2.466 
N326 X-155.918 Y5.043 Z-2.325 
N327 X-155.919 Y5.175 Z-2.184 
N328 X-155.920 Y5.306 Z-2.044 
N329 X-155.921 Y5.437 Z-1.903 
N330 X-155.922 Y5.569 Z-1.762 
N331 X-155.923 Y5.700 Z-1.621 
N332 X-155.924 Y5.831 Z-1.480 
N333 X-155.925 Y5.962 Z-1.340 
N334 X-155.926 Y6.094 Z-1.199 
N335 X-155.927 Y6.225 Z-1.058 
N336 X-155.927 Y6.356 Z-0.917 
N337 X-155.928 Y6.488 Z-0.776 
N338 X-155.929 Y6.619 Z-0.636 
N339 X-155.930 Y6.750 Z-0.495 
N340 X-155.931 Y6.881 Z-0.354 
N341 X-155.929 Y7.013 Z-0.213 
N342 X-155.927 Y7.144 Z-0.073 
N343 X-155.924 Y7.275 Z0.068 
N344 X-155.922 Y7.407 Z0.209 
N345 X-155.919 Y7.538 Z0.350 
N346 X-155.917 Y7.669 Z0.491 
N347 X-155.914 Y7.800 Z0.631 
N348 X-155.911 Y7.932 Z0.772 
N349 X-155.909 Y8.063 Z0.913 
N350 X-155.906 Y8.194 Z1.054 
N351 X-155.904 Y8.326 Z1.194 
N352 X-155.901 Y8.457 Z1.335 
N353 X-155.899 Y8.588 Z1.476 
N354 X-155.896 Y8.719 Z1.617 
N355 X-155.893 Y8.851 Z1.758 
N356 X-155.891 Y8.982 Z1.898 
N357 X-155.888 Y9.113 Z2.039 
N358 X-155.886 Y9.244 Z2.180 
N359 X-155.883 Y9.376 Z2.321 
N360 X-155.881 Y9.507 Z2.461 
N361 X-155.878 Y9.638 Z2.602 
N362 X-155.875 Y9.770 Z2.743 
N363 X-155.873 Y9.901 Z2.884 
N364 X-155.870 Y10.032 Z3.025 
N365 X-155.868 Y10.163 Z3.165 
N366 X-155.865 Y10.295 Z3.306 
N367 X-155.861 Y10.426 Z3.447 
N368 X-155.855 Y10.557 Z3.588 
N369 X-155.850 Y10.688 Z3.728 
N370 X-155.844 Y10.820 Z3.869 
N371 X-155.838 Y10.951 Z4.010 
N372 X-155.833 Y11.082 Z4.151 
N373 X-155.827 Y11.213 Z4.291 
N374 X-155.822 Y11.345 Z4.432 
N375 X-155.816 Y11.476 Z4.573 
N376 X-155.811 Y11.607 Z4.714 
N377 X-155.805 Y11.738 Z4.854 
N378 X-155.800 Y11.870 Z4.995 
N379 X-155.794 Y12.001 Z5.136 
N380 X-155.789 Y12.132 Z5.276 
N381 X-155.783 Y12.263 Z5.417 
N382 X-155.777 Y12.394 Z5.558 
N383 X-155.772 Y12.526 Z5.699 
N384 X-155.766 Y12.657 Z5.839 
N385 X-155.761 Y12.788 Z5.980 
N386 X-155.755 Y12.919 Z6.121 
N387 X-155.749 Y13.051 Z6.262 
N388 X-155.740 Y13.182 Z6.402 
N389 X-155.731 Y13.313 Z6.543 
N390 X-155.722 Y13.444 Z6.683 
N391 X-155.713 Y13.575 Z6.824 
N392 X-155.705 Y13.706 Z6.965 
N393 X-155.696 Y13.838 Z7.105 
N394 X-155.687 Y13.969 Z7.246 
N395 X-155.678 Y14.100 Z7.387 
N396 X-155.669 Y14.231 Z7.527 
N397 X-155.661 Y14.362 Z7.668 
N398 X-155.652 Y14.493 Z7.809 
N399 X-155.643 Y14.624 Z7.949 
N400 X-155.634 Y14.756 Z8.090 
N401 X-155.625 Y14.887 Z8.231 
N402 X-155.617 Y15.018 Z8.371 
N403 X-155.608 Y15.149 Z8.512 
N404 X-155.599 Y15.280 Z8.652 
N405 X-155.590 Y15.411 Z8.793 
N406 X-155.581 Y15.543 Z8.934 
N407 X-155.573 Y15.674 Z9.074 
N408 X-155.564 Y15.805 Z9.215 
N409 X-155.555 Y15.936 Z9.356 
N410 X-155.546 Y16.067 Z9.496 
N411 X-155.537 Y16.198 Z9.637 
N412 X-155.528 Y16.329 Z9.778 
N413 X-155.520 Y16.461 Z9.918 
N414 X-155.511 Y16.592 Z10.059 
N415 X-155.502 Y16.723 Z10.200 
N416 X-155.493 Y16.854 Z10.340 
N417 X-155.484 Y16.985 Z10.481 
N418 X-155.473 Y17.116 Z10.621 
N419 X-155.461 Y17.247 Z10.762 
N420 X-155.448 Y17.378 Z10.902 
N421 X-155.436 Y17.509 Z11.043 
N422 X-155.424 Y17.640 Z11.183 
N423 X-155.412 Y17.771 Z11.324 
N424 X-155.399 Y17.902 Z11.464 
N425 X-155.387 Y18.033 Z11.605 
N426 X-155.375 Y18.164 Z11.745 
N427 X-155.362 Y18.295 Z11.886 
N428 X-155.350 Y18.427 Z12.026 
N429 X-155.338 Y18.558 Z12.167 
N430 X-155.326 Y18.689 Z12.307 
N431 X-155.313 Y18.820 Z12.448 
N432 X-155.301 Y18.951 Z12.588 
N433 X-155.289 Y19.082 Z12.729 
N434 X-155.276 Y19.213 Z12.869 
N435 X-155.264 Y19.344 Z13.010 
N436 X-155.252 Y19.475 Z13.150 
N437 X-155.240 Y19.606 Z13.291 
N438 X-155.227 Y19.737 Z13.431 
N439 X-155.215 Y19.868 Z13.572 
N440 X-155.203 Y19.999 Z13.713 
N441 X-155.191 Y20.130 Z13.853 
N442 X-155.178 Y20.262 Z13.995 
N443 X-155.166 Y20.394 Z14.137 
N444 X-155.153 Y20.527 Z14.279 
N445 X-155.141 Y20.659 Z14.421 
N446 X-155.128 Y20.792 Z14.563 
N447 X-155.116 Y20.924 Z14.705 
N448 X-155.104 Y21.056 Z14.846 
N449 X-155.091 Y21.189 Z14.988 
N450 X-155.079 Y21.321 Z15.130 
N451 X-155.066 Y21.453 Z15.272 
N452 X-155.054 Y21.586 Z15.414 
N453 X-155.042 Y21.718 Z15.556 
N454 X-155.029 Y21.850 Z15.698 
N455 X-155.017 Y21.983 Z15.840 
N456 X-155.004 Y22.115 Z15.982 
N457 X-154.992 Y22.247 Z16.124 
N458 X-154.980 Y22.380 Z16.266 
N459 X-154.967 Y22.512 Z16.408 
N460 G40 X-154.329 Y29.318 Z23.706 F579
N461 X-154.329 Y29.318 Z23.706 
N462 G00 X-154.329 Y65.886 Z-10.394 
;RAPORT("TB123456","Side Milling:130 End")
;trailer : concat=None
; points cnt = 415
N464 M9 ; chlodziwo wyl.
N465 MSG (" --- KONIEC PODPROGRAMU --- ")
N466 FGROUP()
N467 TRAFOOF
N468 STOPRE
N469 G0 G53 D0 Z550.0 M9 M5
N470 G0 G53 Y150 A0 B0
N471 M17
