; PROGRAM NAME: B12345632S
; ORDER       : B123456
; OPER. NAME  : Spiral Finish Transition:110
; OPER. DESCR.: Spiral transition - Semi finish transition root/promienie_przejsc_pwk SZLIF
; OPER. TYPE  : finTransRoot
; GEO. OPTION : 7
; MACHINE     : HSTM_500_SIM840D_Py
;             : HSTM500 - HAMUEL: 5-axis milling machine - SIM840D Traori PP_Script
; CONTROL     : SINUMERIK 840D
; created:   2023-06-06 12:04:18.439482
;-------DODATKOWE DANE-------------------
; PROGRAMISTA : Mariusz Malec
; PARTID      : 306T001953P1010_-
;  ae         : 1.5
;  lean_angle : 5.0
;  tilt_angle : -13.3
;  airf_offset: 0.05
;  plat_offset: 0.6
;----------------------------------------
;RAPORT("TB123456","Spiral Finish Transition:110")
N10 TRAFOOF
N11 D0
N12 G90 G94
N13 G0 G53 D0 Z550 B0
N14 STOPRE
M9 ; chlodziwo wyl
; --- Spiral Finish Transition:110 - Spiral transition - Semi finish transition root/promienie_przejsc_pwk SZLIF ---
N16 ;ToolChange : concat=None ,current_tdmid=None, PP.tdmId=940626
N17 TRAFOOF
N18 G0 G53 D0 X-200 Y150 Z550 B0
N19 T="7740626"
;RAPORT("TB123456","ToolChangeStart 7740626")
N20 M6
;RAPORT("TB123456","ToolChangeEnd")
N21 STOPRE
N22 MSG(" TLID=940626 D=8.391 R=5.0 Ang=10.0 Len=155.0 ")
N23 ; (Preloading tool)
N24 T="7741294"
N25 S6987 M03
N26 STOPRE
N27 CYCLE832(0.01,1,1)
N28 G0 G53 A217.0288 B-13.3000
N29 TRAORI
N30 G54 D1
N31 D1 
N32 TRANS  X=R3 A=R25
STOPRE
E_ZDARZ=400004
;ACS_PREFINISH_UBG_B_CONST_BBK_ROOT=7740626
STOPRE
N33 ; DELTA A > 40.1
N34 TRAFOOF
N35 D1
N36 STOPRE
N37 G00 G54 Z231.000
N38 G01 A217.0288 F10000
N39 TRAORI
N40 G54 D1
N41 STOPRE
N42 TRANS  X=R3 A=R25
N43 G00 X-199.889 Y63.294 Z-34.145 A217.0288 B-13.3000 
N44 M342 ; chlodziwo woda
N45 X-188.387 Y33.991 Z4.701 
N46 G01 X-188.387 Y31.559 Z6.669 F1456 
N47 X-188.387 Y28.637 Z7.789 
N48 X-188.387 Y25.513 Z7.951 
N49 X-188.387 Y22.491 Z7.139 
N50 X-188.387 Y19.868 Z5.434 
N51 X-188.385 Y19.787 Z5.359 A215.3915 
N52 X-188.384 Y19.719 Z5.304 A214.8142 
N53 X-188.382 Y19.645 Z5.246 A214.6529 
N54 X-188.381 Y19.550 Z5.174 A214.5722 
N55 X-188.379 Y19.430 Z5.079 A214.5063 
N56 X-188.376 Y19.279 Z4.959 A214.4452 
N57 X-188.374 Y19.090 Z4.809 A214.3804 
N58 X-188.371 Y18.859 Z4.624 A214.3051 
N59 X-188.368 Y18.581 Z4.401 A214.2124 
N60 X-188.364 Y18.251 Z4.135 A214.0947 
N61 X-188.360 Y17.865 Z3.825 A213.9427 
N62 X-188.355 Y17.423 Z3.470 A213.7451 
N63 X-188.350 Y16.924 Z3.072 A213.4902 
N64 X-188.344 Y16.369 Z2.631 A213.1665 
N65 X-188.338 Y15.762 Z2.154 A212.7629 
N66 X-188.331 Y15.107 Z1.646 A212.2682 
N67 X-188.324 Y14.411 Z1.115 A211.6699 
N68 X-188.316 Y13.682 Z0.569 A210.9542 
N69 X-188.309 Y12.927 Z0.019 A210.1078 
N70 X-188.300 Y12.155 Z-0.527 A209.1223 
N71 X-188.292 Y11.375 Z-1.057 A207.9935 
N72 X-188.284 Y10.596 Z-1.564 A206.7197 
N73 X-188.275 Y9.826 Z-2.041 A205.3021 
N74 X-188.267 Y9.071 Z-2.482 A203.7440 
N75 X-188.258 Y8.337 Z-2.884 A202.0510 
N76 X-188.250 Y7.630 Z-3.244 A200.2310 
N77 X-188.241 Y6.952 Z-3.561 A198.2965 
N78 X-188.233 Y6.306 Z-3.836 A196.2673 
N79 X-188.226 Y5.694 Z-4.070 A194.1666 
N80 X-188.218 Y5.114 Z-4.268 A192.0148 
N81 X-188.211 Y4.568 Z-4.431 A189.8282 
N82 X-188.204 Y4.052 Z-4.564 A187.6193 
N83 X-188.197 Y3.566 Z-4.670 A185.3984 
N84 X-188.191 Y3.107 Z-4.752 A183.1738 
N85 X-188.184 Y2.671 Z-4.812 A180.9514 
N86 X-188.178 Y2.257 Z-4.853 A178.7358 
N87 X-188.173 Y1.863 Z-4.877 A176.5296 
N88 X-188.167 Y1.485 Z-4.886 A174.3345 
N89 X-188.161 Y1.122 Z-4.881 A172.1505 
N90 X-188.156 Y0.772 Z-4.863 A169.9777 
N91 X-188.150 Y0.434 Z-4.833 A167.8152 
N92 X-188.145 Y0.105 Z-4.791 A165.6623 
N93 X-188.140 Y-0.215 Z-4.738 A163.5181 
N94 X-188.135 Y-0.527 Z-4.675 A161.3816 
N95 X-188.130 Y-0.833 Z-4.600 A159.2517 
N96 X-188.124 Y-1.133 Z-4.516 A157.1276 
N97 X-188.119 Y-1.428 Z-4.421 A155.0087 
N98 X-188.114 Y-1.719 Z-4.316 A152.8949 
N99 X-188.109 Y-2.005 Z-4.199 A150.7862 
N100 X-188.104 Y-2.288 Z-4.072 A148.6831 
N101 X-188.098 Y-2.568 Z-3.934 A146.5862 
N102 X-188.093 Y-2.846 Z-3.784 A144.4965 
N103 X-188.087 Y-3.120 Z-3.622 A142.4153 
N104 X-188.082 Y-3.392 Z-3.448 A140.3443 
N105 X-188.076 Y-3.662 Z-3.260 A138.2859 
N106 X-188.071 Y-3.930 Z-3.060 A136.2429 
N107 X-188.065 Y-4.195 Z-2.846 A134.2185 
N108 X-188.059 Y-4.457 Z-2.619 A132.2161 
N109 X-188.053 Y-4.716 Z-2.377 A130.2395 
N110 X-188.047 Y-4.972 Z-2.121 A128.2924 
N111 X-188.041 Y-5.224 Z-1.852 A126.3786 
N112 X-188.034 Y-5.471 Z-1.568 A124.5018 
N113 X-188.028 Y-5.712 Z-1.271 A122.6652 
N114 X-188.022 Y-5.948 Z-0.962 A120.8710 
N115 X-188.015 Y-6.176 Z-0.642 A119.1199 
N116 X-188.009 Y-6.397 Z-0.311 A117.4107 
N117 X-188.003 Y-6.609 Z0.029 A115.7404 
N118 X-187.996 Y-6.813 Z0.376 A114.1052 
N119 X-187.990 Y-7.005 Z0.728 A112.5030 
N120 X-187.984 Y-7.187 Z1.083 A110.9347 
N121 X-187.978 Y-7.357 Z1.439 A109.4026 
N122 X-187.972 Y-7.515 Z1.793 A107.9071 
N123 X-187.967 Y-7.660 Z2.143 A106.4438 
N124 X-187.961 Y-7.793 Z2.486 A105.0029 
N125 X-187.956 Y-7.913 Z2.820 A103.5717 
N126 X-187.951 Y-8.020 Z3.144 A102.1391 
N127 X-187.947 Y-8.116 Z3.456 A100.6974 
N128 X-187.942 Y-8.199 Z3.755 A99.2418 
N129 X-187.939 Y-8.271 Z4.039 A97.7678 
N130 X-187.935 Y-8.332 Z4.308 A96.2697 
N131 X-187.932 Y-8.383 Z4.561 A94.7447 
N132 X-187.928 Y-8.425 Z4.798 A93.1959 
N133 X-187.926 Y-8.458 Z5.019 A91.6244 
N134 X-187.923 Y-8.483 Z5.224 A90.0207 
N135 X-187.921 Y-8.502 Z5.415 A88.3682 
N136 X-187.919 Y-8.515 Z5.593 A86.6527 
N137 X-187.917 Y-8.523 Z5.760 A84.8622 
N138 X-187.915 Y-8.526 Z5.917 A82.9860 
N139 X-187.913 Y-8.525 Z6.065 A81.0150 
N140 X-187.912 Y-8.519 Z6.205 A78.9442 
N141 X-187.910 Y-8.510 Z6.339 A76.7742 
N142 X-187.909 Y-8.496 Z6.468 A74.5115 
N143 X-187.908 Y-8.479 Z6.591 A72.1686 
N144 X-187.906 Y-8.458 Z6.710 A69.7637 
N145 X-187.905 Y-8.433 Z6.824 A67.3188 
N146 X-187.904 Y-8.404 Z6.934 A64.8558 
N147 X-187.903 Y-8.372 Z7.039 A62.3942 
N148 X-187.902 Y-8.337 Z7.139 A59.9494 
N149 X-187.901 Y-8.299 Z7.234 A57.5321 
N150 X-187.900 Y-8.258 Z7.325 A55.1492 
N151 X-187.899 Y-8.215 Z7.412 A52.8036 
N152 X-187.898 Y-8.169 Z7.495 A50.4959 
N153 X-187.898 Y-8.122 Z7.574 A48.2242 
N154 X-187.897 Y-8.072 Z7.650 A45.9849 
N155 X-187.896 Y-8.020 Z7.723 A43.7733 
N156 X-187.895 Y-7.966 Z7.792 A41.5837 
N157 X-187.894 Y-7.910 Z7.859 A39.4102 
N158 X-187.893 Y-7.852 Z7.924 A37.2462 
N159 X-187.892 Y-7.791 Z7.986 A35.0851 
N160 X-187.892 Y-7.728 Z8.047 A32.9201 
N161 X-187.891 Y-7.662 Z8.105 A30.7440 
N162 X-187.890 Y-7.594 Z8.161 A28.5497 
N163 X-187.889 Y-7.521 Z8.216 A26.3298 
N164 X-187.889 Y-7.446 Z8.269 A24.0772 
N165 X-187.888 Y-7.366 Z8.320 A21.7855 
N166 X-187.887 Y-7.282 Z8.369 A19.4491 
N167 X-187.887 Y-7.192 Z8.417 A17.0648 
N168 X-187.886 Y-7.097 Z8.462 A14.6318 
N169 X-187.886 Y-6.996 Z8.505 A12.1532 
N170 X-187.885 Y-6.889 Z8.545 A9.6370 
N171 X-187.885 Y-6.773 Z8.582 A7.0965 
N172 X-187.885 Y-6.650 Z8.615 A4.5498 
N173 X-187.885 Y-6.517 Z8.643 A2.0173 
N174 X-187.885 Y-6.374 Z8.667 A359.5179 
N175 X-187.885 Y-6.219 Z8.684 A357.0667 
N176 X-187.886 Y-6.049 Z8.694 A354.6748 
N177 X-187.887 Y-5.863 Z8.697 A352.3502 
N178 X-187.888 Y-5.657 Z8.690 A350.1017 
N179 X-187.890 Y-5.429 Z8.672 A347.9390 
N180 X-187.892 Y-5.174 Z8.641 A345.8685 
N181 X-187.895 Y-4.891 Z8.595 A343.8907 
N182 X-187.899 Y-4.576 Z8.531 A342.0182 
N183 X-187.903 Y-4.228 Z8.447 A340.2822 
N184 X-187.909 Y-3.846 Z8.341 A338.7075 
N185 X-187.915 Y-3.429 Z8.211 A337.3080 
N186 X-187.922 Y-2.977 Z8.057 A336.0922 
N187 X-187.929 Y-2.491 Z7.881 A335.0562 
N188 X-187.938 Y-1.976 Z7.683 A334.3249 
N189 X-187.947 Y-1.433 Z7.468 A333.8625 
N190 X-187.957 Y-0.866 Z7.238 A333.6542 
N191 X-187.967 Y-0.279 Z6.997 A333.7076 
N192 X-187.978 Y0.322 Z6.750 A334.0454 
N193 X-187.989 Y0.932 Z6.504 A334.6942 
N194 X-188.001 Y1.545 Z6.263 A335.6752 
N195 X-188.012 Y2.158 Z6.035 A336.9943 
N196 X-188.023 Y2.765 Z5.825 A338.6412 
N197 X-188.034 Y3.364 Z5.637 A340.6004 
N198 X-188.045 Y3.957 Z5.473 A342.7143 
N199 X-188.055 Y4.540 Z5.335 A344.9612 
N200 X-188.065 Y5.114 Z5.225 A347.3072 
N201 X-188.075 Y5.679 Z5.141 A349.7143 
N202 X-188.084 Y6.237 Z5.084 A352.1475 
N203 X-188.093 Y6.788 Z5.052 A354.5761 
N204 X-188.102 Y7.335 Z5.044 A356.9745 
N205 X-188.110 Y7.881 Z5.060 A359.3202 
N206 X-188.118 Y8.426 Z5.100 A1.5944 
N207 X-188.126 Y8.972 Z5.162 A3.7810 
N208 X-188.133 Y9.521 Z5.246 A5.8659 
N209 X-188.141 Y10.070 Z5.352 A7.8372 
N210 X-188.148 Y10.620 Z5.479 A9.6856 
N211 X-188.154 Y11.168 Z5.624 A11.4050 
N212 X-188.161 Y11.710 Z5.785 A12.9928 
N213 X-188.167 Y12.244 Z5.959 A14.4489 
N214 X-188.173 Y12.764 Z6.144 A15.7752 
N215 X-188.179 Y13.266 Z6.334 A16.9749 
N216 X-188.184 Y13.745 Z6.528 A18.0515 
N217 X-188.188 Y14.197 Z6.720 A19.0070 
N218 X-188.193 Y14.619 Z6.907 A19.8413 
N219 X-188.196 Y15.007 Z7.085 A20.5571 
N220 X-188.199 Y15.360 Z7.251 A21.1628 
N221 X-188.202 Y15.677 Z7.404 A21.6719 
N222 X-188.204 Y15.956 Z7.540 A22.0993 
N223 X-188.206 Y16.199 Z7.660 A22.4579 
N224 X-188.208 Y16.407 Z7.764 A22.7569 
N225 X-188.209 Y16.582 Z7.851 A23.0019 
N226 X-188.209 Y16.728 Z7.924 A23.1951 
N227 X-188.210 Y16.848 Z7.984 A23.3343 
N228 X-188.210 Y16.945 Z8.032 A23.4112 
N229 X-188.210 Y17.025 Z8.071 A23.3383 
N230 X-188.209 Y17.092 Z8.105 A23.0645 
N231 X-188.209 Y17.154 Z8.139 A22.3045 
N232 X-188.208 Y17.228 Z8.183 A20.4235 
N233 X-188.208 Y17.325 Z8.243 A17.0477 
N234 X-188.207 Y17.453 Z8.314 A12.0695 
N235 X-188.206 Y17.595 Z8.378 A6.4554 
N236 X-188.206 Y17.738 Z8.427 A0.8449 
N237 X-188.205 Y17.877 Z8.461 A355.4011 
N238 X-188.204 Y17.997 Z8.479 A350.7794 
N239 X-188.203 Y18.097 Z8.486 A346.9108 
N240 X-188.202 Y18.180 Z8.486 A343.7185 
N241 X-188.201 Y18.253 Z8.481 A340.8598 
N242 X-188.200 Y18.319 Z8.474 A338.2917 
N243 X-188.200 Y18.378 Z8.465 A335.9719 
N244 X-188.199 Y18.433 Z8.453 A333.7556 
N245 X-188.198 Y18.486 Z8.440 A331.6261 
N246 X-188.197 Y18.536 Z8.426 A329.5641 
N247 X-188.196 Y18.585 Z8.410 A327.5534 
N248 X-188.195 Y18.632 Z8.392 A325.5809 
N249 X-188.194 Y18.677 Z8.374 A323.6367 
N250 X-188.193 Y18.721 Z8.354 A321.7130 
N251 X-188.192 Y18.765 Z8.332 A319.8039 
N252 X-188.192 Y18.807 Z8.310 A317.9055 
N253 X-188.191 Y18.848 Z8.286 A316.0140 
N254 X-188.190 Y18.888 Z8.261 A314.1277 
N255 X-188.189 Y18.928 Z8.235 A312.2450 
N256 X-188.188 Y18.966 Z8.208 A310.3643 
N257 X-188.187 Y19.003 Z8.179 A308.4854 
N258 X-188.186 Y19.039 Z8.150 A306.6076 
N259 X-188.185 Y19.075 Z8.119 A304.7305 
N260 X-188.184 Y19.109 Z8.088 A302.8543 
N261 X-188.184 Y19.142 Z8.055 A300.9786 
N262 X-188.183 Y19.173 Z8.022 A299.1034 
N263 X-188.182 Y19.204 Z7.987 A297.2288 
N264 X-188.181 Y19.233 Z7.952 A295.3546 
N265 X-188.180 Y19.261 Z7.916 A293.4808 
N266 X-188.179 Y19.288 Z7.879 A291.6070 
N267 X-188.178 Y19.314 Z7.841 A289.7329 
N268 X-188.177 Y19.338 Z7.803 A287.8580 
N269 X-188.176 Y19.361 Z7.764 A285.9811 
N270 X-188.175 Y19.383 Z7.724 A284.1014 
N271 X-188.175 Y19.403 Z7.684 A282.2167 
N272 X-188.174 Y19.422 Z7.643 A280.3243 
N273 X-188.173 Y19.440 Z7.602 A278.4211 
N274 X-188.172 Y19.457 Z7.560 A276.5012 
N275 X-188.171 Y19.472 Z7.517 A274.5586 
N276 X-188.170 Y19.487 Z7.472 A272.5836 
N277 X-188.169 Y19.500 Z7.427 A270.5644 
N278 X-188.168 Y19.512 Z7.380 A268.4857 
N279 X-188.167 Y19.522 Z7.331 A266.3303 
N280 X-188.166 Y19.532 Z7.280 A264.0805 
N281 X-188.165 Y19.540 Z7.224 A261.6147 
N282 X-188.164 Y19.547 Z7.162 A258.9008 
N283 X-188.163 Y19.552 Z7.087 A255.6398 
N284 X-188.163 Y19.553 Z6.997 A251.7006 
N285 X-188.162 Y19.548 Z6.888 A246.9654 
N286 X-188.161 Y19.528 Z6.749 A240.8292 
N287 X-188.160 Y19.489 Z6.595 A234.0049 
N288 X-188.159 Y19.426 Z6.435 A226.7955 
N289 X-188.158 Y19.349 Z6.300 A220.6505 
N290 X-188.157 Y19.282 Z6.211 A217.0288 
N291 X-188.155 Y19.224 Z6.153 A215.3915 
N292 X-188.154 Y19.164 Z6.103 A214.8142 
N293 X-188.152 Y19.091 Z6.047 A214.6529 
N294 X-188.151 Y18.998 Z5.975 A214.5722 
N295 X-188.149 Y18.879 Z5.881 A214.5063 
N296 X-188.146 Y18.728 Z5.762 A214.4452 
N297 X-188.144 Y18.541 Z5.612 A214.3804 
N298 X-188.141 Y18.311 Z5.428 A214.3051 
N299 X-188.138 Y18.034 Z5.205 A214.2124 
N300 X-188.134 Y17.705 Z4.941 A214.0947 
N301 X-188.130 Y17.322 Z4.633 A213.9427 
N302 X-188.125 Y16.883 Z4.280 A213.7451 
N303 X-188.120 Y16.387 Z3.883 A213.4902 
N304 X-188.114 Y15.837 Z3.446 A213.1665 
N305 X-188.108 Y15.235 Z2.972 A212.7629 
N306 X-188.101 Y14.587 Z2.469 A212.2682 
N307 X-188.094 Y13.900 Z1.943 A211.6699 
N308 X-188.086 Y13.181 Z1.404 A210.9542 
N309 X-188.078 Y12.438 Z0.861 A210.1078 
N310 X-188.070 Y11.681 Z0.324 A209.1223 
N311 X-188.062 Y10.919 Z-0.198 A207.9935 
N312 X-188.054 Y10.159 Z-0.695 A206.7197 
N313 X-188.045 Y9.410 Z-1.162 A205.3021 
N314 X-188.036 Y8.679 Z-1.592 A203.7440 
N315 X-188.028 Y7.972 Z-1.982 A202.0510 
N316 X-188.020 Y7.294 Z-2.330 A200.2310 
N317 X-188.011 Y6.647 Z-2.637 A198.2965 
N318 X-188.003 Y6.034 Z-2.901 A196.2673 
N319 X-187.996 Y5.455 Z-3.127 A194.1666 
N320 X-187.988 Y4.912 Z-3.316 A192.0148 
N321 X-187.981 Y4.402 Z-3.472 A189.8282 
N322 X-187.974 Y3.923 Z-3.600 A187.6193 
N323 X-187.967 Y3.475 Z-3.701 A185.3984 
N324 X-187.961 Y3.053 Z-3.780 A183.1738 
N325 X-187.954 Y2.655 Z-3.839 A180.9514 
N326 X-187.948 Y2.279 Z-3.880 A178.7358 
N327 X-187.943 Y1.922 Z-3.906 A176.5296 
N328 X-187.937 Y1.581 Z-3.918 A174.3345 
N329 X-187.931 Y1.255 Z-3.917 A172.1505 
N330 X-187.926 Y0.942 Z-3.904 A169.9777 
N331 X-187.920 Y0.639 Z-3.881 A167.8152 
N332 X-187.915 Y0.346 Z-3.848 A165.6623 
N333 X-187.910 Y0.061 Z-3.805 A163.5181 
N334 X-187.905 Y-0.217 Z-3.752 A161.3816 
N335 X-187.900 Y-0.488 Z-3.690 A159.2517 
N336 X-187.894 Y-0.755 Z-3.619 A157.1276 
N337 X-187.889 Y-1.017 Z-3.539 A155.0087 
N338 X-187.884 Y-1.275 Z-3.449 A152.8949 
N339 X-187.879 Y-1.530 Z-3.350 A150.7862 
N340 X-187.873 Y-1.782 Z-3.241 A148.6831 
N341 X-187.868 Y-2.032 Z-3.121 A146.5862 
N342 X-187.863 Y-2.280 Z-2.992 A144.4965 
N343 X-187.857 Y-2.527 Z-2.851 A142.4153 
N344 X-187.852 Y-2.771 Z-2.698 A140.3443 
N345 X-187.846 Y-3.015 Z-2.534 A138.2859 
N346 X-187.841 Y-3.257 Z-2.357 A136.2429 
N347 X-187.835 Y-3.498 Z-2.168 A134.2185 
N348 X-187.829 Y-3.737 Z-1.965 A132.2161 
N349 X-187.823 Y-3.974 Z-1.748 A130.2395 
N350 X-187.817 Y-4.208 Z-1.518 A128.2924 
N351 X-187.811 Y-4.440 Z-1.274 A126.3786 
N352 X-187.804 Y-4.669 Z-1.017 A124.5018 
N353 X-187.798 Y-4.893 Z-0.746 A122.6652 
N354 X-187.792 Y-5.112 Z-0.463 A120.8710 
N355 X-187.785 Y-5.326 Z-0.168 A119.1199 
N356 X-187.779 Y-5.533 Z0.137 A117.4107 
N357 X-187.773 Y-5.733 Z0.452 A115.7404 
N358 X-187.766 Y-5.924 Z0.773 A114.1052 
N359 X-187.760 Y-6.106 Z1.100 A112.5030 
N360 X-187.754 Y-6.278 Z1.431 A110.9347 
N361 X-187.748 Y-6.439 Z1.763 A109.4026 
N362 X-187.742 Y-6.589 Z2.092 A107.9071 
N363 X-187.737 Y-6.727 Z2.418 A106.4438 
N364 X-187.731 Y-6.853 Z2.738 A105.0029 
N365 X-187.726 Y-6.967 Z3.049 A103.5717 
N366 X-187.721 Y-7.069 Z3.349 A102.1391 
N367 X-187.717 Y-7.160 Z3.637 A100.6974 
N368 X-187.712 Y-7.239 Z3.911 A99.2418 
N369 X-187.708 Y-7.307 Z4.171 A97.7678 
N370 X-187.705 Y-7.365 Z4.414 A96.2697 
N371 X-187.701 Y-7.414 Z4.641 A94.7447 
N372 X-187.698 Y-7.453 Z4.852 A93.1959 
N373 X-187.696 Y-7.485 Z5.046 A91.6244 
N374 X-187.693 Y-7.510 Z5.224 A90.0207 
N375 X-187.691 Y-7.529 Z5.388 A88.3682 
N376 X-187.688 Y-7.543 Z5.537 A86.6527 
N377 X-187.687 Y-7.553 Z5.673 A84.8622 
N378 X-187.685 Y-7.560 Z5.798 A82.9860 
N379 X-187.683 Y-7.563 Z5.913 A81.0150 
N380 X-187.682 Y-7.564 Z6.018 A78.9442 
N381 X-187.680 Y-7.562 Z6.116 A76.7742 
N382 X-187.679 Y-7.559 Z6.208 A74.5115 
N383 X-187.678 Y-7.553 Z6.293 A72.1686 
N384 X-187.676 Y-7.545 Z6.374 A69.7637 
N385 X-187.675 Y-7.535 Z6.449 A67.3188 
N386 X-187.674 Y-7.523 Z6.520 A64.8558 
N387 X-187.673 Y-7.510 Z6.588 A62.3942 
N388 X-187.672 Y-7.494 Z6.652 A59.9494 
N389 X-187.671 Y-7.478 Z6.712 A57.5321 
N390 X-187.670 Y-7.459 Z6.769 A55.1492 
N391 X-187.669 Y-7.440 Z6.824 A52.8036 
N392 X-187.668 Y-7.418 Z6.876 A50.4959 
N393 X-187.667 Y-7.396 Z6.926 A48.2242 
N394 X-187.667 Y-7.372 Z6.974 A45.9849 
N395 X-187.666 Y-7.347 Z7.020 A43.7733 
N396 X-187.665 Y-7.320 Z7.065 A41.5837 
N397 X-187.664 Y-7.292 Z7.108 A39.4102 
N398 X-187.663 Y-7.263 Z7.149 A37.2462 
N399 X-187.662 Y-7.232 Z7.190 A35.0851 
N400 X-187.662 Y-7.199 Z7.230 A32.9201 
N401 X-187.661 Y-7.165 Z7.268 A30.7440 
N402 X-187.660 Y-7.128 Z7.306 A28.5497 
N403 X-187.659 Y-7.090 Z7.344 A26.3298 
N404 X-187.659 Y-7.049 Z7.380 A24.0772 
N405 X-187.658 Y-7.005 Z7.416 A21.7855 
N406 X-187.657 Y-6.958 Z7.452 A19.4491 
N407 X-187.657 Y-6.907 Z7.486 A17.0648 
N408 X-187.656 Y-6.852 Z7.521 A14.6318 
N409 X-187.655 Y-6.791 Z7.554 A12.1532 
N410 X-187.655 Y-6.726 Z7.586 A9.6370 
N411 X-187.655 Y-6.653 Z7.616 A7.0965 
N412 X-187.655 Y-6.572 Z7.645 A4.5498 
N413 X-187.654 Y-6.483 Z7.671 A2.0173 
N414 X-187.655 Y-6.382 Z7.693 A359.5179 
N415 X-187.655 Y-6.269 Z7.712 A357.0667 
N416 X-187.656 Y-6.140 Z7.725 A354.6748 
N417 X-187.657 Y-5.993 Z7.732 A352.3502 
N418 X-187.658 Y-5.825 Z7.731 A350.1017 
N419 X-187.660 Y-5.632 Z7.720 A347.9390 
N420 X-187.662 Y-5.412 Z7.698 A345.8685 
N421 X-187.665 Y-5.161 Z7.660 A343.8907 
N422 X-187.669 Y-4.876 Z7.606 A342.0182 
N423 X-187.673 Y-4.556 Z7.531 A340.2822 
N424 X-187.679 Y-4.199 Z7.434 A338.7075 
N425 X-187.685 Y-3.804 Z7.313 A337.3080 
N426 X-187.692 Y-3.371 Z7.168 A336.0922 
N427 X-187.699 Y-2.901 Z6.998 A335.0562 
N428 X-187.708 Y-2.397 Z6.806 A334.3249 
N429 X-187.717 Y-1.861 Z6.594 A333.8625 
N430 X-187.727 Y-1.298 Z6.366 A333.6542 
N431 X-187.737 Y-0.710 Z6.125 A333.7076 
N432 X-187.748 Y-0.104 Z5.875 A334.0454 
N433 X-187.759 Y0.516 Z5.624 A334.6942 
N434 X-187.771 Y1.145 Z5.377 A335.6752 
N435 X-187.782 Y1.777 Z5.140 A336.9943 
N436 X-187.793 Y2.411 Z4.919 A338.6412 
N437 X-187.804 Y3.041 Z4.719 A340.6004 
N438 X-187.815 Y3.668 Z4.543 A342.7143 
N439 X-187.825 Y4.288 Z4.395 A344.9612 
N440 X-187.835 Y4.900 Z4.275 A347.3072 
N441 X-187.845 Y5.506 Z4.184 A349.7143 
N442 X-187.854 Y6.104 Z4.120 A352.1475 
N443 X-187.863 Y6.696 Z4.083 A354.5761 
N444 X-187.872 Y7.284 Z4.072 A356.9745 
N445 X-187.880 Y7.869 Z4.087 A359.3202 
N446 X-187.888 Y8.453 Z4.127 A1.5944 
N447 X-187.896 Y9.037 Z4.191 A3.7810 
N448 X-187.903 Y9.620 Z4.278 A5.8659 
N449 X-187.910 Y10.203 Z4.388 A7.8372 
N450 X-187.918 Y10.784 Z4.519 A9.6856 
N451 X-187.924 Y11.360 Z4.670 A11.4050 
N452 X-187.931 Y11.929 Z4.836 A12.9928 
N453 X-187.937 Y12.487 Z5.017 A14.4489 
N454 X-187.943 Y13.028 Z5.207 A15.7752 
N455 X-187.949 Y13.550 Z5.404 A16.9749 
N456 X-187.954 Y14.046 Z5.602 A18.0515 
N457 X-187.958 Y14.514 Z5.800 A19.0070 
N458 X-187.962 Y14.949 Z5.991 A19.8413 
N459 X-187.966 Y15.349 Z6.174 A20.5571 
N460 X-187.969 Y15.712 Z6.344 A21.1628 
N461 X-187.972 Y16.036 Z6.499 A21.6719 
N462 X-187.974 Y16.322 Z6.638 A22.0993 
N463 X-187.976 Y16.571 Z6.761 A22.4579 
N464 X-187.978 Y16.783 Z6.866 A22.7569 
N465 X-187.979 Y16.963 Z6.955 A23.0019 
N466 X-187.979 Y17.112 Z7.030 A23.1951 
N467 X-187.980 Y17.233 Z7.090 A23.3343 
N468 X-187.980 Y17.332 Z7.139 A23.4112 
N469 X-187.980 Y17.410 Z7.178 A23.3383 
N470 X-187.979 Y17.473 Z7.210 A23.0645 
N471 X-187.979 Y17.524 Z7.238 A22.3045 
N472 X-187.978 Y17.568 Z7.271 A20.4235 
N473 X-187.978 Y17.611 Z7.312 A17.0477 
N474 X-187.977 Y17.656 Z7.362 A12.0695 
N475 X-187.976 Y17.704 Z7.411 A6.4554 
N476 X-187.976 Y17.752 Z7.454 A0.8449 
N477 X-187.975 Y17.799 Z7.491 A355.4011 
N478 X-187.974 Y17.841 Z7.518 A350.7794 
N479 X-187.973 Y17.877 Z7.538 A346.9108 
N480 X-187.972 Y17.907 Z7.551 A343.7185 
N481 X-187.971 Y17.934 Z7.562 A340.8598 
N482 X-187.970 Y17.959 Z7.570 A338.2917 
N483 X-187.970 Y17.981 Z7.576 A335.9719 
N484 X-187.969 Y18.003 Z7.580 A333.7556 
N485 X-187.968 Y18.023 Z7.584 A331.6261 
N486 X-187.967 Y18.043 Z7.587 A329.5641 
N487 X-187.966 Y18.063 Z7.588 A327.5534 
N488 X-187.965 Y18.081 Z7.590 A325.5809 
N489 X-187.964 Y18.100 Z7.590 A323.6367 
N490 X-187.963 Y18.119 Z7.590 A321.7130 
N491 X-187.962 Y18.137 Z7.589 A319.8039 
N492 X-187.962 Y18.155 Z7.588 A317.9055 
N493 X-187.961 Y18.172 Z7.586 A316.0140 
N494 X-187.960 Y18.190 Z7.584 A314.1277 
N495 X-187.959 Y18.207 Z7.581 A312.2450 
N496 X-187.958 Y18.225 Z7.578 A310.3643 
N497 X-187.957 Y18.241 Z7.574 A308.4854 
N498 X-187.956 Y18.258 Z7.570 A306.6076 
N499 X-187.955 Y18.275 Z7.565 A304.7305 
N500 X-187.954 Y18.291 Z7.560 A302.8543 
N501 X-187.953 Y18.307 Z7.554 A300.9786 
N502 X-187.953 Y18.323 Z7.548 A299.1034 
N503 X-187.952 Y18.339 Z7.542 A297.2288 
N504 X-187.951 Y18.354 Z7.535 A295.3546 
N505 X-187.950 Y18.369 Z7.528 A293.4808 
N506 X-187.949 Y18.383 Z7.520 A291.6070 
N507 X-187.948 Y18.398 Z7.513 A289.7329 
N508 X-187.947 Y18.412 Z7.505 A287.8580 
N509 X-187.946 Y18.426 Z7.496 A285.9811 
N510 X-187.945 Y18.439 Z7.487 A284.1014 
N511 X-187.944 Y18.452 Z7.478 A282.2167 
N512 X-187.944 Y18.465 Z7.469 A280.3243 
N513 X-187.943 Y18.478 Z7.459 A278.4211 
N514 X-187.942 Y18.490 Z7.449 A276.5012 
N515 X-187.941 Y18.502 Z7.439 A274.5586 
N516 X-187.940 Y18.514 Z7.429 A272.5836 
N517 X-187.939 Y18.527 Z7.418 A270.5644 
N518 X-187.938 Y18.539 Z7.406 A268.4857 
N519 X-187.937 Y18.551 Z7.394 A266.3303 
N520 X-187.936 Y18.564 Z7.381 A264.0805 
N521 X-187.935 Y18.577 Z7.366 A261.6147 
N522 X-187.934 Y18.592 Z7.349 A258.9008 
N523 X-187.933 Y18.609 Z7.329 A255.6398 
N524 X-187.933 Y18.629 Z7.303 A251.7006 
N525 X-187.932 Y18.652 Z7.269 A246.9654 
N526 X-187.931 Y18.679 Z7.223 A240.8292 
N527 X-187.930 Y18.702 Z7.167 A234.0049 
N528 X-187.929 Y18.716 Z7.101 A226.7955 
N529 X-187.928 Y18.715 Z7.038 A220.6505 
N530 X-187.926 Y18.696 Z6.988 A217.0288 
N531 X-187.926 Y18.662 Z6.943 A215.3915 
N532 X-187.926 Y18.613 Z6.895 A214.8142 
N533 X-187.925 Y18.545 Z6.838 A214.6529 
N534 X-187.924 Y18.455 Z6.763 A214.5722 
N535 X-187.923 Y18.339 Z6.667 A214.5063 
N536 X-187.922 Y18.192 Z6.545 A214.4452 
N537 X-187.921 Y18.007 Z6.392 A214.3804 
N538 X-187.919 Y17.781 Z6.205 A214.3051 
N539 X-187.916 Y17.507 Z5.980 A214.2124 
N540 X-187.913 Y17.182 Z5.713 A214.0947 
N541 X-187.910 Y16.803 Z5.403 A213.9427 
N542 X-187.906 Y16.369 Z5.048 A213.7451 
N543 X-187.902 Y15.879 Z4.651 A213.4902 
N544 X-187.897 Y15.335 Z4.213 A213.1665 
N545 X-187.892 Y14.741 Z3.739 A212.7629 
N546 X-187.886 Y14.102 Z3.237 A212.2682 
N547 X-187.880 Y13.425 Z2.712 A211.6699 
N548 X-187.873 Y12.718 Z2.176 A210.9542 
N549 X-187.867 Y11.989 Z1.636 A210.1078 
N550 X-187.859 Y11.247 Z1.103 A209.1223 
N551 X-187.852 Y10.502 Z0.586 A207.9935 
N552 X-187.845 Y9.761 Z0.095 A206.7197 
N553 X-187.837 Y9.034 Z-0.366 A205.3021 
N554 X-187.829 Y8.326 Z-0.790 A203.7440 
N555 X-187.822 Y7.645 Z-1.174 A202.0510 
N556 X-187.814 Y6.993 Z-1.516 A200.2310 
N557 X-187.807 Y6.376 Z-1.817 A198.2965 
N558 X-187.800 Y5.793 Z-2.076 A196.2673 
N559 X-187.793 Y5.246 Z-2.297 A194.1666 
N560 X-187.787 Y4.734 Z-2.483 A192.0148 
N561 X-187.780 Y4.257 Z-2.637 A189.8282 
N562 X-187.774 Y3.811 Z-2.764 A187.6193 
N563 X-187.769 Y3.396 Z-2.865 A185.3984 
N564 X-187.763 Y3.006 Z-2.946 A183.1738 
N565 X-187.758 Y2.641 Z-3.008 A180.9514 
N566 X-187.753 Y2.297 Z-3.053 A178.7358 
N567 X-187.748 Y1.972 Z-3.084 A176.5296 
N568 X-187.743 Y1.662 Z-3.103 A174.3345 
N569 X-187.739 Y1.367 Z-3.109 A172.1505 
N570 X-187.734 Y1.083 Z-3.106 A169.9777 
N571 X-187.730 Y0.810 Z-3.093 A167.8152 
N572 X-187.725 Y0.545 Z-3.070 A165.6623 
N573 X-187.721 Y0.288 Z-3.039 A163.5181 
N574 X-187.717 Y0.037 Z-2.999 A161.3816 
N575 X-187.713 Y-0.208 Z-2.951 A159.2517 
N576 X-187.708 Y-0.449 Z-2.895 A157.1276 
N577 X-187.704 Y-0.686 Z-2.830 A155.0087 
N578 X-187.700 Y-0.921 Z-2.756 A152.8949 
N579 X-187.696 Y-1.152 Z-2.674 A150.7862 
N580 X-187.691 Y-1.382 Z-2.583 A148.6831 
N581 X-187.687 Y-1.610 Z-2.482 A146.5862 
N582 X-187.683 Y-1.838 Z-2.371 A144.4965 
N583 X-187.678 Y-2.064 Z-2.250 A142.4153 
N584 X-187.674 Y-2.290 Z-2.118 A140.3443 
N585 X-187.669 Y-2.516 Z-1.974 A138.2859 
N586 X-187.664 Y-2.741 Z-1.818 A136.2429 
N587 X-187.659 Y-2.966 Z-1.650 A134.2185 
N588 X-187.654 Y-3.190 Z-1.469 A132.2161 
N589 X-187.649 Y-3.413 Z-1.274 A130.2395 
N590 X-187.644 Y-3.635 Z-1.066 A128.2924 
N591 X-187.639 Y-3.856 Z-0.844 A126.3786 
N592 X-187.634 Y-4.074 Z-0.608 A124.5018 
N593 X-187.628 Y-4.289 Z-0.359 A122.6652 
N594 X-187.623 Y-4.500 Z-0.097 A120.8710 
N595 X-187.618 Y-4.706 Z0.177 A119.1199 
N596 X-187.612 Y-4.907 Z0.462 A117.4107 
N597 X-187.607 Y-5.101 Z0.756 A115.7404 
N598 X-187.601 Y-5.288 Z1.058 A114.1052 
N599 X-187.596 Y-5.466 Z1.366 A112.5030 
N600 X-187.591 Y-5.635 Z1.677 A110.9347 
N601 X-187.586 Y-5.793 Z1.990 A109.4026 
N602 X-187.581 Y-5.941 Z2.302 A107.9071 
N603 X-187.576 Y-6.077 Z2.610 A106.4438 
N604 X-187.572 Y-6.202 Z2.912 A105.0029 
N605 X-187.568 Y-6.316 Z3.206 A103.5717 
N606 X-187.564 Y-6.419 Z3.489 A102.1391 
N607 X-187.560 Y-6.510 Z3.760 A100.6974 
N608 X-187.557 Y-6.590 Z4.017 A99.2418 
N609 X-187.554 Y-6.660 Z4.259 A97.7678 
N610 X-187.551 Y-6.720 Z4.485 A96.2697 
N611 X-187.549 Y-6.771 Z4.695 A94.7447 
N612 X-187.547 Y-6.814 Z4.888 A93.1959 
N613 X-187.545 Y-6.849 Z5.064 A91.6244 
N614 X-187.543 Y-6.877 Z5.225 A90.0207 
N615 X-187.542 Y-6.901 Z5.370 A88.3682 
N616 X-187.541 Y-6.920 Z5.500 A86.6527 
N617 X-187.540 Y-6.936 Z5.617 A84.8622 
N618 X-187.539 Y-6.948 Z5.723 A82.9860 
N619 X-187.538 Y-6.959 Z5.817 A81.0150 
N620 X-187.538 Y-6.967 Z5.902 A78.9442 
N621 X-187.537 Y-6.974 Z5.978 A76.7742 
N622 X-187.537 Y-6.980 Z6.047 A74.5115 
N623 X-187.537 Y-6.985 Z6.111 A72.1686 
N624 X-187.536 Y-6.989 Z6.169 A69.7637 
N625 X-187.536 Y-6.992 Z6.222 A67.3188 
N626 X-187.536 Y-6.995 Z6.272 A64.8558 
N627 X-187.536 Y-6.996 Z6.319 A62.3942 
N628 X-187.536 Y-6.996 Z6.363 A59.9494 
N629 X-187.536 Y-6.995 Z6.405 A57.5321 
N630 X-187.536 Y-6.994 Z6.445 A55.1492 
N631 X-187.536 Y-6.991 Z6.483 A52.8036 
N632 X-187.536 Y-6.987 Z6.520 A50.4959 
N633 X-187.536 Y-6.982 Z6.556 A48.2242 
N634 X-187.536 Y-6.976 Z6.591 A45.9849 
N635 X-187.536 Y-6.968 Z6.625 A43.7733 
N636 X-187.536 Y-6.960 Z6.658 A41.5837 
N637 X-187.536 Y-6.950 Z6.691 A39.4102 
N638 X-187.537 Y-6.939 Z6.723 A37.2462 
N639 X-187.537 Y-6.927 Z6.755 A35.0851 
N640 X-187.537 Y-6.913 Z6.787 A32.9201 
N641 X-187.537 Y-6.898 Z6.819 A30.7440 
N642 X-187.537 Y-6.880 Z6.850 A28.5497 
N643 X-187.537 Y-6.861 Z6.882 A26.3298 
N644 X-187.538 Y-6.840 Z6.914 A24.0772 
N645 X-187.538 Y-6.817 Z6.945 A21.7855 
N646 X-187.538 Y-6.790 Z6.977 A19.4491 
N647 X-187.539 Y-6.760 Z7.010 A17.0648 
N648 X-187.539 Y-6.727 Z7.042 A14.6318 
N649 X-187.540 Y-6.688 Z7.074 A12.1532 
N650 X-187.540 Y-6.644 Z7.106 A9.6370 
N651 X-187.541 Y-6.593 Z7.138 A7.0965 
N652 X-187.541 Y-6.534 Z7.168 A4.5498 
N653 X-187.542 Y-6.466 Z7.197 A2.0173 
N654 X-187.543 Y-6.386 Z7.223 A359.5179 
N655 X-187.545 Y-6.292 Z7.246 A357.0667 
N656 X-187.546 Y-6.183 Z7.265 A354.6748 
N657 X-187.548 Y-6.054 Z7.278 A352.3502 
N658 X-187.551 Y-5.903 Z7.284 A350.1017 
N659 X-187.553 Y-5.726 Z7.280 A347.9390 
N660 X-187.557 Y-5.521 Z7.265 A345.8685 
N661 X-187.561 Y-5.284 Z7.236 A343.8907 
N662 X-187.565 Y-5.012 Z7.189 A342.0182 
N663 X-187.571 Y-4.703 Z7.122 A340.2822 
N664 X-187.577 Y-4.355 Z7.033 A338.7075 
N665 X-187.584 Y-3.968 Z6.920 A337.3080 
N666 X-187.592 Y-3.542 Z6.782 A336.0922 
N667 X-187.601 Y-3.077 Z6.619 A335.0562 
N668 X-187.610 Y-2.576 Z6.433 A334.3249 
N669 X-187.620 Y-2.042 Z6.227 A333.8625 
N670 X-187.631 Y-1.478 Z6.003 A333.6542 
N671 X-187.642 Y-0.888 Z5.765 A333.7076 
N672 X-187.654 Y-0.278 Z5.518 A334.0454 
N673 X-187.666 Y0.348 Z5.268 A334.6942 
N674 X-187.678 Y0.984 Z5.022 A335.6752 
N675 X-187.691 Y1.627 Z4.785 A336.9943 
N676 X-187.703 Y2.272 Z4.564 A338.6412 
N677 X-187.715 Y2.916 Z4.363 A340.6004 
N678 X-187.727 Y3.557 Z4.187 A342.7143 
N679 X-187.738 Y4.192 Z4.039 A344.9612 
N680 X-187.749 Y4.820 Z3.919 A347.3072 
N681 X-187.759 Y5.441 Z3.829 A349.7143 
N682 X-187.770 Y6.055 Z3.766 A352.1475 
N683 X-187.780 Y6.663 Z3.732 A354.5761 
N684 X-187.789 Y7.266 Z3.724 A356.9745 
N685 X-187.798 Y7.865 Z3.743 A359.3202 
N686 X-187.807 Y8.463 Z3.786 A1.5944 
N687 X-187.816 Y9.059 Z3.855 A3.7810 
N688 X-187.825 Y9.654 Z3.948 A5.8659 
N689 X-187.833 Y10.248 Z4.063 A7.8372 
N690 X-187.841 Y10.838 Z4.200 A9.6856 
N691 X-187.849 Y11.424 Z4.356 A11.4050 
N692 X-187.856 Y12.000 Z4.528 A12.9928 
N693 X-187.863 Y12.564 Z4.714 A14.4489 
N694 X-187.870 Y13.112 Z4.910 A15.7752 
N695 X-187.877 Y13.638 Z5.113 A16.9749 
N696 X-187.883 Y14.139 Z5.317 A18.0515 
N697 X-187.888 Y14.610 Z5.520 A19.0070 
N698 X-187.893 Y15.048 Z5.717 A19.8413 
N699 X-187.898 Y15.450 Z5.904 A20.5571 
N700 X-187.902 Y15.814 Z6.079 A21.1628 
N701 X-187.906 Y16.139 Z6.239 A21.6719 
N702 X-187.909 Y16.426 Z6.383 A22.0993 
N703 X-187.912 Y16.674 Z6.510 A22.4579 
N704 X-187.914 Y16.887 Z6.619 A22.7569 
N705 X-187.916 Y17.066 Z6.713 A23.0019 
N706 X-187.918 Y17.214 Z6.791 A23.1951 
N707 X-187.919 Y17.335 Z6.856 A23.3343 
N708 X-187.920 Y17.432 Z6.908 A23.4112 
N709 X-187.921 Y17.508 Z6.951 A23.3383 
N710 X-187.922 Y17.568 Z6.986 A23.0645 
N711 X-187.922 Y17.614 Z7.017 A22.3045 
N712 X-187.923 Y17.650 Z7.051 A20.4235 
N713 X-187.923 Y17.678 Z7.091 A17.0477 
N714 X-187.923 Y17.704 Z7.140 A12.0695 
N715 X-187.924 Y17.729 Z7.189 A6.4554 
N716 X-187.924 Y17.755 Z7.235 A0.8449 
N717 X-187.924 Y17.782 Z7.277 A355.4011 
N718 X-187.924 Y17.807 Z7.310 A350.7794 
N719 X-187.924 Y17.830 Z7.336 A346.9108 
N720 X-187.924 Y17.850 Z7.357 A343.7185 
N721 X-187.924 Y17.869 Z7.374 A340.8598 
N722 X-187.924 Y17.887 Z7.389 A338.2917 
N723 X-187.925 Y17.904 Z7.402 A335.9719 
N724 X-187.925 Y17.920 Z7.413 A333.7556 
N725 X-187.925 Y17.937 Z7.423 A331.6261 
N726 X-187.925 Y17.953 Z7.433 A329.5641 
N727 X-187.925 Y17.969 Z7.441 A327.5534 
N728 X-187.925 Y17.985 Z7.449 A325.5809 
N729 X-187.925 Y18.002 Z7.456 A323.6367 
N730 X-187.925 Y18.018 Z7.463 A321.7130 
N731 X-187.925 Y18.035 Z7.468 A319.8039 
N732 X-187.925 Y18.051 Z7.474 A317.9055 
N733 X-187.925 Y18.068 Z7.478 A316.0140 
N734 X-187.925 Y18.085 Z7.482 A314.1277 
N735 X-187.925 Y18.102 Z7.486 A312.2450 
N736 X-187.925 Y18.119 Z7.488 A310.3643 
N737 X-187.925 Y18.137 Z7.491 A308.4854 
N738 X-187.925 Y18.154 Z7.492 A306.6076 
N739 X-187.926 Y18.172 Z7.493 A304.7305 
N740 X-187.926 Y18.189 Z7.494 A302.8543 
N741 X-187.926 Y18.206 Z7.494 A300.9786 
N742 X-187.926 Y18.224 Z7.493 A299.1034 
N743 X-187.926 Y18.241 Z7.492 A297.2288 
N744 X-187.926 Y18.259 Z7.490 A295.3546 
N745 X-187.926 Y18.276 Z7.488 A293.4808 
N746 X-187.926 Y18.293 Z7.485 A291.6070 
N747 X-187.926 Y18.310 Z7.481 A289.7329 
N748 X-187.926 Y18.327 Z7.477 A287.8580 
N749 X-187.926 Y18.344 Z7.473 A285.9811 
N750 X-187.926 Y18.360 Z7.468 A284.1014 
N751 X-187.926 Y18.377 Z7.462 A282.2167 
N752 X-187.926 Y18.393 Z7.456 A280.3243 
N753 X-187.926 Y18.410 Z7.449 A278.4211 
N754 X-187.926 Y18.426 Z7.442 A276.5012 
N755 X-187.926 Y18.442 Z7.434 A274.5586 
N756 X-187.926 Y18.458 Z7.426 A272.5836 
N757 X-187.927 Y18.474 Z7.417 A270.5644 
N758 X-187.927 Y18.490 Z7.407 A268.4857 
N759 X-187.927 Y18.507 Z7.397 A266.3303 
N760 X-187.927 Y18.523 Z7.385 A264.0805 
N761 X-187.927 Y18.541 Z7.371 A261.6147 
N762 X-187.927 Y18.560 Z7.356 A258.9008 
N763 X-187.927 Y18.582 Z7.336 A255.6398 
N764 X-187.927 Y18.606 Z7.310 A251.7006 
N765 X-187.927 Y18.634 Z7.277 A246.9654 
N766 X-187.927 Y18.665 Z7.231 A240.8292 
N767 X-187.927 Y18.692 Z7.174 A234.0049 
N768 X-187.927 Y18.710 Z7.107 A226.7955 
N769 X-187.927 Y18.713 Z7.041 A220.6505 
N770 X-187.926 Y18.696 Z6.988 A217.0285 
N771 X-187.926 Y18.665 Z6.945 A215.4434 
N772 X-187.926 Y18.618 Z6.900 A214.8547 
N773 X-187.925 Y18.554 Z6.846 A214.6821 
N774 X-187.925 Y18.469 Z6.775 A214.5931 
N775 X-187.924 Y18.359 Z6.683 A214.5203 
N776 X-187.922 Y18.219 Z6.567 A214.4538 
N777 X-187.921 Y18.042 Z6.420 A214.3849 
N778 X-187.919 Y17.823 Z6.240 A214.3063 
N779 X-187.917 Y17.558 Z6.022 A214.2110 
N780 X-187.914 Y17.242 Z5.762 A214.0913 
N781 X-187.910 Y16.871 Z5.458 A213.9377 
N782 X-187.906 Y16.443 Z5.109 A213.7392 
N783 X-187.901 Y15.959 Z4.715 A213.4838 
N784 X-187.896 Y15.419 Z4.280 A213.1596 
N785 X-187.889 Y14.827 Z3.807 A212.7548 
N786 X-187.880 Y14.187 Z3.302 A212.2575 
N787 X-187.869 Y13.506 Z2.774 A211.6548 
N788 X-187.856 Y12.792 Z2.230 A210.9323 
N789 X-187.838 Y12.054 Z1.682 A210.0760 
N790 X-187.817 Y11.300 Z1.139 A209.0757 
N791 X-187.792 Y10.539 Z0.611 A207.9257 
N792 X-187.766 Y9.782 Z0.107 A206.6229 
N793 X-187.740 Y9.036 Z-0.366 A205.1667 
N794 X-187.714 Y8.308 Z-0.802 A203.5593 
N795 X-187.691 Y7.605 Z-1.196 A201.8051 
N796 X-187.670 Y6.932 Z-1.548 A199.9114 
N797 X-187.650 Y6.293 Z-1.856 A197.8909 
N798 X-187.632 Y5.689 Z-2.121 A195.7640 
N799 X-187.616 Y5.121 Z-2.345 A193.5539 
N800 X-187.600 Y4.590 Z-2.532 A191.2815 
N801 X-187.586 Y4.094 Z-2.686 A188.9639 
N802 X-187.573 Y3.631 Z-2.810 A186.6152 
N803 X-187.561 Y3.199 Z-2.908 A184.2474 
N804 X-187.549 Y2.794 Z-2.984 A181.8704 
N805 X-187.538 Y2.415 Z-3.039 A179.4920 
N806 X-187.528 Y2.058 Z-3.077 A177.1180 
N807 X-187.518 Y1.720 Z-3.100 A174.7521 
N808 X-187.509 Y1.398 Z-3.109 A172.3967 
N809 X-187.499 Y1.091 Z-3.106 A170.0528 
N810 X-187.491 Y0.796 Z-3.092 A167.7206 
N811 X-187.482 Y0.511 Z-3.066 A165.3998 
N812 X-187.474 Y0.235 Z-3.031 A163.0899 
N813 X-187.465 Y-0.033 Z-2.986 A160.7899 
N814 X-187.457 Y-0.296 Z-2.931 A158.4989 
N815 X-187.449 Y-0.553 Z-2.867 A156.2162 
N816 X-187.441 Y-0.807 Z-2.793 A153.9413 
N817 X-187.433 Y-1.057 Z-2.709 A151.6744 
N818 X-187.424 Y-1.304 Z-2.615 A149.4160 
N819 X-187.416 Y-1.549 Z-2.509 A147.1669 
N820 X-187.408 Y-1.793 Z-2.393 A144.9284 
N821 X-187.399 Y-2.036 Z-2.265 A142.7023 
N822 X-187.391 Y-2.277 Z-2.125 A140.4909 
N823 X-187.382 Y-2.518 Z-1.972 A138.2972 
N824 X-187.374 Y-2.758 Z-1.805 A136.1246 
N825 X-187.365 Y-2.998 Z-1.625 A133.9771 
N826 X-187.355 Y-3.236 Z-1.430 A131.8588 
N827 X-187.346 Y-3.472 Z-1.220 A129.7741 
N828 X-187.337 Y-3.707 Z-0.996 A127.7273 
N829 X-187.327 Y-3.938 Z-0.756 A125.7225 
N830 X-187.318 Y-4.167 Z-0.502 A123.7634 
N831 X-187.308 Y-4.391 Z-0.234 A121.8529 
N832 X-187.298 Y-4.610 Z0.048 A119.9923 
N833 X-187.287 Y-4.823 Z0.341 A118.1812 
N834 X-187.275 Y-5.028 Z0.645 A116.4169 
N835 X-187.261 Y-5.226 Z0.957 A114.6954 
N836 X-187.247 Y-5.414 Z1.276 A113.0133 
N837 X-187.231 Y-5.593 Z1.599 A111.3697 
N838 X-187.215 Y-5.760 Z1.923 A109.7660 
N839 X-187.198 Y-5.915 Z2.247 A108.2023 
N840 X-187.180 Y-6.058 Z2.567 A106.6744 
N841 X-187.162 Y-6.189 Z2.880 A105.1725 
N842 X-187.143 Y-6.308 Z3.185 A103.6837 
N843 X-187.125 Y-6.415 Z3.478 A102.1958 
N844 X-187.106 Y-6.510 Z3.758 A100.7000 
N845 X-187.088 Y-6.592 Z4.023 A99.1906 
N846 X-187.070 Y-6.664 Z4.272 A97.6621 
N847 X-187.053 Y-6.725 Z4.505 A96.1083 
N848 X-187.036 Y-6.777 Z4.719 A94.5260 
N849 X-187.020 Y-6.820 Z4.916 A92.9171 
N850 X-187.004 Y-6.855 Z5.096 A91.2803 
N851 X-186.990 Y-6.883 Z5.258 A89.6038 
N852 X-186.976 Y-6.907 Z5.405 A87.8705 
N853 X-186.963 Y-6.925 Z5.536 A86.0666 
N854 X-186.951 Y-6.941 Z5.654 A84.1803 
N855 X-186.939 Y-6.953 Z5.759 A82.2012 
N856 X-186.928 Y-6.963 Z5.853 A80.1224 
N857 X-186.917 Y-6.971 Z5.937 A77.9424 
N858 X-186.907 Y-6.977 Z6.012 A75.6668 
N859 X-186.897 Y-6.983 Z6.081 A73.3076 
N860 X-186.887 Y-6.987 Z6.143 A70.8827 
N861 X-186.879 Y-6.991 Z6.199 A68.4152 
N862 X-186.871 Y-6.993 Z6.252 A65.9307 
N863 X-186.864 Y-6.995 Z6.300 A63.4515 
N864 X-186.858 Y-6.996 Z6.345 A60.9970 
N865 X-186.852 Y-6.995 Z6.388 A58.5794 
N866 X-186.848 Y-6.994 Z6.428 A56.2074 
N867 X-186.844 Y-6.992 Z6.466 A53.8856 
N868 X-186.841 Y-6.988 Z6.503 A51.6142 
N869 X-186.839 Y-6.984 Z6.538 A49.3908 
N870 X-186.837 Y-6.979 Z6.572 A47.2108 
N871 X-186.836 Y-6.972 Z6.605 A45.0676 
N872 X-186.836 Y-6.965 Z6.637 A42.9540 
N873 X-186.835 Y-6.957 Z6.669 A40.8613 
N874 X-186.836 Y-6.947 Z6.700 A38.7808 
N875 X-186.837 Y-6.936 Z6.731 A36.7035 
N876 X-186.838 Y-6.924 Z6.762 A34.6206 
N877 X-186.840 Y-6.911 Z6.793 A32.5228 
N878 X-186.842 Y-6.896 Z6.823 A30.4017 
N879 X-186.845 Y-6.879 Z6.854 A28.2488 
N880 X-186.848 Y-6.860 Z6.885 A26.0558 
N881 X-186.852 Y-6.839 Z6.917 A23.8153 
N882 X-186.857 Y-6.815 Z6.949 A21.5199 
N883 X-186.863 Y-6.788 Z6.981 A19.1657 
N884 X-186.869 Y-6.757 Z7.013 A16.7505 
N885 X-186.876 Y-6.722 Z7.046 A14.2746 
N886 X-186.884 Y-6.682 Z7.079 A11.7435 
N887 X-186.893 Y-6.636 Z7.112 A9.1687 
N888 X-186.902 Y-6.582 Z7.144 A6.5671 
N889 X-186.913 Y-6.519 Z7.175 A3.9601 
N890 X-186.924 Y-6.446 Z7.204 A1.3717 
N891 X-186.935 Y-6.360 Z7.230 A358.8221 
N892 X-186.947 Y-6.258 Z7.253 A356.3280 
N893 X-186.960 Y-6.139 Z7.270 A353.9012 
N894 X-186.973 Y-5.999 Z7.281 A351.5508 
N895 X-186.986 Y-5.834 Z7.283 A349.2859 
N896 X-187.001 Y-5.643 Z7.275 A347.1147 
N897 X-187.016 Y-5.420 Z7.254 A345.0388 
N898 X-187.032 Y-5.164 Z7.216 A343.0585 
N899 X-187.048 Y-4.871 Z7.160 A341.1903 
N900 X-187.065 Y-4.539 Z7.082 A339.4554 
N901 X-187.082 Y-4.168 Z6.981 A337.8593 
N902 X-187.099 Y-3.756 Z6.854 A336.5253 
N903 X-187.115 Y-3.305 Z6.701 A335.4555 
N904 X-187.130 Y-2.815 Z6.523 A334.6495 
N905 X-187.145 Y-2.289 Z6.323 A334.0987 
N906 X-187.157 Y-1.730 Z6.103 A333.7971 
N907 X-187.168 Y-1.141 Z5.866 A333.7530 
N908 X-187.177 Y-0.527 Z5.618 A333.9895 
N909 X-187.183 Y0.106 Z5.363 A334.5362 
N910 X-187.187 Y0.755 Z5.109 A335.4200 
N911 X-187.191 Y1.414 Z4.861 A336.6547 
N912 X-187.194 Y2.080 Z4.627 A338.2339 
N913 X-187.197 Y2.750 Z4.412 A340.1363 
N914 X-187.199 Y3.420 Z4.222 A342.3368 
N915 X-187.202 Y4.088 Z4.061 A344.6764 
N916 X-187.204 Y4.752 Z3.930 A347.1264 
N917 X-187.205 Y5.412 Z3.832 A349.6490 
N918 X-187.206 Y6.066 Z3.765 A352.2056 
N919 X-187.207 Y6.715 Z3.730 A354.7605 
N920 X-187.208 Y7.360 Z3.726 A357.2820 
N921 X-187.208 Y8.000 Z3.751 A359.7421 
N922 X-187.207 Y8.636 Z3.805 A2.1169 
N923 X-187.206 Y9.269 Z3.886 A4.3862 
N924 X-187.205 Y9.898 Z3.993 A6.5338 
N925 X-187.203 Y10.522 Z4.125 A8.5468 
N926 X-187.200 Y11.137 Z4.278 A10.4168 
N927 X-187.197 Y11.743 Z4.450 A12.1398 
N928 X-187.194 Y12.334 Z4.637 A13.7156 
N929 X-187.190 Y12.906 Z4.836 A15.1468 
N930 X-187.186 Y13.456 Z5.042 A16.4375 
N931 X-187.181 Y13.979 Z5.251 A17.5932 
N932 X-187.177 Y14.471 Z5.460 A18.6180 
N933 X-187.172 Y14.927 Z5.662 A19.5141 
N934 X-187.168 Y15.346 Z5.856 A20.2847 
N935 X-187.164 Y15.726 Z6.037 A20.9376 
N936 X-187.160 Y16.065 Z6.203 A21.4862 
N937 X-187.156 Y16.363 Z6.352 A21.9457 
N938 X-187.152 Y16.623 Z6.484 A22.3300 
N939 X-187.150 Y16.844 Z6.598 A22.6496 
N940 X-187.147 Y17.031 Z6.695 A22.9114 
N941 X-187.145 Y17.185 Z6.776 A23.1190 
N942 X-187.143 Y17.312 Z6.844 A23.2718 
N943 X-187.142 Y17.413 Z6.898 A23.3642 
N944 X-187.140 Y17.493 Z6.943 A23.3155 
N945 X-187.139 Y17.556 Z6.979 A23.0799 
N946 X-187.138 Y17.604 Z7.011 A22.3722 
N947 X-187.137 Y17.641 Z7.041 A21.0324 
N948 X-187.134 Y17.670 Z7.077 A18.3782 
N949 X-187.131 Y17.694 Z7.118 A14.3939 
N950 X-187.127 Y17.716 Z7.163 A9.4884 
N951 X-187.124 Y17.739 Z7.206 A4.5356 
N952 X-187.121 Y17.761 Z7.244 A359.7044 
N953 X-187.119 Y17.783 Z7.278 A355.2093 
N954 X-187.117 Y17.804 Z7.306 A351.4145 
N955 X-187.116 Y17.822 Z7.327 A348.2875 
N956 X-187.115 Y17.839 Z7.346 A345.4806 
N957 X-187.115 Y17.855 Z7.362 A342.9498 
N958 X-187.114 Y17.870 Z7.375 A340.6658 
N959 X-187.114 Y17.885 Z7.388 A338.4949 
N960 X-187.113 Y17.900 Z7.399 A336.4176 
N961 X-187.113 Y17.915 Z7.410 A334.4192 
N962 X-187.113 Y17.930 Z7.419 A332.4802 
N963 X-187.113 Y17.945 Z7.428 A330.5870 
N964 X-187.113 Y17.959 Z7.436 A328.7277 
N965 X-187.113 Y17.974 Z7.444 A326.8932 
N966 X-187.113 Y17.989 Z7.451 A325.0757 
N967 X-187.113 Y18.005 Z7.457 A323.2697 
N968 X-187.113 Y18.020 Z7.463 A321.4693 
N969 X-187.113 Y18.036 Z7.469 A319.6714 
N970 X-187.114 Y18.052 Z7.474 A317.8711 
N971 X-187.114 Y18.068 Z7.478 A316.0677 
N972 X-187.114 Y18.084 Z7.482 A314.2590 
N973 X-187.115 Y18.100 Z7.485 A312.4433 
N974 X-187.116 Y18.117 Z7.488 A310.6203 
N975 X-187.116 Y18.134 Z7.490 A308.7879 
N976 X-187.117 Y18.151 Z7.492 A306.9469 
N977 X-187.118 Y18.168 Z7.493 A305.0970 
N978 X-187.119 Y18.185 Z7.494 A303.2367 
N979 X-187.119 Y18.203 Z7.494 A301.3673 
N980 X-187.120 Y18.220 Z7.493 A299.4886 
N981 X-187.122 Y18.238 Z7.492 A297.5997 
N982 X-187.123 Y18.255 Z7.490 A295.7013 
N983 X-187.124 Y18.273 Z7.488 A293.7931 
N984 X-187.125 Y18.290 Z7.485 A291.8742 
N985 X-187.126 Y18.308 Z7.482 A289.9447 
N986 X-187.128 Y18.326 Z7.478 A288.0039 
N987 X-187.129 Y18.343 Z7.473 A286.0506 
N988 X-187.131 Y18.360 Z7.468 A284.0838 
N989 X-187.132 Y18.378 Z7.462 A282.1021 
N990 X-187.134 Y18.395 Z7.455 A280.1035 
N991 X-187.135 Y18.412 Z7.448 A278.0858 
N992 X-187.137 Y18.429 Z7.440 A276.0464 
N993 X-187.139 Y18.446 Z7.432 A273.9818 
N994 X-187.141 Y18.463 Z7.423 A271.8879 
N995 X-187.143 Y18.480 Z7.413 A269.7593 
N996 X-187.145 Y18.497 Z7.403 A267.5894 
N997 X-187.147 Y18.514 Z7.391 A265.3694 
N998 X-187.149 Y18.530 Z7.379 A263.0871 
N999 X-187.151 Y18.547 Z7.366 A260.7292 
N1000 X-187.153 Y18.564 Z7.352 A258.2797 
N1001 X-187.156 Y18.581 Z7.336 A255.7211 
N1002 X-187.158 Y18.599 Z7.318 A252.9117 
N1003 X-187.161 Y18.617 Z7.297 A249.8274 
N1004 X-187.165 Y18.638 Z7.271 A246.1838 
N1005 X-187.169 Y18.660 Z7.239 A241.8733 
N1006 X-187.173 Y18.681 Z7.199 A236.9194 
N1007 X-187.179 Y18.700 Z7.150 A231.3759 
N1008 X-187.184 Y18.712 Z7.094 A225.5036 
N1009 X-187.188 Y18.712 Z7.036 A220.2774 
N1010 X-187.190 Y18.696 Z6.988 A217.0281 
N1011 X-187.191 Y18.665 Z6.946 A215.4629 
N1012 X-187.191 Y18.620 Z6.902 A214.8751 
N1013 X-187.190 Y18.558 Z6.849 A214.6992 
N1014 X-187.189 Y18.476 Z6.780 A214.6050 
N1015 X-187.188 Y18.369 Z6.691 A214.5268 
N1016 X-187.186 Y18.232 Z6.577 A214.4553 
N1017 X-187.184 Y18.058 Z6.434 A214.3814 
N1018 X-187.182 Y17.843 Z6.257 A214.2976 
N1019 X-187.178 Y17.581 Z6.041 A214.1967 
N1020 X-187.174 Y17.267 Z5.783 A214.0706 
N1021 X-187.169 Y16.898 Z5.480 A213.9096 
N1022 X-187.164 Y16.470 Z5.130 A213.7022 
N1023 X-187.157 Y15.984 Z4.735 A213.4358 
N1024 X-187.150 Y15.439 Z4.295 A213.0976 
N1025 X-187.141 Y14.839 Z3.816 A212.6748 
N1026 X-187.131 Y14.189 Z3.302 A212.1540 
N1027 X-187.120 Y13.493 Z2.763 A211.5207 
N1028 X-187.108 Y12.762 Z2.206 A210.7589 
N1029 X-187.095 Y12.002 Z1.643 A209.8524 
N1030 X-187.081 Y11.223 Z1.083 A208.7889 
N1031 X-187.067 Y10.435 Z0.539 A207.5600 
N1032 X-187.051 Y9.647 Z0.018 A206.1599 
N1033 X-187.034 Y8.869 Z-0.470 A204.5851 
N1034 X-187.017 Y8.107 Z-0.920 A202.8354 
N1035 X-187.000 Y7.369 Z-1.325 A200.9131 
N1036 X-186.983 Y6.660 Z-1.685 A198.8247 
N1037 X-186.965 Y5.984 Z-1.996 A196.5848 
N1038 X-186.948 Y5.345 Z-2.261 A194.2159 
N1039 X-186.931 Y4.743 Z-2.482 A191.7419 
N1040 X-186.914 Y4.179 Z-2.663 A189.1840 
N1041 X-186.898 Y3.652 Z-2.806 A186.5610 
N1042 X-186.883 Y3.160 Z-2.917 A183.8901 
N1043 X-186.868 Y2.700 Z-3.000 A181.1871 
N1044 X-186.853 Y2.269 Z-3.057 A178.4652 
N1045 X-186.839 Y1.864 Z-3.092 A175.7358 
N1046 X-186.826 Y1.482 Z-3.108 A173.0071 
N1047 X-186.813 Y1.120 Z-3.107 A170.2855 
N1048 X-186.800 Y0.775 Z-3.090 A167.5750 
N1049 X-186.788 Y0.444 Z-3.059 A164.8785 
N1050 X-186.776 Y0.126 Z-3.014 A162.1974 
N1051 X-186.764 Y-0.183 Z-2.956 A159.5324 
N1052 X-186.752 Y-0.484 Z-2.885 A156.8840 
N1053 X-186.741 Y-0.779 Z-2.801 A154.2527 
N1054 X-186.730 Y-1.068 Z-2.704 A151.6394 
N1055 X-186.719 Y-1.352 Z-2.594 A149.0459 
N1056 X-186.707 Y-1.633 Z-2.470 A146.4744 
N1057 X-186.696 Y-1.912 Z-2.332 A143.9276 
N1058 X-186.685 Y-2.187 Z-2.178 A141.4092 
N1059 X-186.674 Y-2.461 Z-2.009 A138.9234 
N1060 X-186.663 Y-2.732 Z-1.824 A136.4753 
N1061 X-186.652 Y-3.000 Z-1.622 A134.0702 
N1062 X-186.642 Y-3.266 Z-1.403 A131.7135 
N1063 X-186.631 Y-3.528 Z-1.167 A129.4106 
N1064 X-186.620 Y-3.786 Z-0.914 A127.1662 
N1065 X-186.609 Y-4.039 Z-0.645 A124.9847 
N1066 X-186.598 Y-4.286 Z-0.360 A122.8692 
N1067 X-186.588 Y-4.526 Z-0.061 A120.8213 
N1068 X-186.575 Y-4.758 Z0.252 A118.8403 
N1069 X-186.558 Y-4.981 Z0.575 A116.9230 
N1070 X-186.536 Y-5.195 Z0.907 A115.0642 
N1071 X-186.511 Y-5.397 Z1.246 A113.2587 
N1072 X-186.482 Y-5.586 Z1.588 A111.5038 
N1073 X-186.451 Y-5.763 Z1.931 A109.7990 
N1074 X-186.416 Y-5.926 Z2.272 A108.1427 
N1075 X-186.380 Y-6.076 Z2.607 A106.5288 
N1076 X-186.341 Y-6.211 Z2.935 A104.9453 
N1077 X-186.302 Y-6.333 Z3.251 A103.3780 
N1078 X-186.262 Y-6.441 Z3.554 A101.8139 
N1079 X-186.221 Y-6.536 Z3.841 A100.2439 
N1080 X-186.180 Y-6.619 Z4.112 A98.6613 
N1081 X-186.140 Y-6.689 Z4.364 A97.0595 
N1082 X-186.101 Y-6.748 Z4.597 A95.4320 
N1083 X-186.062 Y-6.798 Z4.812 A93.7772 
N1084 X-186.025 Y-6.838 Z5.007 A92.0962 
N1085 X-185.990 Y-6.871 Z5.183 A90.3827 
N1086 X-185.957 Y-6.897 Z5.342 A88.6218 
N1087 X-185.925 Y-6.918 Z5.484 A86.7993 
N1088 X-185.894 Y-6.935 Z5.611 A84.9050 
N1089 X-185.864 Y-6.949 Z5.723 A82.9311 
N1090 X-185.835 Y-6.959 Z5.822 A80.8740 
N1091 X-185.808 Y-6.968 Z5.910 A78.7357 
N1092 X-185.781 Y-6.975 Z5.989 A76.5253 
N1093 X-185.756 Y-6.980 Z6.058 A74.2592 
N1094 X-185.731 Y-6.985 Z6.120 A71.9572 
N1095 X-185.709 Y-6.988 Z6.175 A69.6433 
N1096 X-185.690 Y-6.991 Z6.226 A67.3416 
N1097 X-185.672 Y-6.993 Z6.272 A65.0729 
N1098 X-185.656 Y-6.994 Z6.314 A62.8554 
N1099 X-185.643 Y-6.995 Z6.353 A60.7009 
N1100 X-185.632 Y-6.994 Z6.389 A58.6174 
N1101 X-185.622 Y-6.993 Z6.423 A56.6089 
N1102 X-185.614 Y-6.992 Z6.455 A54.6760 
N1103 X-185.608 Y-6.989 Z6.485 A52.8168 
N1104 X-185.603 Y-6.987 Z6.513 A51.0278 
N1105 X-185.599 Y-6.983 Z6.540 A49.3030 
N1106 X-185.596 Y-6.979 Z6.566 A47.6344 
N1107 X-185.593 Y-6.975 Z6.591 A46.0130 
N1108 X-185.592 Y-6.970 Z6.615 A44.4281 
N1109 X-185.591 Y-6.965 Z6.639 A42.8687 
N1110 X-185.591 Y-6.959 Z6.662 A41.3238 
N1111 X-185.592 Y-6.952 Z6.685 A39.7822 
N1112 X-185.593 Y-6.945 Z6.708 A38.2327 
N1113 X-185.595 Y-6.937 Z6.731 A36.6649 
N1114 X-185.598 Y-6.928 Z6.754 A35.0689 
N1115 X-185.602 Y-6.918 Z6.778 A33.4349 
N1116 X-185.607 Y-6.907 Z6.803 A31.7539 
N1117 X-185.613 Y-6.894 Z6.828 A30.0182 
N1118 X-185.620 Y-6.880 Z6.853 A28.2214 
N1119 X-185.629 Y-6.864 Z6.880 A26.3569 
N1120 X-185.638 Y-6.846 Z6.907 A24.4207 
N1121 X-185.650 Y-6.826 Z6.935 A22.4092 
N1122 X-185.663 Y-6.803 Z6.964 A20.3196 
N1123 X-185.678 Y-6.777 Z6.994 A18.1516 
N1124 X-185.694 Y-6.747 Z7.024 A15.9071 
N1125 X-185.714 Y-6.714 Z7.055 A13.5894 
N1126 X-185.735 Y-6.675 Z7.085 A11.2065 
N1127 X-185.758 Y-6.630 Z7.116 A8.7689 
N1128 X-185.784 Y-6.578 Z7.147 A6.2920 
N1129 X-185.812 Y-6.517 Z7.176 A3.7955 
N1130 X-185.841 Y-6.446 Z7.204 A1.3008 
N1131 X-185.872 Y-6.361 Z7.230 A358.8284 
N1132 X-185.905 Y-6.262 Z7.252 A356.3961 
N1133 X-185.938 Y-6.146 Z7.269 A354.0181 
N1134 X-185.974 Y-6.009 Z7.280 A351.7054 
N1135 X-186.011 Y-5.848 Z7.283 A349.4680 
N1136 X-186.048 Y-5.661 Z7.276 A347.3146 
N1137 X-186.088 Y-5.444 Z7.256 A345.2472 
N1138 X-186.129 Y-5.194 Z7.222 A343.2645 
N1139 X-186.172 Y-4.908 Z7.168 A341.3772 
N1140 X-186.215 Y-4.584 Z7.094 A339.6009 
N1141 X-186.257 Y-4.220 Z6.996 A338.0459 
N1142 X-186.298 Y-3.815 Z6.873 A336.7197 
N1143 X-186.337 Y-3.371 Z6.724 A335.6368 
N1144 X-186.373 Y-2.886 Z6.549 A334.8062 
N1145 X-186.406 Y-2.362 Z6.350 A334.2252 
N1146 X-186.434 Y-1.802 Z6.131 A333.8899 
N1147 X-186.457 Y-1.210 Z5.894 A333.8063 
N1148 X-186.473 Y-0.588 Z5.642 A333.9914 
N1149 X-186.484 Y0.058 Z5.383 A334.4633 
N1150 X-186.487 Y0.726 Z5.121 A335.2255 
N1151 X-186.489 Y1.409 Z4.864 A336.5047 
N1152 X-186.491 Y2.106 Z4.618 A338.2959 
N1153 X-186.492 Y2.813 Z4.393 A340.3715 
N1154 X-186.493 Y3.528 Z4.194 A342.7239 
N1155 X-186.493 Y4.249 Z4.026 A345.3227 
N1156 X-186.493 Y4.972 Z3.894 A348.0232 
N1157 X-186.492 Y5.696 Z3.799 A350.7882 
N1158 X-186.491 Y6.419 Z3.743 A353.5755 
N1159 X-186.489 Y7.139 Z3.724 A356.3425 
N1160 X-186.486 Y7.854 Z3.744 A359.0490 
N1161 X-186.483 Y8.564 Z3.799 A1.6593 
N1162 X-186.479 Y9.266 Z3.887 A4.1434 
N1163 X-186.474 Y9.959 Z4.007 A6.4778 
N1164 X-186.468 Y10.639 Z4.154 A8.6456 
N1165 X-186.462 Y11.304 Z4.325 A10.6373 
N1166 X-186.454 Y11.950 Z4.516 A12.4503 
N1167 X-186.447 Y12.573 Z4.720 A14.0874 
N1168 X-186.439 Y13.169 Z4.934 A15.5546 
N1169 X-186.430 Y13.733 Z5.153 A16.8601 
N1170 X-186.421 Y14.261 Z5.371 A18.0122 
N1171 X-186.413 Y14.751 Z5.584 A19.0174 
N1172 X-186.404 Y15.199 Z5.788 A19.8813 
N1173 X-186.396 Y15.604 Z5.979 A20.6126 
N1174 X-186.389 Y15.964 Z6.154 A21.2254 
N1175 X-186.382 Y16.282 Z6.312 A21.7365 
N1176 X-186.376 Y16.556 Z6.450 A22.1621 
N1177 X-186.370 Y16.791 Z6.571 A22.5154 
N1178 X-186.365 Y16.988 Z6.673 A22.8056 
N1179 X-186.362 Y17.151 Z6.759 A23.0386 
N1180 X-186.358 Y17.284 Z6.829 A23.2171 
N1181 X-186.356 Y17.391 Z6.886 A23.3392 
N1182 X-186.353 Y17.476 Z6.933 A23.3373 
N1183 X-186.352 Y17.541 Z6.970 A23.1788 
N1184 X-186.350 Y17.592 Z7.002 A22.6323 
N1185 X-186.347 Y17.631 Z7.032 A21.5715 
N1186 X-186.343 Y17.661 Z7.065 A19.3947 
N1187 X-186.338 Y17.685 Z7.102 A15.9864 
N1188 X-186.331 Y17.705 Z7.141 A12.0236 
N1189 X-186.325 Y17.724 Z7.177 A7.9585 
N1190 X-186.320 Y17.741 Z7.210 A3.9461 
N1191 X-186.315 Y17.759 Z7.241 A0.0669 
N1192 X-186.312 Y17.776 Z7.269 A356.4910 
N1193 X-186.309 Y17.792 Z7.291 A353.4859 
N1194 X-186.307 Y17.807 Z7.310 A350.7654 
N1195 X-186.305 Y17.821 Z7.327 A348.2980 
N1196 X-186.304 Y17.835 Z7.342 A346.0640 
N1197 X-186.302 Y17.848 Z7.355 A343.9528 
N1198 X-186.301 Y17.862 Z7.368 A341.9435 
N1199 X-186.300 Y17.875 Z7.379 A340.0257 
N1200 X-186.300 Y17.887 Z7.390 A338.1831 
N1201 X-186.299 Y17.900 Z7.399 A336.4044 
N1202 X-186.298 Y17.913 Z7.408 A334.6767 
N1203 X-186.298 Y17.926 Z7.417 A332.9906 
N1204 X-186.298 Y17.939 Z7.425 A331.3357 
N1205 X-186.298 Y17.951 Z7.432 A329.7042 
N1206 X-186.298 Y17.964 Z7.439 A328.0883 
N1207 X-186.298 Y17.978 Z7.446 A326.4806 
N1208 X-186.298 Y17.991 Z7.452 A324.8756 
N1209 X-186.298 Y18.005 Z7.458 A323.2660 
N1210 X-186.298 Y18.018 Z7.463 A321.6487 
N1211 X-186.299 Y18.033 Z7.468 A320.0170 
N1212 X-186.299 Y18.047 Z7.473 A318.3692 
N1213 X-186.300 Y18.062 Z7.477 A316.7002 
N1214 X-186.301 Y18.077 Z7.481 A315.0084 
N1215 X-186.302 Y18.092 Z7.484 A313.2911 
N1216 X-186.303 Y18.108 Z7.487 A311.5451 
N1217 X-186.304 Y18.125 Z7.489 A309.7702 
N1218 X-186.305 Y18.141 Z7.491 A307.9630 
N1219 X-186.307 Y18.158 Z7.493 A306.1238 
N1220 X-186.308 Y18.176 Z7.494 A304.2519 
N1221 X-186.310 Y18.193 Z7.494 A302.3447 
N1222 X-186.312 Y18.211 Z7.494 A300.4017 
N1223 X-186.314 Y18.230 Z7.493 A298.4231 
N1224 X-186.316 Y18.249 Z7.491 A296.4078 
N1225 X-186.319 Y18.268 Z7.489 A294.3537 
N1226 X-186.322 Y18.287 Z7.486 A292.2584 
N1227 X-186.324 Y18.306 Z7.482 A290.1223 
N1228 X-186.328 Y18.326 Z7.478 A287.9448 
N1229 X-186.331 Y18.346 Z7.472 A285.7250 
N1230 X-186.334 Y18.366 Z7.466 A283.4618 
N1231 X-186.338 Y18.386 Z7.459 A281.1541 
N1232 X-186.342 Y18.406 Z7.451 A278.8014 
N1233 X-186.346 Y18.426 Z7.442 A276.4037 
N1234 X-186.350 Y18.447 Z7.432 A273.9610 
N1235 X-186.354 Y18.467 Z7.421 A271.4739 
N1236 X-186.359 Y18.487 Z7.409 A268.9424 
N1237 X-186.364 Y18.506 Z7.396 A266.3664 
N1238 X-186.369 Y18.526 Z7.383 A263.7441 
N1239 X-186.374 Y18.545 Z7.368 A261.0711 
N1240 X-186.379 Y18.564 Z7.352 A258.3387 
N1241 X-186.384 Y18.582 Z7.335 A255.5345 
N1242 X-186.390 Y18.601 Z7.316 A252.6433 
N1243 X-186.395 Y18.618 Z7.296 A249.6492 
N1244 X-186.401 Y18.637 Z7.273 A246.4241 
N1245 X-186.408 Y18.655 Z7.247 A242.9177 
N1246 X-186.415 Y18.672 Z7.217 A239.1154 
N1247 X-186.423 Y18.690 Z7.181 A234.7103 
N1248 X-186.432 Y18.704 Z7.138 A230.0296 
N1249 X-186.442 Y18.713 Z7.088 A224.9378 
N1250 X-186.449 Y18.712 Z7.035 A220.1407 
N1251 X-186.454 Y18.696 Z6.988 A217.0279 
N1252 X-186.456 Y18.665 Z6.945 A215.4490 
N1253 X-186.457 Y18.619 Z6.901 A214.8685 
N1254 X-186.458 Y18.556 Z6.847 A214.6963 
N1255 X-186.458 Y18.473 Z6.778 A214.6021 
N1256 X-186.458 Y18.365 Z6.688 A214.5230 
N1257 X-186.458 Y18.226 Z6.573 A214.4495 
N1258 X-186.458 Y18.051 Z6.428 A214.3730 
N1259 X-186.457 Y17.834 Z6.249 A214.2859 
N1260 X-186.457 Y17.569 Z6.030 A214.1809 
N1261 X-186.457 Y17.251 Z5.769 A214.0496 
N1262 X-186.456 Y16.876 Z5.461 A213.8824 
N1263 X-186.454 Y16.441 Z5.106 A213.6677 
N1264 X-186.452 Y15.946 Z4.703 A213.3929 
N1265 X-186.450 Y15.390 Z4.255 A213.0456 
N1266 X-186.446 Y14.777 Z3.766 A212.6136 
N1267 X-186.441 Y14.111 Z3.241 A212.0851 
N1268 X-186.435 Y13.398 Z2.690 A211.4479 
N1269 X-186.428 Y12.647 Z2.120 A210.6903 
N1270 X-186.418 Y11.865 Z1.544 A209.8037 
N1271 X-186.407 Y11.063 Z0.973 A208.7884 
N1272 X-186.395 Y10.250 Z0.417 A207.5374 
N1273 X-186.380 Y9.436 Z-0.114 A206.0588 
N1274 X-186.365 Y8.630 Z-0.611 A204.3531 
N1275 X-186.347 Y7.841 Z-1.067 A202.4160 
N1276 X-186.329 Y7.074 Z-1.477 A200.2391 
N1277 X-186.310 Y6.337 Z-1.837 A197.8116 
N1278 X-186.290 Y5.634 Z-2.146 A195.2541 
N1279 X-186.269 Y4.967 Z-2.404 A192.5757 
N1280 X-186.249 Y4.339 Z-2.615 A189.7905 
N1281 X-186.229 Y3.749 Z-2.783 A186.9139 
N1282 X-186.209 Y3.198 Z-2.911 A183.9633 
N1283 X-186.189 Y2.682 Z-3.003 A180.9564 
N1284 X-186.170 Y2.199 Z-3.065 A177.9111 
N1285 X-186.152 Y1.746 Z-3.099 A174.8434 
N1286 X-186.134 Y1.320 Z-3.110 A171.7671 
N1287 X-186.116 Y0.917 Z-3.099 A168.6934 
N1288 X-186.099 Y0.533 Z-3.068 A165.6312 
N1289 X-186.083 Y0.166 Z-3.020 A162.5873 
N1290 X-186.067 Y-0.187 Z-2.955 A159.5665 
N1291 X-186.052 Y-0.528 Z-2.873 A156.5728 
N1292 X-186.037 Y-0.860 Z-2.775 A153.6096 
N1293 X-186.022 Y-1.184 Z-2.660 A150.6806 
N1294 X-186.007 Y-1.502 Z-2.529 A147.7900 
N1295 X-185.993 Y-1.814 Z-2.381 A144.9421 
N1296 X-185.979 Y-2.121 Z-2.215 A142.1421 
N1297 X-185.966 Y-2.423 Z-2.032 A139.3956 
N1298 X-185.953 Y-2.721 Z-1.830 A136.7087 
N1299 X-185.940 Y-3.014 Z-1.610 A134.0875 
N1300 X-185.927 Y-3.301 Z-1.371 A131.5381 
N1301 X-185.915 Y-3.583 Z-1.114 A129.0658 
N1302 X-185.903 Y-3.858 Z-0.839 A126.6747 
N1303 X-185.891 Y-4.125 Z-0.547 A124.3682 
N1304 X-185.880 Y-4.384 Z-0.239 A122.1478 
N1305 X-185.868 Y-4.633 Z0.082 A120.0127 
N1306 X-185.849 Y-4.872 Z0.415 A117.9595 
N1307 X-185.823 Y-5.100 Z0.758 A115.9822 
N1308 X-185.789 Y-5.315 Z1.107 A114.0735 
N1309 X-185.749 Y-5.516 Z1.460 A112.2276 
N1310 X-185.703 Y-5.703 Z1.813 A110.4417 
N1311 X-185.652 Y-5.876 Z2.165 A108.7135 
N1312 X-185.598 Y-6.033 Z2.511 A107.0371 
N1313 X-185.540 Y-6.176 Z2.848 A105.4007 
N1314 X-185.480 Y-6.304 Z3.174 A103.7889 
N1315 X-185.418 Y-6.418 Z3.486 A102.1872 
N1316 X-185.354 Y-6.517 Z3.782 A100.5845 
N1317 X-185.291 Y-6.604 Z4.061 A98.9728 
N1318 X-185.228 Y-6.677 Z4.320 A97.3448 
N1319 X-185.165 Y-6.739 Z4.561 A95.6932 
N1320 X-185.104 Y-6.791 Z4.781 A94.0147 
N1321 X-185.046 Y-6.833 Z4.982 A92.3098 
N1322 X-184.990 Y-6.867 Z5.164 A90.5735 
N1323 X-184.937 Y-6.895 Z5.327 A88.7921 
N1324 X-184.885 Y-6.917 Z5.473 A86.9524 
N1325 X-184.835 Y-6.934 Z5.603 A85.0453 
N1326 X-184.787 Y-6.948 Z5.717 A83.0657 
N1327 X-184.741 Y-6.958 Z5.818 A81.0130 
N1328 X-184.696 Y-6.967 Z5.907 A78.8927 
N1329 X-184.654 Y-6.974 Z5.985 A76.7180 
N1330 X-184.613 Y-6.979 Z6.054 A74.5072 
N1331 X-184.576 Y-6.984 Z6.114 A72.2815 
N1332 X-184.541 Y-6.987 Z6.168 A70.0625 
N1333 X-184.510 Y-6.990 Z6.216 A67.8713 
N1334 X-184.483 Y-6.992 Z6.260 A65.7267 
N1335 X-184.459 Y-6.993 Z6.300 A63.6437 
N1336 X-184.438 Y-6.994 Z6.337 A61.6325 
N1337 X-184.420 Y-6.994 Z6.372 A59.6998 
N1338 X-184.404 Y-6.994 Z6.403 A57.8497 
N1339 X-184.391 Y-6.993 Z6.433 A56.0838 
N1340 X-184.381 Y-6.991 Z6.460 A54.4020 
N1341 X-184.372 Y-6.989 Z6.486 A52.8022 
N1342 X-184.365 Y-6.987 Z6.510 A51.2808 
N1343 X-184.360 Y-6.984 Z6.533 A49.8327 
N1344 X-184.356 Y-6.981 Z6.554 A48.4511 
N1345 X-184.352 Y-6.978 Z6.574 A47.1279 
N1346 X-184.350 Y-6.974 Z6.594 A45.8535 
N1347 X-184.348 Y-6.971 Z6.612 A44.6177 
N1348 X-184.347 Y-6.967 Z6.630 A43.4093 
N1349 X-184.347 Y-6.963 Z6.648 A42.2173 
N1350 X-184.347 Y-6.958 Z6.666 A41.0301 
N1351 X-184.348 Y-6.953 Z6.683 A39.8363 
N1352 X-184.350 Y-6.948 Z6.701 A38.6250 
N1353 X-184.352 Y-6.942 Z6.720 A37.3854 
N1354 X-184.356 Y-6.935 Z6.738 A36.1073 
N1355 X-184.360 Y-6.927 Z6.758 A34.7811 
N1356 X-184.365 Y-6.919 Z6.778 A33.3981 
N1357 X-184.372 Y-6.909 Z6.799 A31.9504 
N1358 X-184.381 Y-6.898 Z6.821 A30.4312 
N1359 X-184.391 Y-6.886 Z6.844 A28.8349 
N1360 X-184.402 Y-6.872 Z6.868 A27.1574 
N1361 X-184.416 Y-6.856 Z6.893 A25.3960 
N1362 X-184.433 Y-6.838 Z6.919 A23.5493 
N1363 X-184.452 Y-6.818 Z6.946 A21.6178 
N1364 X-184.473 Y-6.795 Z6.974 A19.6030 
N1365 X-184.498 Y-6.769 Z7.002 A17.5083 
N1366 X-184.525 Y-6.740 Z7.032 A15.3382 
N1367 X-184.556 Y-6.706 Z7.061 A13.0988 
N1368 X-184.590 Y-6.668 Z7.091 A10.7977 
N1369 X-184.628 Y-6.624 Z7.120 A8.4452 
N1370 X-184.669 Y-6.573 Z7.150 A6.0557 
N1371 X-184.713 Y-6.514 Z7.178 A3.6466 
N1372 X-184.760 Y-6.444 Z7.205 A1.2366 
N1373 X-184.809 Y-6.363 Z7.230 A358.8441 
N1374 X-184.860 Y-6.267 Z7.251 A356.4859 
N1375 X-184.914 Y-6.155 Z7.268 A354.1763 
N1376 X-184.970 Y-6.023 Z7.280 A351.9265 
N1377 X-185.028 Y-5.870 Z7.283 A349.7469 
N1378 X-185.088 Y-5.692 Z7.278 A347.6465 
N1379 X-185.150 Y-5.486 Z7.261 A345.6295 
N1380 X-185.214 Y-5.249 Z7.230 A343.6953 
N1381 X-185.281 Y-4.979 Z7.182 A341.8529 
N1382 X-185.348 Y-4.672 Z7.115 A340.1204 
N1383 X-185.415 Y-4.327 Z7.026 A338.5065 
N1384 X-185.480 Y-3.942 Z6.913 A337.1217 
N1385 X-185.542 Y-3.517 Z6.774 A335.9723 
N1386 X-185.600 Y-3.052 Z6.610 A335.0663 
N1387 X-185.652 Y-2.547 Z6.422 A334.4021 
N1388 X-185.697 Y-2.004 Z6.211 A333.9728 
N1389 X-185.735 Y-1.425 Z5.980 A333.7762 
N1390 X-185.763 Y-0.812 Z5.733 A333.8177 
N1391 X-185.781 Y-0.170 Z5.475 A334.0997 
N1392 X-185.787 Y0.499 Z5.210 A334.8223 
N1393 X-185.788 Y1.189 Z4.945 A335.9883 
N1394 X-185.788 Y1.900 Z4.689 A337.6008 
N1395 X-185.788 Y2.628 Z4.450 A339.6504 
N1396 X-185.787 Y3.371 Z4.235 A342.1295 
N1397 X-185.785 Y4.127 Z4.052 A344.8309 
N1398 X-185.782 Y4.892 Z3.906 A347.7196 
N1399 X-185.779 Y5.663 Z3.802 A350.6739 
N1400 X-185.775 Y6.437 Z3.742 A353.6532 
N1401 X-185.770 Y7.210 Z3.725 A356.6134 
N1402 X-185.764 Y7.980 Z3.751 A359.5122 
N1403 X-185.757 Y8.741 Z3.818 A2.3136 
N1404 X-185.749 Y9.491 Z3.922 A4.9923 
N1405 X-185.740 Y10.226 Z4.060 A7.5363 
N1406 X-185.729 Y10.942 Z4.227 A9.8213 
N1407 X-185.718 Y11.635 Z4.418 A11.8551 
N1408 X-185.707 Y12.301 Z4.626 A13.6455 
N1409 X-185.694 Y12.935 Z4.847 A15.1970 
N1410 X-185.681 Y13.534 Z5.073 A16.5060 
N1411 X-185.668 Y14.093 Z5.300 A17.6836 
N1412 X-185.655 Y14.609 Z5.521 A18.7255 
N1413 X-185.643 Y15.080 Z5.733 A19.6306 
N1414 X-185.631 Y15.505 Z5.932 A20.4025 
N1415 X-185.619 Y15.883 Z6.115 A21.0521 
N1416 X-185.609 Y16.215 Z6.278 A21.5949 
N1417 X-185.600 Y16.502 Z6.423 A22.0472 
N1418 X-185.592 Y16.747 Z6.548 A22.4233 
N1419 X-185.585 Y16.952 Z6.654 A22.7336 
N1420 X-185.579 Y17.122 Z6.743 A22.9855 
N1421 X-185.574 Y17.261 Z6.817 A23.1833 
N1422 X-185.570 Y17.372 Z6.876 A23.3277 
N1423 X-185.567 Y17.460 Z6.924 A23.3595 
N1424 X-185.564 Y17.529 Z6.963 A23.2536 
N1425 X-185.562 Y17.583 Z6.996 A22.8112 
N1426 X-185.558 Y17.623 Z7.025 A21.9221 
N1427 X-185.553 Y17.654 Z7.056 A20.0510 
N1428 X-185.546 Y17.679 Z7.091 A17.0722 
N1429 X-185.537 Y17.699 Z7.126 A13.5792 
N1430 X-185.528 Y17.715 Z7.159 A9.9966 
N1431 X-185.520 Y17.731 Z7.190 A6.4728 
N1432 X-185.514 Y17.746 Z7.217 A3.0814 
N1433 X-185.509 Y17.760 Z7.243 A359.8545 
N1434 X-185.504 Y17.774 Z7.265 A356.9450 
N1435 X-185.501 Y17.788 Z7.285 A354.3452 
N1436 X-185.498 Y17.801 Z7.302 A351.9017 
N1437 X-185.495 Y17.814 Z7.318 A349.6060 
N1438 X-185.493 Y17.827 Z7.333 A347.4441 
N1439 X-185.491 Y17.839 Z7.346 A345.4065 
N1440 X-185.489 Y17.852 Z7.358 A343.4790 
N1441 X-185.488 Y17.864 Z7.370 A341.6485 
N1442 X-185.487 Y17.875 Z7.380 A339.9052 
N1443 X-185.486 Y17.887 Z7.389 A338.2349 
N1444 X-185.485 Y17.899 Z7.398 A336.6297 
N1445 X-185.484 Y17.910 Z7.406 A335.0781 
N1446 X-185.483 Y17.921 Z7.414 A333.5701 
N1447 X-185.483 Y17.933 Z7.421 A332.0982 
N1448 X-185.483 Y17.944 Z7.428 A330.6518 
N1449 X-185.483 Y17.955 Z7.434 A329.2236 
N1450 X-185.483 Y17.967 Z7.440 A327.8052 
N1451 X-185.483 Y17.978 Z7.446 A326.3877 
N1452 X-185.483 Y17.990 Z7.452 A324.9649 
N1453 X-185.483 Y18.002 Z7.457 A323.5301 
N1454 X-185.484 Y18.015 Z7.462 A322.0752 
N1455 X-185.484 Y18.027 Z7.466 A320.5967 
N1456 X-185.485 Y18.041 Z7.471 A319.0848 
N1457 X-185.486 Y18.054 Z7.475 A317.5388 
N1458 X-185.487 Y18.068 Z7.479 A315.9490 
N1459 X-185.488 Y18.083 Z7.482 A314.3153 
N1460 X-185.489 Y18.098 Z7.485 A312.6309 
N1461 X-185.491 Y18.114 Z7.488 A310.8922 
N1462 X-185.493 Y18.131 Z7.490 A309.0971 
N1463 X-185.495 Y18.148 Z7.492 A307.2401 
N1464 X-185.497 Y18.166 Z7.494 A305.3194 
N1465 X-185.500 Y18.184 Z7.494 A303.3335 
N1466 X-185.503 Y18.203 Z7.494 A301.2797 
N1467 X-185.506 Y18.223 Z7.494 A299.1555 
N1468 X-185.510 Y18.243 Z7.492 A296.9584 
N1469 X-185.514 Y18.264 Z7.490 A294.6866 
N1470 X-185.518 Y18.286 Z7.487 A292.3395 
N1471 X-185.523 Y18.308 Z7.482 A289.9171 
N1472 X-185.528 Y18.331 Z7.477 A287.4196 
N1473 X-185.534 Y18.354 Z7.470 A284.8468 
N1474 X-185.540 Y18.377 Z7.463 A282.2003 
N1475 X-185.547 Y18.400 Z7.454 A279.4835 
N1476 X-185.554 Y18.424 Z7.443 A276.7000 
N1477 X-185.561 Y18.447 Z7.432 A273.8547 
N1478 X-185.569 Y18.471 Z7.419 A270.9533 
N1479 X-185.577 Y18.494 Z7.405 A268.0016 
N1480 X-185.585 Y18.516 Z7.389 A265.0042 
N1481 X-185.594 Y18.539 Z7.373 A261.9630 
N1482 X-185.603 Y18.560 Z7.355 A258.8753 
N1483 X-185.612 Y18.581 Z7.336 A255.7322 
N1484 X-185.621 Y18.601 Z7.315 A252.5197 
N1485 X-185.630 Y18.621 Z7.293 A249.2196 
N1486 X-185.640 Y18.640 Z7.269 A245.8105 
N1487 X-185.649 Y18.658 Z7.242 A242.2721 
N1488 X-185.660 Y18.675 Z7.212 A238.4555 
N1489 X-185.671 Y18.691 Z7.178 A234.3496 
N1490 X-185.684 Y18.704 Z7.138 A229.9918 
N1491 X-185.698 Y18.713 Z7.091 A225.1589 
N1492 X-185.710 Y18.712 Z7.037 A220.3092 
N1493 X-185.718 Y18.696 Z6.988 A217.0277 
N1494 X-185.722 Y18.663 Z6.943 A215.4090 
N1495 X-185.724 Y18.615 Z6.898 A214.8456 
N1496 X-185.725 Y18.551 Z6.843 A214.6820 
N1497 X-185.726 Y18.465 Z6.771 A214.5911 
N1498 X-185.728 Y18.355 Z6.679 A214.5135 
N1499 X-185.729 Y18.213 Z6.562 A214.4401 
N1500 X-185.731 Y18.035 Z6.415 A214.3625 
N1501 X-185.734 Y17.813 Z6.232 A214.2734 
N1502 X-185.736 Y17.543 Z6.009 A214.1654 
N1503 X-185.739 Y17.220 Z5.743 A214.0300 
N1504 X-185.742 Y16.838 Z5.430 A213.8573 
N1505 X-185.746 Y16.396 Z5.069 A213.6356 
N1506 X-185.748 Y15.892 Z4.660 A213.3524 
N1507 X-185.751 Y15.326 Z4.204 A212.9955 
N1508 X-185.752 Y14.703 Z3.707 A212.5531 
N1509 X-185.753 Y14.025 Z3.175 A212.0138 
N1510 X-185.751 Y13.300 Z2.615 A211.3666 
N1511 X-185.748 Y12.536 Z2.038 A210.6019 
N1512 X-185.743 Y11.740 Z1.455 A209.7154 
N1513 X-185.735 Y10.924 Z0.876 A208.5997 
N1514 X-185.724 Y10.096 Z0.313 A207.2584 
N1515 X-185.711 Y9.266 Z-0.222 A205.6891 
N1516 X-185.696 Y8.444 Z-0.722 A203.8865 
N1517 X-185.679 Y7.638 Z-1.179 A201.8440 
N1518 X-185.659 Y6.855 Z-1.588 A199.5545 
N1519 X-185.638 Y6.102 Z-1.944 A197.0171 
N1520 X-185.616 Y5.381 Z-2.248 A194.2403 
N1521 X-185.592 Y4.698 Z-2.499 A191.3447 
N1522 X-185.568 Y4.054 Z-2.701 A188.3384 
N1523 X-185.544 Y3.448 Z-2.857 A185.2342 
N1524 X-185.520 Y2.881 Z-2.971 A182.0491 
N1525 X-185.497 Y2.350 Z-3.049 A178.8025 
N1526 X-185.473 Y1.852 Z-3.094 A175.5142 
N1527 X-185.451 Y1.385 Z-3.110 A172.2030 
N1528 X-185.429 Y0.943 Z-3.100 A168.8855 
N1529 X-185.407 Y0.525 Z-3.067 A165.5761 
N1530 X-185.387 Y0.126 Z-3.013 A162.2864 
N1531 X-185.367 Y-0.255 Z-2.939 A159.0260 
N1532 X-185.348 Y-0.623 Z-2.846 A155.8028 
N1533 X-185.329 Y-0.980 Z-2.734 A152.6237 
N1534 X-185.311 Y-1.326 Z-2.603 A149.4956 
N1535 X-185.294 Y-1.664 Z-2.454 A146.4249 
N1536 X-185.277 Y-1.994 Z-2.286 A143.4182 
N1537 X-185.261 Y-2.316 Z-2.098 A140.4820 
N1538 X-185.246 Y-2.632 Z-1.891 A137.6231 
N1539 X-185.231 Y-2.941 Z-1.665 A134.8480 
N1540 X-185.217 Y-3.243 Z-1.420 A132.1624 
N1541 X-185.204 Y-3.537 Z-1.156 A129.5711 
N1542 X-185.191 Y-3.822 Z-0.874 A127.0776 
N1543 X-185.178 Y-4.098 Z-0.576 A124.6840 
N1544 X-185.167 Y-4.365 Z-0.262 A122.3905 
N1545 X-185.154 Y-4.620 Z0.065 A120.1952 
N1546 X-185.133 Y-4.864 Z0.404 A118.0930 
N1547 X-185.100 Y-5.095 Z0.751 A116.0766 
N1548 X-185.057 Y-5.313 Z1.104 A114.1373 
N1549 X-185.004 Y-5.516 Z1.460 A112.2679 
N1550 X-184.944 Y-5.704 Z1.816 A110.4643 
N1551 X-184.877 Y-5.877 Z2.168 A108.7229 
N1552 X-184.804 Y-6.035 Z2.515 A107.0367 
N1553 X-184.727 Y-6.178 Z2.852 A105.3930 
N1554 X-184.646 Y-6.306 Z3.178 A103.7758 
N1555 X-184.563 Y-6.419 Z3.490 A102.1697 
N1556 X-184.478 Y-6.518 Z3.786 A100.5634 
N1557 X-184.392 Y-6.605 Z4.064 A98.9481 
N1558 X-184.307 Y-6.678 Z4.324 A97.3161 
N1559 X-184.223 Y-6.740 Z4.564 A95.6595 
N1560 X-184.140 Y-6.792 Z4.784 A93.9744 
N1561 X-184.060 Y-6.834 Z4.986 A92.2609 
N1562 X-183.984 Y-6.868 Z5.168 A90.5135 
N1563 X-183.911 Y-6.896 Z5.333 A88.7188 
N1564 X-183.840 Y-6.918 Z5.479 A86.8645 
N1565 X-183.771 Y-6.935 Z5.610 A84.9434 
N1566 X-183.705 Y-6.948 Z5.725 A82.9524 
N1567 X-183.641 Y-6.959 Z5.825 A80.8936 
N1568 X-183.579 Y-6.967 Z5.914 A78.7760 
N1569 X-183.521 Y-6.974 Z5.990 A76.6150 
N1570 X-183.466 Y-6.979 Z6.057 A74.4308 
N1571 X-183.416 Y-6.983 Z6.116 A72.2443 
N1572 X-183.370 Y-6.987 Z6.168 A70.0757 
N1573 X-183.328 Y-6.990 Z6.216 A67.9439 
N1574 X-183.291 Y-6.992 Z6.258 A65.8659 
N1575 X-183.259 Y-6.993 Z6.297 A63.8544 
N1576 X-183.230 Y-6.994 Z6.333 A61.9180 
N1577 X-183.206 Y-6.994 Z6.365 A60.0620 
N1578 X-183.185 Y-6.994 Z6.396 A58.2900 
N1579 X-183.168 Y-6.993 Z6.424 A56.6039 
N1580 X-183.153 Y-6.991 Z6.451 A55.0045 
N1581 X-183.142 Y-6.990 Z6.475 A53.4913 
N1582 X-183.132 Y-6.988 Z6.498 A52.0624 
N1583 X-183.124 Y-6.985 Z6.519 A50.7148 
N1584 X-183.118 Y-6.983 Z6.539 A49.4435 
N1585 X-183.114 Y-6.980 Z6.558 A48.2424 
N1586 X-183.110 Y-6.978 Z6.575 A47.1038 
N1587 X-183.107 Y-6.975 Z6.591 A46.0187 
N1588 X-183.105 Y-6.972 Z6.607 A44.9772 
N1589 X-183.104 Y-6.969 Z6.622 A43.9684 
N1590 X-183.103 Y-6.965 Z6.637 A42.9820 
N1591 X-183.103 Y-6.962 Z6.651 A42.0068 
N1592 X-183.104 Y-6.958 Z6.666 A41.0319 
N1593 X-183.105 Y-6.954 Z6.680 A40.0462 
N1594 X-183.106 Y-6.950 Z6.695 A39.0389 
N1595 X-183.109 Y-6.945 Z6.710 A37.9992 
N1596 X-183.112 Y-6.940 Z6.726 A36.9168 
N1597 X-183.116 Y-6.934 Z6.743 A35.7822 
N1598 X-183.122 Y-6.927 Z6.760 A34.5861 
N1599 X-183.129 Y-6.919 Z6.778 A33.3198 
N1600 X-183.137 Y-6.910 Z6.798 A31.9760 
N1601 X-183.148 Y-6.900 Z6.819 A30.5487 
N1602 X-183.161 Y-6.888 Z6.841 A29.0331 
N1603 X-183.177 Y-6.875 Z6.864 A27.4262 
N1604 X-183.195 Y-6.860 Z6.888 A25.7266 
N1605 X-183.217 Y-6.843 Z6.914 A23.9342 
N1606 X-183.243 Y-6.823 Z6.940 A22.0508 
N1607 X-183.272 Y-6.801 Z6.967 A20.0797 
N1608 X-183.305 Y-6.776 Z6.995 A18.0259 
N1609 X-183.342 Y-6.747 Z7.024 A15.8959 
N1610 X-183.383 Y-6.715 Z7.053 A13.6974 
N1611 X-183.429 Y-6.679 Z7.083 A11.4387 
N1612 X-183.479 Y-6.637 Z7.112 A9.1301 
N1613 X-183.534 Y-6.589 Z7.141 A6.7846 
N1614 X-183.593 Y-6.533 Z7.169 A4.4186 
N1615 X-183.655 Y-6.469 Z7.196 A2.0494 
N1616 X-183.722 Y-6.393 Z7.221 A359.6941 
N1617 X-183.791 Y-6.304 Z7.244 A357.3692 
N1618 X-183.862 Y-6.201 Z7.262 A355.0895 
N1619 X-183.937 Y-6.080 Z7.276 A352.8668 
N1620 X-184.014 Y-5.941 Z7.283 A350.7107 
N1621 X-184.094 Y-5.779 Z7.282 A348.6303 
N1622 X-184.176 Y-5.593 Z7.271 A346.6315 
N1623 X-184.260 Y-5.379 Z7.248 A344.7144 
N1624 X-184.348 Y-5.136 Z7.212 A342.8804 
N1625 X-184.438 Y-4.861 Z7.158 A341.1435 
N1626 X-184.527 Y-4.550 Z7.085 A339.5190 
N1627 X-184.616 Y-4.201 Z6.991 A338.0113 
N1628 X-184.701 Y-3.815 Z6.873 A336.7286 
N1629 X-184.782 Y-3.389 Z6.730 A335.6757 
N1630 X-184.857 Y-2.924 Z6.563 A334.8572 
N1631 X-184.925 Y-2.420 Z6.373 A334.2698 
N1632 X-184.983 Y-1.877 Z6.161 A333.9090 
N1633 X-185.030 Y-1.299 Z5.930 A333.7773 
N1634 X-185.064 Y-0.686 Z5.682 A333.8844 
N1635 X-185.083 Y-0.042 Z5.424 A334.2359 
N1636 X-185.088 Y0.629 Z5.159 A335.0385 
N1637 X-185.087 Y1.326 Z4.894 A336.2955 
N1638 X-185.086 Y2.046 Z4.639 A338.0087 
N1639 X-185.083 Y2.786 Z4.402 A340.1680 
N1640 X-185.080 Y3.545 Z4.189 A342.7643 
N1641 X-185.076 Y4.321 Z4.011 A345.5827 
N1642 X-185.070 Y5.110 Z3.872 A348.5822 
N1643 X-185.064 Y5.907 Z3.778 A351.6406 
N1644 X-185.057 Y6.709 Z3.731 A354.7144 
N1645 X-185.048 Y7.511 Z3.730 A357.7570 
N1646 X-185.038 Y8.308 Z3.775 A0.7250 
N1647 X-185.027 Y9.095 Z3.862 A3.5847 
N1648 X-185.014 Y9.867 Z3.988 A6.3161 
N1649 X-185.000 Y10.619 Z4.148 A8.7884 
N1650 X-184.985 Y11.347 Z4.335 A11.0023 
N1651 X-184.969 Y12.046 Z4.544 A12.9647 
N1652 X-184.952 Y12.711 Z4.766 A14.6869 
N1653 X-184.935 Y13.339 Z4.997 A16.1805 
N1654 X-184.917 Y13.924 Z5.229 A17.4532 
N1655 X-184.900 Y14.464 Z5.458 A18.5022 
N1656 X-184.883 Y14.957 Z5.677 A19.4276 
N1657 X-184.867 Y15.401 Z5.883 A20.2256 
N1658 X-184.851 Y15.796 Z6.072 A20.9014 
N1659 X-184.837 Y16.143 Z6.243 A21.4680 
N1660 X-184.825 Y16.443 Z6.393 A21.9404 
N1661 X-184.814 Y16.698 Z6.523 A22.3328 
N1662 X-184.805 Y16.913 Z6.634 A22.6558 
N1663 X-184.797 Y17.091 Z6.727 A22.9172 
N1664 X-184.790 Y17.236 Z6.804 A23.1211 
N1665 X-184.785 Y17.352 Z6.866 A23.2682 
N1666 X-184.781 Y17.445 Z6.916 A23.3548 
N1667 X-184.777 Y17.517 Z6.956 A23.3096 
N1668 X-184.774 Y17.573 Z6.989 A22.9597 
N1669 X-184.769 Y17.616 Z7.019 A22.2115 
N1670 X-184.763 Y17.648 Z7.049 A20.5761 
N1671 X-184.754 Y17.674 Z7.082 A17.9158 
N1672 X-184.743 Y17.693 Z7.115 A14.7712 
N1673 X-184.732 Y17.709 Z7.146 A11.5403 
N1674 X-184.723 Y17.723 Z7.174 A8.3604 
N1675 X-184.715 Y17.736 Z7.199 A5.2976 
N1676 X-184.708 Y17.749 Z7.223 A2.3860 
N1677 X-184.702 Y17.761 Z7.245 A359.6309 
N1678 X-184.697 Y17.774 Z7.265 A357.0306 
N1679 X-184.693 Y17.786 Z7.283 A354.5785 
N1680 X-184.689 Y17.799 Z7.300 A352.2635 
N1681 X-184.685 Y17.811 Z7.315 A350.0735 
N1682 X-184.682 Y17.823 Z7.329 A347.9986 
N1683 X-184.680 Y17.835 Z7.342 A346.0316 
N1684 X-184.678 Y17.847 Z7.354 A344.1719 
N1685 X-184.676 Y17.859 Z7.365 A342.4062 
N1686 X-184.674 Y17.870 Z7.375 A340.7308 
N1687 X-184.672 Y17.881 Z7.384 A339.1359 
N1688 X-184.671 Y17.892 Z7.393 A337.6154 
N1689 X-184.670 Y17.902 Z7.401 A336.1579 
N1690 X-184.669 Y17.912 Z7.408 A334.7607 
N1691 X-184.669 Y17.923 Z7.415 A333.4085 
N1692 X-184.668 Y17.933 Z7.421 A332.0950 
N1693 X-184.668 Y17.943 Z7.427 A330.8109 
N1694 X-184.668 Y17.953 Z7.433 A329.5457 
N1695 X-184.668 Y17.963 Z7.438 A328.2911 
N1696 X-184.668 Y17.973 Z7.443 A327.0395 
N1697 X-184.668 Y17.983 Z7.448 A325.7816 
N1698 X-184.668 Y17.994 Z7.453 A324.5064 
N1699 X-184.668 Y18.005 Z7.458 A323.2102 
N1700 X-184.669 Y18.016 Z7.462 A321.8824 
N1701 X-184.670 Y18.028 Z7.467 A320.5163 
N1702 X-184.670 Y18.040 Z7.471 A319.1056 
N1703 X-184.671 Y18.053 Z7.475 A317.6387 
N1704 X-184.673 Y18.067 Z7.478 A316.1129 
N1705 X-184.674 Y18.081 Z7.482 A314.5174 
N1706 X-184.676 Y18.096 Z7.485 A312.8494 
N1707 X-184.678 Y18.112 Z7.488 A311.1033 
N1708 X-184.680 Y18.129 Z7.490 A309.2696 
N1709 X-184.683 Y18.146 Z7.492 A307.3476 
N1710 X-184.686 Y18.165 Z7.494 A305.3325 
N1711 X-184.690 Y18.185 Z7.495 A303.2187 
N1712 X-184.694 Y18.205 Z7.495 A301.0021 
N1713 X-184.699 Y18.227 Z7.494 A298.6806 
N1714 X-184.705 Y18.250 Z7.492 A296.2542 
N1715 X-184.711 Y18.273 Z7.489 A293.7245 
N1716 X-184.718 Y18.297 Z7.485 A291.0908 
N1717 X-184.725 Y18.322 Z7.479 A288.3544 
N1718 X-184.733 Y18.347 Z7.472 A285.5198 
N1719 X-184.742 Y18.373 Z7.464 A282.5913 
N1720 X-184.752 Y18.399 Z7.454 A279.5749 
N1721 X-184.763 Y18.426 Z7.443 A276.4788 
N1722 X-184.774 Y18.452 Z7.429 A273.3127 
N1723 X-184.785 Y18.478 Z7.415 A270.0865 
N1724 X-184.798 Y18.503 Z7.399 A266.8098 
N1725 X-184.810 Y18.528 Z7.381 A263.4899 
N1726 X-184.823 Y18.551 Z7.362 A260.1293 
N1727 X-184.836 Y18.575 Z7.342 A256.7233 
N1728 X-184.849 Y18.597 Z7.320 A253.2604 
N1729 X-184.863 Y18.618 Z7.296 A249.7243 
N1730 X-184.876 Y18.638 Z7.271 A246.0931 
N1731 X-184.890 Y18.657 Z7.243 A242.3418 
N1732 X-184.904 Y18.675 Z7.212 A238.4474 
N1733 X-184.919 Y18.691 Z7.178 A234.3989 
N1734 X-184.935 Y18.704 Z7.140 A230.2148 
N1735 X-184.954 Y18.713 Z7.094 A225.5032 
N1736 X-184.970 Y18.713 Z7.040 A220.5311 
N1737 X-184.982 Y18.696 Z6.988 A217.0275 
N1738 X-184.988 Y18.661 Z6.941 A215.3529 
N1739 X-184.991 Y18.610 Z6.893 A214.8137 
N1740 X-184.993 Y18.542 Z6.835 A214.6618 
N1741 X-184.995 Y18.453 Z6.761 A214.5753 
N1742 X-184.998 Y18.338 Z6.666 A214.4998 
N1743 X-185.001 Y18.191 Z6.544 A214.4267 
N1744 X-185.005 Y18.007 Z6.392 A214.3480 
N1745 X-185.010 Y17.779 Z6.204 A214.2564 
N1746 X-185.016 Y17.502 Z5.975 A214.1447 
N1747 X-185.023 Y17.169 Z5.702 A214.0043 
N1748 X-185.030 Y16.779 Z5.382 A213.8253 
N1749 X-185.038 Y16.327 Z5.013 A213.5959 
N1750 X-185.046 Y15.812 Z4.595 A213.3041 
N1751 X-185.053 Y15.237 Z4.132 A212.9383 
N1752 X-185.060 Y14.602 Z3.628 A212.4875 
N1753 X-185.065 Y13.914 Z3.088 A211.9419 
N1754 X-185.069 Y13.179 Z2.523 A211.2927 
N1755 X-185.070 Y12.405 Z1.941 A210.5340 
N1756 X-185.068 Y11.600 Z1.354 A209.5612 
N1757 X-185.063 Y10.774 Z0.773 A208.3727 
N1758 X-185.055 Y9.938 Z0.209 A206.9629 
N1759 X-185.043 Y9.101 Z-0.326 A205.3239 
N1760 X-185.029 Y8.272 Z-0.823 A203.4473 
N1761 X-185.011 Y7.459 Z-1.276 A201.3252 
N1762 X-184.990 Y6.670 Z-1.679 A198.9522 
N1763 X-184.967 Y5.910 Z-2.029 A196.3341 
N1764 X-184.942 Y5.184 Z-2.324 A193.4895 
N1765 X-184.916 Y4.496 Z-2.566 A190.4343 
N1766 X-184.888 Y3.845 Z-2.759 A187.2747 
N1767 X-184.860 Y3.234 Z-2.904 A184.0200 
N1768 X-184.833 Y2.661 Z-3.008 A180.6858 
N1769 X-184.805 Y2.123 Z-3.073 A177.2914 
N1770 X-184.778 Y1.619 Z-3.105 A173.8574 
N1771 X-184.751 Y1.144 Z-3.108 A170.4038 
N1772 X-184.725 Y0.696 Z-3.084 A166.9492 
N1773 X-184.701 Y0.270 Z-3.035 A163.5098 
N1774 X-184.677 Y-0.135 Z-2.965 A160.0995 
N1775 X-184.654 Y-0.525 Z-2.873 A156.7299 
N1776 X-184.632 Y-0.899 Z-2.761 A153.4112 
N1777 X-184.611 Y-1.262 Z-2.629 A150.1526 
N1778 X-184.590 Y-1.614 Z-2.477 A146.9626 
N1779 X-184.571 Y-1.956 Z-2.305 A143.8492 
N1780 X-184.553 Y-2.289 Z-2.114 A140.8198 
N1781 X-184.536 Y-2.614 Z-1.903 A137.8813 
N1782 X-184.520 Y-2.929 Z-1.674 A135.0401 
N1783 X-184.505 Y-3.236 Z-1.425 A132.3015 
N1784 X-184.490 Y-3.534 Z-1.158 A129.6693 
N1785 X-184.477 Y-3.822 Z-0.874 A127.1458 
N1786 X-184.464 Y-4.100 Z-0.574 A124.7317 
N1787 X-184.453 Y-4.366 Z-0.259 A122.4259 
N1788 X-184.439 Y-4.622 Z0.068 A120.2250 
N1789 X-184.415 Y-4.865 Z0.406 A118.1230 
N1790 X-184.376 Y-5.095 Z0.751 A116.1113 
N1791 X-184.324 Y-5.311 Z1.101 A114.1804 
N1792 X-184.261 Y-5.512 Z1.453 A112.3223 
N1793 X-184.187 Y-5.699 Z1.805 A110.5320 
N1794 X-184.105 Y-5.870 Z2.153 A108.8050 
N1795 X-184.016 Y-6.026 Z2.496 A107.1339 
N1796 X-183.921 Y-6.168 Z2.829 A105.5060 
N1797 X-183.822 Y-6.296 Z3.152 A103.9052 
N1798 X-183.719 Y-6.409 Z3.461 A102.3158 
N1799 X-183.614 Y-6.509 Z3.755 A100.7260 
N1800 X-183.507 Y-6.595 Z4.032 A99.1265 
N1801 X-183.401 Y-6.670 Z4.291 A97.5091 
N1802 X-183.295 Y-6.733 Z4.532 A95.8656 
N1803 X-183.191 Y-6.785 Z4.754 A94.1908 
N1804 X-183.090 Y-6.829 Z4.958 A92.4840 
N1805 X-182.993 Y-6.864 Z5.143 A90.7408 
N1806 X-182.899 Y-6.893 Z5.311 A88.9491 
N1807 X-182.808 Y-6.915 Z5.461 A87.0966 
N1808 X-182.720 Y-6.933 Z5.594 A85.1766 
N1809 X-182.634 Y-6.947 Z5.712 A83.1872 
N1810 X-182.552 Y-6.958 Z5.815 A81.1318 
N1811 X-182.473 Y-6.966 Z5.905 A79.0203 
N1812 X-182.399 Y-6.973 Z5.983 A76.8689 
N1813 X-182.329 Y-6.978 Z6.050 A74.6980 
N1814 X-182.264 Y-6.983 Z6.110 A72.5286 
N1815 X-182.206 Y-6.986 Z6.162 A70.3803 
N1816 X-182.153 Y-6.989 Z6.209 A68.2717 
N1817 X-182.106 Y-6.991 Z6.251 A66.2189 
N1818 X-182.064 Y-6.993 Z6.290 A64.2344 
N1819 X-182.027 Y-6.994 Z6.325 A62.3261 
N1820 X-181.996 Y-6.994 Z6.358 A60.4986 
N1821 X-181.969 Y-6.994 Z6.388 A58.7541 
N1822 X-181.947 Y-6.993 Z6.416 A57.0958 
N1823 X-181.928 Y-6.992 Z6.442 A55.5245 
N1824 X-181.912 Y-6.990 Z6.467 A54.0413 
N1825 X-181.900 Y-6.988 Z6.489 A52.6448 
N1826 X-181.890 Y-6.986 Z6.510 A51.3342 
N1827 X-181.882 Y-6.984 Z6.529 A50.1058 
N1828 X-181.876 Y-6.982 Z6.547 A48.9562 
N1829 X-181.871 Y-6.979 Z6.563 A47.8783 
N1830 X-181.867 Y-6.977 Z6.579 A46.8646 
N1831 X-181.864 Y-6.974 Z6.593 A45.9069 
N1832 X-181.862 Y-6.972 Z6.607 A44.9943 
N1833 X-181.861 Y-6.969 Z6.620 A44.1181 
N1834 X-181.860 Y-6.966 Z6.633 A43.2670 
N1835 X-181.860 Y-6.964 Z6.645 A42.4310 
N1836 X-181.860 Y-6.961 Z6.657 A41.5998 
N1837 X-181.860 Y-6.957 Z6.669 A40.7628 
N1838 X-181.861 Y-6.954 Z6.682 A39.9096 
N1839 X-181.863 Y-6.950 Z6.695 A39.0288 
N1840 X-181.866 Y-6.946 Z6.708 A38.1110 
N1841 X-181.869 Y-6.941 Z6.722 A37.1448 
N1842 X-181.874 Y-6.936 Z6.737 A36.1215 
N1843 X-181.880 Y-6.930 Z6.753 A35.0314 
N1844 X-181.887 Y-6.923 Z6.770 A33.8661 
N1845 X-181.897 Y-6.915 Z6.788 A32.6179 
N1846 X-181.909 Y-6.906 Z6.808 A31.2802 
N1847 X-181.923 Y-6.895 Z6.829 A29.8480 
N1848 X-181.941 Y-6.883 Z6.851 A28.3183 
N1849 X-181.963 Y-6.869 Z6.874 A26.6894 
N1850 X-181.988 Y-6.853 Z6.899 A24.9607 
N1851 X-182.018 Y-6.835 Z6.925 A23.1342 
N1852 X-182.053 Y-6.814 Z6.951 A21.2129 
N1853 X-182.093 Y-6.791 Z6.979 A19.2015 
N1854 X-182.138 Y-6.764 Z7.008 A17.1075 
N1855 X-182.188 Y-6.734 Z7.037 A14.9401 
N1856 X-182.244 Y-6.699 Z7.066 A12.7087 
N1857 X-182.306 Y-6.660 Z7.096 A10.4244 
N1858 X-182.373 Y-6.616 Z7.125 A8.0995 
N1859 X-182.445 Y-6.565 Z7.153 A5.7497 
N1860 X-182.522 Y-6.506 Z7.181 A3.3924 
N1861 X-182.604 Y-6.437 Z7.207 A1.0449 
N1862 X-182.689 Y-6.356 Z7.231 A358.7238 
N1863 X-182.778 Y-6.263 Z7.252 A356.4452 
N1864 X-182.870 Y-6.154 Z7.268 A354.2220 
N1865 X-182.965 Y-6.029 Z7.279 A352.0648 
N1866 X-183.063 Y-5.885 Z7.283 A349.9818 
N1867 X-183.163 Y-5.720 Z7.279 A347.9800 
N1868 X-183.264 Y-5.532 Z7.265 A346.0621 
N1869 X-183.370 Y-5.318 Z7.240 A344.2258 
N1870 X-183.479 Y-5.077 Z7.201 A342.4736 
N1871 X-183.589 Y-4.806 Z7.146 A340.8189 
N1872 X-183.698 Y-4.501 Z7.073 A339.2733 
N1873 X-183.806 Y-4.162 Z6.979 A337.8388 
N1874 X-183.911 Y-3.786 Z6.864 A336.6169 
N1875 X-184.009 Y-3.373 Z6.725 A335.6109 
N1876 X-184.101 Y-2.922 Z6.563 A334.8243 
N1877 X-184.184 Y-2.433 Z6.378 A334.2543 
N1878 X-184.255 Y-1.907 Z6.173 A333.8971 
N1879 X-184.313 Y-1.345 Z5.948 A333.7555 
N1880 X-184.355 Y-0.748 Z5.707 A333.8393 
N1881 X-184.380 Y-0.119 Z5.455 A334.1547 
N1882 X-184.386 Y0.538 Z5.194 A334.9025 
N1883 X-184.382 Y1.223 Z4.933 A336.0925 
N1884 X-184.377 Y1.932 Z4.678 A337.7357 
N1885 X-184.369 Y2.666 Z4.438 A339.8324 
N1886 X-184.360 Y3.421 Z4.221 A342.3844 
N1887 X-184.348 Y4.196 Z4.037 A345.1756 
N1888 X-184.333 Y4.987 Z3.891 A348.1713 
N1889 X-184.317 Y5.791 Z3.789 A351.2398 
N1890 X-184.299 Y6.603 Z3.734 A354.3372 
N1891 X-184.278 Y7.416 Z3.727 A357.4151 
N1892 X-184.256 Y8.227 Z3.768 A0.4273 
N1893 X-184.234 Y9.028 Z3.853 A3.3365 
N1894 X-184.213 Y9.815 Z3.979 A6.1196 
N1895 X-184.194 Y10.582 Z4.140 A8.6428 
N1896 X-184.175 Y11.323 Z4.329 A10.9035 
N1897 X-184.157 Y12.034 Z4.540 A12.9079 
N1898 X-184.140 Y12.710 Z4.766 A14.6684 
N1899 X-184.123 Y13.346 Z5.000 A16.1996 
N1900 X-184.106 Y13.938 Z5.235 A17.5154 
N1901 X-184.090 Y14.483 Z5.465 A18.6225 
N1902 X-184.075 Y14.979 Z5.687 A19.5146 
N1903 X-184.060 Y15.425 Z5.894 A20.2896 
N1904 X-184.046 Y15.820 Z6.084 A20.9493 
N1905 X-184.033 Y16.165 Z6.254 A21.5043 
N1906 X-184.022 Y16.464 Z6.404 A21.9682 
N1907 X-184.012 Y16.717 Z6.533 A22.3539 
N1908 X-184.003 Y16.929 Z6.643 A22.6713 
N1909 X-183.996 Y17.104 Z6.734 A22.9272 
N1910 X-183.990 Y17.247 Z6.810 A23.1257 
N1911 X-183.986 Y17.361 Z6.870 A23.2667 
N1912 X-183.982 Y17.451 Z6.919 A23.3464 
N1913 X-183.979 Y17.521 Z6.958 A23.2923 
N1914 X-183.975 Y17.576 Z6.991 A22.9318 
N1915 X-183.971 Y17.617 Z7.020 A22.1785 
N1916 X-183.963 Y17.649 Z7.049 A20.5764 
N1917 X-183.953 Y17.674 Z7.081 A18.0496 
N1918 X-183.940 Y17.692 Z7.112 A15.1450 
N1919 X-183.928 Y17.706 Z7.140 A12.1869 
N1920 X-183.917 Y17.719 Z7.166 A9.2772 
N1921 X-183.908 Y17.731 Z7.190 A6.4613 
N1922 X-183.900 Y17.742 Z7.212 A3.7580 
N1923 X-183.893 Y17.754 Z7.233 A1.1766 
N1924 X-183.887 Y17.765 Z7.252 A358.7064 
N1925 X-183.881 Y17.777 Z7.270 A356.3415 
N1926 X-183.876 Y17.789 Z7.287 A354.0778 
N1927 X-183.872 Y17.800 Z7.302 A351.9121 
N1928 X-183.868 Y17.812 Z7.317 A349.8416 
N1929 X-183.864 Y17.824 Z7.330 A347.8642 
N1930 X-183.861 Y17.836 Z7.343 A345.9797 
N1931 X-183.858 Y17.847 Z7.354 A344.1915 
N1932 X-183.856 Y17.858 Z7.364 A342.4958 
N1933 X-183.854 Y17.869 Z7.374 A340.8872 
N1934 X-183.852 Y17.879 Z7.383 A339.3682 
N1935 X-183.851 Y17.889 Z7.391 A337.9254 
N1936 X-183.849 Y17.899 Z7.399 A336.5569 
N1937 X-183.848 Y17.909 Z7.405 A335.2514 
N1938 X-183.848 Y17.918 Z7.412 A333.9988 
N1939 X-183.847 Y17.927 Z7.418 A332.7998 
N1940 X-183.847 Y17.936 Z7.423 A331.6367 
N1941 X-183.846 Y17.945 Z7.429 A330.4993 
N1942 X-183.846 Y17.954 Z7.434 A329.3820 
N1943 X-183.846 Y17.963 Z7.438 A328.2741 
N1944 X-183.846 Y17.972 Z7.443 A327.1657 
N1945 X-183.846 Y17.981 Z7.447 A326.0449 
N1946 X-183.846 Y17.990 Z7.452 A324.9062 
N1947 X-183.847 Y18.000 Z7.456 A323.7417 
N1948 X-183.847 Y18.010 Z7.460 A322.5362 
N1949 X-183.848 Y18.021 Z7.464 A321.2858 
N1950 X-183.849 Y18.032 Z7.468 A319.9817 
N1951 X-183.850 Y18.044 Z7.472 A318.6085 
N1952 X-183.851 Y18.057 Z7.476 A317.1636 
N1953 X-183.853 Y18.071 Z7.480 A315.6285 
N1954 X-183.855 Y18.085 Z7.483 A314.0032 
N1955 X-183.858 Y18.101 Z7.486 A312.2767 
N1956 X-183.860 Y18.118 Z7.489 A310.4401 
N1957 X-183.864 Y18.136 Z7.492 A308.4902 
N1958 X-183.868 Y18.155 Z7.494 A306.4213 
N1959 X-183.872 Y18.175 Z7.495 A304.2282 
N1960 X-183.878 Y18.197 Z7.495 A301.9083 
N1961 X-183.884 Y18.220 Z7.495 A299.4603 
N1962 X-183.891 Y18.244 Z7.493 A296.8803 
N1963 X-183.899 Y18.269 Z7.490 A294.1728 
N1964 X-183.909 Y18.295 Z7.486 A291.3374 
N1965 X-183.919 Y18.322 Z7.480 A288.3821 
N1966 X-183.930 Y18.349 Z7.472 A285.3136 
N1967 X-183.943 Y18.377 Z7.463 A282.1390 
N1968 X-183.957 Y18.406 Z7.452 A278.8665 
N1969 X-183.971 Y18.434 Z7.439 A275.5110 
N1970 X-183.987 Y18.462 Z7.424 A272.0836 
N1971 X-184.003 Y18.489 Z7.408 A268.5985 
N1972 X-184.020 Y18.516 Z7.390 A265.0677 
N1973 X-184.037 Y18.542 Z7.370 A261.4989 
N1974 X-184.055 Y18.567 Z7.349 A257.8922 
N1975 X-184.073 Y18.591 Z7.326 A254.2403 
N1976 X-184.091 Y18.613 Z7.302 A250.5305 
N1977 X-184.108 Y18.635 Z7.275 A246.7452 
N1978 X-184.126 Y18.655 Z7.247 A242.8634 
N1979 X-184.145 Y18.673 Z7.215 A238.8638 
N1980 X-184.164 Y18.690 Z7.181 A234.7319 
N1981 X-184.185 Y18.703 Z7.143 A230.4741 
N1982 X-184.207 Y18.712 Z7.098 A225.8933 
N1983 X-184.230 Y18.713 Z7.043 A220.7983 
N1984 X-184.245 Y18.696 Z6.988 A217.0276 
N1985 X-184.253 Y18.663 Z6.943 A215.3990 
N1986 X-184.258 Y18.614 Z6.897 A214.8409 
N1987 X-184.262 Y18.549 Z6.842 A214.6797 
N1988 X-184.267 Y18.464 Z6.770 A214.5895 
N1989 X-184.273 Y18.354 Z6.679 A214.5122 
N1990 X-184.280 Y18.212 Z6.562 A214.4388 
N1991 X-184.288 Y18.034 Z6.414 A214.3611 
N1992 X-184.299 Y17.814 Z6.232 A214.2718 
N1993 X-184.312 Y17.544 Z6.010 A214.1637 
N1994 X-184.327 Y17.221 Z5.744 A214.0284 
N1995 X-184.344 Y16.839 Z5.431 A213.8563 
N1996 X-184.362 Y16.397 Z5.070 A213.6358 
N1997 X-184.382 Y15.892 Z4.660 A213.3550 
N1998 X-184.402 Y15.326 Z4.204 A213.0021 
N1999 X-184.423 Y14.700 Z3.705 A212.5664 
N2000 X-184.443 Y14.020 Z3.171 A212.0380 
N2001 X-184.461 Y13.291 Z2.608 A211.4085 
N2002 X-184.477 Y12.522 Z2.028 A210.6718 
N2003 X-184.490 Y11.720 Z1.440 A209.7241 
N2004 X-184.500 Y10.897 Z0.857 A208.5626 
N2005 X-184.505 Y10.060 Z0.290 A207.1809 
N2006 X-184.505 Y9.221 Z-0.251 A205.5701 
N2007 X-184.503 Y8.388 Z-0.755 A203.7211 
N2008 X-184.496 Y7.571 Z-1.216 A201.6250 
N2009 X-184.484 Y6.775 Z-1.628 A199.2746 
N2010 X-184.470 Y6.008 Z-1.986 A196.6724 
N2011 X-184.452 Y5.274 Z-2.290 A193.8349 
N2012 X-184.432 Y4.576 Z-2.540 A190.7769 
N2013 X-184.410 Y3.916 Z-2.740 A187.6090 
N2014 X-184.387 Y3.296 Z-2.891 A184.3401 
N2015 X-184.363 Y2.714 Z-3.000 A180.9857 
N2016 X-184.338 Y2.168 Z-3.069 A177.5657 
N2017 X-184.314 Y1.655 Z-3.104 A174.1016 
N2018 X-184.290 Y1.173 Z-3.109 A170.6146 
N2019 X-184.267 Y0.718 Z-3.086 A167.1247 
N2020 X-184.244 Y0.286 Z-3.038 A163.6495 
N2021 X-184.222 Y-0.125 Z-2.967 A160.2044 
N2022 X-184.202 Y-0.518 Z-2.874 A156.8021 
N2023 X-184.182 Y-0.897 Z-2.761 A153.4539 
N2024 X-184.164 Y-1.263 Z-2.628 A150.1698 
N2025 X-184.147 Y-1.617 Z-2.475 A146.9590 
N2026 X-184.130 Y-1.961 Z-2.302 A143.8298 
N2027 X-184.115 Y-2.295 Z-2.110 A140.7898 
N2028 X-184.102 Y-2.620 Z-1.899 A137.8458 
N2029 X-184.089 Y-2.936 Z-1.668 A135.0040 
N2030 X-184.078 Y-3.242 Z-1.420 A132.2691 
N2031 X-184.068 Y-3.539 Z-1.153 A129.6445 
N2032 X-184.059 Y-3.825 Z-0.871 A127.1318 
N2033 X-184.050 Y-4.101 Z-0.572 A124.7309 
N2034 X-184.044 Y-4.365 Z-0.260 A122.4402 
N2035 X-184.035 Y-4.618 Z0.064 A120.2554 
N2036 X-184.014 Y-4.859 Z0.398 A118.1702 
N2037 X-183.977 Y-5.087 Z0.739 A116.1758 
N2038 X-183.926 Y-5.301 Z1.085 A114.2622 
N2039 X-183.863 Y-5.501 Z1.433 A112.4213 
N2040 X-183.788 Y-5.686 Z1.781 A110.6477 
N2041 X-183.704 Y-5.857 Z2.125 A108.9370 
N2042 X-183.612 Y-6.012 Z2.464 A107.2819 
N2043 X-183.514 Y-6.154 Z2.794 A105.6701 
N2044 X-183.412 Y-6.281 Z3.114 A104.0860 
N2045 X-183.305 Y-6.395 Z3.422 A102.5139 
N2046 X-183.194 Y-6.495 Z3.715 A100.9415 
N2047 X-183.082 Y-6.583 Z3.991 A99.3593 
N2048 X-182.970 Y-6.659 Z4.251 A97.7592 
N2049 X-182.859 Y-6.723 Z4.493 A96.1327 
N2050 X-182.748 Y-6.777 Z4.717 A94.4740 
N2051 X-182.641 Y-6.822 Z4.923 A92.7819 
N2052 X-182.537 Y-6.858 Z5.111 A91.0532 
N2053 X-182.437 Y-6.888 Z5.281 A89.2771 
N2054 X-182.339 Y-6.911 Z5.434 A87.4409 
N2055 X-182.244 Y-6.930 Z5.571 A85.5376 
N2056 X-182.153 Y-6.945 Z5.692 A83.5648 
N2057 X-182.064 Y-6.956 Z5.797 A81.5255 
N2058 X-181.979 Y-6.965 Z5.889 A79.4289 
N2059 X-181.898 Y-6.972 Z5.969 A77.2906 
N2060 X-181.823 Y-6.977 Z6.038 A75.1305 
N2061 X-181.753 Y-6.982 Z6.098 A72.9697 
N2062 X-181.689 Y-6.986 Z6.152 A70.8280 
N2063 X-181.631 Y-6.989 Z6.199 A68.7240 
N2064 X-181.580 Y-6.991 Z6.242 A66.6745 
N2065 X-181.534 Y-6.993 Z6.281 A64.6927 
N2066 X-181.494 Y-6.994 Z6.317 A62.7865 
N2067 X-181.460 Y-6.994 Z6.350 A60.9604 
N2068 X-181.430 Y-6.994 Z6.380 A59.2174 
N2069 X-181.405 Y-6.993 Z6.408 A57.5594 
N2070 X-181.384 Y-6.992 Z6.435 A55.9882 
N2071 X-181.367 Y-6.991 Z6.459 A54.5045 
N2072 X-181.353 Y-6.989 Z6.482 A53.1085 
N2073 X-181.342 Y-6.987 Z6.503 A51.7994 
N2074 X-181.333 Y-6.985 Z6.522 A50.5752 
N2075 X-181.326 Y-6.983 Z6.540 A49.4320 
N2076 X-181.321 Y-6.980 Z6.556 A48.3644 
N2077 X-181.317 Y-6.978 Z6.571 A47.3651 
N2078 X-181.314 Y-6.976 Z6.585 A46.4263 
N2079 X-181.311 Y-6.973 Z6.599 A45.5386 
N2080 X-181.310 Y-6.971 Z6.611 A44.6924 
N2081 X-181.309 Y-6.968 Z6.623 A43.8773 
N2082 X-181.308 Y-6.966 Z6.635 A43.0837 
N2083 X-181.308 Y-6.963 Z6.647 A42.3012 
N2084 X-181.308 Y-6.960 Z6.658 A41.5197 
N2085 X-181.309 Y-6.957 Z6.670 A40.7290 
N2086 X-181.310 Y-6.954 Z6.682 A39.9186 
N2087 X-181.312 Y-6.951 Z6.694 A39.0778 
N2088 X-181.315 Y-6.947 Z6.707 A38.1964 
N2089 X-181.319 Y-6.942 Z6.720 A37.2637 
N2090 X-181.323 Y-6.937 Z6.735 A36.2705 
N2091 X-181.330 Y-6.931 Z6.750 A35.2070 
N2092 X-181.338 Y-6.924 Z6.767 A34.0647 
N2093 X-181.348 Y-6.917 Z6.785 A32.8363 
N2094 X-181.361 Y-6.908 Z6.804 A31.5156 
N2095 X-181.377 Y-6.897 Z6.825 A30.0981 
N2096 X-181.397 Y-6.885 Z6.847 A28.5804 
N2097 X-181.421 Y-6.872 Z6.870 A26.9610 
N2098 X-181.449 Y-6.856 Z6.895 A25.2397 
N2099 X-181.482 Y-6.838 Z6.920 A23.4177 
N2100 X-181.520 Y-6.818 Z6.947 A21.4980 
N2101 X-181.564 Y-6.794 Z6.975 A19.4857 
N2102 X-181.615 Y-6.768 Z7.004 A17.3883 
N2103 X-181.671 Y-6.738 Z7.033 A15.2152 
N2104 X-181.733 Y-6.704 Z7.063 A12.9768 
N2105 X-181.802 Y-6.665 Z7.092 A10.6844 
N2106 X-181.877 Y-6.621 Z7.122 A8.3509 
N2107 X-181.958 Y-6.570 Z7.151 A5.9920 
N2108 X-182.044 Y-6.512 Z7.178 A3.6258 
N2109 X-182.135 Y-6.443 Z7.205 A1.2697 
N2110 X-182.231 Y-6.364 Z7.229 A358.9411 
N2111 X-182.330 Y-6.272 Z7.250 A356.6563 
N2112 X-182.433 Y-6.164 Z7.267 A354.4291 
N2113 X-182.538 Y-6.041 Z7.278 A352.2705 
N2114 X-182.647 Y-5.899 Z7.283 A350.1891 
N2115 X-182.758 Y-5.737 Z7.280 A348.1920 
N2116 X-182.871 Y-5.553 Z7.267 A346.2822 
N2117 X-182.987 Y-5.345 Z7.244 A344.4578 
N2118 X-183.107 Y-5.111 Z7.207 A342.7204 
N2119 X-183.229 Y-4.847 Z7.155 A341.0824 
N2120 X-183.351 Y-4.552 Z7.086 A339.5577 
N2121 X-183.471 Y-4.224 Z6.997 A338.1521 
N2122 X-183.589 Y-3.860 Z6.887 A336.8662 
N2123 X-183.701 Y-3.460 Z6.755 A335.8072 
N2124 X-183.806 Y-3.022 Z6.599 A334.9716 
N2125 X-183.902 Y-2.547 Z6.422 A334.3528 
N2126 X-183.987 Y-2.035 Z6.224 A333.9439 
N2127 X-184.060 Y-1.487 Z6.006 A333.7433 
N2128 X-184.116 Y-0.904 Z5.771 A333.7572 
N2129 X-184.155 Y-0.288 Z5.523 A333.9901 
N2130 X-184.176 Y0.357 Z5.265 A334.6328 
N2131 X-184.182 Y1.031 Z5.005 A335.6989 
N2132 X-184.187 Y1.731 Z4.748 A337.2043 
N2133 X-184.192 Y2.456 Z4.504 A339.1488 
N2134 X-184.195 Y3.203 Z4.281 A341.5200 
N2135 X-184.198 Y3.972 Z4.086 A344.3026 
N2136 X-184.198 Y4.759 Z3.928 A347.2877 
N2137 X-184.199 Y5.560 Z3.813 A350.3536 
N2138 X-184.198 Y6.372 Z3.745 A353.4611 
N2139 X-184.196 Y7.188 Z3.724 A356.5634 
N2140 X-184.192 Y8.002 Z3.752 A359.6136 
N2141 X-184.186 Y8.809 Z3.826 A2.5722 
N2142 X-184.179 Y9.603 Z3.941 A5.4130 
N2143 X-184.171 Y10.378 Z4.093 A8.0028 
N2144 X-184.160 Y11.129 Z4.276 A10.3329 
N2145 X-184.149 Y11.851 Z4.483 A12.4051 
N2146 X-184.135 Y12.538 Z4.706 A14.2288 
N2147 X-184.121 Y13.186 Z4.939 A15.8177 
N2148 X-184.107 Y13.790 Z5.175 A17.1850 
N2149 X-184.092 Y14.349 Z5.407 A18.3384 
N2150 X-184.077 Y14.858 Z5.632 A19.2725 
N2151 X-184.063 Y15.316 Z5.843 A20.0863 
N2152 X-184.049 Y15.724 Z6.037 A20.7802 
N2153 X-184.036 Y16.082 Z6.213 A21.3640 
N2154 X-184.024 Y16.392 Z6.368 A21.8516 
N2155 X-184.014 Y16.657 Z6.502 A22.2567 
N2156 X-184.005 Y16.879 Z6.617 A22.5900 
N2157 X-183.998 Y17.063 Z6.713 A22.8592 
N2158 X-183.992 Y17.213 Z6.792 A23.0686 
N2159 X-183.987 Y17.334 Z6.856 A23.2189 
N2160 X-183.983 Y17.430 Z6.908 A23.3061 
N2161 X-183.979 Y17.506 Z6.950 A23.2528 
N2162 X-183.976 Y17.564 Z6.984 A23.0284 
N2163 X-183.972 Y17.609 Z7.013 A22.4162 
N2164 X-183.965 Y17.643 Z7.043 A20.9701 
N2165 X-183.955 Y17.669 Z7.075 A18.5463 
N2166 X-183.943 Y17.689 Z7.107 A15.6428 
N2167 X-183.930 Y17.704 Z7.136 A12.6393 
N2168 X-183.919 Y17.717 Z7.162 A9.6705 
N2169 X-183.909 Y17.729 Z7.187 A6.7920 
N2170 X-183.901 Y17.741 Z7.210 A4.0308 
N2171 X-183.893 Y17.753 Z7.231 A1.3916 
N2172 X-183.887 Y17.764 Z7.251 A358.8738 
N2173 X-183.881 Y17.776 Z7.269 A356.4696 
N2174 X-183.876 Y17.788 Z7.286 A354.1708 
N2175 X-183.872 Y17.800 Z7.302 A351.9727 
N2176 X-183.868 Y17.812 Z7.316 A349.8738 
N2177 X-183.864 Y17.824 Z7.330 A347.8755 
N2178 X-183.861 Y17.836 Z7.343 A345.9755 
N2179 X-183.858 Y17.847 Z7.354 A344.1700 
N2180 X-183.856 Y17.858 Z7.365 A342.4597 
N2181 X-183.854 Y17.869 Z7.374 A340.8393 
N2182 X-183.852 Y17.880 Z7.383 A339.3042 
N2183 X-183.851 Y17.890 Z7.391 A337.8488 
N2184 X-183.849 Y17.900 Z7.399 A336.4666 
N2185 X-183.848 Y17.910 Z7.406 A335.1452 
N2186 X-183.848 Y17.919 Z7.412 A333.8865 
N2187 X-183.847 Y17.928 Z7.418 A332.6718 
N2188 X-183.847 Y17.937 Z7.424 A331.4916 
N2189 X-183.846 Y17.946 Z7.429 A330.3417 
N2190 X-183.846 Y17.955 Z7.434 A329.2090 
N2191 X-183.846 Y17.964 Z7.439 A328.0830 
N2192 X-183.846 Y17.974 Z7.444 A326.9533 
N2193 X-183.846 Y17.983 Z7.448 A325.8135 
N2194 X-183.846 Y17.992 Z7.453 A324.6541 
N2195 X-183.847 Y18.003 Z7.457 A323.4594 
N2196 X-183.848 Y18.013 Z7.461 A322.2269 
N2197 X-183.848 Y18.024 Z7.465 A320.9468 
N2198 X-183.849 Y18.036 Z7.469 A319.6041 
N2199 X-183.850 Y18.048 Z7.473 A318.1965 
N2200 X-183.852 Y18.061 Z7.477 A316.7047 
N2201 X-183.854 Y18.075 Z7.481 A315.1290 
N2202 X-183.856 Y18.090 Z7.484 A313.4537 
N2203 X-183.858 Y18.106 Z7.487 A311.6750 
N2204 X-183.861 Y18.124 Z7.490 A309.7864 
N2205 X-183.865 Y18.142 Z7.492 A307.7801 
N2206 X-183.869 Y18.162 Z7.494 A305.6486 
N2207 X-183.874 Y18.183 Z7.495 A303.3880 
N2208 X-183.880 Y18.205 Z7.495 A300.9981 
N2209 X-183.887 Y18.229 Z7.494 A298.4793 
N2210 X-183.894 Y18.253 Z7.492 A295.8294 
N2211 X-183.903 Y18.279 Z7.488 A293.0531 
N2212 X-183.913 Y18.306 Z7.483 A290.1529 
N2213 X-183.923 Y18.333 Z7.477 A287.1346 
N2214 X-183.935 Y18.361 Z7.468 A284.0059 
N2215 X-183.949 Y18.389 Z7.458 A280.7763 
N2216 X-183.963 Y18.417 Z7.446 A277.4575 
N2217 X-183.978 Y18.446 Z7.433 A274.0632 
N2218 X-183.994 Y18.474 Z7.417 A270.6079 
N2219 X-184.010 Y18.501 Z7.400 A267.1061 
N2220 X-184.028 Y18.527 Z7.381 A263.5702 
N2221 X-184.045 Y18.552 Z7.361 A260.0079 
N2222 X-184.063 Y18.576 Z7.340 A256.4196 
N2223 X-184.080 Y18.599 Z7.317 A252.7999 
N2224 X-184.098 Y18.621 Z7.292 A249.1390 
N2225 X-184.115 Y18.642 Z7.265 A245.4227 
N2226 X-184.133 Y18.661 Z7.237 A241.6331 
N2227 X-184.150 Y18.678 Z7.206 A237.7507 
N2228 X-184.169 Y18.693 Z7.172 A233.7621 
N2229 X-184.189 Y18.705 Z7.135 A229.6698 
N2230 X-184.210 Y18.713 Z7.092 A225.3090 
N2231 X-184.231 Y18.713 Z7.040 A220.5602 
N2232 X-184.245 Y18.696 Z6.988 A217.0401 
N2233 X-186.546 Y24.558 Z-0.780 
N2234 G00 X-195.748 Y48.007 Z-31.852 
;RAPORT("TB123456","Spiral Finish Transition:110 End")
;trailer : concat=None
; points cnt = 2188
N2236 MSG (" --- GROUPED OF SUBPROGRAM --- ")
N2237 FGROUP()
N2238 TRAFOOF
; PROGRAM NAME: B12345632S
; ORDER       : B123456
; OPER. NAME  : Flank Milling Transition:111
; OPER. DESCR.: Semi finish flank root
; OPER. TYPE  : preFinFlank
; GEO. OPTION : 2
; MACHINE     : HSTM_500_SIM840D_Py
;             : HSTM500 - HAMUEL: 5-axis milling machine - SIM840D Traori PP_Script
; CONTROL     : SINUMERIK 840D
; created:   2023-06-06 12:04:27.019785
;-------DODATKOWE DANE-------------------
; PROGRAMISTA : Mariusz Malec
; PARTID      : 306T001953P1010_-
;  dec_value  : 0.8
;  lean_angle : 5.0
;  tilt_angle : 0.0
;  airf_offset: 0.05
;  firstoffset: 1.6
;----------------------------------------
;RAPORT("TB123456","Flank Milling Transition:111")
N10 TRAFOOF
N11 D0
N12 G90 G94
N13 G0 G53 D0 Z550 B0
N14 STOPRE
M9 ; chlodziwo wyl
; --- Flank Milling Transition:111 - Semi finish flank root ---
N16 ;ToolChange : concat=None ,current_tdmid=None, PP.tdmId=940626
N17 TRAFOOF
N18 G0 G53 D0 Z550 B0
N19 STOPRE
N20 MSG(" TLID=940626 D=8.391 R=5.0 Ang=10.0 Len=155.0 ")
N21 S6987 M03
N22 STOPRE
N23 CYCLE832(0.01,1,1)
N24 G0 G53 A217.0151 B-10.9415
N25 TRAORI
N26 G54 D1
N27 D1 
N28 TRANS  X=R3 A=R25
STOPRE
E_ZDARZ=400017
;ACS_PREFINISH_UBG_PLATFORM_XLB_ROOT=7740626
STOPRE
N29 ; DELTA A > 40.1
N30 TRAFOOF
N31 D1
N32 STOPRE
N33 G00 G54 Z231.000
N34 G01 A217.0151 F10000
N35 TRAORI
N36 G54 D1
N37 STOPRE
N38 TRANS  X=R3 A=R25
N39 G00 X-191.143 Y62.284 Z-32.965 A217.0151 B-10.9415 
N40 M342 ; chlodziwo woda
N41 X-181.652 Y32.730 Z6.233 
N42 G01 X-181.738 Y30.303 Z8.205 F1456 
N43 X-181.987 Y27.397 Z9.340 
N44 X-182.375 Y24.298 Z9.525 
N45 X-182.863 Y21.309 Z8.742 
N46 M342 ; chlodziwo woda
N47 X-183.405 Y18.721 Z7.069 
N48 X-183.446 Y18.679 Z7.011 A215.1605 B-10.9274 
N49 X-183.495 Y18.540 Z6.889 A214.5135 B-10.9223 
N50 X-183.547 Y18.347 Z6.728 A214.4589 B-10.9218 
N51 X-183.602 Y18.139 Z6.557 A214.4211 B-10.9215 
N52 X-183.659 Y17.917 Z6.374 A214.3757 B-10.9212 
N53 X-183.719 Y17.683 Z6.181 A214.3245 B-10.9208 
N54 X-183.781 Y17.435 Z5.977 A214.2674 B-10.9203 
N55 X-183.844 Y17.174 Z5.764 A214.2024 B-10.9198 
N56 X-183.909 Y16.902 Z5.541 A214.1267 B-10.9192 
N57 X-183.975 Y16.619 Z5.310 A214.0367 B-10.9184 
N58 X-184.042 Y16.326 Z5.072 A213.9295 B-10.9175 
N59 X-184.110 Y16.026 Z4.828 A213.8035 B-10.9165 
N60 X-184.178 Y15.719 Z4.580 A213.6584 B-10.9153 
N61 X-184.246 Y15.407 Z4.328 A213.4948 B-10.9140 
N62 X-184.314 Y15.089 Z4.075 A213.3134 B-10.9124 
N63 X-184.381 Y14.769 Z3.820 A213.1144 B-10.9108 
N64 X-184.448 Y14.446 Z3.565 A212.8982 B-10.9089 
N65 X-184.514 Y14.122 Z3.310 A212.6651 B-10.9070 
N66 X-184.578 Y13.797 Z3.058 A212.4154 B-10.9048 
N67 X-184.642 Y13.472 Z2.807 A212.1485 B-10.9025 
N68 X-184.704 Y13.149 Z2.560 A211.8627 B-10.9000 
N69 X-184.764 Y12.827 Z2.317 A211.5557 B-10.8973 
N70 X-184.823 Y12.508 Z2.078 A211.2262 B-10.8944 
N71 X-184.881 Y12.193 Z1.844 A210.8741 B-10.8912 
N72 X-184.938 Y11.881 Z1.616 A210.5004 B-10.8878 
N73 X-184.992 Y11.574 Z1.394 A210.1072 B-10.8842 
N74 X-185.045 Y11.271 Z1.178 A209.6960 B-10.8804 
N75 X-185.096 Y10.974 Z0.969 A209.2684 B-10.8763 
N76 X-185.144 Y10.682 Z0.768 A208.8258 B-10.8721 
N77 X-185.191 Y10.397 Z0.574 A208.3695 B-10.8677 
N78 X-185.235 Y10.120 Z0.387 A207.9010 B-10.8631 
N79 X-185.277 Y9.849 Z0.209 A207.4216 B-10.8584 
N80 X-185.317 Y9.586 Z0.038 A206.9326 B-10.8535 
N81 X-185.355 Y9.330 Z-0.124 A206.4353 B-10.8484 
N82 X-185.390 Y9.082 Z-0.280 A205.9303 B-10.8432 
N83 X-185.423 Y8.841 Z-0.428 A205.4181 B-10.8379 
N84 X-185.454 Y8.606 Z-0.569 A204.8983 B-10.8324 
N85 X-185.484 Y8.377 Z-0.704 A204.3706 B-10.8268 
N86 X-185.506 Y8.153 Z-0.834 A203.8324 B-10.8210 
N87 X-185.512 Y7.932 Z-0.960 A203.2813 B-10.8150 
N88 X-185.501 Y7.715 Z-1.081 A202.7159 B-10.8087 
N89 X-185.472 Y7.500 Z-1.197 A202.1350 B-10.8022 
N90 X-185.431 Y7.288 Z-1.310 A201.5358 B-10.7954 
N91 X-185.383 Y7.076 Z-1.420 A200.9137 B-10.7882 
N92 X-185.332 Y6.865 Z-1.527 A200.2643 B-10.7806 
N93 X-185.278 Y6.653 Z-1.631 A199.5847 B-10.7726 
N94 X-185.221 Y6.440 Z-1.733 A198.8734 B-10.7640 
N95 X-185.161 Y6.226 Z-1.833 A198.1292 B-10.7550 
N96 X-185.099 Y6.011 Z-1.929 A197.3520 B-10.7454 
N97 X-185.034 Y5.795 Z-2.023 A196.5425 B-10.7353 
N98 X-184.967 Y5.578 Z-2.114 A195.7018 B-10.7246 
N99 X-184.898 Y5.361 Z-2.201 A194.8315 B-10.7134 
N100 X-184.829 Y5.145 Z-2.284 A193.9328 B-10.7016 
N101 X-184.758 Y4.929 Z-2.364 A193.0074 B-10.6894 
N102 X-184.688 Y4.715 Z-2.439 A192.0569 B-10.6766 
N103 X-184.619 Y4.502 Z-2.510 A191.0828 B-10.6632 
N104 X-184.551 Y4.292 Z-2.576 A190.0868 B-10.6494 
N105 X-184.484 Y4.085 Z-2.638 A189.0708 B-10.6351 
N106 X-184.420 Y3.881 Z-2.695 A188.0367 B-10.6204 
N107 X-184.359 Y3.681 Z-2.747 A186.9864 B-10.6052 
N108 X-184.302 Y3.484 Z-2.795 A185.9217 B-10.5896 
N109 X-184.248 Y3.291 Z-2.838 A184.8442 B-10.5736 
N110 X-184.199 Y3.102 Z-2.877 A183.7553 B-10.5572 
N111 X-184.154 Y2.917 Z-2.912 A182.6561 B-10.5405 
N112 X-184.114 Y2.736 Z-2.943 A181.5476 B-10.5234 
N113 X-184.080 Y2.558 Z-2.969 A180.4307 B-10.5060 
N114 X-184.050 Y2.384 Z-2.992 A179.3058 B-10.4883 
N115 X-184.026 Y2.213 Z-3.012 A178.1732 B-10.4702 
N116 X-184.008 Y2.045 Z-3.027 A177.0328 B-10.4519 
N117 X-183.995 Y1.880 Z-3.040 A175.8845 B-10.4332 
N118 X-183.988 Y1.718 Z-3.049 A174.7277 B-10.4143 
N119 X-183.986 Y1.558 Z-3.055 A173.5621 B-10.3950 
N120 X-183.990 Y1.399 Z-3.057 A172.3869 B-10.3754 
N121 X-183.999 Y1.243 Z-3.057 A171.2016 B-10.3554 
N122 X-184.014 Y1.088 Z-3.053 A170.0057 B-10.3352 
N123 X-184.034 Y0.935 Z-3.047 A168.7987 B-10.3146 
N124 X-184.060 Y0.783 Z-3.037 A167.5800 B-10.2936 
N125 X-184.090 Y0.632 Z-3.025 A166.3491 B-10.2723 
N126 X-184.125 Y0.482 Z-3.009 A165.1061 B-10.2507 
N127 X-184.164 Y0.333 Z-2.990 A163.8512 B-10.2287 
N128 X-184.207 Y0.184 Z-2.968 A162.5847 B-10.2065 
N129 X-184.254 Y0.036 Z-2.943 A161.3069 B-10.1839 
N130 X-184.304 Y-0.112 Z-2.914 A160.0186 B-10.1610 
N131 X-184.358 Y-0.259 Z-2.883 A158.7207 B-10.1379 
N132 X-184.414 Y-0.405 Z-2.848 A157.4145 B-10.1146 
N133 X-184.472 Y-0.551 Z-2.809 A156.1013 B-10.0911 
N134 X-184.532 Y-0.696 Z-2.767 A154.7826 B-10.0674 
N135 X-184.593 Y-0.840 Z-2.722 A153.4604 B-10.0436 
N136 X-184.654 Y-0.984 Z-2.674 A152.1366 B-10.0198 
N137 X-184.717 Y-1.127 Z-2.622 A150.8133 B-9.9960 
N138 X-184.778 Y-1.269 Z-2.566 A149.4923 B-9.9722 
N139 X-184.839 Y-1.410 Z-2.507 A148.1755 B-9.9486 
N140 X-184.899 Y-1.550 Z-2.445 A146.8642 B-9.9250 
N141 X-184.957 Y-1.689 Z-2.379 A145.5601 B-9.9016 
N142 X-185.013 Y-1.827 Z-2.310 A144.2649 B-9.8784 
N143 X-185.066 Y-1.964 Z-2.237 A142.9796 B-9.8555 
N144 X-185.117 Y-2.100 Z-2.161 A141.7045 B-9.8328 
N145 X-185.165 Y-2.235 Z-2.081 A140.4400 B-9.8104 
N146 X-185.209 Y-2.369 Z-1.997 A139.1864 B-9.7882 
N147 X-185.249 Y-2.503 Z-1.910 A137.9436 B-9.7664 
N148 X-185.285 Y-2.635 Z-1.819 A136.7115 B-9.7448 
N149 X-185.315 Y-2.767 Z-1.724 A135.4895 B-9.7236 
N150 X-185.341 Y-2.899 Z-1.625 A134.2776 B-9.7026 
N151 X-185.362 Y-3.030 Z-1.522 A133.0756 B-9.6819 
N152 X-185.376 Y-3.161 Z-1.414 A131.8831 B-9.6616 
N153 X-185.384 Y-3.291 Z-1.301 A130.7001 B-9.6415 
N154 X-185.385 Y-3.421 Z-1.184 A129.5272 B-9.6218 
N155 X-185.383 Y-3.551 Z-1.062 A128.3646 B-9.6024 
N156 X-185.380 Y-3.680 Z-0.935 A127.2123 B-9.5833 
N157 X-185.378 Y-3.809 Z-0.803 A126.0710 B-9.5646 
N158 X-185.376 Y-3.937 Z-0.666 A124.9413 B-9.5463 
N159 X-185.373 Y-4.065 Z-0.524 A123.8242 B-9.5283 
N160 X-185.371 Y-4.192 Z-0.377 A122.7206 B-9.5107 
N161 X-185.370 Y-4.318 Z-0.225 A121.6305 B-9.4935 
N162 X-185.368 Y-4.442 Z-0.068 A120.5535 B-9.4767 
N163 X-185.364 Y-4.580 Z0.115 A119.5384 B-9.4610 
N164 X-185.356 Y-4.718 Z0.306 A118.5552 B-9.4460 
N165 X-185.342 Y-4.853 Z0.503 A117.6026 B-9.4316 
N166 X-185.325 Y-4.986 Z0.705 A116.6814 B-9.4178 
N167 X-185.303 Y-5.116 Z0.913 A115.7923 B-9.4047 
N168 X-185.276 Y-5.243 Z1.126 A114.9348 B-9.3921 
N169 X-185.245 Y-5.368 Z1.344 A114.1088 B-9.3802 
N170 X-185.209 Y-5.488 Z1.568 A113.3164 B-9.3688 
N171 X-185.169 Y-5.606 Z1.796 A112.5611 B-9.3581 
N172 X-185.125 Y-5.721 Z2.030 A111.8478 B-9.3481 
N173 X-185.077 Y-5.832 Z2.269 A111.1721 B-9.3387 
