; PROGRAM NAME: B12345620
; ORDER       : B123456
; OPER. NAME  : Spiral Rough Airfoil:107
; OPER. DESCR.: spiral roughing airfoil/platformy i pioro pwk
; OPER. TYPE  : rouAirfoil
; GEO. OPTION : 3
; MACHINE     : HSTM_500_SIM840D_Py
;             : HSTM500 - HAMUEL: 5-axis milling machine - SIM840D Traori PP_Script
; CONTROL     : SINUMERIK 840D
; created:   2023-06-06 12:03:48.185889
;-------DODATKOWE DANE-------------------
; PROGRAMISTA : Mariusz Malec
; PARTID      : 306T001953P1010_-
;  ap         : 0.8
;  ae         : 8.0
;  lean_angle : 1.0
;  airf_offset: 0.7
;----------------------------------------
;RAPORT("TB123456","Spiral Rough Airfoil:107")
N10 TRAFOOF
N11 D0
N12 G90 G94
N13 G0 G53 D0 Z550 B0
N14 STOPRE
M9 ; chlodziwo wyl
; --- Spiral Rough Airfoil:107 - spiral roughing airfoil/platformy i pioro pwk ---
N16 ;ToolChange : concat=None ,current_tdmid=None, PP.tdmId=958845
N17 TRAFOOF
N18 G0 G53 D0 X-200 Y150 Z550 B0
N19 T="7758845"
;RAPORT("TB123456","ToolChangeStart 7758845")
N20 M6
;RAPORT("TB123456","ToolChangeEnd")
N21 STOPRE
N22 MSG(" TLID=958845 D=16.0 R=4.0 Ang=0.0 Len=99.0 ")
N23 ; (Preloading tool)
N24 T="7740626"
N25 S4376 M03
N26 STOPRE
N27 CYCLE832(0.1,3,1)
N28 G0 G53 A358.9516 B0.0000
N29 TRAORI
N30 G54 D1
N31 D1 
N32 TRANS  X=R4
;shiftX 0.0
;pointsCnt 2222
N33 ;SPIRALA WYK BANDAZA
N34 X-202.928 Y-21.518 Z69.167 A358.9516 
N35 M348 ; chlodziwo mgla
N36 X-202.928 Y-22.433 Z19.175 
N37 G01 X-202.928 Y-21.946 Z16.085 F1225 
N38 X-202.928 Y-20.528 Z13.296 
N39 X-202.928 Y-18.317 Z11.082 
N40 X-202.928 Y-15.531 Z9.659 
N41 X-202.928 Y-12.441 Z9.167 
N42 X-202.936 Y-12.233 Z9.167 A358.9460 
N43 X-202.946 Y-11.979 Z9.167 A358.9364 
N44 X-202.959 Y-11.662 Z9.168 A358.9214 
N45 X-202.974 Y-11.273 Z9.169 A358.8971 
N46 X-202.993 Y-10.794 Z9.171 A358.8581 
N47 X-203.016 Y-10.215 Z9.174 A358.8017 
N48 X-203.044 Y-9.523 Z9.176 A358.7449 
N49 X-203.076 Y-8.708 Z9.172 A358.7652 
N50 X-203.114 Y-7.763 Z9.167 A358.8195 
N51 X-203.157 Y-6.686 Z9.167 
N52 X-203.205 Y-5.476 Z9.167 
N53 X-203.259 Y-4.142 Z9.167 
N54 X-203.316 Y-2.698 Z9.167 A358.8176 
N55 X-203.377 Y-1.163 Z9.168 A358.8180 
N56 X-203.441 Y0.439 Z9.168 A358.8184 
N57 X-203.507 Y2.083 Z9.168 A358.8189 
N58 X-203.573 Y3.739 Z9.168 A358.8189 
N59 X-203.638 Y5.377 Z9.168 A358.8179 
N60 X-203.701 Y6.968 Z9.168 A358.8151 
N61 X-203.762 Y8.485 Z9.168 A358.8094 
N62 X-203.818 Y9.906 Z9.169 A358.8006 
N63 X-203.871 Y11.214 Z9.170 A358.7905 
N64 X-203.918 Y12.395 Z9.170 A358.7864 
N65 X-203.959 Y13.443 Z9.170 A358.7928 
N66 X-203.996 Y14.357 Z9.169 A358.8195 
N67 X-204.027 Y15.139 Z9.170 
N68 X-204.053 Y15.801 Z9.172 
N69 X-204.075 Y16.355 Z9.179 A358.7251 
N70 X-204.092 Y16.805 Z9.205 A358.3257 
N71 X-204.105 Y17.167 Z9.256 A357.5223 
N72 X-204.113 Y17.452 Z9.342 A356.1693 
N73 X-204.118 Y17.689 Z9.480 A354.0225 
N74 X-204.119 Y17.880 Z9.669 A351.0745 
N75 X-204.118 Y18.052 Z9.914 A347.2744 
N76 X-204.115 Y18.221 Z10.194 A342.8771 
N77 X-204.111 Y18.470 Z10.603 A336.2833 
N78 X-204.109 Y18.613 Z10.818 A332.6841 
N79 X-204.108 Y18.732 Z10.983 A329.8636 
N80 X-204.108 Y18.874 Z11.166 A326.6253 
N81 X-204.108 Y19.047 Z11.368 A322.8915 
N82 X-204.109 Y19.255 Z11.584 A318.6863 
N83 X-204.111 Y19.500 Z11.806 A314.0578 
N84 X-204.115 Y19.786 Z12.026 A309.0012 
N85 X-204.121 Y20.109 Z12.233 A303.6145 
N86 X-204.129 Y20.471 Z12.420 A297.8869 
N87 X-204.139 Y20.862 Z12.574 A291.9896 
N88 X-204.152 Y21.288 Z12.692 A285.7793 
N89 X-204.167 Y21.717 Z12.762 A279.6771 
N90 X-204.182 Y22.124 Z12.784 A273.9513 
N91 X-204.198 Y22.499 Z12.766 A268.6794 
N92 X-204.213 Y22.837 Z12.717 A263.8967 
N93 X-204.227 Y23.134 Z12.647 A259.6178 
N94 X-204.240 Y23.385 Z12.566 A255.9268 
N95 X-204.251 Y23.596 Z12.479 A252.7437 
N96 X-204.261 Y23.775 Z12.391 A249.9708 
N97 X-204.278 Y24.049 Z12.222 A245.5032 
N98 X-204.300 Y24.365 Z11.956 A239.8471 
N99 X-204.314 Y24.542 Z11.738 A236.1230 
N100 X-204.328 Y24.667 Z11.479 A232.5950 
N101 X-204.338 Y24.703 Z11.234 A230.0842 
N102 X-204.345 Y24.660 Z10.980 A228.2506 
N103 X-204.349 Y24.539 Z10.707 A226.9960 
N104 X-204.351 Y24.344 Z10.416 A226.2489 
N105 X-204.352 Y24.074 Z10.085 A225.8574 
N106 X-204.351 Y23.733 Z9.707 A225.7054 
N107 X-204.350 Y23.322 Z9.267 A225.6819 
N108 X-204.348 Y22.842 Z8.759 A225.7034 
N109 X-204.346 Y22.294 Z8.179 A225.7253 
N110 X-204.344 Y21.683 Z7.527 
N111 X-204.341 Y21.008 Z6.807 
N112 X-204.339 Y20.277 Z6.028 
N113 X-204.336 Y19.501 Z5.199 A225.7211 
N114 X-204.333 Y18.689 Z4.333 A225.7122 
N115 X-204.331 Y17.856 Z3.443 A225.6985 
N116 X-204.328 Y17.015 Z2.543 A225.6789 
N117 X-204.325 Y16.178 Z1.649 A225.6576 
N118 X-204.322 Y15.359 Z0.774 A225.6480 
N119 X-204.319 Y14.567 Z-0.070 A225.6646 
N120 X-204.317 Y13.809 Z-0.876 A225.7253 
N121 X-204.314 Y13.098 Z-1.642 
N122 X-204.312 Y12.417 Z-2.374 A225.7222 
N123 X-204.313 Y11.814 Z-3.092 A224.9626 
N124 X-204.317 Y11.295 Z-3.831 A222.8256 
N125 X-204.328 Y10.878 Z-4.647 A218.2082 
N126 X-204.348 Y10.534 Z-5.610 A209.9667 
N127 X-204.368 Y10.125 Z-6.696 A198.6261 
N128 X-204.373 Y9.480 Z-7.582 A188.7898 
N129 X-204.357 Y8.654 Z-8.095 A182.9379 
N130 X-204.329 Y7.729 Z-8.336 A180.0744 
N131 X-204.292 Y6.724 Z-8.424 A178.9532 
N132 X-204.249 Y5.635 Z-8.440 A178.6780 
N133 X-204.201 Y4.451 Z-8.434 A178.7046 
N134 X-204.150 Y3.171 Z-8.428 A178.7728 
N135 X-204.095 Y1.798 Z-8.428 A178.7764 
N136 X-204.037 Y0.337 Z-8.429 
N137 X-203.976 Y-1.195 Z-8.431 
N138 X-203.913 Y-2.778 Z-8.433 
N139 X-203.849 Y-4.387 Z-8.435 A178.7751 
N140 X-203.785 Y-5.996 Z-8.437 A178.7741 
N141 X-203.722 Y-7.580 Z-8.439 A178.7727 
N142 X-203.661 Y-9.111 Z-8.441 A178.7699 
N143 X-203.603 Y-10.566 Z-8.442 A178.7650 
N144 X-203.549 Y-11.925 Z-8.444 A178.7577 
N145 X-203.499 Y-13.171 Z-8.446 A178.7493 
N146 X-203.455 Y-14.295 Z-8.448 A178.7456 
N147 X-203.415 Y-15.290 Z-8.449 A178.7509 
N148 X-203.381 Y-16.157 Z-8.449 A178.7764 
N149 X-203.351 Y-16.897 Z-8.451 
N150 X-203.326 Y-17.524 Z-8.453 
N151 X-203.305 Y-18.050 Z-8.460 A178.6892 
N152 X-203.290 Y-18.474 Z-8.490 A178.2359 
N153 X-203.278 Y-18.818 Z-8.550 A177.3015 
N154 X-203.270 Y-19.093 Z-8.650 A175.7439 
N155 X-203.267 Y-19.312 Z-8.793 A173.5197 
N156 X-203.266 Y-19.512 Z-9.003 A170.2365 
N157 X-203.267 Y-19.663 Z-9.220 A166.8565 
N158 X-203.271 Y-19.869 Z-9.564 A161.4349 
N159 X-203.273 Y-20.032 Z-9.835 A157.0634 
N160 X-203.275 Y-20.151 Z-10.019 A154.0158 
N161 X-203.276 Y-20.298 Z-10.230 A150.4396 
N162 X-203.277 Y-20.482 Z-10.469 A146.2238 
N163 X-203.277 Y-20.720 Z-10.738 A141.1883 
N164 X-203.275 Y-21.020 Z-11.027 A135.3547 
N165 X-203.270 Y-21.385 Z-11.314 A128.8380 
N166 X-203.262 Y-21.818 Z-11.581 A121.6922 
N167 X-203.253 Y-22.174 Z-11.752 A116.1451 
N168 X-203.244 Y-22.523 Z-11.880 A110.9255 
N169 X-203.233 Y-22.878 Z-11.975 A105.7547 
N170 X-203.221 Y-23.231 Z-12.036 A100.7199 
N171 X-203.208 Y-23.571 Z-12.064 A95.9346 
N172 X-203.195 Y-23.892 Z-12.064 A91.4279 
N173 X-203.183 Y-24.188 Z-12.039 A87.2705 
N174 X-203.171 Y-24.456 Z-11.996 A83.4660 
N175 X-203.159 Y-24.698 Z-11.939 A79.9808 
N176 X-203.148 Y-24.911 Z-11.873 A76.8545 
N177 X-203.139 Y-25.096 Z-11.803 A74.1016 
N178 X-203.124 Y-25.359 Z-11.678 A70.0462 
N179 X-203.100 Y-25.747 Z-11.424 A63.6241 
N180 X-203.083 Y-25.986 Z-11.201 A59.1876 
N181 X-203.069 Y-26.151 Z-10.983 A55.5975 
N182 X-203.055 Y-26.266 Z-10.716 A52.0971 
N183 X-203.045 Y-26.288 Z-10.463 A49.6537 
N184 X-203.039 Y-26.227 Z-10.207 A47.9716 
N185 X-203.035 Y-26.090 Z-9.938 A46.9040 
N186 X-203.034 Y-25.876 Z-9.637 A46.2565 
N187 X-203.033 Y-25.591 Z-9.295 A45.9179 
N188 X-203.034 Y-25.234 Z-8.899 A45.7762 
N189 X-203.036 Y-24.806 Z-8.440 A45.7461 
N190 X-203.037 Y-24.308 Z-7.912 A45.7613 
N191 X-203.039 Y-23.741 Z-7.310 A45.7821 
N192 X-203.042 Y-23.110 Z-6.636 A45.7837 
N193 X-203.044 Y-22.417 Z-5.896 
N194 X-203.046 Y-21.669 Z-5.096 
N195 X-203.049 Y-20.876 Z-4.249 
N196 X-203.052 Y-20.051 Z-3.367 A45.7829 
N197 X-203.055 Y-19.207 Z-2.465 A45.7814 
N198 X-203.058 Y-18.357 Z-1.557 A45.7776 
N199 X-203.061 Y-17.517 Z-0.659 A45.7698 
N200 X-203.063 Y-16.698 Z0.217 A45.7548 
N201 X-203.066 Y-15.911 Z1.060 A45.7341 
N202 X-203.068 Y-15.164 Z1.860 A45.7096 
N203 X-203.071 Y-14.459 Z2.613 A45.7233 
N204 X-203.073 Y-13.798 Z3.315 A45.7837 
N205 X-203.075 Y-13.179 Z3.981 
N206 X-203.073 Y-12.644 Z4.667 A44.6347 
N207 X-203.059 Y-12.291 Z5.504 A39.5508 
N208 X-203.031 Y-12.064 Z6.596 A28.9442 
N209 X-203.005 Y-11.686 Z7.780 A15.7381 
N210 X-203.001 Y-11.018 Z8.693 A4.8953 
N211 X-203.020 Y-10.172 Z9.103 A359.7195 
N212 X-203.055 Y-9.248 Z9.173 A358.7561 
N213 X-203.095 Y-8.247 Z9.168 A358.7924 
N214 X-203.139 Y-7.157 Z9.164 A358.8275 
N215 X-203.186 Y-5.967 Z9.164 
N216 X-203.237 Y-4.676 Z9.164 
N217 X-203.293 Y-3.289 Z9.163 A358.8262 
N218 X-203.351 Y-1.818 Z9.163 A358.8260 
N219 X-203.413 Y-0.278 Z9.162 A358.8262 
N220 X-203.476 Y1.309 Z9.161 A358.8261 
N221 X-203.540 Y2.919 Z9.161 A358.8252 
N222 X-203.604 Y4.526 Z9.160 A358.8233 
N223 X-203.667 Y6.101 Z9.159 A358.8208 
N224 X-203.728 Y7.620 Z9.159 A358.8187 
N225 X-203.785 Y9.059 Z9.158 A358.8188 
N226 X-203.838 Y10.397 Z9.158 A358.8212 
N227 X-203.887 Y11.622 Z9.157 A358.8273 
N228 X-203.931 Y12.722 Z9.157 A358.8275 
N229 X-203.970 Y13.693 Z9.157 
N230 X-204.004 Y14.539 Z9.157 
N231 X-204.032 Y15.261 Z9.161 A358.7587 
N232 X-204.056 Y15.868 Z9.174 A358.5341 
N233 X-204.075 Y16.368 Z9.202 A358.0609 
N234 X-204.089 Y16.774 Z9.253 A357.2255 
N235 X-204.100 Y17.102 Z9.334 A355.9004 
N236 X-204.106 Y17.368 Z9.454 A353.9565 
N237 X-204.109 Y17.589 Z9.623 A351.2429 
N238 X-204.109 Y17.794 Z9.859 A347.4889 
N239 X-204.108 Y17.963 Z10.101 A343.6243 
N240 X-204.105 Y18.156 Z10.397 A338.8264 
N241 X-204.103 Y18.442 Z10.809 A331.9067 
N242 X-204.102 Y18.569 Z10.975 A328.9902 
N243 X-204.102 Y18.713 Z11.150 A325.8328 
N244 X-204.102 Y18.885 Z11.340 A322.2517 
N245 X-204.103 Y19.085 Z11.539 A318.2960 
N246 X-204.106 Y19.317 Z11.742 A313.9893 
N247 X-204.110 Y19.584 Z11.943 A309.2979 
N248 X-204.115 Y19.886 Z12.135 A304.2909 
N249 X-204.122 Y20.222 Z12.310 A298.9683 
N250 X-204.132 Y20.585 Z12.459 A293.4724 
N251 X-204.143 Y20.954 Z12.570 A288.0549 
N252 X-204.155 Y21.323 Z12.645 A282.7677 
N253 X-204.168 Y21.682 Z12.682 A277.7138 
N254 X-204.181 Y22.021 Z12.688 A272.9593 
N255 X-204.194 Y22.333 Z12.665 A268.5769 
N256 X-204.207 Y22.618 Z12.622 A264.5343 
N257 X-204.220 Y22.877 Z12.562 A260.8254 
N258 X-204.231 Y23.103 Z12.491 A257.5144 
N259 X-204.242 Y23.299 Z12.415 A254.5797 
N260 X-204.259 Y23.607 Z12.263 A249.8057 
N261 X-204.282 Y23.965 Z12.017 A243.8214 
N262 X-204.298 Y24.188 Z11.801 A239.6390 
N263 X-204.313 Y24.358 Z11.554 A235.7928 
N264 X-204.325 Y24.448 Z11.304 A232.7371 
N265 X-204.335 Y24.459 Z11.040 A230.3431 
N266 X-204.341 Y24.393 Z10.770 A228.6334 
N267 X-204.346 Y24.251 Z10.477 A227.4347 
N268 X-204.348 Y24.035 Z10.154 A226.6498 
N269 X-204.349 Y23.747 Z9.790 A226.1670 
N270 X-204.349 Y23.386 Z9.374 A225.8913 
N271 X-204.348 Y22.953 Z8.898 A225.7482 
N272 X-204.346 Y22.450 Z8.358 A225.6834 
N273 X-204.344 Y21.880 Z7.750 A225.6619 
N274 X-204.342 Y21.245 Z7.077 A225.6608 
N275 X-204.339 Y20.552 Z6.343 A225.6643 
N276 X-204.336 Y19.809 Z5.555 A225.6638 
N277 X-204.334 Y19.027 Z4.725 A225.6577 
N278 X-204.331 Y18.216 Z3.864 A225.6495 
N279 X-204.328 Y17.389 Z2.987 A225.6470 
N280 X-204.324 Y16.559 Z2.106 A225.6525 
N281 X-204.321 Y15.737 Z1.235 A225.6673 
N282 X-204.319 Y14.937 Z0.384 
N283 X-204.316 Y14.163 Z-0.439 
N284 X-204.313 Y13.428 Z-1.231 A225.5585 
N285 X-204.312 Y12.741 Z-1.995 A225.1493 
N286 X-204.313 Y12.115 Z-2.745 A224.0945 
N287 X-204.317 Y11.560 Z-3.508 A221.8169 
N288 X-204.325 Y11.081 Z-4.322 A217.5729 
N289 X-204.339 Y10.648 Z-5.224 A210.7455 
N290 X-204.353 Y10.170 Z-6.197 A201.6487 
N291 X-204.357 Y9.530 Z-7.072 A192.7247 
N292 X-204.346 Y8.718 Z-7.688 A186.2089 
N293 X-204.321 Y7.792 Z-8.050 A182.2764 
N294 X-204.287 Y6.780 Z-8.231 A180.2627 
N295 X-204.246 Y5.687 Z-8.308 A179.3822 
N296 X-204.200 Y4.510 Z-8.335 A179.0633 
N297 X-204.150 Y3.244 Z-8.341 A178.9793 
N298 X-204.096 Y1.894 Z-8.342 A178.9798 
N299 X-204.039 Y0.467 Z-8.342 A179.0006 
N300 X-203.980 Y-1.023 Z-8.343 A179.0159 
N301 X-203.919 Y-2.558 Z-8.347 
N302 X-203.857 Y-4.118 Z-8.351 
N303 X-203.795 Y-5.677 Z-8.356 A179.0131 
N304 X-203.734 Y-7.210 Z-8.361 A179.0038 
N305 X-203.675 Y-8.692 Z-8.366 A178.9960 
N306 X-203.619 Y-10.102 Z-8.371 A178.9936 
N307 X-203.567 Y-11.420 Z-8.375 A178.9992 
N308 X-203.519 Y-12.632 Z-8.379 A179.0159 
N309 X-203.475 Y-13.726 Z-8.384 
N310 X-203.436 Y-14.701 Z-8.389 
N311 X-203.402 Y-15.558 Z-8.393 A179.0147 
N312 X-203.374 Y-16.294 Z-8.406 A178.8408 
N313 X-203.350 Y-16.918 Z-8.433 A178.4375 
N314 X-203.331 Y-17.438 Z-8.481 A177.6585 
N315 X-203.316 Y-17.867 Z-8.558 A176.3655 
N316 X-203.306 Y-18.224 Z-8.676 A174.4073 
N317 X-203.299 Y-18.518 Z-8.833 A171.7893 
N318 X-203.296 Y-18.771 Z-9.027 A168.5518 
N319 X-203.295 Y-18.991 Z-9.243 A164.9201 
N320 X-203.295 Y-19.221 Z-9.510 A160.4043 
N321 X-203.295 Y-19.404 Z-9.737 A156.5077 
N322 X-203.295 Y-19.619 Z-10.000 A151.8779 
N323 X-203.295 Y-19.908 Z-10.324 A145.8940 
N324 X-203.294 Y-20.108 Z-10.526 A141.9416 
N325 X-203.292 Y-20.272 Z-10.677 A138.8372 
N326 X-203.290 Y-20.457 Z-10.832 A135.4807 
N327 X-203.287 Y-20.665 Z-10.988 A131.8523 
N328 X-203.283 Y-20.898 Z-11.144 A127.9376 
N329 X-203.278 Y-21.155 Z-11.293 A123.7805 
N330 X-203.272 Y-21.436 Z-11.430 A119.4090 
N331 X-203.264 Y-21.736 Z-11.549 A114.8934 
N332 X-203.255 Y-22.044 Z-11.646 A110.3718 
N333 X-203.245 Y-22.354 Z-11.716 A105.9227 
N334 X-203.234 Y-22.661 Z-11.761 A101.5807 
N335 X-203.223 Y-22.957 Z-11.780 A97.4290 
N336 X-203.212 Y-23.238 Z-11.777 A93.5021 
N337 X-203.201 Y-23.501 Z-11.755 A89.8230 
N338 X-203.190 Y-23.741 Z-11.718 A86.4227 
N339 X-203.179 Y-23.962 Z-11.668 A83.2743 
N340 X-203.167 Y-24.207 Z-11.595 A79.7183 
N341 X-203.145 Y-24.616 Z-11.419 A73.5569 
N342 X-203.127 Y-24.911 Z-11.238 A68.8244 
N343 X-203.112 Y-25.122 Z-11.065 A65.1507 
N344 X-203.094 Y-25.355 Z-10.797 A60.5310 
N345 X-203.080 Y-25.493 Z-10.545 A57.0733 
N346 X-203.067 Y-25.573 Z-10.254 A53.8651 
N347 X-203.056 Y-25.578 Z-9.944 A51.2069 
N348 X-203.048 Y-25.502 Z-9.613 A49.1057 
N349 X-203.042 Y-25.342 Z-9.261 A47.5873 
N350 X-203.039 Y-25.093 Z-8.881 A46.6114 
N351 X-203.038 Y-24.760 Z-8.464 A46.0728 
N352 X-203.039 Y-24.347 Z-7.997 A45.8287 
N353 X-203.040 Y-23.860 Z-7.470 A45.7476 
N354 X-203.042 Y-23.304 Z-6.878 A45.7356 
N355 X-203.044 Y-22.685 Z-6.219 A45.7439 
N356 X-203.047 Y-22.007 Z-5.499 A45.7531 
N357 X-203.049 Y-21.278 Z-4.723 A45.7548 
N358 X-203.052 Y-20.508 Z-3.903 
N359 X-203.055 Y-19.708 Z-3.050 
N360 X-203.058 Y-18.890 Z-2.178 A45.7543 
N361 X-203.061 Y-18.068 Z-1.302 A45.7475 
N362 X-203.063 Y-17.255 Z-0.435 A45.7378 
N363 X-203.066 Y-16.464 Z0.409 A45.7199 
N364 X-203.069 Y-15.703 Z1.222 A45.7022 
N365 X-203.071 Y-14.980 Z1.995 A45.6758 
N366 X-203.074 Y-14.293 Z2.721 A45.7280 
N367 X-203.076 Y-13.655 Z3.401 A45.7548 
N368 X-203.078 Y-13.048 Z4.056 A45.7166 
N369 X-203.073 Y-12.565 Z4.760 A43.7586 
N370 X-203.056 Y-12.250 Z5.632 A37.6425 
N371 X-203.029 Y-11.997 Z6.706 A27.0222 
N372 X-203.009 Y-11.573 Z7.808 A14.8493 
N373 X-203.007 Y-10.895 Z8.658 A4.8115 
N374 X-203.027 Y-10.055 Z9.057 A359.7992 
N375 X-203.061 Y-9.137 Z9.134 A358.7423 
N376 X-203.100 Y-8.145 Z9.129 A358.7608 
N377 X-203.144 Y-7.065 Z9.124 A358.8075 
N378 X-203.190 Y-5.890 Z9.123 
N379 X-203.241 Y-4.619 Z9.122 
N380 X-203.295 Y-3.258 Z9.121 A358.8064 
N381 X-203.353 Y-1.819 Z9.120 A358.8060 
N382 X-203.413 Y-0.318 Z9.119 A358.8059 
N383 X-203.474 Y1.225 Z9.117 A358.8048 
N384 X-203.536 Y2.785 Z9.116 A358.8021 
N385 X-203.598 Y4.336 Z9.114 A358.7975 
N386 X-203.659 Y5.854 Z9.113 A358.7921 
N387 X-203.717 Y7.313 Z9.112 A358.7892 
N388 X-203.772 Y8.692 Z9.110 A358.7914 
N389 X-203.823 Y9.973 Z9.108 A358.8010 
N390 X-203.870 Y11.142 Z9.108 A358.8075 
N391 X-203.912 Y12.193 Z9.108 
N392 X-203.949 Y13.123 Z9.107 
N393 X-203.981 Y13.932 Z9.113 A358.7116 
N394 X-204.008 Y14.624 Z9.131 A358.4058 
N395 X-204.030 Y15.207 Z9.169 A357.7453 
N396 X-204.047 Y15.693 Z9.239 A356.5545 
N397 X-204.059 Y16.094 Z9.348 A354.7039 
N398 X-204.067 Y16.428 Z9.498 A352.1597 
N399 X-204.072 Y16.715 Z9.687 A348.9355 
N400 X-204.075 Y16.975 Z9.913 A345.0625 
N401 X-204.076 Y17.224 Z10.173 A340.5821 
N402 X-204.076 Y17.448 Z10.424 A336.1548 
N403 X-204.077 Y17.687 Z10.686 A331.3853 
N404 X-204.078 Y17.960 Z10.965 A326.0541 
N405 X-204.080 Y18.138 Z11.132 A322.6963 
N406 X-204.082 Y18.343 Z11.308 A318.9586 
N407 X-204.085 Y18.578 Z11.489 A314.8536 
N408 X-204.089 Y18.846 Z11.671 A310.3463 
N409 X-204.096 Y19.150 Z11.847 A305.4709 
N410 X-204.100 Y19.356 Z11.950 A302.2641 
N411 X-204.106 Y19.570 Z12.042 A299.0109 
N412 X-204.112 Y19.793 Z12.125 A295.6905 
N413 X-204.118 Y20.024 Z12.196 A292.3308 
N414 X-204.126 Y20.258 Z12.253 A288.9671 
N415 X-204.134 Y20.493 Z12.295 A285.6376 
N416 X-204.142 Y20.725 Z12.323 A282.3789 
N417 X-204.151 Y20.951 Z12.336 A279.2235 
N418 X-204.162 Y21.237 Z12.334 A275.2387 
N419 X-204.177 Y21.571 Z12.302 A270.5737 
N420 X-204.191 Y21.875 Z12.246 A266.2945 
N421 X-204.204 Y22.147 Z12.171 A262.3938 
N422 X-204.216 Y22.385 Z12.082 A258.8900 
N423 X-204.232 Y22.657 Z11.953 A254.7636 
N424 X-204.251 Y22.978 Z11.748 A249.5947 
N425 X-204.268 Y23.211 Z11.547 A245.5025 
N426 X-204.286 Y23.433 Z11.278 A241.0385 
N427 X-204.301 Y23.577 Z11.003 A237.3541 
N428 X-204.314 Y23.656 Z10.699 A234.0581 
N429 X-204.325 Y23.658 Z10.373 A231.3136 
N430 X-204.334 Y23.575 Z10.027 A229.1722 
N431 X-204.340 Y23.409 Z9.668 A227.6588 
N432 X-204.343 Y23.158 Z9.280 A226.6289 
N433 X-204.344 Y22.828 Z8.855 A225.9763 
N434 X-204.344 Y22.423 Z8.384 A225.5914 
N435 X-204.343 Y21.947 Z7.861 A225.3874 
N436 X-204.341 Y21.403 Z7.282 A225.2977 
N437 X-204.339 Y20.798 Z6.646 A225.2710 
N438 X-204.336 Y20.140 Z5.957 A225.2674 
N439 X-204.333 Y19.435 Z5.219 A225.2644 
N440 X-204.330 Y18.694 Z4.443 A225.2575 
N441 X-204.327 Y17.926 Z3.638 A225.2543 
N442 X-204.323 Y17.142 Z2.817 A225.2686 
N443 X-204.320 Y16.353 Z1.990 A225.2879 
N444 X-204.317 Y15.570 Z1.166 
N445 X-204.314 Y14.798 Z0.353 A225.2764 
N446 X-204.312 Y14.060 Z-0.447 A224.9967 
N447 X-204.311 Y13.361 Z-1.233 A224.3347 
N448 X-204.311 Y12.709 Z-2.011 A223.0250 
N449 X-204.314 Y12.109 Z-2.794 A220.7333 
N450 X-204.320 Y11.556 Z-3.596 A217.1040 
N451 X-204.326 Y11.018 Z-4.419 A212.1171 
N452 X-204.331 Y10.446 Z-5.237 A206.2172 
N453 X-204.332 Y9.800 Z-6.015 A199.9269 
N454 X-204.326 Y9.052 Z-6.713 A193.7825 
N455 X-204.311 Y8.195 Z-7.288 A188.3706 
N456 X-204.287 Y7.234 Z-7.699 A184.3106 
N457 X-204.254 Y6.186 Z-7.955 A181.7292 
N458 X-204.214 Y5.059 Z-8.096 A180.2712 
N459 X-204.168 Y3.855 Z-8.167 A179.5372 
N460 X-204.119 Y2.577 Z-8.197 A179.2353 
N461 X-204.065 Y1.230 Z-8.207 A179.1674 
N462 X-204.009 Y-0.176 Z-8.212 A179.1923 
N463 X-203.952 Y-1.628 Z-8.217 A179.2296 
N464 X-203.893 Y-3.107 Z-8.227 A179.2327 
N465 X-203.834 Y-4.595 Z-8.238 
N466 X-203.776 Y-6.068 Z-8.250 A179.2234 
N467 X-203.719 Y-7.503 Z-8.262 A179.2081 
N468 X-203.665 Y-8.880 Z-8.273 A179.2009 
N469 X-203.613 Y-10.179 Z-8.284 A179.2055 
N470 X-203.565 Y-11.386 Z-8.293 A179.2327 
N471 X-203.522 Y-12.488 Z-8.304 
N472 X-203.483 Y-13.483 Z-8.314 
N473 X-203.448 Y-14.370 Z-8.326 A179.1779 
N474 X-203.418 Y-15.142 Z-8.354 A178.8273 
N475 X-203.393 Y-15.806 Z-8.400 A178.1309 
N476 X-203.373 Y-16.370 Z-8.469 A176.9763 
N477 X-203.357 Y-16.843 Z-8.566 A175.2887 
N478 X-203.346 Y-17.246 Z-8.699 A172.9603 
N479 X-203.338 Y-17.587 Z-8.865 A170.0189 
N480 X-203.333 Y-17.887 Z-9.063 A166.4977 
N481 X-203.329 Y-18.163 Z-9.285 A162.5087 
N482 X-203.327 Y-18.404 Z-9.502 A158.5358 
N483 X-203.325 Y-18.659 Z-9.743 A154.0140 
N484 X-203.323 Y-18.880 Z-9.951 A149.9925 
N485 X-203.321 Y-19.147 Z-10.189 A145.1691 
N486 X-203.318 Y-19.362 Z-10.367 A141.3817 
N487 X-203.315 Y-19.560 Z-10.517 A137.9699 
N488 X-203.312 Y-19.782 Z-10.671 A134.2633 
N489 X-203.307 Y-20.030 Z-10.824 A130.2308 
N490 X-203.301 Y-20.301 Z-10.970 A125.9778 
N491 X-203.297 Y-20.501 Z-11.065 A122.9078 
N492 X-203.291 Y-20.713 Z-11.151 A119.7384 
N493 X-203.285 Y-20.933 Z-11.228 A116.4983 
N494 X-203.278 Y-21.160 Z-11.294 A113.2154 
N495 X-203.271 Y-21.392 Z-11.347 A109.9195 
N496 X-203.263 Y-21.624 Z-11.386 A106.6459 
N497 X-203.254 Y-21.864 Z-11.412 A103.2979 
N498 X-203.243 Y-22.155 Z-11.423 A99.2659 
N499 X-203.231 Y-22.432 Z-11.412 A95.4229 
N500 X-203.220 Y-22.693 Z-11.382 A91.8006 
N501 X-203.209 Y-22.933 Z-11.336 A88.4272 
N502 X-203.198 Y-23.154 Z-11.278 A85.2938 
N503 X-203.182 Y-23.472 Z-11.163 A80.6699 
N504 X-203.165 Y-23.766 Z-11.016 A76.2122 
N505 X-203.150 Y-24.004 Z-10.862 A72.4276 
N506 X-203.131 Y-24.273 Z-10.630 A67.7773 
N507 X-203.115 Y-24.472 Z-10.391 A63.8696 
N508 X-203.099 Y-24.638 Z-10.093 A59.8674 
N509 X-203.084 Y-24.736 Z-9.772 A56.3661 
N510 X-203.071 Y-24.760 Z-9.421 A53.3001 
N511 X-203.060 Y-24.700 Z-9.044 A50.7738 
N512 X-203.053 Y-24.551 Z-8.647 A48.8639 
N513 X-203.048 Y-24.311 Z-8.223 A47.5131 
N514 X-203.045 Y-23.984 Z-7.765 A46.6250 
N515 X-203.044 Y-23.575 Z-7.265 A46.0833 
N516 X-203.045 Y-23.089 Z-6.714 A45.7874 
N517 X-203.047 Y-22.533 Z-6.110 A45.6556 
N518 X-203.049 Y-21.913 Z-5.450 A45.6238 
N519 X-203.051 Y-21.240 Z-4.737 A45.6366 
N520 X-203.054 Y-20.522 Z-3.977 A45.6578 
N521 X-203.057 Y-19.771 Z-3.180 A45.6599 
N522 X-203.060 Y-18.997 Z-2.356 
N523 X-203.062 Y-18.211 Z-1.521 A45.6590 
N524 X-203.065 Y-17.428 Z-0.686 A45.6468 
N525 X-203.068 Y-16.657 Z0.135 A45.6309 
N526 X-203.070 Y-15.910 Z0.931 A45.6110 
N527 X-203.073 Y-15.195 Z1.694 A45.5909 
N528 X-203.075 Y-14.515 Z2.417 A45.5974 
N529 X-203.078 Y-13.872 Z3.097 A45.6599 
N530 X-203.080 Y-13.269 Z3.741 
N531 X-203.079 Y-12.736 Z4.401 A44.7415 
N532 X-203.067 Y-12.360 Z5.175 A40.6177 
N533 X-203.045 Y-12.100 Z6.137 A32.1755 
N534 X-203.022 Y-11.771 Z7.202 A21.0467 
N535 X-203.010 Y-11.229 Z8.174 A10.0837 
N536 X-203.018 Y-10.479 Z8.825 A2.2286 
N537 X-203.044 Y-9.616 Z9.067 A359.1092 
N538 X-203.080 Y-8.684 Z9.098 A358.6363 
N539 X-203.121 Y-7.673 Z9.088 A358.7124 
N540 X-203.164 Y-6.576 Z9.085 A358.7228 
N541 X-203.212 Y-5.385 Z9.083 
N542 X-203.263 Y-4.105 Z9.081 
N543 X-203.317 Y-2.743 Z9.078 A358.7215 
N544 X-203.374 Y-1.315 Z9.075 A358.7212 
N545 X-203.433 Y0.163 Z9.072 A358.7199 
N546 X-203.494 Y1.669 Z9.069 A358.7167 
N547 X-203.554 Y3.178 Z9.067 A358.7103 
N548 X-203.613 Y4.666 Z9.064 A358.7017 
N549 X-203.671 Y6.109 Z9.061 A358.6945 
N550 X-203.726 Y7.485 Z9.058 A358.6949 
N551 X-203.777 Y8.774 Z9.055 A358.7076 
N552 X-203.825 Y9.962 Z9.052 A358.7228 
N553 X-203.868 Y11.040 Z9.051 
N554 X-203.906 Y12.005 Z9.050 
N555 X-203.940 Y12.853 Z9.057 A358.5931 
N556 X-203.968 Y13.586 Z9.078 A358.2148 
N557 X-203.992 Y14.212 Z9.122 A357.4374 
N558 X-204.010 Y14.740 Z9.200 A356.0682 
N559 X-204.024 Y15.185 Z9.321 A353.9459 
N560 X-204.033 Y15.566 Z9.488 A351.0060 
N561 X-204.039 Y15.898 Z9.691 A347.4088 
N562 X-204.044 Y16.194 Z9.913 A343.3897 
N563 X-204.047 Y16.462 Z10.139 A339.2200 
N564 X-204.049 Y16.725 Z10.374 A334.7611 
N565 X-204.051 Y16.977 Z10.600 A330.3280 
N566 X-204.054 Y17.234 Z10.819 A325.8202 
N567 X-204.057 Y17.448 Z10.989 A322.1373 
N568 X-204.061 Y17.692 Z11.168 A318.0225 
N569 X-204.065 Y17.970 Z11.349 A313.4778 
N570 X-204.069 Y18.164 Z11.463 A310.3849 
N571 X-204.074 Y18.368 Z11.569 A307.2259 
N572 X-204.079 Y18.585 Z11.670 A303.9265 
N573 X-204.085 Y18.814 Z11.763 A300.5031 
N574 X-204.092 Y19.055 Z11.844 A296.9890 
N575 X-204.099 Y19.298 Z11.911 A293.5122 
N576 X-204.107 Y19.532 Z11.961 A290.1958 
N577 X-204.115 Y19.768 Z11.996 A286.9041 
N578 X-204.124 Y20.001 Z12.018 A283.6651 
N579 X-204.133 Y20.230 Z12.024 A280.5089 
N580 X-204.142 Y20.451 Z12.018 A277.4605 
N581 X-204.152 Y20.692 Z11.995 A274.1280 
N582 X-204.165 Y20.982 Z11.945 A270.0785 
N583 X-204.178 Y21.246 Z11.876 A266.3441 
N584 X-204.190 Y21.484 Z11.792 A262.9124 
N585 X-204.204 Y21.723 Z11.685 A259.3783 
N586 X-204.221 Y22.011 Z11.517 A254.9252 
N587 X-204.236 Y22.241 Z11.342 A251.1298 
N588 X-204.253 Y22.475 Z11.107 A246.8963 
N589 X-204.269 Y22.655 Z10.856 A243.1458 
N590 X-204.285 Y22.797 Z10.556 A239.4091 
N591 X-204.299 Y22.878 Z10.229 A236.0333 
N592 X-204.312 Y22.888 Z9.874 A233.0815 
N593 X-204.322 Y22.819 Z9.493 A230.6096 
N594 X-204.330 Y22.670 Z9.094 A228.6631 
N595 X-204.335 Y22.437 Z8.666 A227.1698 
N596 X-204.338 Y22.122 Z8.209 A226.0986 
N597 X-204.339 Y21.728 Z7.718 A225.4005 
N598 X-204.338 Y21.258 Z7.188 A225.0018 
N599 X-204.337 Y20.721 Z6.614 A224.8128 
N600 X-204.334 Y20.125 Z5.994 A224.7434 
N601 X-204.331 Y19.480 Z5.329 A224.7220 
N602 X-204.328 Y18.794 Z4.624 A224.7152 
N603 X-204.324 Y18.076 Z3.886 A224.7155 
N604 X-204.321 Y17.334 Z3.125 A224.7367 
N605 X-204.317 Y16.581 Z2.350 A224.7629 
N606 X-204.314 Y15.825 Z1.568 
N607 X-204.310 Y15.069 Z0.783 A224.7231 
N608 X-204.308 Y14.343 Z-0.002 A224.3152 
N609 X-204.307 Y13.648 Z-0.786 A223.4243 
N610 X-204.308 Y12.990 Z-1.570 A221.8589 
N611 X-204.309 Y12.365 Z-2.355 A219.4811 
N612 X-204.312 Y11.764 Z-3.144 A216.1596 
N613 X-204.315 Y11.165 Z-3.932 A211.9343 
N614 X-204.317 Y10.535 Z-4.703 A207.0973 
N615 X-204.314 Y9.848 Z-5.434 A201.9730 
N616 X-204.307 Y9.086 Z-6.109 A196.7989 
N617 X-204.293 Y8.237 Z-6.705 A191.8533 
N618 X-204.272 Y7.296 Z-7.192 A187.5619 
N619 X-204.244 Y6.267 Z-7.551 A184.2604 
N620 X-204.208 Y5.159 Z-7.792 A181.9682 
N621 X-204.166 Y3.980 Z-7.939 A180.5368 
N622 X-204.119 Y2.735 Z-8.017 A179.7838 
N623 X-204.068 Y1.430 Z-8.052 A179.4919 
N624 X-204.014 Y0.074 Z-8.067 A179.4480 
N625 X-203.959 Y-1.321 Z-8.078 A179.4835 
N626 X-203.903 Y-2.739 Z-8.091 A179.5162 
N627 X-203.847 Y-4.161 Z-8.108 
N628 X-203.791 Y-5.569 Z-8.125 
N629 X-203.737 Y-6.941 Z-8.143 A179.5072 
N630 X-203.685 Y-8.260 Z-8.160 A179.5033 
N631 X-203.636 Y-9.507 Z-8.176 A179.5130 
N632 X-203.591 Y-10.667 Z-8.192 A179.5162 
N633 X-203.549 Y-11.734 Z-8.208 
N634 X-203.510 Y-12.704 Z-8.222 A179.5155 
N635 X-203.477 Y-13.565 Z-8.251 A179.2287 
N636 X-203.449 Y-14.323 Z-8.299 A178.5720 
N637 X-203.425 Y-14.979 Z-8.372 A177.4084 
N638 X-203.406 Y-15.544 Z-8.470 A175.7021 
N639 X-203.391 Y-16.027 Z-8.594 A173.4555 
N640 X-203.379 Y-16.445 Z-8.742 A170.6808 
N641 X-203.370 Y-16.804 Z-8.911 A167.4720 
N642 X-203.364 Y-17.127 Z-9.099 A163.8564 
N643 X-203.359 Y-17.423 Z-9.297 A159.9698 
N644 X-203.355 Y-17.702 Z-9.500 A155.8850 
N645 X-203.351 Y-17.949 Z-9.687 A152.0413 
N646 X-203.347 Y-18.221 Z-9.891 A147.6641 
N647 X-203.344 Y-18.434 Z-10.044 A144.2220 
N648 X-203.340 Y-18.675 Z-10.207 A140.3486 
N649 X-203.335 Y-18.924 Z-10.362 A136.4183 
N650 X-203.331 Y-19.124 Z-10.476 A133.3031 
N651 X-203.327 Y-19.341 Z-10.589 A129.9756 
N652 X-203.321 Y-19.576 Z-10.697 A126.4504 
N653 X-203.315 Y-19.819 Z-10.794 A122.8640 
N654 X-203.309 Y-20.030 Z-10.867 A119.8159 
N655 X-203.302 Y-20.248 Z-10.930 A116.6986 
N656 X-203.295 Y-20.473 Z-10.982 A113.5387 
N657 X-203.287 Y-20.701 Z-11.022 A110.3632 
N658 X-203.279 Y-20.929 Z-11.049 A107.2026 
N659 X-203.269 Y-21.182 Z-11.063 A103.7372 
N660 X-203.259 Y-21.429 Z-11.061 A100.3522 
N661 X-203.249 Y-21.667 Z-11.044 A97.0917 
N662 X-203.239 Y-21.894 Z-11.012 A93.9718 
N663 X-203.228 Y-22.138 Z-10.960 A90.5756 
N664 X-203.214 Y-22.420 Z-10.875 A86.5991 
N665 X-203.200 Y-22.671 Z-10.773 A82.9685 
N666 X-203.187 Y-22.905 Z-10.653 A79.4645 
N667 X-203.170 Y-23.178 Z-10.471 A75.1813 
N668 X-203.154 Y-23.397 Z-10.283 A71.4912 
N669 X-203.137 Y-23.623 Z-10.025 A67.2755 
N670 X-203.120 Y-23.797 Z-9.740 A63.4154 
N671 X-203.104 Y-23.922 Z-9.415 A59.7413 
N672 X-203.089 Y-23.987 Z-9.055 A56.3439 
N673 X-203.076 Y-23.977 Z-8.664 A53.3679 
N674 X-203.066 Y-23.880 Z-8.242 A50.8756 
N675 X-203.058 Y-23.694 Z-7.796 A48.9475 
N676 X-203.053 Y-23.419 Z-7.323 A47.5278 
N677 X-203.050 Y-23.057 Z-6.817 A46.5459 
N678 X-203.049 Y-22.612 Z-6.272 A45.9369 
N679 X-203.050 Y-22.092 Z-5.686 A45.6212 
N680 X-203.052 Y-21.505 Z-5.055 A45.5077 
N681 X-203.054 Y-20.864 Z-4.377 A45.5022 
N682 X-203.057 Y-20.179 Z-3.656 A45.5294 
N683 X-203.060 Y-19.461 Z-2.898 A45.5426 
N684 X-203.062 Y-18.722 Z-2.115 
N685 X-203.065 Y-17.970 Z-1.318 
N686 X-203.068 Y-17.218 Z-0.520 A45.5320 
N687 X-203.071 Y-16.478 Z0.266 A45.5176 
N688 X-203.073 Y-15.757 Z1.031 A45.5072 
N689 X-203.076 Y-15.065 Z1.766 A45.4956 
N690 X-203.078 Y-14.403 Z2.464 A45.5315 
N691 X-203.081 Y-13.781 Z3.124 A45.5426 
N692 X-203.083 Y-13.186 Z3.757 
N693 X-203.080 Y-12.683 Z4.413 A44.2730 
N694 X-203.068 Y-12.321 Z5.188 A39.8811 
N695 X-203.047 Y-12.051 Z6.124 A31.6614 
N696 X-203.026 Y-11.708 Z7.144 A21.1521 
N697 X-203.015 Y-11.172 Z8.090 A10.5720 
N698 X-203.022 Y-10.437 Z8.751 A2.6332 
N699 X-203.047 Y-9.586 Z9.019 A359.1977 
N700 X-203.082 Y-8.664 Z9.061 A358.5692 
N701 X-203.122 Y-7.667 Z9.051 A358.6263 
N702 X-203.165 Y-6.585 Z9.046 A358.6460 
N703 X-203.212 Y-5.413 Z9.042 
N704 X-203.263 Y-4.154 Z9.038 
N705 X-203.316 Y-2.817 Z9.033 A358.6453 
N706 X-203.372 Y-1.415 Z9.028 A358.6447 
N707 X-203.430 Y0.033 Z9.023 A358.6431 
N708 X-203.489 Y1.507 Z9.018 A358.6392 
N709 X-203.548 Y2.984 Z9.013 A358.6318 
N710 X-203.606 Y4.438 Z9.008 A358.6216 
N711 X-203.662 Y5.848 Z9.004 A358.6133 
N712 X-203.716 Y7.191 Z8.999 A358.6138 
N713 X-203.766 Y8.449 Z8.994 A358.6288 
N714 X-203.813 Y9.608 Z8.990 A358.6460 
N715 X-203.855 Y10.658 Z8.988 
N716 X-203.892 Y11.601 Z8.986 
N717 X-203.925 Y12.429 Z8.994 A358.4818 
N718 X-203.953 Y13.147 Z9.019 A358.0288 
N719 X-203.975 Y13.759 Z9.070 A357.1047 
N720 X-203.993 Y14.279 Z9.162 A355.4917 
N721 X-204.006 Y14.723 Z9.304 A352.9952 
N722 X-204.015 Y15.103 Z9.491 A349.6865 
N723 X-204.021 Y15.444 Z9.710 A345.7223 
N724 X-204.025 Y15.751 Z9.937 A341.5050 
N725 X-204.029 Y16.042 Z10.166 A337.0874 
N726 X-204.032 Y16.316 Z10.388 A332.6557 
N727 X-204.036 Y16.571 Z10.591 A328.4384 
N728 X-204.039 Y16.818 Z10.777 A324.3547 
N729 X-204.043 Y17.082 Z10.961 A320.0509 
N730 X-204.047 Y17.288 Z11.093 A316.7500 
N731 X-204.052 Y17.514 Z11.225 A313.1988 
N732 X-204.057 Y17.762 Z11.355 A309.3958 
N733 X-204.063 Y17.995 Z11.461 A305.8939 
N734 X-204.068 Y18.201 Z11.544 A302.8541 
N735 X-204.074 Y18.417 Z11.618 A299.7222 
N736 X-204.081 Y18.641 Z11.683 A296.5256 
N737 X-204.088 Y18.870 Z11.736 A293.2957 
N738 X-204.096 Y19.104 Z11.776 A290.0445 
N739 X-204.105 Y19.340 Z11.803 A286.7819 
N740 X-204.114 Y19.574 Z11.815 A283.5732 
N741 X-204.123 Y19.802 Z11.813 A280.4445 
N742 X-204.132 Y20.023 Z11.798 A277.4199 
N743 X-204.142 Y20.256 Z11.767 A274.2120 
N744 X-204.155 Y20.522 Z11.711 A270.5159 
N745 X-204.167 Y20.765 Z11.639 A267.0833 
N746 X-204.179 Y20.986 Z11.554 A263.9090 
N747 X-204.193 Y21.238 Z11.431 A260.1720 
N748 X-204.208 Y21.486 Z11.276 A256.3326 
N749 X-204.222 Y21.702 Z11.107 A252.8013 
N750 X-204.239 Y21.926 Z10.879 A248.7960 
N751 X-204.255 Y22.107 Z10.629 A245.1117 
N752 X-204.270 Y22.251 Z10.345 A241.5447 
N753 X-204.285 Y22.351 Z10.020 A238.0775 
N754 X-204.299 Y22.390 Z9.660 A234.8802 
N755 X-204.311 Y22.360 Z9.272 A232.0477 
N756 X-204.321 Y22.256 Z8.859 A229.6050 
N757 X-204.329 Y22.069 Z8.420 A227.5877 
N758 X-204.334 Y21.797 Z7.958 A226.0560 
N759 X-204.336 Y21.439 Z7.474 A225.0245 
N760 X-204.336 Y20.999 Z6.963 A224.4241 
N761 X-204.334 Y20.488 Z6.418 A224.1349 
N762 X-204.331 Y19.917 Z5.834 A224.0256 
N763 X-204.328 Y19.294 Z5.207 A223.9948 
N764 X-204.324 Y18.630 Z4.542 A223.9945 
N765 X-204.320 Y17.933 Z3.843 A224.0057 
N766 X-204.316 Y17.209 Z3.120 A224.0443 
N767 X-204.312 Y16.473 Z2.379 
N768 X-204.308 Y15.726 Z1.625 
N769 X-204.304 Y14.984 Z0.861 A223.8616 
N770 X-204.302 Y14.265 Z0.090 A223.2700 
N771 X-204.301 Y13.571 Z-0.687 A222.1322 
N772 X-204.301 Y12.906 Z-1.468 A220.3217 
N773 X-204.302 Y12.261 Z-2.249 A217.7610 
N774 X-204.303 Y11.625 Z-3.030 A214.4085 
N775 X-204.303 Y10.977 Z-3.801 A210.3700 
N776 X-204.302 Y10.294 Z-4.547 A205.8971 
N777 X-204.296 Y9.554 Z-5.250 A201.2130 
N778 X-204.286 Y8.745 Z-5.897 A196.5166 
N779 X-204.270 Y7.856 Z-6.468 A192.0397 
N780 X-204.247 Y6.885 Z-6.942 A188.1002 
N781 X-204.218 Y5.833 Z-7.307 A184.9262 
N782 X-204.182 Y4.710 Z-7.565 A182.5855 
N783 X-204.140 Y3.522 Z-7.731 A181.0560 
N784 X-204.094 Y2.278 Z-7.825 A180.2311 
N785 X-204.044 Y0.984 Z-7.872 A179.9019 
N786 X-203.992 Y-0.348 Z-7.898 A179.8382 
N787 X-203.938 Y-1.706 Z-7.918 A179.8619 
N788 X-203.885 Y-3.074 Z-7.940 A179.8892 
N789 X-203.831 Y-4.436 Z-7.964 A179.8987 
N790 X-203.779 Y-5.772 Z-7.989 A179.8993 
N791 X-203.728 Y-7.065 Z-8.014 
N792 X-203.680 Y-8.298 Z-8.039 
N793 X-203.634 Y-9.457 Z-8.064 
N794 X-203.592 Y-10.533 Z-8.086 
N795 X-203.554 Y-11.521 Z-8.108 A179.8788 
N796 X-203.520 Y-12.408 Z-8.143 A179.5908 
N797 X-203.490 Y-13.195 Z-8.197 A178.9178 
N798 X-203.465 Y-13.887 Z-8.277 A177.6884 
N799 X-203.445 Y-14.489 Z-8.387 A175.8392 
N800 X-203.429 Y-15.012 Z-8.520 A173.4168 
N801 X-203.416 Y-15.467 Z-8.671 A170.5374 
N802 X-203.405 Y-15.869 Z-8.836 A167.2671 
N803 X-203.397 Y-16.227 Z-9.010 A163.7091 
N804 X-203.390 Y-16.550 Z-9.189 A159.9597 
N805 X-203.384 Y-16.847 Z-9.365 A156.1480 
N806 X-203.379 Y-17.117 Z-9.532 A152.4212 
N807 X-203.374 Y-17.385 Z-9.699 A148.5665 
N808 X-203.369 Y-17.631 Z-9.847 A144.9510 
N809 X-203.364 Y-17.881 Z-9.991 A141.2402 
N810 X-203.360 Y-18.103 Z-10.111 A137.9550 
N811 X-203.354 Y-18.345 Z-10.232 A134.3942 
N812 X-203.349 Y-18.570 Z-10.333 A131.1211 
N813 X-203.343 Y-18.783 Z-10.419 A128.0513 
N814 X-203.337 Y-19.009 Z-10.500 A124.8387 
N815 X-203.330 Y-19.246 Z-10.572 A121.5080 
N816 X-203.323 Y-19.461 Z-10.626 A118.5106 
N817 X-203.316 Y-19.683 Z-10.671 A115.4622 
N818 X-203.308 Y-19.908 Z-10.705 A112.3848 
N819 X-203.300 Y-20.135 Z-10.726 A109.3031 
N820 X-203.290 Y-20.372 Z-10.735 A106.1040 
N821 X-203.281 Y-20.606 Z-10.730 A102.9435 
N822 X-203.271 Y-20.834 Z-10.711 A99.8617 
N823 X-203.261 Y-21.055 Z-10.679 A96.8714 
N824 X-203.249 Y-21.314 Z-10.622 A93.3229 
N825 X-203.237 Y-21.556 Z-10.550 A89.9758 
N826 X-203.225 Y-21.777 Z-10.465 A86.8417 
N827 X-203.211 Y-22.038 Z-10.337 A83.0519 
N828 X-203.196 Y-22.272 Z-10.193 A79.5160 
N829 X-203.181 Y-22.508 Z-10.009 A75.7472 
N830 X-203.165 Y-22.723 Z-9.796 A72.0313 
N831 X-203.148 Y-22.926 Z-9.531 A68.1254 
N832 X-203.131 Y-23.088 Z-9.231 A64.3816 
N833 X-203.115 Y-23.206 Z-8.891 A60.7588 
N834 X-203.099 Y-23.266 Z-8.512 A57.3568 
N835 X-203.086 Y-23.255 Z-8.095 A54.2612 
N836 X-203.074 Y-23.162 Z-7.650 A51.6307 
N837 X-203.065 Y-22.981 Z-7.178 A49.4774 
N838 X-203.059 Y-22.711 Z-6.678 A47.8137 
N839 X-203.055 Y-22.353 Z-6.152 A46.6312 
N840 X-203.054 Y-21.911 Z-5.598 A45.9007 
N841 X-203.055 Y-21.393 Z-5.010 A45.5357 
N842 X-203.056 Y-20.811 Z-4.385 A45.4171 
N843 X-203.059 Y-20.179 Z-3.719 A45.4166 
N844 X-203.062 Y-19.509 Z-3.017 A45.4461 
N845 X-203.064 Y-18.813 Z-2.283 A45.4558 
N846 X-203.067 Y-18.099 Z-1.529 
N847 X-203.070 Y-17.378 Z-0.766 A45.4539 
N848 X-203.073 Y-16.661 Z-0.007 A45.4393 
N849 X-203.075 Y-15.957 Z0.739 A45.4265 
N850 X-203.078 Y-15.274 Z1.461 A45.4174 
N851 X-203.080 Y-14.618 Z2.154 A45.4303 
N852 X-203.083 Y-13.994 Z2.813 A45.4558 
N853 X-203.085 Y-13.402 Z3.441 
N854 X-203.085 Y-12.860 Z4.069 A44.9032 
N855 X-203.078 Y-12.441 Z4.771 A42.0649 
N856 X-203.061 Y-12.142 Z5.619 A35.6795 
N857 X-203.040 Y-11.843 Z6.579 A26.5013 
N858 X-203.024 Y-11.408 Z7.550 A16.1750 
N859 X-203.021 Y-10.777 Z8.373 A6.7374 
N860 X-203.036 Y-9.984 Z8.859 A0.7620 
N861 X-203.066 Y-9.102 Z9.011 A358.7401 
N862 X-203.104 Y-8.150 Z9.020 A358.5263 
N863 X-203.145 Y-7.116 Z9.009 A358.5964 
N864 X-203.190 Y-5.997 Z9.003 
N865 X-203.239 Y-4.788 Z8.998 
N866 X-203.290 Y-3.497 Z8.991 
N867 X-203.345 Y-2.135 Z8.985 A358.5960 
N868 X-203.402 Y-0.717 Z8.978 A358.5952 
N869 X-203.460 Y0.738 Z8.971 A358.5934 
N870 X-203.519 Y2.207 Z8.964 A358.5894 
N871 X-203.577 Y3.666 Z8.957 A358.5826 
N872 X-203.634 Y5.092 Z8.950 A358.5746 
N873 X-203.689 Y6.462 Z8.944 A358.5695 
N874 X-203.741 Y7.757 Z8.937 A358.5718 
N875 X-203.789 Y8.959 Z8.931 A358.5843 
N876 X-203.833 Y10.058 Z8.926 A358.5964 
N877 X-203.872 Y11.046 Z8.922 
N878 X-203.907 Y11.924 Z8.919 
N879 X-203.938 Y12.690 Z8.926 A358.4356 
N880 X-203.963 Y13.348 Z8.954 A357.9342 
N881 X-203.983 Y13.908 Z9.018 A356.8276 
N882 X-203.998 Y14.382 Z9.135 A354.8313 
N883 X-204.008 Y14.791 Z9.314 A351.7714 
N884 X-204.015 Y15.152 Z9.541 A347.8170 
N885 X-204.019 Y15.482 Z9.791 A343.3174 
N886 X-204.023 Y15.787 Z10.039 A338.6647 
N887 X-204.026 Y16.068 Z10.272 A334.1203 
N888 X-204.030 Y16.359 Z10.503 A329.3459 
N889 X-204.034 Y16.597 Z10.679 A325.4817 
N890 X-204.038 Y16.865 Z10.863 A321.1762 
N891 X-204.042 Y17.092 Z11.006 A317.5904 
N892 X-204.047 Y17.307 Z11.129 A314.2591 
N893 X-204.052 Y17.541 Z11.249 A310.7060 
N894 X-204.058 Y17.786 Z11.361 A307.0446 
N895 X-204.063 Y17.987 Z11.441 A304.1014 
N896 X-204.069 Y18.197 Z11.514 A301.0687 
N897 X-204.075 Y18.415 Z11.578 A297.9670 
N898 X-204.083 Y18.639 Z11.631 A294.8192 
N899 X-204.090 Y18.866 Z11.672 A291.6707 
N900 X-204.098 Y19.091 Z11.701 A288.5731 
N901 X-204.107 Y19.315 Z11.716 A285.5022 
N902 X-204.115 Y19.536 Z11.719 A282.4802 
N903 X-204.124 Y19.753 Z11.710 A279.5280 
N904 X-204.134 Y19.984 Z11.685 A276.3626 
N905 X-204.146 Y20.235 Z11.641 A272.9133 
N906 X-204.157 Y20.469 Z11.583 A269.6455 
N907 X-204.168 Y20.687 Z11.512 A266.5604 
N908 X-204.181 Y20.932 Z11.410 A263.0184 
N909 X-204.196 Y21.186 Z11.277 A259.2197 
N910 X-204.210 Y21.406 Z11.134 A255.7717 
N911 X-204.227 Y21.655 Z10.930 A251.6297 
N912 X-204.242 Y21.863 Z10.713 A247.8596 
N913 X-204.260 Y22.065 Z10.433 A243.6870 
N914 X-204.277 Y22.222 Z10.122 A239.7072 
N915 X-204.293 Y22.324 Z9.776 A235.9520 
N916 X-204.307 Y22.355 Z9.406 A232.6274 
N917 X-204.318 Y22.305 Z9.011 A229.7558 
N918 X-204.327 Y22.169 Z8.598 A227.4361 
N919 X-204.332 Y21.944 Z8.169 A225.7021 
N920 X-204.335 Y21.629 Z7.724 A224.5513 
N921 X-204.335 Y21.229 Z7.257 A223.9012 
N922 X-204.333 Y20.755 Z6.758 A223.6054 
N923 X-204.330 Y20.216 Z6.217 A223.5039 
N924 X-204.326 Y19.623 Z5.631 A223.4684 
N925 X-204.322 Y18.983 Z5.000 A223.4395 
N926 X-204.318 Y18.302 Z4.330 A223.4085 
N927 X-204.314 Y17.588 Z3.629 A223.3942 
N928 X-204.309 Y16.848 Z2.905 A223.3943 
N929 X-204.304 Y16.094 Z2.163 A223.3601 
N930 X-204.300 Y15.338 Z1.409 A223.1833 
N931 X-204.296 Y14.593 Z0.643 A222.7189 
N932 X-204.293 Y13.865 Z-0.131 A221.8217 
N933 X-204.292 Y13.158 Z-0.910 A220.3583 
N934 X-204.291 Y12.472 Z-1.694 A218.2065 
N935 X-204.291 Y11.798 Z-2.481 A215.2666 
N936 X-204.291 Y11.120 Z-3.265 A211.5730 
N937 X-204.289 Y10.416 Z-4.029 A207.3276 
N938 X-204.284 Y9.663 Z-4.758 A202.7689 
N939 X-204.274 Y8.846 Z-5.432 A198.1280 
N940 X-204.259 Y7.956 Z-6.035 A193.6461 
N941 X-204.238 Y6.987 Z-6.544 A189.6087 
N942 X-204.210 Y5.943 Z-6.948 A186.2592 
N943 X-204.176 Y4.831 Z-7.246 A183.7010 
N944 X-204.136 Y3.659 Z-7.447 A181.9509 
N945 X-204.092 Y2.437 Z-7.570 A180.9441 
N946 X-204.044 Y1.171 Z-7.640 A180.4917 
N947 X-203.993 Y-0.126 Z-7.682 A180.3625 
N948 X-203.942 Y-1.444 Z-7.714 A180.3606 
N949 X-203.890 Y-2.768 Z-7.747 A180.3838 
N950 X-203.839 Y-4.082 Z-7.781 A180.3978 
N951 X-203.789 Y-5.369 Z-7.815 A180.4053 
N952 X-203.741 Y-6.611 Z-7.850 A180.4124 
N953 X-203.695 Y-7.795 Z-7.885 
N954 X-203.651 Y-8.908 Z-7.919 
N955 X-203.611 Y-9.943 Z-7.950 
N956 X-203.574 Y-10.892 Z-7.982 A180.3494 
N957 X-203.542 Y-11.745 Z-8.029 A179.9823 
N958 X-203.514 Y-12.505 Z-8.097 A179.1582 
N959 X-203.491 Y-13.174 Z-8.197 A177.6783 
N960 X-203.472 Y-13.761 Z-8.331 A175.4678 
N961 X-203.457 Y-14.277 Z-8.490 A172.6181 
N962 X-203.445 Y-14.733 Z-8.664 A169.3090 
N963 X-203.434 Y-15.140 Z-8.841 A165.7293 
N964 X-203.426 Y-15.510 Z-9.020 A161.9392 
N965 X-203.418 Y-15.845 Z-9.192 A158.1136 
N966 X-203.412 Y-16.152 Z-9.352 A154.3648 
N967 X-203.405 Y-16.438 Z-9.502 A150.6861 
N968 X-203.399 Y-16.719 Z-9.645 A146.9589 
N969 X-203.393 Y-16.963 Z-9.764 A143.6512 
N970 X-203.387 Y-17.220 Z-9.882 A140.1480 
N971 X-203.381 Y-17.448 Z-9.978 A137.0365 
N972 X-203.375 Y-17.691 Z-10.072 A133.7217 
N973 X-203.369 Y-17.911 Z-10.149 A130.7166 
N974 X-203.362 Y-18.135 Z-10.217 A127.6944 
N975 X-203.355 Y-18.368 Z-10.278 A124.5566 
N976 X-203.348 Y-18.583 Z-10.325 A121.6743 
N977 X-203.340 Y-18.805 Z-10.363 A118.7277 
N978 X-203.332 Y-19.031 Z-10.391 A115.7324 
N979 X-203.324 Y-19.255 Z-10.408 A112.7833 
N980 X-203.315 Y-19.478 Z-10.414 A109.8423 
N981 X-203.306 Y-19.701 Z-10.407 A106.9128 
N982 X-203.296 Y-19.929 Z-10.388 A103.9058 
N983 X-203.286 Y-20.159 Z-10.356 A100.8678 
N984 X-203.276 Y-20.381 Z-10.310 A97.9027 
N985 X-203.264 Y-20.612 Z-10.247 A94.7914 
N986 X-203.252 Y-20.847 Z-10.166 A91.5774 
N987 X-203.240 Y-21.066 Z-10.071 A88.5213 
N988 X-203.226 Y-21.308 Z-9.943 A85.0454 
N989 X-203.212 Y-21.530 Z-9.799 A81.7318 
N990 X-203.197 Y-21.764 Z-9.614 A78.0690 
N991 X-203.181 Y-21.976 Z-9.406 A74.4989 
N992 X-203.164 Y-22.182 Z-9.150 A70.7008 
N993 X-203.147 Y-22.362 Z-8.854 A66.8867 
N994 X-203.130 Y-22.506 Z-8.516 A63.0878 
N995 X-203.113 Y-22.604 Z-8.130 A59.3323 
N996 X-203.097 Y-22.635 Z-7.704 A55.8263 
N997 X-203.084 Y-22.585 Z-7.254 A52.7873 
N998 X-203.073 Y-22.445 Z-6.776 A50.2423 
N999 X-203.065 Y-22.214 Z-6.278 A48.2482 
N1000 X-203.060 Y-21.892 Z-5.760 A46.8161 
N1001 X-203.058 Y-21.482 Z-5.222 A45.9242 
N1002 X-203.058 Y-20.994 Z-4.658 A45.4728 
N1003 X-203.060 Y-20.441 Z-4.061 A45.3190 
N1004 X-203.063 Y-19.838 Z-3.429 A45.3102 
N1005 X-203.065 Y-19.199 Z-2.760 A45.3408 
N1006 X-203.068 Y-18.533 Z-2.061 A45.3547 
N1007 X-203.071 Y-17.849 Z-1.342 
N1008 X-203.073 Y-17.157 Z-0.612 A45.3542 
N1009 X-203.076 Y-16.467 Z0.115 A45.3392 
N1010 X-203.079 Y-15.789 Z0.832 A45.3236 
N1011 X-203.081 Y-15.129 Z1.527 A45.3115 
N1012 X-203.084 Y-14.495 Z2.196 A45.3157 
N1013 X-203.086 Y-13.887 Z2.833 A45.3547 
N1014 X-203.088 Y-13.312 Z3.441 
N1015 X-203.089 Y-12.780 Z4.050 A44.8736 
N1016 X-203.082 Y-12.369 Z4.736 A42.1193 
N1017 X-203.065 Y-12.082 Z5.572 A35.7822 
N1018 X-203.043 Y-11.798 Z6.532 A26.5023 
N1019 X-203.027 Y-11.375 Z7.503 A16.1073 
N1020 X-203.024 Y-10.752 Z8.321 A6.7013 
N1021 X-203.039 Y-9.968 Z8.805 A0.7424 
N1022 X-203.068 Y-9.094 Z8.958 A358.6919 
N1023 X-203.106 Y-8.148 Z8.967 A358.4619 
N1024 X-203.147 Y-7.122 Z8.955 A358.5317 
N1025 X-203.192 Y-6.008 Z8.948 A358.5322 
N1026 X-203.240 Y-4.805 Z8.941 
N1027 X-203.291 Y-3.519 Z8.933 
N1028 X-203.346 Y-2.161 Z8.926 A358.5316 
N1029 X-203.402 Y-0.746 Z8.917 A358.5315 
N1030 X-203.461 Y0.707 Z8.909 A358.5309 
N1031 X-203.519 Y2.174 Z8.901 A358.5292 
N1032 X-203.578 Y3.632 Z8.892 A358.5253 
N1033 X-203.635 Y5.057 Z8.885 A358.5189 
N1034 X-203.690 Y6.426 Z8.877 A358.5109 
N1035 X-203.741 Y7.720 Z8.870 A358.5022 
N1036 X-203.790 Y8.921 Z8.864 A358.4986 
N1037 X-203.833 Y10.017 Z8.858 A358.5010 
N1038 X-203.873 Y11.003 Z8.851 A358.5303 
N1039 X-203.908 Y11.872 Z8.848 A358.5322 
N1040 X-203.938 Y12.633 Z8.845 
N1041 X-203.964 Y13.291 Z8.856 A358.3398 
N1042 X-203.985 Y13.846 Z8.903 A357.5624 
N1043 X-204.000 Y14.317 Z9.005 A355.8922 
N1044 X-204.010 Y14.717 Z9.174 A353.0903 
N1045 X-204.016 Y15.069 Z9.406 A349.1938 
N1046 X-204.020 Y15.392 Z9.679 A344.4860 
N1047 X-204.022 Y15.697 Z9.965 A339.3876 
N1048 X-204.025 Y15.999 Z10.245 A334.1180 
N1049 X-204.028 Y16.296 Z10.498 A329.0352 
N1050 X-204.031 Y16.551 Z10.692 A324.8098 
N1051 X-204.035 Y16.800 Z10.863 A320.8062 
N1052 X-204.040 Y17.067 Z11.028 A316.6007 
N1053 X-204.045 Y17.271 Z11.140 A313.4747 
N1054 X-204.050 Y17.488 Z11.247 A310.2044 
N1055 X-204.055 Y17.718 Z11.347 A306.8090 
N1056 X-204.062 Y17.947 Z11.434 A303.4802 
N1057 X-204.068 Y18.150 Z11.499 A300.5860 
N1058 X-204.074 Y18.358 Z11.555 A297.6542 
N1059 X-204.081 Y18.571 Z11.600 A294.7018 
N1060 X-204.088 Y18.785 Z11.635 A291.7453 
N1061 X-204.096 Y19.002 Z11.659 A288.7722 
N1062 X-204.104 Y19.221 Z11.671 A285.8011 
N1063 X-204.113 Y19.436 Z11.671 A282.8742 
N1064 X-204.122 Y19.648 Z11.659 A280.0059 
N1065 X-204.131 Y19.853 Z11.636 A277.2080 
N1066 X-204.142 Y20.091 Z11.594 A273.9397 
N1067 X-204.153 Y20.323 Z11.537 A270.7329 
N1068 X-204.164 Y20.541 Z11.468 A267.6665 
N1069 X-204.175 Y20.754 Z11.384 A264.6062 
N1070 X-204.190 Y21.013 Z11.257 A260.7807 
N1071 X-204.204 Y21.246 Z11.118 A257.2148 
N1072 X-204.219 Y21.486 Z10.942 A253.3468 
N1073 X-204.237 Y21.726 Z10.723 A249.1773 
N1074 X-204.255 Y21.956 Z10.458 A244.7766 
N1075 X-204.273 Y22.157 Z10.151 A240.3152 
N1076 X-204.291 Y22.307 Z9.801 A235.9649 
N1077 X-204.307 Y22.379 Z9.425 A232.0942 
N1078 X-204.319 Y22.357 Z9.034 A228.9013 
N1079 X-204.328 Y22.240 Z8.643 A226.4960 
N1080 X-204.333 Y22.028 Z8.244 A224.8014 
N1081 X-204.335 Y21.724 Z7.835 A223.7821 
N1082 X-204.334 Y21.336 Z7.405 A223.2903 
N1083 X-204.332 Y20.876 Z6.941 A223.1261 
N1084 X-204.328 Y20.354 Z6.432 A223.0914 
N1085 X-204.324 Y19.780 Z5.872 A223.0478 
N1086 X-204.320 Y19.158 Z5.261 A222.9465 
N1087 X-204.316 Y18.493 Z4.607 A222.7968 
N1088 X-204.312 Y17.790 Z3.919 A222.6336 
N1089 X-204.307 Y17.055 Z3.204 A222.4700 
N1090 X-204.302 Y16.298 Z2.470 A222.2867 
N1091 X-204.296 Y15.528 Z1.724 A222.0301 
N1092 X-204.291 Y14.757 Z0.969 A221.6176 
N1093 X-204.287 Y13.994 Z0.209 A220.9314 
N1094 X-204.283 Y13.247 Z-0.558 A219.7953 
N1095 X-204.281 Y12.520 Z-1.334 A217.9920 
N1096 X-204.279 Y11.810 Z-2.121 A215.3469 
N1097 X-204.278 Y11.102 Z-2.911 A211.8732 
N1098 X-204.275 Y10.372 Z-3.688 A207.7536 
N1099 X-204.270 Y9.599 Z-4.433 A203.2269 
N1100 X-204.260 Y8.763 Z-5.124 A198.5833 
N1101 X-204.245 Y7.856 Z-5.740 A194.1090 
N1102 X-204.224 Y6.874 Z-6.259 A190.0998 
N1103 X-204.196 Y5.822 Z-6.671 A186.7869 
N1104 X-204.162 Y4.709 Z-6.978 A184.2643 
N1105 X-204.123 Y3.543 Z-7.188 A182.5463 
N1106 X-204.079 Y2.334 Z-7.322 A181.5612 
N1107 X-204.032 Y1.091 Z-7.404 A181.1155 
N1108 X-203.984 Y-0.176 Z-7.460 A180.9802 
N1109 X-203.934 Y-1.455 Z-7.506 A180.9679 
N1110 X-203.885 Y-2.731 Z-7.551 A180.9842 
N1111 X-203.836 Y-3.990 Z-7.597 A180.9986 
N1112 X-203.789 Y-5.217 Z-7.643 A181.0154 
N1113 X-203.744 Y-6.395 Z-7.688 A181.0309 
N1114 X-203.701 Y-7.513 Z-7.734 
N1115 X-203.660 Y-8.563 Z-7.778 
N1116 X-203.623 Y-9.539 Z-7.819 A181.0102 
N1117 X-203.589 Y-10.425 Z-7.872 A180.7155 
N1118 X-203.560 Y-11.222 Z-7.941 A180.0554 
N1119 X-203.535 Y-11.931 Z-8.036 A178.8203 
N1120 X-203.514 Y-12.559 Z-8.164 A176.8568 
N1121 X-203.498 Y-13.114 Z-8.325 A174.1312 
N1122 X-203.484 Y-13.609 Z-8.507 A170.8134 
N1123 X-203.473 Y-14.055 Z-8.693 A167.1394 
N1124 X-203.463 Y-14.455 Z-8.872 A163.3595 
N1125 X-203.454 Y-14.824 Z-9.043 A159.4930 
N1126 X-203.446 Y-15.162 Z-9.200 A155.7054 
N1127 X-203.438 Y-15.474 Z-9.340 A152.0592 
N1128 X-203.431 Y-15.768 Z-9.467 A148.5014 
N1129 X-203.424 Y-16.044 Z-9.580 A145.0774 
N1130 X-203.417 Y-16.300 Z-9.677 A141.8728 
N1131 X-203.409 Y-16.558 Z-9.767 A138.6150 
N1132 X-203.403 Y-16.791 Z-9.840 A135.6652 
N1133 X-203.395 Y-17.034 Z-9.907 A132.5761 
N1134 X-203.388 Y-17.258 Z-9.961 A129.7277 
N1135 X-203.381 Y-17.489 Z-10.007 A126.7965 
N1136 X-203.373 Y-17.715 Z-10.043 A123.9419 
N1137 X-203.365 Y-17.937 Z-10.070 A121.1194 
N1138 X-203.356 Y-18.164 Z-10.087 A118.2530 
N1139 X-203.348 Y-18.385 Z-10.094 A115.4546 
N1140 X-203.339 Y-18.608 Z-10.091 A112.6310 
N1141 X-203.329 Y-18.831 Z-10.078 A109.7906 
N1142 X-203.320 Y-19.054 Z-10.053 A106.9454 
N1143 X-203.310 Y-19.274 Z-10.017 A104.1138 
N1144 X-203.299 Y-19.500 Z-9.967 A101.1865 
N1145 X-203.288 Y-19.723 Z-9.904 A98.2681 
N1146 X-203.277 Y-19.945 Z-9.828 A95.3260 
N1147 X-203.264 Y-20.173 Z-9.732 A92.2363 
N1148 X-203.252 Y-20.388 Z-9.624 A89.2490 
N1149 X-203.238 Y-20.621 Z-9.485 A85.9170 
N1150 X-203.224 Y-20.838 Z-9.331 A82.7027 
N1151 X-203.208 Y-21.064 Z-9.139 A79.1750 
N1152 X-203.192 Y-21.278 Z-8.917 A75.5827 
N1153 X-203.176 Y-21.479 Z-8.660 A71.9034 
N1154 X-203.158 Y-21.659 Z-8.361 A68.1278 
N1155 X-203.140 Y-21.812 Z-8.013 A64.2399 
N1156 X-203.122 Y-21.921 Z-7.619 A60.3715 
N1157 X-203.106 Y-21.965 Z-7.192 A56.7827 
N1158 X-203.092 Y-21.932 Z-6.729 A53.5308 
N1159 X-203.080 Y-21.813 Z-6.244 A50.7724 
N1160 X-203.071 Y-21.602 Z-5.740 A48.5645 
N1161 X-203.066 Y-21.298 Z-5.223 A46.9703 
N1162 X-203.063 Y-20.906 Z-4.691 A45.9771 
N1163 X-203.063 Y-20.435 Z-4.140 A45.4693 
N1164 X-203.065 Y-19.903 Z-3.562 A45.2823 
N1165 X-203.067 Y-19.322 Z-2.951 A45.2509 
N1166 X-203.069 Y-18.707 Z-2.309 A45.2681 
N1167 X-203.072 Y-18.067 Z-1.640 A45.2864 
N1168 X-203.075 Y-17.412 Z-0.953 A45.2864 
N1169 X-203.078 Y-16.750 Z-0.259 
N1170 X-203.080 Y-16.092 Z0.433 A45.2722 
N1171 X-203.083 Y-15.446 Z1.114 A45.2580 
N1172 X-203.085 Y-14.818 Z1.775 A45.2441 
N1173 X-203.088 Y-14.211 Z2.410 A45.2670 
N1174 X-203.090 Y-13.633 Z3.016 A45.2864 
N1175 X-203.092 Y-13.078 Z3.601 
N1176 X-203.091 Y-12.590 Z4.206 A44.3429 
N1177 X-203.081 Y-12.229 Z4.915 A40.6826 
N1178 X-203.062 Y-11.968 Z5.780 A33.4324 
N1179 X-203.041 Y-11.666 Z6.746 A23.7270 
N1180 X-203.028 Y-11.201 Z7.688 A13.4053 
N1181 X-203.029 Y-10.537 Z8.430 A4.6914 
N1182 X-203.048 Y-9.731 Z8.813 A359.8868 
N1183 X-203.080 Y-8.846 Z8.907 A358.5733 
N1184 X-203.118 Y-7.887 Z8.903 A358.5232 
N1185 X-203.160 Y-6.844 Z8.892 A358.5841 
N1186 X-203.206 Y-5.713 Z8.886 
N1187 X-203.254 Y-4.493 Z8.880 
N1188 X-203.306 Y-3.192 Z8.873 
N1189 X-203.361 Y-1.823 Z8.865 A358.5835 
N1190 X-203.418 Y-0.402 Z8.858 A358.5836 
N1191 X-203.476 Y1.052 Z8.850 A358.5833 
N1192 X-203.535 Y2.515 Z8.842 A358.5818 
N1193 X-203.593 Y3.963 Z8.835 A358.5779 
N1194 X-203.649 Y5.372 Z8.828 A358.5705 
N1195 X-203.703 Y6.720 Z8.821 A358.5590 
N1196 X-203.754 Y7.987 Z8.816 A358.5436 
N1197 X-203.801 Y9.159 Z8.810 A358.5322 
N1198 X-203.844 Y10.225 Z8.805 A358.5315 
N1199 X-203.882 Y11.178 Z8.799 A358.5685 
N1200 X-203.915 Y12.014 Z8.795 A358.5841 
N1201 X-203.944 Y12.744 Z8.794 
N1202 X-203.969 Y13.374 Z8.806 A358.3734 
N1203 X-203.988 Y13.905 Z8.861 A357.4985 
N1204 X-204.002 Y14.352 Z8.973 A355.6892 
N1205 X-204.011 Y14.736 Z9.155 A352.7040 
N1206 X-204.017 Y15.076 Z9.402 A348.5725 
N1207 X-204.019 Y15.395 Z9.697 A343.5297 
N1208 X-204.021 Y15.705 Z10.007 A338.0258 
N1209 X-204.023 Y16.023 Z10.309 A332.3344 
N1210 X-204.027 Y16.299 Z10.538 A327.6167 
N1211 X-204.031 Y16.586 Z10.746 A322.9380 
N1212 X-204.035 Y16.813 Z10.893 A319.3528 
N1213 X-204.040 Y17.057 Z11.033 A315.5916 
N1214 X-204.045 Y17.301 Z11.157 A311.9211 
N1215 X-204.050 Y17.500 Z11.247 A308.9821 
N1216 X-204.056 Y17.708 Z11.329 A305.9704 
N1217 X-204.062 Y17.924 Z11.403 A302.8925 
N1218 X-204.068 Y18.142 Z11.466 A299.8259 
N1219 X-204.075 Y18.342 Z11.513 A297.0442 
N1220 X-204.082 Y18.546 Z11.551 A294.2405 
N1221 X-204.089 Y18.752 Z11.580 A291.4248 
N1222 X-204.096 Y18.959 Z11.598 A288.6074 
N1223 X-204.105 Y19.171 Z11.606 A285.7283 
N1224 X-204.113 Y19.387 Z11.603 A282.8111 
N1225 X-204.122 Y19.600 Z11.589 A279.9272 
N1226 X-204.131 Y19.809 Z11.563 A277.0879 
N1227 X-204.141 Y20.017 Z11.526 A274.2321 
N1228 X-204.153 Y20.258 Z11.467 A270.8984 
N1229 X-204.164 Y20.487 Z11.395 A267.6768 
N1230 X-204.176 Y20.703 Z11.311 A264.5830 
N1231 X-204.189 Y20.945 Z11.196 A261.0156 
N1232 X-204.204 Y21.200 Z11.048 A257.1173 
N1233 X-204.219 Y21.426 Z10.888 A253.4894 
N1234 X-204.238 Y21.694 Z10.655 A248.8949 
N1235 X-204.255 Y21.925 Z10.403 A244.5343 
N1236 X-204.275 Y22.143 Z10.088 A239.7955 
N1237 X-204.293 Y22.301 Z9.738 A235.3151 
N1238 X-204.309 Y22.379 Z9.369 A231.3784 
N1239 X-204.321 Y22.366 Z8.985 A228.0943 
N1240 X-204.330 Y22.255 Z8.598 A225.5913 
N1241 X-204.335 Y22.048 Z8.216 A223.9165 
N1242 X-204.336 Y21.746 Z7.826 A222.9624 
N1243 X-204.335 Y21.362 Z7.417 A222.5444 
N1244 X-204.332 Y20.906 Z6.975 A222.4378 
N1245 X-204.328 Y20.389 Z6.486 A222.4479 
N1246 X-204.323 Y19.819 Z5.946 
N1247 X-204.319 Y19.199 Z5.354 A222.3970 
N1248 X-204.314 Y18.537 Z4.714 A222.2425 
N1249 X-204.310 Y17.838 Z4.034 A221.9843 
N1250 X-204.305 Y17.107 Z3.322 A221.6295 
N1251 X-204.300 Y16.350 Z2.590 A221.2104 
N1252 X-204.294 Y15.572 Z1.846 A220.7587 
N1253 X-204.288 Y14.781 Z1.099 A220.2526 
N1254 X-204.282 Y13.989 Z0.348 A219.5779 
N1255 X-204.277 Y13.206 Z-0.410 A218.5133 
N1256 X-204.272 Y12.439 Z-1.179 A216.8144 
N1257 X-204.269 Y11.686 Z-1.960 A214.3207 
N1258 X-204.266 Y10.933 Z-2.744 A211.0335 
N1259 X-204.261 Y10.159 Z-3.519 A207.0634 
N1260 X-204.254 Y9.343 Z-4.263 A202.6395 
N1261 X-204.243 Y8.467 Z-4.951 A198.1059 
N1262 X-204.226 Y7.523 Z-5.560 A193.7749 
N1263 X-204.203 Y6.510 Z-6.068 A189.9522 
N1264 X-204.174 Y5.435 Z-6.470 A186.8264 
N1265 X-204.139 Y4.308 Z-6.767 A184.4834 
N1266 X-204.099 Y3.139 Z-6.972 A182.9431 
N1267 X-204.056 Y1.938 Z-7.105 A182.1039 
N1268 X-204.010 Y0.715 Z-7.193 A181.7501 
N1269 X-203.963 Y-0.519 Z-7.259 A181.6509 
N1270 X-203.916 Y-1.753 Z-7.318 A181.6441 
N1271 X-203.869 Y-2.972 Z-7.376 A181.6593 
N1272 X-203.824 Y-4.163 Z-7.434 A181.6773 
N1273 X-203.780 Y-5.313 Z-7.491 A181.7116 
N1274 X-203.738 Y-6.407 Z-7.548 A181.7169 
N1275 X-203.699 Y-7.439 Z-7.604 
N1276 X-203.662 Y-8.407 Z-7.656 
N1277 X-203.629 Y-9.293 Z-7.721 A181.4276 
N1278 X-203.600 Y-10.095 Z-7.800 A180.7649 
N1279 X-203.575 Y-10.814 Z-7.903 A179.5598 
N1280 X-203.554 Y-11.454 Z-8.035 A177.6599 
N1281 X-203.537 Y-12.025 Z-8.201 A174.9716 
N1282 X-203.523 Y-12.538 Z-8.392 A171.5902 
N1283 X-203.511 Y-13.003 Z-8.589 A167.7963 
N1284 X-203.500 Y-13.429 Z-8.776 A163.8754 
N1285 X-203.491 Y-13.816 Z-8.944 A160.0119 
N1286 X-203.482 Y-14.174 Z-9.095 A156.2332 
N1287 X-203.473 Y-14.506 Z-9.227 A152.5975 
N1288 X-203.464 Y-14.817 Z-9.341 A149.1086 
N1289 X-203.456 Y-15.108 Z-9.440 A145.7883 
N1290 X-203.448 Y-15.379 Z-9.522 A142.6563 
N1291 X-203.440 Y-15.643 Z-9.594 A139.5754 
N1292 X-203.432 Y-15.897 Z-9.654 A136.6039 
N1293 X-203.424 Y-16.140 Z-9.702 A133.7364 
N1294 X-203.416 Y-16.382 Z-9.741 A130.8866 
N1295 X-203.407 Y-16.614 Z-9.770 A128.1335 
N1296 X-203.399 Y-16.848 Z-9.790 A125.3589 
N1297 X-203.390 Y-17.076 Z-9.800 A122.6485 
N1298 X-203.381 Y-17.304 Z-9.801 A119.9229 
N1299 X-203.372 Y-17.529 Z-9.793 A117.2199 
N1300 X-203.362 Y-17.754 Z-9.775 A114.5149 
N1301 X-203.352 Y-17.978 Z-9.748 A111.7995 
N1302 X-203.342 Y-18.200 Z-9.710 A109.0805 
N1303 X-203.332 Y-18.422 Z-9.662 A106.3410 
N1304 X-203.321 Y-18.643 Z-9.602 A103.5730 
N1305 X-203.310 Y-18.862 Z-9.531 A100.7989 
N1306 X-203.298 Y-19.084 Z-9.446 A97.9410 
N1307 X-203.286 Y-19.300 Z-9.349 A95.1023 
N1308 X-203.273 Y-19.523 Z-9.232 A92.1083 
N1309 X-203.260 Y-19.738 Z-9.102 A89.1329 
N1310 X-203.246 Y-19.958 Z-8.948 A85.9787 
N1311 X-203.231 Y-20.173 Z-8.771 A82.7531 
N1312 X-203.216 Y-20.382 Z-8.570 A79.4493 
N1313 X-203.200 Y-20.591 Z-8.331 A75.9102 
N1314 X-203.183 Y-20.786 Z-8.056 A72.2532 
N1315 X-203.165 Y-20.962 Z-7.740 A68.4811 
N1316 X-203.147 Y-21.109 Z-7.383 A64.6390 
N1317 X-203.129 Y-21.215 Z-6.978 A60.7785 
N1318 X-203.112 Y-21.260 Z-6.533 A57.0887 
N1319 X-203.097 Y-21.231 Z-6.060 A53.7387 
N1320 X-203.084 Y-21.117 Z-5.562 A50.8199 
N1321 X-203.075 Y-20.910 Z-5.050 A48.4919 
N1322 X-203.069 Y-20.608 Z-4.532 A46.8491 
N1323 X-203.067 Y-20.219 Z-4.005 A45.8523 
N1324 X-203.067 Y-19.757 Z-3.465 A45.3489 
N1325 X-203.069 Y-19.236 Z-2.901 A45.1507 
N1326 X-203.071 Y-18.673 Z-2.310 A45.0995 
N1327 X-203.073 Y-18.079 Z-1.692 A45.1036 
N1328 X-203.076 Y-17.464 Z-1.053 A45.1198 
N1329 X-203.079 Y-16.838 Z-0.401 A45.1277 
N1330 X-203.082 Y-16.208 Z0.256 A45.1262 
N1331 X-203.084 Y-15.585 Z0.908 A45.1109 
N1332 X-203.087 Y-14.974 Z1.548 A45.0963 
N1333 X-203.089 Y-14.380 Z2.168 A45.0950 
N1334 X-203.092 Y-13.808 Z2.763 A45.1277 
N1335 X-203.094 Y-13.261 Z3.336 
N1336 X-203.095 Y-12.746 Z3.908 A44.7842 
N1337 X-203.090 Y-12.336 Z4.546 A42.5287 
N1338 X-203.075 Y-12.045 Z5.323 A36.9850 
N1339 X-203.054 Y-11.779 Z6.229 A28.5089 
N1340 X-203.037 Y-11.405 Z7.178 A18.5351 
N1341 X-203.030 Y-10.846 Z8.038 A8.7782 
N1342 X-203.040 Y-10.109 Z8.616 A1.7484 
N1343 X-203.066 Y-9.266 Z8.833 A358.9249 
N1344 X-203.101 Y-8.351 Z8.858 A358.4869 
N1345 X-203.141 Y-7.357 Z8.847 A358.5558 
N1346 X-203.185 Y-6.276 Z8.840 A358.5636 
N1347 X-203.232 Y-5.105 Z8.835 
N1348 X-203.282 Y-3.849 Z8.828 
N1349 X-203.335 Y-2.518 Z8.822 A358.5627 
N1350 X-203.391 Y-1.127 Z8.815 A358.5628 
N1351 X-203.448 Y0.307 Z8.808 A358.5628 
N1352 X-203.506 Y1.762 Z8.801 A358.5620 
N1353 X-203.565 Y3.215 Z8.794 A358.5593 
N1354 X-203.622 Y4.640 Z8.787 A358.5536 
N1355 X-203.677 Y6.016 Z8.781 A358.5439 
N1356 X-203.729 Y7.321 Z8.775 A358.5301 
N1357 X-203.777 Y8.538 Z8.770 A358.5156 
N1358 X-203.822 Y9.654 Z8.766 A358.5093 
N1359 X-203.862 Y10.660 Z8.760 A358.5265 
N1360 X-203.898 Y11.552 Z8.755 A358.5636 
N1361 X-203.929 Y12.331 Z8.754 
N1362 X-203.956 Y13.013 Z8.754 A358.5337 
N1363 X-203.978 Y13.589 Z8.790 A357.9603 
N1364 X-203.995 Y14.076 Z8.874 A356.6127 
N1365 X-204.006 Y14.485 Z9.020 A354.2234 
N1366 X-204.013 Y14.845 Z9.234 A350.6715 
N1367 X-204.017 Y15.172 Z9.504 A346.0915 
N1368 X-204.019 Y15.482 Z9.806 A340.8380 
N1369 X-204.021 Y15.798 Z10.116 A335.1703 
N1370 X-204.024 Y16.095 Z10.379 A329.9958 
N1371 X-204.028 Y16.370 Z10.592 A325.4076 
N1372 X-204.032 Y16.617 Z10.762 A321.4433 
N1373 X-204.037 Y16.887 Z10.928 A317.2192 
N1374 X-204.041 Y17.092 Z11.040 A314.0883 
N1375 X-204.046 Y17.304 Z11.144 A310.9143 
N1376 X-204.052 Y17.528 Z11.241 A307.6266 
N1377 X-204.058 Y17.753 Z11.326 A304.3776 
N1378 X-204.063 Y17.949 Z11.389 A301.5869 
N1379 X-204.069 Y18.151 Z11.444 A298.7491 
N1380 X-204.076 Y18.358 Z11.491 A295.8733 
N1381 X-204.083 Y18.569 Z11.528 A292.9691 
N1382 X-204.091 Y18.780 Z11.554 A290.0762 
N1383 X-204.099 Y18.992 Z11.570 A287.1999 
N1384 X-204.107 Y19.203 Z11.574 A284.3327 
N1385 X-204.115 Y19.413 Z11.568 A281.4879 
N1386 X-204.124 Y19.619 Z11.552 A278.6777 
N1387 X-204.135 Y19.852 Z11.519 A275.4975 
N1388 X-204.145 Y20.081 Z11.473 A272.3364 
N1389 X-204.156 Y20.301 Z11.414 A269.2743 
N1390 X-204.167 Y20.509 Z11.343 A266.3242 
N1391 X-204.181 Y20.764 Z11.236 A262.6150 
N1392 X-204.195 Y21.007 Z11.110 A258.9819 
N1393 X-204.208 Y21.225 Z10.973 A255.5785 
N1394 X-204.225 Y21.489 Z10.770 A251.2332 
N1395 X-204.242 Y21.712 Z10.557 A247.2618 
N1396 X-204.260 Y21.942 Z10.273 A242.6717 
N1397 X-204.278 Y22.124 Z9.963 A238.3356 
N1398 X-204.295 Y22.251 Z9.618 A234.2007 
N1399 X-204.310 Y22.307 Z9.246 A230.4168 
N1400 X-204.322 Y22.277 Z8.863 A227.2581 
N1401 X-204.330 Y22.150 Z8.478 A224.8654 
N1402 X-204.334 Y21.924 Z8.095 A223.3003 
N1403 X-204.335 Y21.607 Z7.706 A222.4420 
N1404 X-204.333 Y21.209 Z7.296 A222.0702 
N1405 X-204.329 Y20.742 Z6.851 A221.9700 
N1406 X-204.325 Y20.215 Z6.360 A221.9747 
N1407 X-204.320 Y19.634 Z5.819 
N1408 X-204.316 Y19.007 Z5.226 A221.8848 
N1409 X-204.311 Y18.339 Z4.584 A221.6409 
N1410 X-204.306 Y17.635 Z3.901 A221.2345 
N1411 X-204.301 Y16.898 Z3.187 A220.7021 
N1412 X-204.296 Y16.131 Z2.455 A220.1145 
N1413 X-204.289 Y15.340 Z1.715 A219.5051 
N1414 X-204.282 Y14.534 Z0.971 A218.8275 
N1415 X-204.276 Y13.722 Z0.222 A217.9344 
N1416 X-204.269 Y12.915 Z-0.534 A216.6307 
N1417 X-204.263 Y12.115 Z-1.298 A214.7397 
N1418 X-204.258 Y11.318 Z-2.069 A212.1570 
N1419 X-204.252 Y10.512 Z-2.840 A208.8514 
N1420 X-204.245 Y9.680 Z-3.596 A204.9264 
N1421 X-204.234 Y8.803 Z-4.314 A200.6585 
N1422 X-204.219 Y7.867 Z-4.969 A196.3673 
N1423 X-204.199 Y6.869 Z-5.537 A192.3741 
N1424 X-204.173 Y5.810 Z-6.003 A188.9423 
N1425 X-204.141 Y4.702 Z-6.364 A186.2205 
N1426 X-204.104 Y3.555 Z-6.626 A184.2955 
N1427 X-204.063 Y2.381 Z-6.804 A183.1508 
N1428 X-204.020 Y1.189 Z-6.923 A182.6060 
N1429 X-203.975 Y-0.009 Z-7.010 A182.4197 
N1430 X-203.930 Y-1.201 Z-7.085 A182.3850 
N1431 X-203.886 Y-2.377 Z-7.156 A182.3968 
N1432 X-203.842 Y-3.522 Z-7.226 A182.4170 
N1433 X-203.801 Y-4.626 Z-7.294 A182.4556 
N1434 X-203.761 Y-5.676 Z-7.362 A182.4746 
N1435 X-203.724 Y-6.666 Z-7.429 
N1436 X-203.689 Y-7.597 Z-7.491 
N1437 X-203.658 Y-8.449 Z-7.569 A182.1250 
N1438 X-203.630 Y-9.222 Z-7.666 A181.3366 
N1439 X-203.607 Y-9.918 Z-7.786 A179.9536 
N1440 X-203.587 Y-10.540 Z-7.935 A177.8621 
N1441 X-203.571 Y-11.099 Z-8.116 A174.9836 
N1442 X-203.558 Y-11.606 Z-8.321 A171.4119 
N1443 X-203.546 Y-12.073 Z-8.531 A167.4014 
N1444 X-203.536 Y-12.501 Z-8.723 A163.3531 
N1445 X-203.525 Y-12.901 Z-8.893 A159.3671 
N1446 X-203.516 Y-13.269 Z-9.038 A155.5693 
N1447 X-203.506 Y-13.611 Z-9.160 A151.9707 
N1448 X-203.497 Y-13.930 Z-9.260 A148.5734 
N1449 X-203.488 Y-14.229 Z-9.342 A145.3640 
N1450 X-203.479 Y-14.514 Z-9.408 A142.2918 
N1451 X-203.470 Y-14.789 Z-9.460 A139.3181 
N1452 X-203.460 Y-15.050 Z-9.499 A136.4883 
N1453 X-203.451 Y-15.304 Z-9.527 A133.7249 
N1454 X-203.442 Y-15.554 Z-9.544 A131.0042 
N1455 X-203.433 Y-15.794 Z-9.551 A128.3777 
N1456 X-203.423 Y-16.033 Z-9.548 A125.7534 
N1457 X-203.413 Y-16.268 Z-9.535 A123.1681 
N1458 X-203.403 Y-16.499 Z-9.513 A120.5981 
N1459 X-203.393 Y-16.728 Z-9.482 A118.0329 
N1460 X-203.383 Y-16.954 Z-9.442 A115.4776 
N1461 X-203.372 Y-17.179 Z-9.393 A112.9055 
N1462 X-203.361 Y-17.401 Z-9.336 A110.3279 
N1463 X-203.350 Y-17.623 Z-9.268 A107.7238 
N1464 X-203.339 Y-17.843 Z-9.191 A105.0906 
N1465 X-203.327 Y-18.062 Z-9.104 A102.4234 
N1466 X-203.315 Y-18.279 Z-9.006 A99.7133 
N1467 X-203.302 Y-18.497 Z-8.896 A96.9462 
N1468 X-203.290 Y-18.712 Z-8.773 A94.1374 
N1469 X-203.276 Y-18.929 Z-8.633 A91.2107 
N1470 X-203.263 Y-19.141 Z-8.478 A88.2467 
N1471 X-203.248 Y-19.355 Z-8.301 A85.1460 
N1472 X-203.233 Y-19.567 Z-8.099 A81.8991 
N1473 X-203.217 Y-19.774 Z-7.871 A78.5248 
N1474 X-203.200 Y-19.973 Z-7.612 A75.0129 
N1475 X-203.182 Y-20.161 Z-7.314 A71.3221 
N1476 X-203.164 Y-20.330 Z-6.972 A67.4521 
N1477 X-203.145 Y-20.470 Z-6.584 A63.4725 
N1478 X-203.127 Y-20.559 Z-6.160 A59.5993 
N1479 X-203.110 Y-20.586 Z-5.697 A55.8839 
N1480 X-203.095 Y-20.535 Z-5.208 A52.5292 
N1481 X-203.084 Y-20.395 Z-4.704 A49.7202 
N1482 X-203.076 Y-20.159 Z-4.196 A47.6204 
N1483 X-203.072 Y-19.831 Z-3.688 A46.2467 
N1484 X-203.070 Y-19.424 Z-3.174 A45.4628 
N1485 X-203.071 Y-18.955 Z-2.644 A45.0802 
N1486 X-203.073 Y-18.439 Z-2.093 A44.9256 
N1487 X-203.075 Y-17.887 Z-1.520 A44.8879 
N1488 X-203.078 Y-17.311 Z-0.925 A44.8991 
N1489 X-203.081 Y-16.720 Z-0.316 A44.9203 
N1490 X-203.083 Y-16.124 Z0.301 A44.9256 
N1491 X-203.086 Y-15.530 Z0.918 A44.9180 
N1492 X-203.089 Y-14.944 Z1.527 A44.9022 
N1493 X-203.091 Y-14.372 Z2.121 A44.8979 
N1494 X-203.094 Y-13.817 Z2.694 A44.9256 
N1495 X-203.096 Y-13.285 Z3.249 
N1496 X-203.098 Y-12.776 Z3.800 A44.6981 
N1497 X-203.094 Y-12.357 Z4.407 A42.8518 
N1498 X-203.080 Y-12.055 Z5.142 A37.9650 
N1499 X-203.061 Y-11.796 Z6.010 A30.1034 
N1500 X-203.043 Y-11.452 Z6.937 A20.5556 
N1501 X-203.034 Y-10.939 Z7.813 A10.7902 
N1502 X-203.040 Y-10.241 Z8.463 A3.0178 
N1503 X-203.062 Y-9.422 Z8.754 A359.3028 
N1504 X-203.096 Y-8.528 Z8.806 A358.5226 
N1505 X-203.135 Y-7.555 Z8.797 A358.5609 
N1506 X-203.178 Y-6.498 Z8.789 A358.5892 
N1507 X-203.223 Y-5.351 Z8.784 
N1508 X-203.273 Y-4.118 Z8.778 
N1509 X-203.325 Y-2.807 Z8.772 A358.5884 
N1510 X-203.380 Y-1.433 Z8.766 A358.5883 
N1511 X-203.437 Y-0.012 Z8.759 A358.5885 
N1512 X-203.495 Y1.435 Z8.752 A358.5881 
N1513 X-203.553 Y2.884 Z8.746 A358.5860 
N1514 X-203.610 Y4.311 Z8.740 A358.5811 
N1515 X-203.665 Y5.694 Z8.734 A358.5719 
N1516 X-203.718 Y7.011 Z8.729 A358.5577 
N1517 X-203.767 Y8.243 Z8.724 A358.5408 
N1518 X-203.813 Y9.377 Z8.720 A358.5317 
N1519 X-203.854 Y10.403 Z8.715 A358.5413 
N1520 X-203.890 Y11.317 Z8.709 A358.5892 
N1521 X-203.922 Y12.116 Z8.708 
N1522 X-203.950 Y12.816 Z8.707 
N1523 X-203.973 Y13.411 Z8.733 A358.1654 
N1524 X-203.991 Y13.913 Z8.803 A357.0363 
N1525 X-204.003 Y14.340 Z8.934 A354.9067 
N1526 X-204.011 Y14.702 Z9.128 A351.7066 
N1527 X-204.015 Y15.029 Z9.385 A347.3943 
N1528 X-204.017 Y15.347 Z9.692 A342.1173 
N1529 X-204.019 Y15.670 Z10.017 A336.2719 
N1530 X-204.022 Y15.957 Z10.280 A331.1905 
N1531 X-204.026 Y16.259 Z10.522 A326.1088 
N1532 X-204.029 Y16.492 Z10.687 A322.3246 
N1533 X-204.034 Y16.748 Z10.849 A318.2975 
N1534 X-204.039 Y16.989 Z10.984 A314.5960 
N1535 X-204.043 Y17.191 Z11.086 A311.5493 
N1536 X-204.049 Y17.405 Z11.181 A308.3974 
N1537 X-204.055 Y17.629 Z11.269 A305.1515 
N1538 X-204.061 Y17.840 Z11.339 A302.1351 
N1539 X-204.067 Y18.038 Z11.396 A299.3454 
N1540 X-204.073 Y18.241 Z11.444 A296.5154 
N1541 X-204.080 Y18.449 Z11.483 A293.6548 
N1542 X-204.087 Y18.659 Z11.512 A290.7747 
N1543 X-204.095 Y18.871 Z11.530 A287.8840 
N1544 X-204.103 Y19.083 Z11.538 A284.9961 
N1545 X-204.112 Y19.295 Z11.535 A282.1248 
N1546 X-204.121 Y19.504 Z11.520 A279.2834 
N1547 X-204.130 Y19.713 Z11.495 A276.4298 
N1548 X-204.141 Y19.950 Z11.452 A273.1647 
N1549 X-204.152 Y20.178 Z11.395 A269.9960 
N1550 X-204.163 Y20.395 Z11.326 A266.9356 
N1551 X-204.174 Y20.611 Z11.241 A263.8220 
N1552 X-204.189 Y20.870 Z11.116 A259.9802 
N1553 X-204.203 Y21.104 Z10.978 A256.3891 
N1554 X-204.218 Y21.335 Z10.812 A252.6433 
N1555 X-204.235 Y21.582 Z10.593 A248.3660 
N1556 X-204.252 Y21.802 Z10.348 A244.1736 
N1557 X-204.270 Y21.999 Z10.056 A239.8321 
N1558 X-204.288 Y22.153 Z9.722 A235.5285 
N1559 X-204.304 Y22.245 Z9.361 A231.5273 
N1560 X-204.317 Y22.255 Z8.981 A228.0238 
N1561 X-204.327 Y22.169 Z8.598 A225.2781 
N1562 X-204.332 Y21.984 Z8.225 A223.4280 
N1563 X-204.334 Y21.705 Z7.849 A222.3304 
N1564 X-204.333 Y21.343 Z7.459 A221.7844 
N1565 X-204.330 Y20.909 Z7.039 A221.5815 
N1566 X-204.325 Y20.412 Z6.579 A221.5533 
N1567 X-204.321 Y19.858 Z6.071 A221.5575 
N1568 X-204.316 Y19.254 Z5.511 A221.4890 
N1569 X-204.311 Y18.609 Z4.898 A221.2434 
N1570 X-204.306 Y17.925 Z4.239 A220.8023 
N1571 X-204.301 Y17.204 Z3.544 A220.1990 
N1572 X-204.296 Y16.448 Z2.825 A219.5100 
N1573 X-204.289 Y15.661 Z2.094 A218.7794 
N1574 X-204.282 Y14.850 Z1.355 A217.9884 
N1575 X-204.274 Y14.024 Z0.612 A217.0463 
N1576 X-204.267 Y13.192 Z-0.136 A215.8238 
N1577 X-204.259 Y12.356 Z-0.888 A214.1796 
N1578 X-204.252 Y11.519 Z-1.644 A211.9768 
N1579 X-204.244 Y10.675 Z-2.402 A209.1145 
N1580 X-204.235 Y9.811 Z-3.152 A205.6224 
N1581 X-204.224 Y8.911 Z-3.872 A201.7010 
N1582 X-204.208 Y7.961 Z-4.539 A197.6217 
N1583 X-204.189 Y6.956 Z-5.131 A193.6969 
N1584 X-204.163 Y5.898 Z-5.626 A190.2198 
N1585 X-204.133 Y4.794 Z-6.020 A187.3826 
N1586 X-204.097 Y3.657 Z-6.313 A185.3210 
N1587 X-204.058 Y2.499 Z-6.517 A184.0644 
N1588 X-204.016 Y1.332 Z-6.658 A183.4534 
N1589 X-203.974 Y0.167 Z-6.762 A183.2406 
N1590 X-203.931 Y-0.986 Z-6.851 A183.2021 
N1591 X-203.889 Y-2.114 Z-6.935 A183.2200 
N1592 X-203.848 Y-3.207 Z-7.018 A183.2471 
N1593 X-203.809 Y-4.255 Z-7.097 A183.2986 
N1594 X-203.772 Y-5.245 Z-7.177 A183.3014 
N1595 X-203.737 Y-6.179 Z-7.254 
N1596 X-203.705 Y-7.054 Z-7.331 A183.2075 
N1597 X-203.677 Y-7.850 Z-7.431 A182.6266 
N1598 X-203.652 Y-8.573 Z-7.554 A181.4783 
N1599 X-203.631 Y-9.223 Z-7.705 A179.6322 
N1600 X-203.614 Y-9.809 Z-7.882 A177.0665 
N1601 X-203.600 Y-10.340 Z-8.082 A173.7986 
N1602 X-203.588 Y-10.829 Z-8.296 A169.9621 
N1603 X-203.577 Y-11.283 Z-8.505 A165.8492 
N1604 X-203.566 Y-11.705 Z-8.691 A161.7727 
N1605 X-203.556 Y-12.095 Z-8.848 A157.8839 
N1606 X-203.546 Y-12.461 Z-8.979 A154.1795 
N1607 X-203.536 Y-12.804 Z-9.085 A150.6820 
N1608 X-203.526 Y-13.126 Z-9.169 A147.3861 
N1609 X-203.516 Y-13.433 Z-9.234 A144.2546 
N1610 X-203.506 Y-13.725 Z-9.282 A141.2776 
N1611 X-203.496 Y-14.004 Z-9.315 A138.4434 
N1612 X-203.486 Y-14.273 Z-9.334 A135.7041 
N1613 X-203.476 Y-14.536 Z-9.341 A133.0406 
N1614 X-203.465 Y-14.791 Z-9.336 A130.4469 
N1615 X-203.455 Y-15.040 Z-9.320 A127.9149 
N1616 X-203.444 Y-15.285 Z-9.293 A125.4141 
N1617 X-203.433 Y-15.525 Z-9.257 A122.9443 
N1618 X-203.422 Y-15.761 Z-9.211 A120.5012 
N1619 X-203.411 Y-15.994 Z-9.156 A118.0601 
N1620 X-203.400 Y-16.223 Z-9.093 A115.6202 
N1621 X-203.388 Y-16.449 Z-9.021 A113.1731 
N1622 X-203.377 Y-16.674 Z-8.941 A110.7014 
N1623 X-203.365 Y-16.896 Z-8.853 A108.2044 
N1624 X-203.353 Y-17.117 Z-8.756 A105.6682 
N1625 X-203.340 Y-17.336 Z-8.651 A103.0909 
N1626 X-203.328 Y-17.554 Z-8.536 A100.4577 
N1627 X-203.315 Y-17.770 Z-8.410 A97.7675 
N1628 X-203.302 Y-17.985 Z-8.272 A95.0212 
N1629 X-203.288 Y-18.200 Z-8.121 A92.1725 
N1630 X-203.274 Y-18.412 Z-7.954 A89.2484 
N1631 X-203.259 Y-18.622 Z-7.771 A86.2423 
N1632 X-203.244 Y-18.832 Z-7.564 A83.0749 
N1633 X-203.228 Y-19.038 Z-7.332 A79.7616 
N1634 X-203.211 Y-19.238 Z-7.071 A76.2952 
N1635 X-203.193 Y-19.427 Z-6.776 A72.6725 
N1636 X-203.175 Y-19.601 Z-6.442 A68.8832 
N1637 X-203.156 Y-19.747 Z-6.068 A64.9888 
N1638 X-203.138 Y-19.854 Z-5.653 A61.0798 
N1639 X-203.120 Y-19.906 Z-5.198 A57.2471 
N1640 X-203.105 Y-19.888 Z-4.717 A53.7087 
N1641 X-203.092 Y-19.786 Z-4.219 A50.6573 
N1642 X-203.082 Y-19.590 Z-3.719 A48.2926 
N1643 X-203.077 Y-19.304 Z-3.221 A46.6449 
N1644 X-203.074 Y-18.940 Z-2.721 A45.6007 
N1645 X-203.074 Y-18.512 Z-2.212 A45.0035 
N1646 X-203.075 Y-18.034 Z-1.689 A44.7096 
N1647 X-203.077 Y-17.518 Z-1.151 A44.6091 
N1648 X-203.080 Y-16.976 Z-0.596 A44.6106 
N1649 X-203.083 Y-16.418 Z-0.027 A44.6429 
N1650 X-203.086 Y-15.855 Z0.550 A44.6550 
N1651 X-203.088 Y-15.292 Z1.129 
N1652 X-203.091 Y-14.736 Z1.702 A44.6399 
N1653 X-203.094 Y-14.191 Z2.262 A44.6498 
N1654 X-203.096 Y-13.663 Z2.807 A44.6550 
N1655 X-203.098 Y-13.148 Z3.338 
N1656 X-203.099 Y-12.668 Z3.876 A44.2067 
N1657 X-203.094 Y-12.276 Z4.481 A41.9827 
N1658 X-203.081 Y-11.989 Z5.216 A36.7878 
N1659 X-203.062 Y-11.724 Z6.071 A28.9105 
N1660 X-203.045 Y-11.365 Z6.978 A19.5142 
N1661 X-203.037 Y-10.838 Z7.827 A10.0097 
N1662 X-203.045 Y-10.133 Z8.443 A2.6101 
N1663 X-203.068 Y-9.312 Z8.707 A359.2085 
N1664 X-203.102 Y-8.415 Z8.752 A358.5399 
N1665 X-203.142 Y-7.440 Z8.742 A358.5879 
N1666 X-203.184 Y-6.378 Z8.735 A358.6088 
N1667 X-203.230 Y-5.227 Z8.730 
N1668 X-203.280 Y-3.990 Z8.725 
N1669 X-203.332 Y-2.677 Z8.720 A358.6079 
N1670 X-203.387 Y-1.302 Z8.714 A358.6080 
N1671 X-203.444 Y0.117 Z8.708 A358.6081 
N1672 X-203.502 Y1.560 Z8.702 A358.6077 
N1673 X-203.559 Y3.003 Z8.696 A358.6056 
N1674 X-203.616 Y4.422 Z8.690 A358.6004 
N1675 X-203.671 Y5.794 Z8.685 A358.5904 
N1676 X-203.723 Y7.099 Z8.681 A358.5748 
N1677 X-203.772 Y8.318 Z8.677 A358.5566 
N1678 X-203.817 Y9.437 Z8.673 A358.5474 
N1679 X-203.857 Y10.449 Z8.668 A358.5610 
N1680 X-203.893 Y11.348 Z8.663 A358.6088 
N1681 X-203.924 Y12.133 Z8.662 
N1682 X-203.952 Y12.821 Z8.662 
N1683 X-203.974 Y13.404 Z8.692 A358.1369 
N1684 X-203.991 Y13.897 Z8.765 A356.9638 
N1685 X-204.003 Y14.312 Z8.897 A354.8127 
N1686 X-204.011 Y14.671 Z9.097 A351.5149 
N1687 X-204.015 Y14.996 Z9.364 A347.0571 
N1688 X-204.016 Y15.312 Z9.681 A341.6177 
N1689 X-204.018 Y15.620 Z9.996 A335.9575 
N1690 X-204.021 Y15.936 Z10.285 A330.3554 
N1691 X-204.024 Y16.192 Z10.488 A326.0624 
N1692 X-204.028 Y16.473 Z10.686 A321.4954 
N1693 X-204.033 Y16.698 Z10.826 A317.9673 
N1694 X-204.037 Y16.919 Z10.950 A314.5760 
N1695 X-204.043 Y17.154 Z11.067 A311.0378 
N1696 X-204.048 Y17.374 Z11.163 A307.8084 
N1697 X-204.053 Y17.569 Z11.238 A304.9846 
N1698 X-204.059 Y17.772 Z11.306 A302.0929 
N1699 X-204.065 Y17.981 Z11.365 A299.1443 
N1700 X-204.072 Y18.196 Z11.415 A296.1516 
N1701 X-204.079 Y18.398 Z11.452 A293.3595 
N1702 X-204.086 Y18.604 Z11.479 A290.5491 
N1703 X-204.094 Y18.810 Z11.496 A287.7296 
N1704 X-204.102 Y19.018 Z11.504 A284.9111 
N1705 X-204.110 Y19.228 Z11.500 A282.0617 
N1706 X-204.120 Y19.452 Z11.485 A279.0141 
N1707 X-204.130 Y19.671 Z11.457 A276.0153 
N1708 X-204.139 Y19.884 Z11.417 A273.0814 
N1709 X-204.149 Y20.090 Z11.367 A270.2224 
N1710 X-204.162 Y20.331 Z11.291 A266.8193 
N1711 X-204.174 Y20.570 Z11.197 A263.3674 
N1712 X-204.187 Y20.791 Z11.090 A260.0872 
N1713 X-204.201 Y21.024 Z10.954 A256.5086 
N1714 X-204.217 Y21.275 Z10.776 A252.4625 
N1715 X-204.232 Y21.491 Z10.588 A248.7363 
N1716 X-204.250 Y21.733 Z10.324 A244.1621 
N1717 X-204.268 Y21.928 Z10.042 A239.9114 
N1718 X-204.285 Y22.084 Z9.722 A235.6893 
N1719 X-204.301 Y22.187 Z9.360 A231.5531 
N1720 X-204.315 Y22.209 Z8.985 A227.9701 
N1721 X-204.325 Y22.134 Z8.607 A225.1423 
N1722 X-204.331 Y21.962 Z8.241 A223.2202 
N1723 X-204.333 Y21.697 Z7.872 A222.0312 
N1724 X-204.332 Y21.350 Z7.492 A221.3978 
N1725 X-204.329 Y20.930 Z7.085 A221.1349 
N1726 X-204.325 Y20.445 Z6.641 A221.0819 
N1727 X-204.320 Y19.902 Z6.151 A221.0860 
N1728 X-204.315 Y19.308 Z5.609 A221.0233 
N1729 X-204.309 Y18.671 Z5.014 A220.7815 
N1730 X-204.304 Y17.994 Z4.371 A220.3360 
N1731 X-204.299 Y17.278 Z3.689 A219.7070 
N1732 X-204.293 Y16.526 Z2.979 A218.9438 
N1733 X-204.287 Y15.741 Z2.252 A218.0725 
N1734 X-204.280 Y14.928 Z1.514 A217.0912 
N1735 X-204.272 Y14.093 Z0.771 A215.9706 
N1736 X-204.263 Y13.241 Z0.028 A214.6480 
N1737 X-204.254 Y12.377 Z-0.715 A213.0115 
N1738 X-204.245 Y11.505 Z-1.460 A210.9126 
N1739 X-204.235 Y10.621 Z-2.203 A208.2407 
N1740 X-204.224 Y9.716 Z-2.936 A205.0137 
N1741 X-204.210 Y8.779 Z-3.641 A201.3753 
N1742 X-204.194 Y7.799 Z-4.297 A197.5411 
N1743 X-204.173 Y6.771 Z-4.881 A193.8190 
N1744 X-204.147 Y5.697 Z-5.373 A190.5033 
N1745 X-204.116 Y4.586 Z-5.765 A187.8130 
N1746 X-204.080 Y3.452 Z-6.057 A185.9054 
N1747 X-204.042 Y2.307 Z-6.263 A184.7972 
N1748 X-204.001 Y1.163 Z-6.409 A184.3069 
N1749 X-203.960 Y0.033 Z-6.524 A184.1734 
N1750 X-203.919 Y-1.074 Z-6.625 A184.1820 
N1751 X-203.880 Y-2.147 Z-6.724 A184.2189 
N1752 X-203.842 Y-3.177 Z-6.819 A184.2623 
N1753 X-203.807 Y-4.154 Z-6.914 A184.2691 
N1754 X-203.773 Y-5.075 Z-7.006 
N1755 X-203.741 Y-5.943 Z-7.092 A184.2544 
N1756 X-203.713 Y-6.735 Z-7.199 A183.7790 
N1757 X-203.689 Y-7.457 Z-7.331 A182.7290 
N1758 X-203.669 Y-8.109 Z-7.494 A180.9220 
N1759 X-203.652 Y-8.698 Z-7.684 A178.3630 
N1760 X-203.637 Y-9.234 Z-7.894 A175.1288 
N1761 X-203.625 Y-9.730 Z-8.114 A171.3516 
N1762 X-203.614 Y-10.191 Z-8.331 A167.2490 
N1763 X-203.604 Y-10.622 Z-8.528 A163.1145 
N1764 X-203.593 Y-11.026 Z-8.694 A159.1361 
N1765 X-203.583 Y-11.408 Z-8.832 A155.3410 
N1766 X-203.572 Y-11.765 Z-8.942 A151.7835 
N1767 X-203.562 Y-12.102 Z-9.027 A148.4477 
N1768 X-203.551 Y-12.423 Z-9.090 A145.3021 
N1769 X-203.540 Y-12.728 Z-9.133 A142.3221 
N1770 X-203.530 Y-13.022 Z-9.159 A139.4820 
N1771 X-203.519 Y-13.307 Z-9.168 A136.7559 
N1772 X-203.507 Y-13.583 Z-9.163 A134.1272 
N1773 X-203.496 Y-13.851 Z-9.144 A131.5933 
N1774 X-203.485 Y-14.112 Z-9.113 A129.1292 
N1775 X-203.473 Y-14.367 Z-9.069 A126.7214 
N1776 X-203.461 Y-14.616 Z-9.014 A124.3585 
N1777 X-203.449 Y-14.860 Z-8.949 A122.0301 
N1778 X-203.437 Y-15.099 Z-8.875 A119.7245 
N1779 X-203.425 Y-15.334 Z-8.792 A117.4251 
N1780 X-203.413 Y-15.565 Z-8.702 A115.1172 
N1781 X-203.400 Y-15.793 Z-8.604 A112.7909 
N1782 X-203.388 Y-16.018 Z-8.499 A110.4351 
N1783 X-203.375 Y-16.241 Z-8.387 A108.0333 
N1784 X-203.362 Y-16.462 Z-8.268 A105.5769 
N1785 X-203.349 Y-16.682 Z-8.142 A103.0666 
N1786 X-203.336 Y-16.900 Z-8.008 A100.4871 
N1787 X-203.322 Y-17.117 Z-7.864 A97.8365 
N1788 X-203.308 Y-17.333 Z-7.711 A95.1086 
N1789 X-203.294 Y-17.548 Z-7.545 A92.2819 
N1790 X-203.280 Y-17.761 Z-7.365 A89.3592 
N1791 X-203.265 Y-17.971 Z-7.169 A86.3419 
N1792 X-203.249 Y-18.181 Z-6.953 A83.1801 
N1793 X-203.232 Y-18.386 Z-6.713 A79.8656 
N1794 X-203.215 Y-18.586 Z-6.444 A76.3909 
N1795 X-203.197 Y-18.776 Z-6.142 A72.7471 
N1796 X-203.179 Y-18.949 Z-5.805 A68.9470 
N1797 X-203.160 Y-19.097 Z-5.428 A65.0218 
N1798 X-203.142 Y-19.206 Z-5.010 A61.0599 
N1799 X-203.124 Y-19.263 Z-4.557 A57.1868 
N1800 X-203.108 Y-19.250 Z-4.077 A53.5870 
N1801 X-203.095 Y-19.153 Z-3.589 A50.5409 
N1802 X-203.086 Y-18.964 Z-3.100 A48.1827 
N1803 X-203.081 Y-18.691 Z-2.614 A46.5038 
N1804 X-203.078 Y-18.344 Z-2.129 A45.4002 
N1805 X-203.077 Y-17.936 Z-1.639 A44.7498 
N1806 X-203.079 Y-17.479 Z-1.141 A44.4350 
N1807 X-203.081 Y-16.986 Z-0.631 A44.3421 
N1808 X-203.084 Y-16.470 Z-0.108 A44.3553 
N1809 X-203.086 Y-15.941 Z0.426 A44.3887 
N1810 X-203.089 Y-15.408 Z0.968 A44.3958 
N1811 X-203.092 Y-14.877 Z1.510 A44.3902 
N1812 X-203.095 Y-14.352 Z2.046 A44.3859 
N1813 X-203.097 Y-13.837 Z2.571 A44.3958 
N1814 X-203.100 Y-13.336 Z3.084 
N1815 X-203.102 Y-12.847 Z3.594 A44.2871 
N1816 X-203.100 Y-12.420 Z4.139 A43.1120 
N1817 X-203.091 Y-12.089 Z4.782 A39.6309 
N1818 X-203.076 Y-11.828 Z5.553 A33.2993 
N1819 X-203.058 Y-11.533 Z6.414 A24.9062 
N1820 X-203.045 Y-11.115 Z7.294 A15.4850 
N1821 X-203.042 Y-10.519 Z8.064 A6.6012 
N1822 X-203.056 Y-9.766 Z8.538 A0.7473 
N1823 X-203.085 Y-8.919 Z8.686 A358.7692 
N1824 X-203.121 Y-7.997 Z8.694 A358.5783 
N1825 X-203.162 Y-6.991 Z8.684 A358.6523 
N1826 X-203.205 Y-5.899 Z8.680 
N1827 X-203.252 Y-4.716 Z8.675 
N1828 X-203.303 Y-3.452 Z8.671 A358.6522 
N1829 X-203.356 Y-2.117 Z8.666 A358.6513 
N1830 X-203.412 Y-0.727 Z8.661 A358.6517 
N1831 X-203.469 Y0.700 Z8.655 A358.6517 
N1832 X-203.527 Y2.140 Z8.650 A358.6508 
N1833 X-203.584 Y3.571 Z8.645 A358.6477 
N1834 X-203.640 Y4.969 Z8.640 A358.6407 
N1835 X-203.693 Y6.311 Z8.636 A358.6283 
N1836 X-203.744 Y7.578 Z8.632 A358.6101 
N1837 X-203.791 Y8.753 Z8.629 A358.5943 
N1838 X-203.834 Y9.825 Z8.626 A358.5913 
N1839 X-203.872 Y10.787 Z8.621 A358.6253 
N1840 X-203.906 Y11.634 Z8.618 A358.6523 
N1841 X-203.936 Y12.374 Z8.618 
N1842 X-203.961 Y13.017 Z8.626 A358.5219 
N1843 X-203.981 Y13.559 Z8.671 A357.8114 
N1844 X-203.996 Y14.015 Z8.764 A356.3128 
N1845 X-204.006 Y14.399 Z8.919 A353.7900 
N1846 X-204.012 Y14.736 Z9.144 A350.0699 
N1847 X-204.014 Y15.052 Z9.440 A345.1191 
N1848 X-204.016 Y15.374 Z9.780 A339.2325 
N1849 X-204.017 Y15.691 Z10.095 A333.4146 
N1850 X-204.020 Y15.974 Z10.340 A328.4974 
N1851 X-204.024 Y16.248 Z10.545 A323.9816 
N1852 X-204.029 Y16.501 Z10.715 A319.9226 
N1853 X-204.033 Y16.720 Z10.845 A316.5254 
N1854 X-204.038 Y16.953 Z10.969 A312.9834 
N1855 X-204.043 Y17.187 Z11.078 A309.5136 
N1856 X-204.048 Y17.380 Z11.158 A306.6993 
N1857 X-204.054 Y17.581 Z11.230 A303.8138 
N1858 X-204.060 Y17.789 Z11.295 A300.8641 
N1859 X-204.067 Y18.003 Z11.351 A297.8615 
N1860 X-204.073 Y18.206 Z11.393 A295.0583 
N1861 X-204.080 Y18.408 Z11.426 A292.2756 
N1862 X-204.088 Y18.613 Z11.449 A289.4757 
N1863 X-204.095 Y18.819 Z11.463 A286.6678 
N1864 X-204.104 Y19.026 Z11.466 A283.8628 
N1865 X-204.113 Y19.246 Z11.458 A280.8704 
N1866 X-204.122 Y19.464 Z11.438 A277.9089 
N1867 X-204.132 Y19.676 Z11.407 A274.9955 
N1868 X-204.141 Y19.883 Z11.364 A272.1428 
N1869 X-204.152 Y20.108 Z11.304 A268.9976 
N1870 X-204.165 Y20.348 Z11.222 A265.5856 
N1871 X-204.177 Y20.572 Z11.128 A262.3231 
N1872 X-204.189 Y20.780 Z11.023 A259.2102 
N1873 X-204.204 Y21.041 Z10.863 A255.1561 
N1874 X-204.220 Y21.273 Z10.690 A251.3509 
N1875 X-204.236 Y21.503 Z10.478 A247.2888 
N1876 X-204.253 Y21.722 Z10.226 A243.0407 
N1877 X-204.271 Y21.917 Z9.926 A238.6161 
N1878 X-204.289 Y22.068 Z9.591 A234.2856 
N1879 X-204.305 Y22.155 Z9.228 A230.2364 
N1880 X-204.317 Y22.157 Z8.856 A226.8070 
N1881 X-204.326 Y22.062 Z8.492 A224.2429 
N1882 X-204.331 Y21.870 Z8.130 A222.4747 
N1883 X-204.332 Y21.593 Z7.767 A221.3968 
N1884 X-204.331 Y21.235 Z7.389 A220.8207 
N1885 X-204.327 Y20.806 Z6.985 A220.5914 
N1886 X-204.323 Y20.312 Z6.544 A220.5550 
N1887 X-204.317 Y19.761 Z6.056 A220.5583 
N1888 X-204.312 Y19.160 Z5.516 A220.4795 
N1889 X-204.306 Y18.516 Z4.925 A220.2269 
N1890 X-204.301 Y17.831 Z4.286 A219.7698 
N1891 X-204.295 Y17.109 Z3.608 A219.0995 
N1892 X-204.289 Y16.351 Z2.898 A218.2221 
N1893 X-204.283 Y15.560 Z2.168 A217.1556 
N1894 X-204.275 Y14.739 Z1.427 A215.9405 
N1895 X-204.266 Y13.888 Z0.685 A214.6002 
N1896 X-204.257 Y13.014 Z-0.054 A213.0916 
N1897 X-204.246 Y12.123 Z-0.791 A211.2907 
N1898 X-204.235 Y11.215 Z-1.526 A209.0644 
N1899 X-204.223 Y10.290 Z-2.254 A206.3524 
N1900 X-204.210 Y9.338 Z-2.962 A203.1971 
N1901 X-204.193 Y8.354 Z-3.637 A199.7164 
N1902 X-204.174 Y7.330 Z-4.257 A196.1320 
N1903 X-204.150 Y6.265 Z-4.800 A192.7552 
N1904 X-204.121 Y5.165 Z-5.250 A189.8540 
N1905 X-204.088 Y4.042 Z-5.601 A187.6336 
N1906 X-204.052 Y2.909 Z-5.860 A186.2063 
N1907 X-204.014 Y1.781 Z-6.047 A185.4885 
N1908 X-203.974 Y0.668 Z-6.189 A185.2526 
N1909 X-203.935 Y-0.418 Z-6.311 A185.2443 
N1910 X-203.897 Y-1.466 Z-6.425 A185.3008 
N1911 X-203.861 Y-2.469 Z-6.537 A185.3470 
N1912 X-203.827 Y-3.419 Z-6.648 
N1913 X-203.795 Y-4.315 Z-6.753 
N1914 X-203.765 Y-5.153 Z-6.857 A185.2520 
N1915 X-203.738 Y-5.919 Z-6.978 A184.7268 
N1916 X-203.716 Y-6.616 Z-7.124 A183.6029 
N1917 X-203.697 Y-7.244 Z-7.303 A181.6810 
N1918 X-203.681 Y-7.814 Z-7.511 A178.9537 
N1919 X-203.668 Y-8.335 Z-7.738 A175.5533 
N1920 X-203.657 Y-8.818 Z-7.969 A171.6834 
N1921 X-203.646 Y-9.270 Z-8.192 A167.5483 
N1922 X-203.636 Y-9.698 Z-8.396 A163.3484 
N1923 X-203.626 Y-10.102 Z-8.568 A159.3121 
N1924 X-203.616 Y-10.483 Z-8.709 A155.4956 
N1925 X-203.605 Y-10.844 Z-8.821 A151.9023 
N1926 X-203.594 Y-11.188 Z-8.905 A148.5215 
N1927 X-203.583 Y-11.517 Z-8.966 A145.3403 
N1928 X-203.572 Y-11.834 Z-9.004 A142.3340 
N1929 X-203.560 Y-12.139 Z-9.022 A139.4855 
N1930 X-203.548 Y-12.434 Z-9.020 A136.7808 
N1931 X-203.536 Y-12.720 Z-9.002 A134.1952 
N1932 X-203.524 Y-12.999 Z-8.967 A131.7162 
N1933 X-203.512 Y-13.269 Z-8.916 A129.3307 
N1934 X-203.499 Y-13.533 Z-8.852 A127.0253 
N1935 X-203.486 Y-13.790 Z-8.775 A124.7868 
N1936 X-203.473 Y-14.040 Z-8.687 A122.5994 
N1937 X-203.460 Y-14.284 Z-8.588 A120.4464 
N1938 X-203.447 Y-14.522 Z-8.481 A118.3104 
N1939 X-203.434 Y-14.756 Z-8.367 A116.1725 
N1940 X-203.420 Y-14.986 Z-8.246 A114.0132 
N1941 X-203.407 Y-15.213 Z-8.120 A111.8133 
N1942 X-203.393 Y-15.438 Z-7.988 A109.5555 
N1943 X-203.380 Y-15.661 Z-7.852 A107.2312 
N1944 X-203.366 Y-15.882 Z-7.711 A104.8319 
N1945 X-203.352 Y-16.103 Z-7.564 A102.3484 
N1946 X-203.338 Y-16.323 Z-7.410 A99.7742 
N1947 X-203.324 Y-16.542 Z-7.249 A97.1053 
N1948 X-203.310 Y-16.759 Z-7.079 A94.3400 
N1949 X-203.295 Y-16.977 Z-6.898 A91.4621 
N1950 X-203.280 Y-17.192 Z-6.704 A88.4704 
N1951 X-203.264 Y-17.406 Z-6.493 A85.3626 
N1952 X-203.248 Y-17.616 Z-6.263 A82.1173 
N1953 X-203.231 Y-17.823 Z-6.009 A78.7032 
N1954 X-203.213 Y-18.022 Z-5.726 A75.1304 
N1955 X-203.195 Y-18.209 Z-5.411 A71.3852 
N1956 X-203.176 Y-18.377 Z-5.059 A67.4903 
N1957 X-203.158 Y-18.516 Z-4.670 A63.5144 
N1958 X-203.139 Y-18.613 Z-4.241 A59.5090 
N1959 X-203.122 Y-18.653 Z-3.786 A55.6835 
N1960 X-203.107 Y-18.617 Z-3.312 A52.2608 
N1961 X-203.096 Y-18.494 Z-2.835 A49.4635 
N1962 X-203.088 Y-18.287 Z-2.364 A47.3544 
N1963 X-203.083 Y-18.002 Z-1.896 A45.8694 
N1964 X-203.082 Y-17.651 Z-1.431 A44.9218 
N1965 X-203.082 Y-17.245 Z-0.964 A44.4097 
N1966 X-203.084 Y-16.797 Z-0.490 A44.2109 
N1967 X-203.086 Y-16.320 Z-0.006 A44.1888 
N1968 X-203.089 Y-15.826 Z0.489 A44.2216 
N1969 X-203.092 Y-15.324 Z0.994 A44.2440 
N1970 X-203.094 Y-14.822 Z1.503 A44.2427 
N1971 X-203.097 Y-14.323 Z2.010 A44.2428 
N1972 X-203.100 Y-13.830 Z2.510 A44.2490 
N1973 X-203.102 Y-13.348 Z3.001 
N1974 X-203.104 Y-12.872 Z3.491 A44.1794 
N1975 X-203.103 Y-12.449 Z4.009 A43.2360 
N1976 X-203.096 Y-12.108 Z4.613 A40.3123 
N1977 X-203.082 Y-11.844 Z5.339 A34.6713 
N1978 X-203.065 Y-11.566 Z6.163 A26.8981 
N1979 X-203.051 Y-11.187 Z7.025 A17.8767 
N1980 X-203.045 Y-10.645 Z7.829 A8.7795 
N1981 X-203.054 Y-9.933 Z8.394 A1.9117 
N1982 X-203.079 Y-9.113 Z8.616 A359.0334 
N1983 X-203.114 Y-8.216 Z8.645 A358.5707 
N1984 X-203.153 Y-7.238 Z8.635 A358.6409 
N1985 X-203.196 Y-6.173 Z8.630 A358.6477 
N1986 X-203.242 Y-5.018 Z8.626 
N1987 X-203.292 Y-3.779 Z8.622 
N1988 X-203.344 Y-2.466 Z8.617 A358.6466 
N1989 X-203.399 Y-1.093 Z8.612 A358.6469 
N1990 X-203.456 Y0.321 Z8.607 A358.6470 
N1991 X-203.513 Y1.755 Z8.602 A358.6466 
N1992 X-203.570 Y3.186 Z8.597 A358.6443 
N1993 X-203.626 Y4.589 Z8.593 A358.6384 
N1994 X-203.680 Y5.943 Z8.589 A358.6270 
N1995 X-203.732 Y7.226 Z8.585 A358.6095 
N1996 X-203.779 Y8.422 Z8.582 A358.5912 
N1997 X-203.823 Y9.517 Z8.579 A358.5846 
N1998 X-203.863 Y10.504 Z8.575 A358.6074 
N1999 X-203.898 Y11.379 Z8.571 A358.6477 
N2000 X-203.928 Y12.142 Z8.571 
N2001 X-203.954 Y12.809 Z8.572 A358.6186 
N2002 X-203.976 Y13.372 Z8.606 A358.0925 
N2003 X-203.992 Y13.846 Z8.680 A356.8967 
N2004 X-204.004 Y14.248 Z8.815 A354.7132 
N2005 X-204.010 Y14.594 Z9.023 A351.3122 
N2006 X-204.013 Y14.914 Z9.312 A346.5300 
N2007 X-204.014 Y15.231 Z9.651 A340.7528 
N2008 X-204.016 Y15.539 Z9.970 A335.0024 
N2009 X-204.019 Y15.853 Z10.253 A329.4518 
N2010 X-204.022 Y16.106 Z10.449 A325.2299 
N2011 X-204.026 Y16.383 Z10.641 A320.7434 
N2012 X-204.031 Y16.609 Z10.779 A317.2111 
N2013 X-204.035 Y16.824 Z10.896 A313.9383 
N2014 X-204.041 Y17.051 Z11.007 A310.5356 
N2015 X-204.046 Y17.277 Z11.103 A307.2320 
N2016 X-204.051 Y17.469 Z11.174 A304.4593 
N2017 X-204.057 Y17.668 Z11.239 A301.6281 
N2018 X-204.063 Y17.874 Z11.295 A298.7467 
N2019 X-204.070 Y18.084 Z11.342 A295.8215 
N2020 X-204.077 Y18.289 Z11.378 A293.0017 
N2021 X-204.084 Y18.492 Z11.403 A290.2163 
N2022 X-204.092 Y18.698 Z11.419 A287.4192 
N2023 X-204.100 Y18.904 Z11.425 A284.6211 
N2024 X-204.108 Y19.109 Z11.421 A281.8327 
N2025 X-204.118 Y19.330 Z11.405 A278.8317 
N2026 X-204.127 Y19.549 Z11.377 A275.8294 
N2027 X-204.137 Y19.763 Z11.337 A272.8825 
N2028 X-204.147 Y19.970 Z11.286 A270.0038 
N2029 X-204.159 Y20.193 Z11.216 A266.8547 
N2030 X-204.171 Y20.435 Z11.122 A263.3654 
N2031 X-204.184 Y20.660 Z11.015 A260.0342 
N2032 X-204.196 Y20.868 Z10.897 A256.8403 
N2033 X-204.213 Y21.127 Z10.719 A252.6902 
N2034 X-204.228 Y21.351 Z10.532 A248.8701 
N2035 X-204.245 Y21.581 Z10.292 A244.5863 
N2036 X-204.263 Y21.781 Z10.025 A240.3867 
N2037 X-204.281 Y21.960 Z9.700 A235.8748 
N2038 X-204.298 Y22.081 Z9.349 A231.6245 
N2039 X-204.312 Y22.124 Z8.984 A227.9005 
N2040 X-204.322 Y22.074 Z8.621 A224.9459 
N2041 X-204.329 Y21.929 Z8.260 A222.7822 
N2042 X-204.331 Y21.697 Z7.905 A221.3540 
N2043 X-204.331 Y21.381 Z7.541 A220.4979 
N2044 X-204.329 Y20.990 Z7.158 A220.0837 
N2045 X-204.324 Y20.530 Z6.746 A219.9577 
N2046 X-204.319 Y20.007 Z6.293 A219.9721 
N2047 X-204.313 Y19.432 Z5.793 
N2048 X-204.307 Y18.806 Z5.242 A219.8894 
N2049 X-204.301 Y18.139 Z4.641 A219.6087 
N2050 X-204.295 Y17.434 Z3.992 A219.0783 
N2051 X-204.289 Y16.695 Z3.302 A218.2550 
N2052 X-204.283 Y15.922 Z2.582 A217.1541 
N2053 X-204.276 Y15.113 Z1.844 A215.8504 
N2054 X-204.267 Y14.270 Z1.102 A214.4168 
N2055 X-204.258 Y13.395 Z0.362 A212.8485 
N2056 X-204.247 Y12.493 Z-0.375 A211.0508 
N2057 X-204.235 Y11.570 Z-1.107 A208.9129 
N2058 X-204.222 Y10.623 Z-1.830 A206.3768 
N2059 X-204.207 Y9.650 Z-2.534 A203.4609 
N2060 X-204.190 Y8.646 Z-3.205 A200.2468 
N2061 X-204.170 Y7.607 Z-3.826 A196.9096 
N2062 X-204.146 Y6.532 Z-4.376 A193.7273 
N2063 X-204.118 Y5.429 Z-4.839 A190.9573 
N2064 X-204.086 Y4.308 Z-5.210 A188.7962 
N2065 X-204.050 Y3.182 Z-5.492 A187.3655 
N2066 X-204.013 Y2.066 Z-5.702 A186.6202 
N2067 X-203.975 Y0.973 Z-5.865 A186.3689 
N2068 X-203.938 Y-0.087 Z-6.005 A186.3649 
N2069 X-203.902 Y-1.105 Z-6.135 A186.4441 
N2070 X-203.867 Y-2.069 Z-6.263 A186.4760 
N2071 X-203.835 Y-2.980 Z-6.388 
N2072 X-203.805 Y-3.840 Z-6.506 
N2073 X-203.778 Y-4.629 Z-6.634 A186.1479 
N2074 X-203.754 Y-5.349 Z-6.777 A185.3901 
N2075 X-203.734 Y-6.000 Z-6.945 A183.9635 
N2076 X-203.718 Y-6.587 Z-7.146 A181.7171 
N2077 X-203.704 Y-7.120 Z-7.375 A178.6631 
N2078 X-203.693 Y-7.611 Z-7.618 A174.9951 
N2079 X-203.683 Y-8.069 Z-7.857 A170.9747 
N2080 X-203.673 Y-8.504 Z-8.084 A166.7673 
N2081 X-203.664 Y-8.914 Z-8.285 A162.5997 
N2082 X-203.654 Y-9.307 Z-8.456 A158.5603 
N2083 X-203.644 Y-9.682 Z-8.595 A154.7381 
N2084 X-203.633 Y-10.040 Z-8.705 A151.1432 
N2085 X-203.622 Y-10.383 Z-8.786 A147.7619 
N2086 X-203.611 Y-10.714 Z-8.841 A144.5793 
N2087 X-203.599 Y-11.035 Z-8.872 A141.5769 
N2088 X-203.587 Y-11.346 Z-8.880 A138.7412 
N2089 X-203.574 Y-11.648 Z-8.867 A136.0583 
N2090 X-203.562 Y-11.942 Z-8.833 A133.5155 
N2091 X-203.548 Y-12.227 Z-8.780 A131.1022 
N2092 X-203.535 Y-12.504 Z-8.709 A128.8059 
N2093 X-203.521 Y-12.773 Z-8.622 A126.6138 
N2094 X-203.507 Y-13.034 Z-8.521 A124.5112 
N2095 X-203.493 Y-13.288 Z-8.407 A122.4788 
N2096 X-203.479 Y-13.534 Z-8.283 A120.4936 
N2097 X-203.465 Y-13.774 Z-8.150 A118.5308 
N2098 X-203.451 Y-14.009 Z-8.010 A116.5647 
N2099 X-203.437 Y-14.240 Z-7.866 A114.5702 
N2100 X-203.423 Y-14.467 Z-7.717 A112.5242 
N2101 X-203.409 Y-14.693 Z-7.565 A110.4038 
N2102 X-203.395 Y-14.918 Z-7.411 A108.1922 
N2103 X-203.380 Y-15.141 Z-7.254 A105.8802 
N2104 X-203.366 Y-15.365 Z-7.094 A103.4599 
N2105 X-203.351 Y-15.588 Z-6.930 A100.9239 
N2106 X-203.337 Y-15.812 Z-6.761 A98.2698 
N2107 X-203.322 Y-16.035 Z-6.585 A95.5040 
N2108 X-203.307 Y-16.257 Z-6.400 A92.6159 
N2109 X-203.291 Y-16.479 Z-6.203 A89.5995 
N2110 X-203.275 Y-16.698 Z-5.992 A86.4523 
N2111 X-203.259 Y-16.916 Z-5.764 A83.1699 
N2112 X-203.242 Y-17.128 Z-5.515 A79.7423 
N2113 X-203.224 Y-17.335 Z-5.239 A76.1373 
N2114 X-203.206 Y-17.531 Z-4.932 A72.3649 
N2115 X-203.187 Y-17.710 Z-4.591 A68.4491 
N2116 X-203.168 Y-17.861 Z-4.214 A64.4397 
N2117 X-203.150 Y-17.975 Z-3.800 A60.4003 
N2118 X-203.132 Y-18.034 Z-3.361 A56.5358 
N2119 X-203.117 Y-18.021 Z-2.902 A53.0367 
N2120 X-203.105 Y-17.928 Z-2.442 A50.1376 
N2121 X-203.096 Y-17.753 Z-1.984 A47.8685 
N2122 X-203.091 Y-17.504 Z-1.532 A46.2164 
N2123 X-203.088 Y-17.188 Z-1.085 A45.1373 
N2124 X-203.088 Y-16.816 Z-0.642 A44.5459 
N2125 X-203.089 Y-16.401 Z-0.197 A44.3121 
N2126 X-203.092 Y-15.956 Z0.256 A44.2777 
N2127 X-203.094 Y-15.496 Z0.720 A44.3054 
N2128 X-203.097 Y-15.028 Z1.193 A44.3264 
N2129 X-203.099 Y-14.559 Z1.670 A44.3289 
N2130 X-203.102 Y-14.090 Z2.146 A44.3461 
N2131 X-203.104 Y-13.630 Z2.617 
N2132 X-203.106 Y-13.173 Z3.084 
N2133 X-203.108 Y-12.731 Z3.559 A44.0961 
N2134 X-203.105 Y-12.345 Z4.074 A42.7779 
N2135 X-203.097 Y-12.038 Z4.680 A39.3939 
N2136 X-203.082 Y-11.788 Z5.399 A33.5377 
N2137 X-203.066 Y-11.506 Z6.196 A25.9417 
N2138 X-203.054 Y-11.119 Z7.021 A17.3171 
N2139 X-203.049 Y-10.579 Z7.793 A8.5844 
N2140 X-203.058 Y-9.876 Z8.341 A1.9359 
N2141 X-203.083 Y-9.064 Z8.562 A359.0731 
N2142 X-203.117 Y-8.174 Z8.593 A358.5868 
N2143 X-203.157 Y-7.202 Z8.583 A358.6519 
N2144 X-203.199 Y-6.143 Z8.579 A358.6594 
N2145 X-203.245 Y-4.992 Z8.575 
N2146 X-203.294 Y-3.758 Z8.571 
N2147 X-203.347 Y-2.449 Z8.566 A358.6584 
N2148 X-203.401 Y-1.081 Z8.562 A358.6586 
N2149 X-203.458 Y0.329 Z8.557 A358.6588 
N2150 X-203.515 Y1.758 Z8.552 A358.6583 
N2151 X-203.572 Y3.183 Z8.547 A358.6561 
N2152 X-203.628 Y4.582 Z8.543 A358.6503 
N2153 X-203.681 Y5.930 Z8.539 A358.6390 
N2154 X-203.733 Y7.208 Z8.536 A358.6218 
N2155 X-203.780 Y8.399 Z8.533 A358.6050 
N2156 X-203.824 Y9.490 Z8.529 A358.6003 
N2157 X-203.863 Y10.473 Z8.525 A358.6250 
N2158 X-203.898 Y11.343 Z8.522 A358.6594 
N2159 X-203.928 Y12.102 Z8.522 
N2160 X-203.954 Y12.766 Z8.523 A358.6253 
N2161 X-203.976 Y13.325 Z8.555 A358.1328 
N2162 X-203.992 Y13.797 Z8.625 A357.0077 
N2163 X-204.003 Y14.190 Z8.753 A354.9333 
N2164 X-204.010 Y14.534 Z8.962 A351.5433 
N2165 X-204.013 Y14.851 Z9.257 A346.6980 
N2166 X-204.013 Y15.167 Z9.604 A340.8266 
N2167 X-204.015 Y15.497 Z9.948 A334.6272 
N2168 X-204.017 Y15.775 Z10.198 A329.7154 
N2169 X-204.021 Y16.073 Z10.431 A324.7181 
N2170 X-204.025 Y16.302 Z10.590 A321.0077 
N2171 X-204.030 Y16.548 Z10.741 A317.1504 
N2172 X-204.035 Y16.792 Z10.874 A313.4264 
N2173 X-204.039 Y16.988 Z10.968 A310.5021 
N2174 X-204.045 Y17.193 Z11.056 A307.4974 
N2175 X-204.050 Y17.407 Z11.136 A304.4104 
N2176 X-204.057 Y17.624 Z11.205 A301.3354 
N2177 X-204.063 Y17.818 Z11.257 A298.6141 
N2178 X-204.069 Y18.016 Z11.302 A295.8536 
N2179 X-204.076 Y18.219 Z11.337 A293.0615 
N2180 X-204.083 Y18.425 Z11.364 A290.2462 
N2181 X-204.091 Y18.633 Z11.380 A287.4088 
N2182 X-204.099 Y18.843 Z11.386 A284.5530 
N2183 X-204.108 Y19.053 Z11.382 A281.7049 
N2184 X-204.116 Y19.261 Z11.367 A278.8762 
N2185 X-204.125 Y19.465 Z11.341 A276.0800 
N2186 X-204.136 Y19.686 Z11.301 A273.0385 
N2187 X-204.147 Y19.915 Z11.245 A269.8475 
N2188 X-204.158 Y20.134 Z11.177 A266.7553 
N2189 X-204.169 Y20.341 Z11.098 A263.7706 
N2190 X-204.182 Y20.574 Z10.990 A260.3346 
N2191 X-204.196 Y20.817 Z10.854 A256.6260 
N2192 X-204.209 Y21.034 Z10.708 A253.1482 
N2193 X-204.226 Y21.273 Z10.513 A249.1027 
N2194 X-204.242 Y21.497 Z10.287 A244.9834 
N2195 X-204.260 Y21.708 Z10.017 A240.6383 
N2196 X-204.277 Y21.885 Z9.716 A236.3420 
N2197 X-204.294 Y22.018 Z9.368 A231.9958 
N2198 X-204.309 Y22.074 Z9.008 A228.1931 
N2199 X-204.320 Y22.042 Z8.647 A225.0895 
N2200 X-204.327 Y21.919 Z8.286 A222.7160 
N2201 X-204.331 Y21.710 Z7.933 A221.0655 
N2202 X-204.332 Y21.416 Z7.575 A220.0272 
N2203 X-204.329 Y21.044 Z7.204 A219.4985 
N2204 X-204.325 Y20.601 Z6.810 A219.3195 
N2205 X-204.320 Y20.094 Z6.380 A219.3337 
N2206 X-204.313 Y19.532 Z5.905 A219.3770 
N2207 X-204.307 Y18.919 Z5.381 
N2208 X-204.300 Y18.257 Z4.806 A219.2557 
N2209 X-204.294 Y17.561 Z4.179 A218.8287 
N2210 X-204.288 Y16.831 Z3.507 A218.0758 
N2211 X-204.281 Y16.067 Z2.801 A217.0007 
N2212 X-204.274 Y15.268 Z2.073 A215.6894 
N2213 X-204.266 Y14.433 Z1.336 A214.1990 
N2214 X-204.257 Y13.563 Z0.597 A212.5250 
N2215 X-204.246 Y12.664 Z-0.140 A210.6066 
N2216 X-204.234 Y11.736 Z-0.870 A208.3796 
N2217 X-204.220 Y10.781 Z-1.587 A205.8092 
N2218 X-204.205 Y9.796 Z-2.282 A202.9210 
N2219 X-204.186 Y8.779 Z-2.940 A199.8085 
N2220 X-204.165 Y7.727 Z-3.543 A196.6672 
N2221 X-204.140 Y6.644 Z-4.072 A193.7633 
N2222 X-204.111 Y5.539 Z-4.516 A191.3151 
N2223 X-204.079 Y4.423 Z-4.874 A189.4632 
N2224 X-204.044 Y3.311 Z-5.153 A188.2766 
N2225 X-204.008 Y2.215 Z-5.369 A187.6878 
N2226 X-203.971 Y1.149 Z-5.544 A187.5208 
N2227 X-203.936 Y0.122 Z-5.699 A187.5583 
N2228 X-203.901 Y-0.857 Z-5.844 A187.6586 
N2229 X-203.870 Y-1.776 Z-5.989 
N2230 X-203.840 Y-2.646 Z-6.127 
N2231 X-203.812 Y-3.455 Z-6.268 A187.4561 
N2232 X-203.788 Y-4.192 Z-6.421 A186.8382 
N2233 X-203.767 Y-4.860 Z-6.591 A185.6774 
N2234 X-203.750 Y-5.462 Z-6.788 A183.7920 
N2235 X-203.736 Y-6.006 Z-7.015 A181.0882 
N2236 X-203.725 Y-6.502 Z-7.263 A177.6512 
N2237 X-203.715 Y-6.964 Z-7.516 A173.7286 
N2238 X-203.706 Y-7.398 Z-7.756 A169.5988 
N2239 X-203.697 Y-7.813 Z-7.978 A165.3707 
N2240 X-203.688 Y-8.209 Z-8.172 A161.2358 
N2241 X-203.678 Y-8.587 Z-8.334 A157.2930 
N2242 X-203.668 Y-8.952 Z-8.466 A153.5336 
N2243 X-203.658 Y-9.305 Z-8.568 A149.9760 
N2244 X-203.647 Y-9.646 Z-8.642 A146.6231 
N2245 X-203.635 Y-9.978 Z-8.689 A143.4620 
N2246 X-203.623 Y-10.301 Z-8.711 A140.4814 
N2247 X-203.610 Y-10.616 Z-8.707 A137.6727 
N2248 X-203.597 Y-10.922 Z-8.680 A135.0278 
N2249 X-203.583 Y-11.221 Z-8.630 A132.5397 
N2250 X-203.569 Y-11.510 Z-8.559 A130.1991 
N2251 X-203.555 Y-11.792 Z-8.468 A127.9946 
N2252 X-203.541 Y-12.064 Z-8.360 A125.9139 
N2253 X-203.526 Y-12.327 Z-8.236 A123.9396 
N2254 X-203.511 Y-12.581 Z-8.098 A122.0478 
N2255 X-203.496 Y-12.828 Z-7.950 A120.2104 
N2256 X-203.481 Y-13.069 Z-7.794 A118.3969 
N2257 X-203.466 Y-13.303 Z-7.632 A116.5757 
N2258 X-203.452 Y-13.534 Z-7.467 A114.7148 
N2259 X-203.437 Y-13.763 Z-7.299 A112.7836 
N2260 X-203.422 Y-13.990 Z-7.130 A110.7557 
N2261 X-203.407 Y-14.217 Z-6.961 A108.6112 
N2262 X-203.392 Y-14.444 Z-6.791 A106.3392 
N2263 X-203.377 Y-14.671 Z-6.620 A103.9328 
N2264 X-203.362 Y-14.899 Z-6.446 A101.3924 
N2265 X-203.347 Y-15.127 Z-6.270 A98.7191 
N2266 X-203.332 Y-15.355 Z-6.087 A95.9101 
N2267 X-203.316 Y-15.584 Z-5.897 A92.9659 
N2268 X-203.300 Y-15.811 Z-5.697 A89.8866 
N2269 X-203.284 Y-16.037 Z-5.483 A86.6716 
N2270 X-203.267 Y-16.259 Z-5.252 A83.3205 
N2271 X-203.250 Y-16.478 Z-4.999 A79.8083 
N2272 X-203.232 Y-16.689 Z-4.721 A76.1399 
N2273 X-203.214 Y-16.889 Z-4.414 A72.3163 
N2274 X-203.195 Y-17.069 Z-4.074 A68.3695 
N2275 X-203.176 Y-17.222 Z-3.699 A64.3547 
N2276 X-203.158 Y-17.336 Z-3.290 A60.3278 
N2277 X-203.141 Y-17.394 Z-2.859 A56.5352 
N2278 X-203.126 Y-17.381 Z-2.413 A53.1506 
N2279 X-203.114 Y-17.292 Z-1.965 A50.3328 
N2280 X-203.106 Y-17.126 Z-1.521 A48.1183 
N2281 X-203.100 Y-16.890 Z-1.085 A46.5067 
N2282 X-203.097 Y-16.590 Z-0.656 A45.4696 
N2283 X-203.097 Y-16.238 Z-0.232 A44.9119 
N2284 X-203.098 Y-15.847 Z0.192 A44.6904 
N2285 X-203.100 Y-15.432 Z0.623 A44.6407 
N2286 X-203.102 Y-15.004 Z1.062 A44.6474 
N2287 X-203.104 Y-14.569 Z1.507 A44.6582 
N2288 X-203.106 Y-14.133 Z1.954 A44.6825 
N2289 X-203.108 Y-13.699 Z2.399 A44.7104 
N2290 X-203.110 Y-13.272 Z2.842 
N2291 X-203.112 Y-12.846 Z3.291 A44.6362 
N2292 X-203.111 Y-12.463 Z3.764 A43.8084 
N2293 X-203.106 Y-12.141 Z4.297 A41.5573 
N2294 X-203.094 Y-11.888 Z4.931 A37.1049 
N2295 X-203.079 Y-11.651 Z5.660 A30.6174 
N2296 X-203.064 Y-11.350 Z6.440 A22.8751 
N2297 X-203.054 Y-10.930 Z7.227 A14.4314 
N2298 X-203.053 Y-10.353 Z7.926 A6.3431 
N2299 X-203.067 Y-9.630 Z8.371 A0.8593 
N2300 X-203.094 Y-8.811 Z8.522 A358.8565 
N2301 X-203.130 Y-7.913 Z8.534 A358.6344 
N2302 X-203.169 Y-6.929 Z8.525 A358.7017 
N2303 X-203.212 Y-5.856 Z8.522 
N2304 X-203.259 Y-4.692 Z8.518 
N2305 X-203.309 Y-3.445 Z8.514 
N2306 X-203.361 Y-2.127 Z8.511 A358.7009 
N2307 X-203.416 Y-0.753 Z8.506 A358.7011 
N2308 X-203.473 Y0.657 Z8.502 A358.7011 
N2309 X-203.529 Y2.082 Z8.498 A358.7003 
N2310 X-203.586 Y3.499 Z8.494 A358.6975 
N2311 X-203.641 Y4.882 Z8.491 A358.6906 
N2312 X-203.694 Y6.211 Z8.488 A358.6785 
N2313 X-203.744 Y7.465 Z8.485 A358.6620 
N2314 X-203.791 Y8.630 Z8.483 A358.6512 
N2315 X-203.833 Y9.691 Z8.480 A358.6543 
N2316 X-203.872 Y10.645 Z8.476 A358.6917 
N2317 X-203.905 Y11.484 Z8.475 A358.7017 
N2318 X-203.934 Y12.218 Z8.475 
N2319 X-203.959 Y12.854 Z8.483 A358.5714 
N2320 X-203.979 Y13.389 Z8.521 A357.9736 
N2321 X-203.994 Y13.837 Z8.601 A356.6918 
N2322 X-204.005 Y14.220 Z8.749 A354.3100 
N2323 X-204.010 Y14.553 Z8.984 A350.5052 
N2324 X-204.012 Y14.869 Z9.304 A345.2363 
N2325 X-204.012 Y15.183 Z9.649 A339.3056 
N2326 X-204.014 Y15.494 Z9.963 A333.5483 
N2327 X-204.017 Y15.793 Z10.223 A328.3332 
N2328 X-204.021 Y16.054 Z10.423 A323.9762 
N2329 X-204.025 Y16.296 Z10.587 A320.0794 
N2330 X-204.030 Y16.557 Z10.743 A316.0118 
N2331 X-204.034 Y16.760 Z10.851 A312.9273 
N2332 X-204.039 Y16.963 Z10.947 A309.8946 
N2333 X-204.045 Y17.177 Z11.037 A306.7685 
N2334 X-204.051 Y17.400 Z11.118 A303.5509 
N2335 X-204.056 Y17.596 Z11.179 A300.7779 
N2336 X-204.062 Y17.792 Z11.231 A298.0201 
N2337 X-204.069 Y17.994 Z11.275 A295.2208 
N2338 X-204.076 Y18.199 Z11.310 A292.3887 
N2339 X-204.083 Y18.408 Z11.335 A289.5337 
N2340 X-204.091 Y18.617 Z11.350 A286.6846 
N2341 X-204.099 Y18.826 Z11.354 A283.8343 
N2342 X-204.108 Y19.035 Z11.348 A280.9947 
N2343 X-204.117 Y19.242 Z11.332 A278.1792 
N2344 X-204.126 Y19.449 Z11.304 A275.3325 
N2345 X-204.137 Y19.681 Z11.259 A272.1361 
N2346 X-204.148 Y19.903 Z11.202 A269.0253 
N2347 X-204.158 Y20.115 Z11.133 A266.0163 
N2348 X-204.169 Y20.316 Z11.054 A263.1153 
N2349 X-204.183 Y20.568 Z10.933 A259.3594 
N2350 X-204.197 Y20.798 Z10.799 A255.8094 
N2351 X-204.210 Y21.005 Z10.655 A252.4775 
N2352 X-204.227 Y21.253 Z10.446 A248.2284 
N2353 X-204.243 Y21.461 Z10.228 A244.3369 
N2354 X-204.261 Y21.672 Z9.947 A239.8979 
N2355 X-204.278 Y21.841 Z9.643 A235.6439 
N2356 X-204.294 Y21.958 Z9.308 A231.5641 
N2357 X-204.308 Y22.005 Z8.950 A227.8496 
N2358 X-204.319 Y21.970 Z8.585 A224.7121 
N2359 X-204.327 Y21.850 Z8.224 A222.2676 
N2360 X-204.331 Y21.640 Z7.865 A220.5196 
N2361 X-204.331 Y21.345 Z7.508 A219.4506 
N2362 X-204.329 Y20.970 Z7.142 A218.9236 
N2363 X-204.324 Y20.524 Z6.754 A218.7572 
N2364 X-204.318 Y20.014 Z6.331 A218.7778 
N2365 X-204.312 Y19.451 Z5.864 A218.8334 
N2366 X-204.305 Y18.837 Z5.349 
N2367 X-204.297 Y18.170 Z4.783 A218.7569 
N2368 X-204.291 Y17.471 Z4.167 A218.3695 
N2369 X-204.284 Y16.736 Z3.507 A217.6847 
N2370 X-204.277 Y15.969 Z2.811 A216.6804 
N2371 X-204.270 Y15.168 Z2.091 A215.3832 
N2372 X-204.261 Y14.334 Z1.355 A213.7969 
N2373 X-204.252 Y13.467 Z0.613 A211.9314 
N2374 X-204.242 Y12.567 Z-0.127 A209.7858 
N2375 X-204.229 Y11.635 Z-0.856 A207.3324 
N2376 X-204.215 Y10.671 Z-1.568 A204.5498 
N2377 X-204.199 Y9.673 Z-2.251 A201.4913 
N2378 X-204.179 Y8.640 Z-2.887 A198.3127 
N2379 X-204.156 Y7.573 Z-3.453 A195.3165 
N2380 X-204.129 Y6.479 Z-3.931 A192.8110 
N2381 X-204.098 Y5.370 Z-4.320 A190.9402 
N2382 X-204.064 Y4.263 Z-4.631 A189.7078 
N2383 X-204.029 Y3.172 Z-4.879 A189.0370 
N2384 X-203.994 Y2.108 Z-5.084 A188.7933 
N2385 X-203.959 Y1.084 Z-5.264 A188.7946 
N2386 X-203.926 Y0.107 Z-5.430 A188.9071 
N2387 X-203.895 Y-0.810 Z-5.594 A188.9328 
N2388 X-203.866 Y-1.676 Z-5.753 
N2389 X-203.839 Y-2.486 Z-5.909 A188.7972 
N2390 X-203.815 Y-3.222 Z-6.081 A188.1770 
N2391 X-203.795 Y-3.890 Z-6.267 A187.0244 
N2392 X-203.778 Y-4.490 Z-6.475 A185.1889 
N2393 X-203.765 Y-5.031 Z-6.708 A182.5907 
N2394 X-203.754 Y-5.524 Z-6.963 A179.2512 
N2395 X-203.744 Y-5.980 Z-7.226 A175.3742 
N2396 X-203.736 Y-6.411 Z-7.479 A171.2350 
N2397 X-203.727 Y-6.819 Z-7.709 A167.0569 
N2398 X-203.719 Y-7.211 Z-7.915 A162.9160 
