; PROGRAM NAME: B12345638
; ORDER       : B123456
; OPER. NAME  : Side Milling:160
; OPER. DESCR.: Side Milling/czolo_nozki_po_luku_zgr
; OPER. TYPE  : sideMill
; GEO. OPTION : 1
; MACHINE     : HSTM_500_SIM840D_Py
;             : HSTM500 - HAMUEL: 5-axis milling machine - SIM840D Traori PP_Script
; CONTROL     : SINUMERIK 840D
; created:   2023-06-06 12:07:00.796386
;-------DODATKOWE DANE-------------------
; PROGRAMISTA : Mariusz Malec
; PARTID      : 306T001953P1010_-
;  ap         : 4.4
;  ae         : 1.0
;  lean_angle : 0.0
;  fin_offset : -9.5
;----------------------------------------
;RAPORT("TB123456","Side Milling:160")
N10 TRAFOOF
N11 D0
N12 G90 G94
N13 G0 G53 D0 Z550 B0
N14 STOPRE
M9 ; chlodziwo wyl
; --- Side Milling:160 - Side Milling/czolo_nozki_po_luku_zgr ---
N16 ;ToolChange : concat=None ,current_tdmid=None, PP.tdmId=957774
N17 TRAFOOF
N18 G0 G53 D0 X-200 Y150 Z550 B0
N19 T="7757774"
;RAPORT("TB123456","ToolChangeStart 7757774")
N20 M6
;RAPORT("TB123456","ToolChangeEnd")
N21 STOPRE
N22 MSG(" TLID=957774 D=10.0 R=0.0 Ang=0.0 Len=129.0 ")
N23 ; (Preloading tool)
N24 T="7756976"
N25 S2864 M03
N26 STOPRE
N27 CYCLE832(0.01,1,1)
N28 G0 G53 A47.0000 B0.0000
N29 TRAORI
N30 G54 D1
;tol5=0.15
N31 D1 
STOPRE
E_ZDARZ=500001
;ACS_ROUGH_ROOT_FRONT=7757774
STOPRE
;UWAGA : ZMIENIONA TOLERANCJA OSI A i B, ruchy osi A i B beda usuniete : TOL5=0.15
N32 ; DELTA A > 40.1
N33 TRAFOOF
N34 D1
N35 STOPRE
N36 G00 G54 Z257.000
N37 G01 A47.0000 F10000
N38 TRAORI
N39 G54 D1
N40 STOPRE
N41 TRANS 
N42 G00 X-133.913 Y-30.073 Z55.301 A47.0000 
N43 M342 ; chlodziwo woda
N44 X-133.913 Y6.494 Z21.201 
N45 ;FSE_1
N46 G01 G41 X-133.936 Y5.813 Z20.469 F458 
N47 X-133.940 Y5.710 Z20.360 
N48 X-133.943 Y5.608 Z20.250 
N49 X-133.947 Y5.506 Z20.140 
N50 X-133.950 Y5.404 Z20.031 
N51 X-133.954 Y5.301 Z19.921 
N52 X-133.957 Y5.199 Z19.811 
N53 X-133.961 Y5.097 Z19.702 
N54 X-133.964 Y4.994 Z19.592 
N55 X-133.967 Y4.892 Z19.482 
N56 X-133.971 Y4.790 Z19.373 
N57 X-133.974 Y4.688 Z19.263 
N58 X-133.978 Y4.585 Z19.153 
N59 X-133.981 Y4.483 Z19.044 
N60 X-133.985 Y4.381 Z18.934 
N61 X-133.988 Y4.279 Z18.824 
N62 X-133.992 Y4.176 Z18.715 
N63 X-133.995 Y4.074 Z18.605 
N64 X-133.999 Y3.972 Z18.495 
N65 X-134.002 Y3.869 Z18.386 
N66 X-134.005 Y3.767 Z18.276 
N67 X-134.009 Y3.664 Z18.165 
N68 X-134.012 Y3.561 Z18.054 
N69 X-134.016 Y3.457 Z17.944 
N70 X-134.019 Y3.354 Z17.833 
N71 X-134.023 Y3.251 Z17.722 
N72 X-134.026 Y3.147 Z17.611 
N73 X-134.030 Y3.044 Z17.500 
N74 X-134.033 Y2.941 Z17.390 
N75 X-134.037 Y2.837 Z17.279 
N76 X-134.040 Y2.734 Z17.168 
N77 X-134.044 Y2.631 Z17.057 
N78 X-134.047 Y2.527 Z16.947 
N79 X-134.051 Y2.424 Z16.836 
N80 X-134.054 Y2.321 Z16.725 
N81 X-134.058 Y2.218 Z16.614 
N82 X-134.061 Y2.114 Z16.503 
N83 X-134.065 Y2.011 Z16.393 
N84 X-134.068 Y1.908 Z16.282 
N85 X-134.072 Y1.804 Z16.171 
N86 X-134.075 Y1.701 Z16.060 
N87 X-134.079 Y1.598 Z15.950 
N88 X-134.082 Y1.494 Z15.839 
N89 X-134.086 Y1.391 Z15.728 
N90 X-134.089 Y1.288 Z15.617 
N91 X-134.093 Y1.185 Z15.506 
N92 X-134.096 Y1.081 Z15.396 
N93 X-134.100 Y0.978 Z15.285 
N94 X-134.103 Y0.875 Z15.174 
N95 X-134.107 Y0.771 Z15.063 
N96 X-134.110 Y0.668 Z14.953 
N97 X-134.114 Y0.565 Z14.842 
N98 X-134.117 Y0.461 Z14.731 
N99 X-134.121 Y0.358 Z14.620 
N100 X-134.124 Y0.254 Z14.509 
N101 X-134.128 Y0.150 Z14.397 
N102 X-134.131 Y0.046 Z14.286 
N103 X-134.135 Y-0.057 Z14.175 
N104 X-134.138 Y-0.161 Z14.063 
N105 X-134.142 Y-0.265 Z13.952 
N106 X-134.145 Y-0.369 Z13.840 
N107 X-134.149 Y-0.473 Z13.729 
N108 X-134.152 Y-0.577 Z13.618 
N109 X-134.156 Y-0.681 Z13.506 
N110 X-134.159 Y-0.785 Z13.395 
N111 X-134.163 Y-0.889 Z13.283 
N112 X-134.166 Y-0.992 Z13.172 
N113 X-134.170 Y-1.096 Z13.061 
N114 X-134.173 Y-1.200 Z12.949 
N115 X-134.177 Y-1.304 Z12.838 
N116 X-134.180 Y-1.408 Z12.726 
N117 X-134.184 Y-1.512 Z12.615 
N118 X-134.187 Y-1.616 Z12.504 
N119 X-134.191 Y-1.720 Z12.392 
N120 X-134.194 Y-1.823 Z12.281 
N121 X-134.197 Y-1.927 Z12.169 
N122 X-134.198 Y-2.031 Z12.058 
N123 X-134.200 Y-2.135 Z11.947 
N124 X-134.201 Y-2.239 Z11.835 
N125 X-134.202 Y-2.343 Z11.724 
N126 X-134.203 Y-2.447 Z11.612 
N127 X-134.205 Y-2.551 Z11.501 
N128 X-134.206 Y-2.655 Z11.389 
N129 X-134.207 Y-2.759 Z11.278 
N130 X-134.209 Y-2.862 Z11.167 
N131 X-134.210 Y-2.966 Z11.055 
N132 X-134.211 Y-3.070 Z10.944 
N133 X-134.213 Y-3.174 Z10.832 
N134 X-134.214 Y-3.278 Z10.721 
N135 X-134.215 Y-3.382 Z10.609 
N136 X-134.217 Y-3.486 Z10.498 
N137 X-134.218 Y-3.590 Z10.387 
N138 X-134.219 Y-3.694 Z10.275 
N139 X-134.221 Y-3.798 Z10.164 
N140 X-134.222 Y-3.902 Z10.052 
N141 X-134.223 Y-4.005 Z9.941 
N142 X-134.224 Y-4.109 Z9.829 
N143 X-134.226 Y-4.213 Z9.718 
N144 X-134.227 Y-4.317 Z9.607 
N145 X-134.228 Y-4.421 Z9.495 
N146 X-134.230 Y-4.525 Z9.384 
N147 X-134.231 Y-4.629 Z9.272 
N148 X-134.232 Y-4.733 Z9.161 
N149 X-134.234 Y-4.837 Z9.049 
N150 X-134.234 Y-4.941 Z8.938 
N151 X-134.233 Y-5.045 Z8.827 
N152 X-134.232 Y-5.148 Z8.715 
N153 X-134.230 Y-5.252 Z8.604 
N154 X-134.229 Y-5.356 Z8.492 
N155 X-134.228 Y-5.460 Z8.381 
N156 X-134.227 Y-5.564 Z8.269 
N157 X-134.225 Y-5.668 Z8.158 
N158 X-134.224 Y-5.772 Z8.047 
N159 X-134.223 Y-5.876 Z7.935 
N160 X-134.222 Y-5.980 Z7.824 
N161 X-134.221 Y-6.084 Z7.712 
N162 X-134.219 Y-6.187 Z7.601 
N163 X-134.218 Y-6.291 Z7.490 
N164 X-134.217 Y-6.395 Z7.378 
N165 X-134.216 Y-6.499 Z7.267 
N166 X-134.214 Y-6.603 Z7.155 
N167 X-134.213 Y-6.707 Z7.044 
N168 X-134.212 Y-6.811 Z6.932 
N169 X-134.211 Y-6.915 Z6.821 
N170 X-134.210 Y-7.019 Z6.710 
N171 X-134.208 Y-7.123 Z6.598 
N172 X-134.207 Y-7.227 Z6.487 
N173 X-134.206 Y-7.330 Z6.375 
N174 X-134.205 Y-7.434 Z6.264 
N175 X-134.203 Y-7.538 Z6.152 
N176 X-134.202 Y-7.642 Z6.041 
N177 X-134.201 Y-7.746 Z5.930 
N178 X-134.200 Y-7.850 Z5.818 
N179 X-134.198 Y-7.954 Z5.707 
N180 X-134.195 Y-8.058 Z5.595 
N181 X-134.191 Y-8.162 Z5.484 
N182 X-134.188 Y-8.266 Z5.372 
N183 X-134.185 Y-8.369 Z5.261 
N184 X-134.181 Y-8.473 Z5.150 
N185 X-134.178 Y-8.577 Z5.038 
N186 X-134.174 Y-8.681 Z4.927 
N187 X-134.171 Y-8.785 Z4.815 
N188 X-134.167 Y-8.889 Z4.704 
N189 X-134.164 Y-8.993 Z4.593 
N190 X-134.161 Y-9.097 Z4.481 
N191 X-134.157 Y-9.200 Z4.370 
N192 X-134.154 Y-9.304 Z4.258 
N193 X-134.150 Y-9.408 Z4.147 
N194 X-134.147 Y-9.512 Z4.036 
N195 X-134.143 Y-9.616 Z3.924 
N196 X-134.140 Y-9.720 Z3.813 
N197 X-134.136 Y-9.824 Z3.701 
N198 X-134.133 Y-9.928 Z3.590 
N199 X-134.130 Y-10.032 Z3.479 
N200 X-134.126 Y-10.135 Z3.367 
N201 X-134.122 Y-10.239 Z3.256 
N202 X-134.116 Y-10.343 Z3.145 
N203 X-134.111 Y-10.447 Z3.033 
N204 X-134.105 Y-10.551 Z2.922 
N205 X-134.099 Y-10.655 Z2.810 
N206 X-134.093 Y-10.758 Z2.699 
N207 X-134.088 Y-10.862 Z2.588 
N208 X-134.082 Y-10.966 Z2.476 
N209 X-134.076 Y-11.070 Z2.365 
N210 X-134.070 Y-11.174 Z2.254 
N211 X-134.065 Y-11.278 Z2.142 
N212 X-134.059 Y-11.381 Z2.031 
N213 X-134.053 Y-11.485 Z1.920 
N214 X-134.047 Y-11.589 Z1.808 
N215 X-134.042 Y-11.693 Z1.697 
N216 X-134.036 Y-11.797 Z1.586 
N217 X-134.030 Y-11.901 Z1.474 
N218 X-134.024 Y-12.004 Z1.363 
N219 X-134.019 Y-12.108 Z1.252 
N220 X-134.013 Y-12.212 Z1.140 
N221 X-134.007 Y-12.316 Z1.029 
N222 X-134.001 Y-12.420 Z0.918 
N223 X-133.996 Y-12.524 Z0.806 
N224 X-133.990 Y-12.627 Z0.695 
N225 X-133.984 Y-12.731 Z0.584 
N226 X-133.978 Y-12.835 Z0.472 
N227 X-133.973 Y-12.939 Z0.361 
N228 X-133.967 Y-13.043 Z0.249 
N229 X-133.961 Y-13.147 Z0.138 
N230 X-133.955 Y-13.251 Z0.027 
N231 X-133.950 Y-13.354 Z-0.085 
N232 X-133.944 Y-13.458 Z-0.196 
N233 X-133.936 Y-13.562 Z-0.307 
N234 X-133.928 Y-13.666 Z-0.418 
N235 X-133.920 Y-13.769 Z-0.530 
N236 X-133.912 Y-13.873 Z-0.641 
N237 X-133.903 Y-13.977 Z-0.752 
N238 X-133.895 Y-14.081 Z-0.864 
N239 X-133.887 Y-14.185 Z-0.975 
N240 X-133.879 Y-14.288 Z-1.086 
N241 X-133.871 Y-14.392 Z-1.197 
N242 X-133.863 Y-14.496 Z-1.309 
N243 X-133.855 Y-14.600 Z-1.420 
N244 X-133.846 Y-14.703 Z-1.531 
N245 X-133.838 Y-14.807 Z-1.642 
N246 X-133.830 Y-14.911 Z-1.754 
N247 X-133.822 Y-15.015 Z-1.865 
N248 X-133.814 Y-15.118 Z-1.976 
N249 X-133.806 Y-15.222 Z-2.088 
N250 X-133.798 Y-15.326 Z-2.199 
N251 X-133.789 Y-15.430 Z-2.310 
N252 X-133.781 Y-15.533 Z-2.421 
N253 X-133.773 Y-15.637 Z-2.533 
N254 X-133.765 Y-15.741 Z-2.644 
N255 X-133.757 Y-15.845 Z-2.755 
N256 X-133.749 Y-15.948 Z-2.866 
N257 X-133.741 Y-16.052 Z-2.977 
N258 X-133.732 Y-16.155 Z-3.088 
N259 X-133.724 Y-16.258 Z-3.198 
N260 X-133.716 Y-16.361 Z-3.309 
N261 X-133.708 Y-16.464 Z-3.420 
N262 X-133.700 Y-16.568 Z-3.530 
N263 X-133.692 Y-16.671 Z-3.641 
N264 X-133.684 Y-16.774 Z-3.752 
N265 X-133.676 Y-16.877 Z-3.862 
N266 X-133.668 Y-16.980 Z-3.973 
N267 X-133.659 Y-17.083 Z-4.084 
N268 X-133.651 Y-17.187 Z-4.194 
N269 X-133.643 Y-17.290 Z-4.305 
N270 X-133.635 Y-17.393 Z-4.416 
N271 X-133.627 Y-17.496 Z-4.526 
N272 X-133.619 Y-17.599 Z-4.637 
N273 X-133.611 Y-17.703 Z-4.748 
N274 X-133.603 Y-17.806 Z-4.858 
N275 X-133.595 Y-17.909 Z-4.969 
N276 X-133.587 Y-18.012 Z-5.079 
N277 X-133.578 Y-18.115 Z-5.190 
N278 X-133.570 Y-18.219 Z-5.301 
N279 X-133.562 Y-18.322 Z-5.411 
N280 X-133.554 Y-18.425 Z-5.522 
N281 X-133.546 Y-18.528 Z-5.633 
N282 X-133.538 Y-18.631 Z-5.743 
N283 X-133.530 Y-18.734 Z-5.854 
N284 X-133.522 Y-18.838 Z-5.965 
N285 X-133.514 Y-18.941 Z-6.075 
N286 X-133.506 Y-19.044 Z-6.186 
N287 X-133.497 Y-19.147 Z-6.297 
N288 X-133.489 Y-19.250 Z-6.407 
N289 X-133.481 Y-19.354 Z-6.518 
N290 G40 X-133.428 Y-20.035 Z-7.248 F458
N291 X-133.428 Y-20.035 Z-7.248 
N292 G00 X-133.428 Y-41.975 Z13.212 
N293 X-133.913 Y-13.130 Z39.501 
N294 X-133.913 Y8.810 Z19.041 
N295 ;FSE_1
N296 G01 G41 X-133.936 Y8.129 Z18.310 F458 
N297 X-133.940 Y8.026 Z18.200 
N298 X-133.943 Y7.924 Z18.090 
N299 X-133.947 Y7.822 Z17.981 
N300 X-133.950 Y7.719 Z17.871 
N301 X-133.954 Y7.617 Z17.761 
N302 X-133.957 Y7.515 Z17.652 
N303 X-133.961 Y7.413 Z17.542 
N304 X-133.964 Y7.310 Z17.432 
N305 X-133.967 Y7.208 Z17.323 
N306 X-133.971 Y7.106 Z17.213 
N307 X-133.974 Y7.004 Z17.103 
N308 X-133.978 Y6.901 Z16.994 
N309 X-133.981 Y6.799 Z16.884 
N310 X-133.985 Y6.697 Z16.774 
N311 X-133.988 Y6.594 Z16.665 
N312 X-133.992 Y6.492 Z16.555 
N313 X-133.995 Y6.390 Z16.445 
N314 X-133.999 Y6.288 Z16.336 
N315 X-134.002 Y6.185 Z16.226 
N316 X-134.005 Y6.083 Z16.116 
N317 X-134.009 Y5.980 Z16.006 
N318 X-134.012 Y5.876 Z15.895 
N319 X-134.016 Y5.773 Z15.784 
N320 X-134.019 Y5.670 Z15.673 
N321 X-134.023 Y5.567 Z15.562 
N322 X-134.026 Y5.463 Z15.452 
N323 X-134.030 Y5.360 Z15.341 
N324 X-134.033 Y5.257 Z15.230 
N325 X-134.037 Y5.153 Z15.119 
N326 X-134.040 Y5.050 Z15.008 
N327 X-134.044 Y4.947 Z14.898 
N328 X-134.047 Y4.843 Z14.787 
N329 X-134.051 Y4.740 Z14.676 
N330 X-134.054 Y4.637 Z14.565 
N331 X-134.058 Y4.534 Z14.455 
N332 X-134.061 Y4.430 Z14.344 
N333 X-134.065 Y4.327 Z14.233 
N334 X-134.068 Y4.224 Z14.122 
N335 X-134.072 Y4.120 Z14.011 
N336 X-134.075 Y4.017 Z13.901 
N337 X-134.079 Y3.914 Z13.790 
N338 X-134.082 Y3.810 Z13.679 
N339 X-134.086 Y3.707 Z13.568 
N340 X-134.089 Y3.604 Z13.458 
N341 X-134.093 Y3.500 Z13.347 
N342 X-134.096 Y3.397 Z13.236 
N343 X-134.100 Y3.294 Z13.125 
N344 X-134.103 Y3.191 Z13.014 
N345 X-134.107 Y3.087 Z12.904 
N346 X-134.110 Y2.984 Z12.793 
N347 X-134.114 Y2.881 Z12.682 
N348 X-134.117 Y2.777 Z12.571 
N349 X-134.121 Y2.674 Z12.461 
N350 X-134.124 Y2.570 Z12.349 
N351 X-134.128 Y2.466 Z12.238 
N352 X-134.131 Y2.362 Z12.126 
N353 X-134.135 Y2.258 Z12.015 
N354 X-134.138 Y2.155 Z11.904 
N355 X-134.142 Y2.051 Z11.792 
N356 X-134.145 Y1.947 Z11.681 
N357 X-134.149 Y1.843 Z11.569 
N358 X-134.152 Y1.739 Z11.458 
N359 X-134.156 Y1.635 Z11.347 
N360 X-134.159 Y1.531 Z11.235 
N361 X-134.163 Y1.427 Z11.124 
N362 X-134.166 Y1.324 Z11.012 
N363 X-134.170 Y1.220 Z10.901 
N364 X-134.173 Y1.116 Z10.790 
N365 X-134.177 Y1.012 Z10.678 
N366 X-134.180 Y0.908 Z10.567 
N367 X-134.184 Y0.804 Z10.455 
N368 X-134.187 Y0.700 Z10.344 
N369 X-134.191 Y0.596 Z10.233 
N370 X-134.194 Y0.493 Z10.121 
N371 X-134.197 Y0.389 Z10.010 
N372 X-134.198 Y0.285 Z9.898 
N373 X-134.200 Y0.181 Z9.787 
N374 X-134.201 Y0.077 Z9.675 
N375 X-134.202 Y-0.027 Z9.564 
N376 X-134.203 Y-0.131 Z9.453 
N377 X-134.205 Y-0.235 Z9.341 
N378 X-134.206 Y-0.339 Z9.230 
N379 X-134.207 Y-0.443 Z9.118 
N380 X-134.209 Y-0.547 Z9.007 
N381 X-134.210 Y-0.650 Z8.895 
N382 X-134.211 Y-0.754 Z8.784 
N383 X-134.213 Y-0.858 Z8.673 
N384 X-134.214 Y-0.962 Z8.561 
N385 X-134.215 Y-1.066 Z8.450 
N386 X-134.217 Y-1.170 Z8.338 
N387 X-134.218 Y-1.274 Z8.227 
N388 X-134.219 Y-1.378 Z8.115 
N389 X-134.221 Y-1.482 Z8.004 
N390 X-134.222 Y-1.586 Z7.893 
N391 X-134.223 Y-1.689 Z7.781 
N392 X-134.224 Y-1.793 Z7.670 
N393 X-134.226 Y-1.897 Z7.558 
N394 X-134.227 Y-2.001 Z7.447 
N395 X-134.228 Y-2.105 Z7.336 
N396 X-134.230 Y-2.209 Z7.224 
N397 X-134.231 Y-2.313 Z7.113 
N398 X-134.232 Y-2.417 Z7.001 
N399 X-134.234 Y-2.521 Z6.890 
N400 X-134.234 Y-2.625 Z6.778 
N401 X-134.233 Y-2.729 Z6.667 
N402 X-134.232 Y-2.832 Z6.556 
N403 X-134.230 Y-2.936 Z6.444 
N404 X-134.229 Y-3.040 Z6.333 
N405 X-134.228 Y-3.144 Z6.221 
N406 X-134.227 Y-3.248 Z6.110 
N407 X-134.225 Y-3.352 Z5.998 
N408 X-134.224 Y-3.456 Z5.887 
N409 X-134.223 Y-3.560 Z5.776 
N410 X-134.222 Y-3.664 Z5.664 
N411 X-134.221 Y-3.768 Z5.553 
N412 X-134.219 Y-3.872 Z5.441 
N413 X-134.218 Y-3.975 Z5.330 
N414 X-134.217 Y-4.079 Z5.218 
N415 X-134.216 Y-4.183 Z5.107 
N416 X-134.214 Y-4.287 Z4.996 
N417 X-134.213 Y-4.391 Z4.884 
N418 X-134.212 Y-4.495 Z4.773 
N419 X-134.211 Y-4.599 Z4.661 
N420 X-134.210 Y-4.703 Z4.550 
N421 X-134.208 Y-4.807 Z4.438 
N422 X-134.207 Y-4.911 Z4.327 
N423 X-134.206 Y-5.014 Z4.216 
N424 X-134.205 Y-5.118 Z4.104 
N425 X-134.203 Y-5.222 Z3.993 
N426 X-134.202 Y-5.326 Z3.881 
N427 X-134.201 Y-5.430 Z3.770 
N428 X-134.200 Y-5.534 Z3.658 
N429 X-134.198 Y-5.638 Z3.547 
N430 X-134.195 Y-5.742 Z3.436 
N431 X-134.191 Y-5.846 Z3.324 
N432 X-134.188 Y-5.950 Z3.213 
N433 X-134.185 Y-6.053 Z3.101 
N434 X-134.181 Y-6.157 Z2.990 
N435 X-134.178 Y-6.261 Z2.879 
N436 X-134.174 Y-6.365 Z2.767 
N437 X-134.171 Y-6.469 Z2.656 
N438 X-134.167 Y-6.573 Z2.544 
N439 X-134.164 Y-6.677 Z2.433 
N440 X-134.161 Y-6.781 Z2.322 
N441 X-134.157 Y-6.885 Z2.210 
N442 X-134.154 Y-6.988 Z2.099 
N443 X-134.150 Y-7.092 Z1.987 
N444 X-134.147 Y-7.196 Z1.876 
N445 X-134.143 Y-7.300 Z1.765 
N446 X-134.140 Y-7.404 Z1.653 
N447 X-134.136 Y-7.508 Z1.542 
N448 X-134.133 Y-7.612 Z1.430 
N449 X-134.130 Y-7.716 Z1.319 
N450 X-134.126 Y-7.819 Z1.208 
N451 X-134.122 Y-7.923 Z1.096 
N452 X-134.116 Y-8.027 Z0.985 
N453 X-134.111 Y-8.131 Z0.874 
N454 X-134.105 Y-8.235 Z0.762 
N455 X-134.099 Y-8.339 Z0.651 
N456 X-134.093 Y-8.443 Z0.539 
N457 X-134.088 Y-8.546 Z0.428 
N458 X-134.082 Y-8.650 Z0.317 
N459 X-134.076 Y-8.754 Z0.205 
N460 X-134.070 Y-8.858 Z0.094 
N461 X-134.065 Y-8.962 Z-0.017 
N462 X-134.059 Y-9.066 Z-0.129 
N463 X-134.053 Y-9.169 Z-0.240 
N464 X-134.047 Y-9.273 Z-0.351 
N465 X-134.042 Y-9.377 Z-0.463 
N466 X-134.036 Y-9.481 Z-0.574 
N467 X-134.030 Y-9.585 Z-0.685 
N468 X-134.024 Y-9.689 Z-0.797 
N469 X-134.019 Y-9.792 Z-0.908 
N470 X-134.013 Y-9.896 Z-1.019 
N471 X-134.007 Y-10.000 Z-1.131 
N472 X-134.001 Y-10.104 Z-1.242 
N473 X-133.996 Y-10.208 Z-1.353 
N474 X-133.990 Y-10.312 Z-1.465 
N475 X-133.984 Y-10.415 Z-1.576 
N476 X-133.978 Y-10.519 Z-1.688 
N477 X-133.973 Y-10.623 Z-1.799 
N478 X-133.967 Y-10.727 Z-1.910 
N479 X-133.961 Y-10.831 Z-2.022 
N480 X-133.955 Y-10.935 Z-2.133 
N481 X-133.950 Y-11.038 Z-2.244 
N482 X-133.944 Y-11.142 Z-2.356 
N483 X-133.936 Y-11.246 Z-2.467 
N484 X-133.928 Y-11.350 Z-2.578 
N485 X-133.920 Y-11.454 Z-2.689 
N486 X-133.912 Y-11.557 Z-2.801 
N487 X-133.903 Y-11.661 Z-2.912 
N488 X-133.895 Y-11.765 Z-3.023 
N489 X-133.887 Y-11.869 Z-3.135 
N490 X-133.879 Y-11.972 Z-3.246 
N491 X-133.871 Y-12.076 Z-3.357 
N492 X-133.863 Y-12.180 Z-3.468 
N493 X-133.855 Y-12.284 Z-3.580 
N494 X-133.846 Y-12.387 Z-3.691 
N495 X-133.838 Y-12.491 Z-3.802 
N496 X-133.830 Y-12.595 Z-3.913 
N497 X-133.822 Y-12.699 Z-4.025 
N498 X-133.814 Y-12.802 Z-4.136 
N499 X-133.806 Y-12.906 Z-4.247 
N500 X-133.798 Y-13.010 Z-4.358 
N501 X-133.789 Y-13.114 Z-4.470 
N502 X-133.781 Y-13.217 Z-4.581 
N503 X-133.773 Y-13.321 Z-4.692 
N504 X-133.765 Y-13.425 Z-4.804 
N505 X-133.757 Y-13.529 Z-4.915 
N506 X-133.749 Y-13.632 Z-5.026 
N507 X-133.741 Y-13.736 Z-5.137 
N508 X-133.732 Y-13.839 Z-5.247 
N509 X-133.724 Y-13.942 Z-5.358 
N510 X-133.716 Y-14.045 Z-5.469 
N511 X-133.708 Y-14.148 Z-5.579 
N512 X-133.700 Y-14.252 Z-5.690 
N513 X-133.692 Y-14.355 Z-5.801 
N514 X-133.684 Y-14.458 Z-5.911 
N515 X-133.676 Y-14.561 Z-6.022 
N516 X-133.668 Y-14.664 Z-6.133 
N517 X-133.659 Y-14.768 Z-6.243 
N518 X-133.651 Y-14.871 Z-6.354 
N519 X-133.643 Y-14.974 Z-6.465 
N520 X-133.635 Y-15.077 Z-6.575 
N521 X-133.627 Y-15.180 Z-6.686 
N522 X-133.619 Y-15.283 Z-6.797 
N523 X-133.611 Y-15.387 Z-6.907 
N524 X-133.603 Y-15.490 Z-7.018 
N525 X-133.595 Y-15.593 Z-7.128 
N526 X-133.587 Y-15.696 Z-7.239 
N527 X-133.578 Y-15.799 Z-7.350 
N528 X-133.570 Y-15.903 Z-7.460 
N529 X-133.562 Y-16.006 Z-7.571 
N530 X-133.554 Y-16.109 Z-7.682 
N531 X-133.546 Y-16.212 Z-7.792 
N532 X-133.538 Y-16.315 Z-7.903 
N533 X-133.530 Y-16.418 Z-8.014 
N534 X-133.522 Y-16.522 Z-8.124 
N535 X-133.514 Y-16.625 Z-8.235 
N536 X-133.506 Y-16.728 Z-8.346 
N537 X-133.497 Y-16.831 Z-8.456 
N538 X-133.489 Y-16.934 Z-8.567 
N539 X-133.481 Y-17.038 Z-8.678 
N540 G40 X-133.428 Y-17.719 Z-9.408 F458
N541 X-133.428 Y-17.719 Z-9.408 
N542 G00 X-133.428 Y-39.659 Z11.052 
N543 X-133.913 Y-10.814 Z37.341 
N544 X-133.913 Y11.126 Z16.881 
N545 ;FSE_1
N546 G01 G41 X-133.936 Y10.445 Z16.150 F458 
N547 X-133.940 Y10.342 Z16.040 
N548 X-133.943 Y10.240 Z15.931 
N549 X-133.947 Y10.138 Z15.821 
N550 X-133.950 Y10.035 Z15.711 
N551 X-133.954 Y9.933 Z15.602 
N552 X-133.957 Y9.831 Z15.492 
N553 X-133.961 Y9.729 Z15.382 
N554 X-133.964 Y9.626 Z15.273 
N555 X-133.967 Y9.524 Z15.163 
N556 X-133.971 Y9.422 Z15.053 
N557 X-133.974 Y9.320 Z14.944 
N558 X-133.978 Y9.217 Z14.834 
N559 X-133.981 Y9.115 Z14.724 
N560 X-133.985 Y9.013 Z14.615 
N561 X-133.988 Y8.910 Z14.505 
N562 X-133.992 Y8.808 Z14.395 
N563 X-133.995 Y8.706 Z14.286 
N564 X-133.999 Y8.604 Z14.176 
N565 X-134.002 Y8.501 Z14.066 
N566 X-134.005 Y8.399 Z13.957 
N567 X-134.009 Y8.296 Z13.846 
N568 X-134.012 Y8.192 Z13.735 
N569 X-134.016 Y8.089 Z13.624 
N570 X-134.019 Y7.986 Z13.514 
N571 X-134.023 Y7.883 Z13.403 
N572 X-134.026 Y7.779 Z13.292 
N573 X-134.030 Y7.676 Z13.181 
N574 X-134.033 Y7.573 Z13.070 
N575 X-134.037 Y7.469 Z12.960 
N576 X-134.040 Y7.366 Z12.849 
N577 X-134.044 Y7.263 Z12.738 
N578 X-134.047 Y7.159 Z12.627 
N579 X-134.051 Y7.056 Z12.516 
N580 X-134.054 Y6.953 Z12.406 
N581 X-134.058 Y6.849 Z12.295 
N582 X-134.061 Y6.746 Z12.184 
N583 X-134.065 Y6.643 Z12.073 
N584 X-134.068 Y6.540 Z11.963 
N585 X-134.072 Y6.436 Z11.852 
N586 X-134.075 Y6.333 Z11.741 
N587 X-134.079 Y6.230 Z11.630 
N588 X-134.082 Y6.126 Z11.519 
N589 X-134.086 Y6.023 Z11.409 
N590 X-134.089 Y5.920 Z11.298 
N591 X-134.093 Y5.816 Z11.187 
N592 X-134.096 Y5.713 Z11.076 
N593 X-134.100 Y5.610 Z10.966 
N594 X-134.103 Y5.507 Z10.855 
N595 X-134.107 Y5.403 Z10.744 
N596 X-134.110 Y5.300 Z10.633 
N597 X-134.114 Y5.197 Z10.522 
N598 X-134.117 Y5.093 Z10.412 
N599 X-134.121 Y4.990 Z10.301 
N600 X-134.124 Y4.886 Z10.189 
N601 X-134.128 Y4.782 Z10.078 
N602 X-134.131 Y4.678 Z9.967 
N603 X-134.135 Y4.574 Z9.855 
N604 X-134.138 Y4.471 Z9.744 
N605 X-134.142 Y4.367 Z9.632 
N606 X-134.145 Y4.263 Z9.521 
N607 X-134.149 Y4.159 Z9.410 
N608 X-134.152 Y4.055 Z9.298 
N609 X-134.156 Y3.951 Z9.187 
N610 X-134.159 Y3.847 Z9.075 
N611 X-134.163 Y3.743 Z8.964 
N612 X-134.166 Y3.640 Z8.853 
N613 X-134.170 Y3.536 Z8.741 
N614 X-134.173 Y3.432 Z8.630 
N615 X-134.177 Y3.328 Z8.518 
N616 X-134.180 Y3.224 Z8.407 
N617 X-134.184 Y3.120 Z8.296 
N618 X-134.187 Y3.016 Z8.184 
N619 X-134.191 Y2.912 Z8.073 
N620 X-134.194 Y2.808 Z7.961 
N621 X-134.197 Y2.705 Z7.850 
N622 X-134.198 Y2.601 Z7.739 
N623 X-134.200 Y2.497 Z7.627 
N624 X-134.201 Y2.393 Z7.516 
N625 X-134.202 Y2.289 Z7.404 
N626 X-134.203 Y2.185 Z7.293 
N627 X-134.205 Y2.081 Z7.181 
N628 X-134.206 Y1.977 Z7.070 
N629 X-134.207 Y1.873 Z6.959 
N630 X-134.209 Y1.769 Z6.847 
N631 X-134.210 Y1.666 Z6.736 
N632 X-134.211 Y1.562 Z6.624 
N633 X-134.213 Y1.458 Z6.513 
N634 X-134.214 Y1.354 Z6.402 
N635 X-134.215 Y1.250 Z6.290 
N636 X-134.217 Y1.146 Z6.179 
N637 X-134.218 Y1.042 Z6.067 
N638 X-134.219 Y0.938 Z5.956 
N639 X-134.221 Y0.834 Z5.844 
N640 X-134.222 Y0.730 Z5.733 
N641 X-134.223 Y0.626 Z5.622 
N642 X-134.224 Y0.523 Z5.510 
N643 X-134.226 Y0.419 Z5.399 
N644 X-134.227 Y0.315 Z5.287 
N645 X-134.228 Y0.211 Z5.176 
N646 X-134.230 Y0.107 Z5.064 
N647 X-134.231 Y0.003 Z4.953 
N648 X-134.232 Y-0.101 Z4.842 
N649 X-134.234 Y-0.205 Z4.730 
N650 X-134.234 Y-0.309 Z4.619 
N651 X-134.233 Y-0.413 Z4.507 
N652 X-134.232 Y-0.517 Z4.396 
N653 X-134.230 Y-0.620 Z4.284 
N654 X-134.229 Y-0.724 Z4.173 
N655 X-134.228 Y-0.828 Z4.062 
N656 X-134.227 Y-0.932 Z3.950 
N657 X-134.225 Y-1.036 Z3.839 
N658 X-134.224 Y-1.140 Z3.727 
N659 X-134.223 Y-1.244 Z3.616 
N660 X-134.222 Y-1.348 Z3.504 
N661 X-134.221 Y-1.452 Z3.393 
N662 X-134.219 Y-1.556 Z3.282 
N663 X-134.218 Y-1.659 Z3.170 
N664 X-134.217 Y-1.763 Z3.059 
N665 X-134.216 Y-1.867 Z2.947 
N666 X-134.214 Y-1.971 Z2.836 
N667 X-134.213 Y-2.075 Z2.724 
N668 X-134.212 Y-2.179 Z2.613 
N669 X-134.211 Y-2.283 Z2.502 
N670 X-134.210 Y-2.387 Z2.390 
N671 X-134.208 Y-2.491 Z2.279 
N672 X-134.207 Y-2.595 Z2.167 
N673 X-134.206 Y-2.699 Z2.056 
N674 X-134.205 Y-2.802 Z1.945 
N675 X-134.203 Y-2.906 Z1.833 
N676 X-134.202 Y-3.010 Z1.722 
N677 X-134.201 Y-3.114 Z1.610 
N678 X-134.200 Y-3.218 Z1.499 
N679 X-134.198 Y-3.322 Z1.387 
N680 X-134.195 Y-3.426 Z1.276 
N681 X-134.191 Y-3.530 Z1.165 
N682 X-134.188 Y-3.634 Z1.053 
N683 X-134.185 Y-3.737 Z0.942 
N684 X-134.181 Y-3.841 Z0.830 
N685 X-134.178 Y-3.945 Z0.719 
N686 X-134.174 Y-4.049 Z0.608 
N687 X-134.171 Y-4.153 Z0.496 
N688 X-134.167 Y-4.257 Z0.385 
N689 X-134.164 Y-4.361 Z0.273 
N690 X-134.161 Y-4.465 Z0.162 
N691 X-134.157 Y-4.569 Z0.051 
N692 X-134.154 Y-4.672 Z-0.061 
N693 X-134.150 Y-4.776 Z-0.172 
N694 X-134.147 Y-4.880 Z-0.284 
N695 X-134.143 Y-4.984 Z-0.395 
N696 X-134.140 Y-5.088 Z-0.506 
N697 X-134.136 Y-5.192 Z-0.618 
N698 X-134.133 Y-5.296 Z-0.729 
N699 X-134.130 Y-5.400 Z-0.841 
N700 X-134.126 Y-5.504 Z-0.952 
N701 X-134.122 Y-5.607 Z-1.063 
N702 X-134.116 Y-5.711 Z-1.175 
N703 X-134.111 Y-5.815 Z-1.286 
N704 X-134.105 Y-5.919 Z-1.397 
N705 X-134.099 Y-6.023 Z-1.509 
N706 X-134.093 Y-6.127 Z-1.620 
N707 X-134.088 Y-6.230 Z-1.732 
N708 X-134.082 Y-6.334 Z-1.843 
N709 X-134.076 Y-6.438 Z-1.954 
N710 X-134.070 Y-6.542 Z-2.066 
N711 X-134.065 Y-6.646 Z-2.177 
N712 X-134.059 Y-6.750 Z-2.288 
N713 X-134.053 Y-6.853 Z-2.400 
N714 X-134.047 Y-6.957 Z-2.511 
N715 X-134.042 Y-7.061 Z-2.622 
N716 X-134.036 Y-7.165 Z-2.734 
N717 X-134.030 Y-7.269 Z-2.845 
N718 X-134.024 Y-7.373 Z-2.956 
N719 X-134.019 Y-7.476 Z-3.068 
N720 X-134.013 Y-7.580 Z-3.179 
N721 X-134.007 Y-7.684 Z-3.290 
N722 X-134.001 Y-7.788 Z-3.402 
N723 X-133.996 Y-7.892 Z-3.513 
N724 X-133.990 Y-7.996 Z-3.624 
N725 X-133.984 Y-8.099 Z-3.736 
N726 X-133.978 Y-8.203 Z-3.847 
N727 X-133.973 Y-8.307 Z-3.959 
N728 X-133.967 Y-8.411 Z-4.070 
N729 X-133.961 Y-8.515 Z-4.181 
N730 X-133.955 Y-8.619 Z-4.293 
N731 X-133.950 Y-8.722 Z-4.404 
N732 X-133.944 Y-8.826 Z-4.515 
N733 X-133.936 Y-8.930 Z-4.627 
N734 X-133.928 Y-9.034 Z-4.738 
N735 X-133.920 Y-9.138 Z-4.849 
N736 X-133.912 Y-9.241 Z-4.960 
N737 X-133.903 Y-9.345 Z-5.072 
N738 X-133.895 Y-9.449 Z-5.183 
N739 X-133.887 Y-9.553 Z-5.294 
N740 X-133.879 Y-9.656 Z-5.405 
N741 X-133.871 Y-9.760 Z-5.517 
N742 X-133.863 Y-9.864 Z-5.628 
N743 X-133.855 Y-9.968 Z-5.739 
N744 X-133.846 Y-10.071 Z-5.851 
N745 X-133.838 Y-10.175 Z-5.962 
N746 X-133.830 Y-10.279 Z-6.073 
N747 X-133.822 Y-10.383 Z-6.184 
N748 X-133.814 Y-10.486 Z-6.296 
N749 X-133.806 Y-10.590 Z-6.407 
N750 X-133.798 Y-10.694 Z-6.518 
N751 X-133.789 Y-10.798 Z-6.629 
N752 X-133.781 Y-10.901 Z-6.741 
N753 X-133.773 Y-11.005 Z-6.852 
N754 X-133.765 Y-11.109 Z-6.963 
N755 X-133.757 Y-11.213 Z-7.074 
N756 X-133.749 Y-11.317 Z-7.186 
N757 X-133.741 Y-11.420 Z-7.296 
N758 X-133.732 Y-11.523 Z-7.407 
N759 X-133.724 Y-11.626 Z-7.518 
N760 X-133.716 Y-11.729 Z-7.628 
N761 X-133.708 Y-11.832 Z-7.739 
N762 X-133.700 Y-11.936 Z-7.850 
N763 X-133.692 Y-12.039 Z-7.960 
N764 X-133.684 Y-12.142 Z-8.071 
N765 X-133.676 Y-12.245 Z-8.182 
N766 X-133.668 Y-12.348 Z-8.292 
N767 X-133.659 Y-12.452 Z-8.403 
N768 X-133.651 Y-12.555 Z-8.514 
N769 X-133.643 Y-12.658 Z-8.624 
N770 X-133.635 Y-12.761 Z-8.735 
N771 X-133.627 Y-12.864 Z-8.846 
N772 X-133.619 Y-12.968 Z-8.956 
N773 X-133.611 Y-13.071 Z-9.067 
N774 X-133.603 Y-13.174 Z-9.177 
N775 X-133.595 Y-13.277 Z-9.288 
N776 X-133.587 Y-13.380 Z-9.399 
N777 X-133.578 Y-13.483 Z-9.509 
N778 X-133.570 Y-13.587 Z-9.620 
N779 X-133.562 Y-13.690 Z-9.731 
N780 X-133.554 Y-13.793 Z-9.841 
N781 X-133.546 Y-13.896 Z-9.952 
N782 X-133.538 Y-13.999 Z-10.063 
N783 X-133.530 Y-14.103 Z-10.173 
N784 X-133.522 Y-14.206 Z-10.284 
N785 X-133.514 Y-14.309 Z-10.395 
N786 X-133.506 Y-14.412 Z-10.505 
N787 X-133.497 Y-14.515 Z-10.616 
N788 X-133.489 Y-14.618 Z-10.727 
N789 X-133.481 Y-14.722 Z-10.837 
N790 G40 X-133.428 Y-15.403 Z-11.568 F458
N791 X-133.428 Y-15.403 Z-11.568 
N792 G00 X-133.428 Y-51.970 Z22.532 
;RAPORT("TB123456","Side Milling:160 End")
;trailer : concat=None
; points cnt = 735
N794 MSG (" --- GROUPED OF SUBPROGRAM --- ")
N795 FGROUP()
N796 TRAFOOF
; PROGRAM NAME: B12345638
; ORDER       : B123456
; OPER. NAME  : Side Milling:161
; OPER. DESCR.: rough face root outlet FSA
; OPER. TYPE  : sideMill
; GEO. OPTION : 1
; MACHINE     : HSTM_500_SIM840D_Py
;             : HSTM500 - HAMUEL: 5-axis milling machine - SIM840D Traori PP_Script
; CONTROL     : SINUMERIK 840D
; created:   2023-06-06 12:07:06.903165
;-------DODATKOWE DANE-------------------
; PROGRAMISTA : Mariusz Malec
; PARTID      : 306T001953P1010_-
;  ap         : 4.4
;  ae         : 1.0
;  lean_angle : 0.0
;  fin_offset : -9.5
;----------------------------------------
;RAPORT("TB123456","Side Milling:161")
N10 TRAFOOF
N11 D0
N12 G90 G94
N13 G0 G53 D0 Z550 B0
N14 STOPRE
M9 ; chlodziwo wyl
; --- Side Milling:161 - rough face root outlet FSA ---
N16 ;ToolChange : concat=None ,current_tdmid=None, PP.tdmId=957774
N17 TRAFOOF
N18 G0 G53 D0 Z550 B0
N19 STOPRE
N20 MSG(" TLID=957774 D=10.0 R=0.0 Ang=0.0 Len=129.0 ")
N21 S2864 M03
N22 STOPRE
N23 CYCLE832(0.01,1,1)
N24 G0 G53 A227.0000 B-0.0000
N25 TRAORI
N26 G54 D2
;tol5=0.15
N27 D2 
STOPRE
E_ZDARZ=500001
;ACS_ROUGH_ROOT_FRONT=7757774
STOPRE
;UWAGA : ZMIENIONA TOLERANCJA OSI A i B, ruchy osi A i B beda usuniete : TOL5=0.15
N28 ; DELTA A > 40.1
N29 TRAFOOF
N30 D2
N31 STOPRE
N32 G00 G54 Z257.000
N33 G01 A227.0000 F10000
N34 TRAORI
N35 G54 D2
N36 STOPRE
N37 TRANS 
N38 G00 X-133.914 Y33.153 Z-49.577 A227.0000 
N39 M342 ; chlodziwo woda
N40 X-133.914 Y-3.415 Z-15.477 
N41 ;FSA_1
N42 G01 G41 X-133.937 Y-2.733 Z-14.745 F458 
N43 X-133.941 Y-2.631 Z-14.636 
N44 X-133.944 Y-2.528 Z-14.526 
N45 X-133.948 Y-2.426 Z-14.416 
N46 X-133.951 Y-2.324 Z-14.307 
N47 X-133.955 Y-2.222 Z-14.197 
N48 X-133.958 Y-2.119 Z-14.087 
N49 X-133.961 Y-2.017 Z-13.978 
N50 X-133.965 Y-1.915 Z-13.868 
N51 X-133.968 Y-1.812 Z-13.758 
N52 X-133.972 Y-1.710 Z-13.649 
N53 X-133.975 Y-1.608 Z-13.539 
N54 X-133.979 Y-1.506 Z-13.429 
N55 X-133.982 Y-1.403 Z-13.320 
N56 X-133.986 Y-1.301 Z-13.210 
N57 X-133.989 Y-1.199 Z-13.100 
N58 X-133.992 Y-1.097 Z-12.991 
N59 X-133.996 Y-0.994 Z-12.881 
N60 X-133.999 Y-0.892 Z-12.771 
N61 X-134.003 Y-0.790 Z-12.662 
N62 X-134.006 Y-0.687 Z-12.552 
N63 X-134.010 Y-0.584 Z-12.441 
N64 X-134.013 Y-0.481 Z-12.330 
N65 X-134.017 Y-0.378 Z-12.220 
N66 X-134.020 Y-0.274 Z-12.109 
N67 X-134.024 Y-0.171 Z-11.998 
N68 X-134.027 Y-0.068 Z-11.887 
N69 X-134.031 Y0.036 Z-11.776 
N70 X-134.034 Y0.139 Z-11.666 
N71 X-134.038 Y0.242 Z-11.555 
N72 X-134.041 Y0.346 Z-11.444 
N73 X-134.044 Y0.449 Z-11.333 
N74 X-134.048 Y0.552 Z-11.223 
N75 X-134.051 Y0.655 Z-11.112 
N76 X-134.055 Y0.759 Z-11.001 
N77 X-134.058 Y0.862 Z-10.890 
N78 X-134.062 Y0.965 Z-10.779 
N79 X-134.065 Y1.069 Z-10.669 
N80 X-134.069 Y1.172 Z-10.558 
N81 X-134.072 Y1.275 Z-10.447 
N82 X-134.076 Y1.379 Z-10.336 
N83 X-134.079 Y1.482 Z-10.226 
N84 X-134.083 Y1.585 Z-10.115 
N85 X-134.086 Y1.689 Z-10.004 
N86 X-134.090 Y1.792 Z-9.893 
N87 X-134.093 Y1.895 Z-9.782 
N88 X-134.097 Y1.998 Z-9.672 
N89 X-134.100 Y2.102 Z-9.561 
N90 X-134.104 Y2.205 Z-9.450 
N91 X-134.107 Y2.308 Z-9.339 
N92 X-134.111 Y2.412 Z-9.228 
N93 X-134.114 Y2.515 Z-9.118 
N94 X-134.118 Y2.618 Z-9.007 
N95 X-134.121 Y2.722 Z-8.896 
N96 X-134.125 Y2.825 Z-8.785 
N97 X-134.128 Y2.929 Z-8.673 
N98 X-134.132 Y3.033 Z-8.562 
N99 X-134.135 Y3.137 Z-8.451 
N100 X-134.139 Y3.241 Z-8.339 
N101 X-134.142 Y3.345 Z-8.228 
N102 X-134.146 Y3.449 Z-8.116 
N103 X-134.149 Y3.553 Z-8.005 
N104 X-134.153 Y3.656 Z-7.894 
N105 X-134.156 Y3.760 Z-7.782 
N106 X-134.160 Y3.864 Z-7.671 
N107 X-134.163 Y3.968 Z-7.560 
N108 X-134.167 Y4.072 Z-7.448 
N109 X-134.170 Y4.176 Z-7.337 
N110 X-134.174 Y4.280 Z-7.225 
N111 X-134.177 Y4.384 Z-7.114 
N112 X-134.181 Y4.487 Z-7.003 
N113 X-134.184 Y4.591 Z-6.891 
N114 X-134.187 Y4.695 Z-6.780 
N115 X-134.191 Y4.799 Z-6.668 
N116 X-134.194 Y4.903 Z-6.557 
N117 X-134.197 Y5.007 Z-6.446 
N118 X-134.199 Y5.111 Z-6.334 
N119 X-134.200 Y5.215 Z-6.223 
N120 X-134.201 Y5.318 Z-6.111 
N121 X-134.202 Y5.422 Z-6.000 
N122 X-134.204 Y5.526 Z-5.889 
N123 X-134.205 Y5.630 Z-5.777 
N124 X-134.206 Y5.734 Z-5.666 
N125 X-134.208 Y5.838 Z-5.554 
N126 X-134.209 Y5.942 Z-5.443 
N127 X-134.210 Y6.046 Z-5.331 
N128 X-134.211 Y6.150 Z-5.220 
N129 X-134.213 Y6.253 Z-5.109 
N130 X-134.214 Y6.357 Z-4.997 
N131 X-134.215 Y6.461 Z-4.886 
N132 X-134.217 Y6.565 Z-4.774 
N133 X-134.218 Y6.669 Z-4.663 
N134 X-134.219 Y6.773 Z-4.552 
N135 X-134.221 Y6.877 Z-4.440 
N136 X-134.222 Y6.981 Z-4.329 
N137 X-134.223 Y7.085 Z-4.217 
N138 X-134.224 Y7.189 Z-4.106 
N139 X-134.226 Y7.292 Z-3.995 
N140 X-134.227 Y7.396 Z-3.883 
N141 X-134.228 Y7.500 Z-3.772 
N142 X-134.230 Y7.604 Z-3.660 
N143 X-134.231 Y7.708 Z-3.549 
N144 X-134.232 Y7.812 Z-3.437 
N145 X-134.234 Y7.916 Z-3.326 
N146 X-134.234 Y8.020 Z-3.215 
N147 X-134.233 Y8.124 Z-3.103 
N148 X-134.232 Y8.227 Z-2.992 
N149 X-134.230 Y8.331 Z-2.880 
N150 X-134.229 Y8.435 Z-2.769 
N151 X-134.228 Y8.539 Z-2.658 
N152 X-134.227 Y8.643 Z-2.546 
N153 X-134.225 Y8.747 Z-2.435 
N154 X-134.224 Y8.851 Z-2.323 
N155 X-134.223 Y8.955 Z-2.212 
N156 X-134.222 Y9.059 Z-2.101 
N157 X-134.221 Y9.163 Z-1.989 
N158 X-134.219 Y9.266 Z-1.878 
N159 X-134.218 Y9.370 Z-1.766 
N160 X-134.217 Y9.474 Z-1.655 
N161 X-134.216 Y9.578 Z-1.543 
N162 X-134.214 Y9.682 Z-1.432 
N163 X-134.213 Y9.786 Z-1.321 
N164 X-134.212 Y9.890 Z-1.209 
N165 X-134.211 Y9.994 Z-1.098 
N166 X-134.209 Y10.098 Z-0.986 
N167 X-134.208 Y10.201 Z-0.875 
N168 X-134.207 Y10.305 Z-0.764 
N169 X-134.206 Y10.409 Z-0.652 
N170 X-134.205 Y10.513 Z-0.541 
N171 X-134.203 Y10.617 Z-0.429 
N172 X-134.202 Y10.721 Z-0.318 
N173 X-134.201 Y10.825 Z-0.206 
N174 X-134.200 Y10.929 Z-0.095 
N175 X-134.198 Y11.033 Z0.016 
N176 X-134.195 Y11.137 Z0.128 
N177 X-134.191 Y11.240 Z0.239 
N178 X-134.188 Y11.344 Z0.351 
N179 X-134.184 Y11.448 Z0.462 
N180 X-134.181 Y11.552 Z0.573 
N181 X-134.177 Y11.656 Z0.685 
N182 X-134.174 Y11.760 Z0.796 
N183 X-134.171 Y11.864 Z0.907 
N184 X-134.167 Y11.967 Z1.019 
N185 X-134.164 Y12.071 Z1.130 
N186 X-134.160 Y12.175 Z1.242 
N187 X-134.157 Y12.279 Z1.353 
N188 X-134.153 Y12.383 Z1.464 
N189 X-134.150 Y12.487 Z1.576 
N190 X-134.146 Y12.591 Z1.687 
N191 X-134.143 Y12.695 Z1.799 
N192 X-134.140 Y12.798 Z1.910 
N193 X-134.136 Y12.902 Z2.021 
N194 X-134.133 Y13.006 Z2.133 
N195 X-134.129 Y13.110 Z2.244 
N196 X-134.126 Y13.214 Z2.356 
N197 X-134.122 Y13.318 Z2.467 
N198 X-134.116 Y13.422 Z2.578 
N199 X-134.110 Y13.525 Z2.690 
N200 X-134.104 Y13.629 Z2.801 
N201 X-134.099 Y13.733 Z2.912 
N202 X-134.093 Y13.837 Z3.024 
N203 X-134.087 Y13.941 Z3.135 
N204 X-134.081 Y14.045 Z3.246 
N205 X-134.076 Y14.148 Z3.358 
N206 X-134.070 Y14.252 Z3.469 
N207 X-134.064 Y14.356 Z3.580 
N208 X-134.058 Y14.460 Z3.692 
N209 X-134.053 Y14.564 Z3.803 
N210 X-134.047 Y14.668 Z3.914 
N211 X-134.041 Y14.771 Z4.026 
N212 X-134.035 Y14.875 Z4.137 
N213 X-134.030 Y14.979 Z4.248 
N214 X-134.024 Y15.083 Z4.360 
N215 X-134.018 Y15.187 Z4.471 
N216 X-134.012 Y15.290 Z4.582 
N217 X-134.007 Y15.394 Z4.694 
N218 X-134.001 Y15.498 Z4.805 
N219 X-133.995 Y15.602 Z4.916 
N220 X-133.989 Y15.706 Z5.028 
N221 X-133.984 Y15.810 Z5.139 
N222 X-133.978 Y15.913 Z5.250 
N223 X-133.972 Y16.017 Z5.362 
N224 X-133.966 Y16.121 Z5.473 
N225 X-133.960 Y16.225 Z5.584 
N226 X-133.955 Y16.329 Z5.696 
N227 X-133.949 Y16.433 Z5.807 
N228 X-133.943 Y16.536 Z5.918 
N229 X-133.935 Y16.640 Z6.030 
N230 X-133.927 Y16.744 Z6.141 
N231 X-133.919 Y16.848 Z6.252 
N232 X-133.911 Y16.951 Z6.363 
N233 X-133.903 Y17.055 Z6.475 
N234 X-133.895 Y17.159 Z6.586 
N235 X-133.887 Y17.263 Z6.697 
N236 X-133.878 Y17.366 Z6.808 
N237 X-133.870 Y17.470 Z6.920 
N238 X-133.862 Y17.574 Z7.031 
N239 X-133.854 Y17.678 Z7.142 
N240 X-133.846 Y17.781 Z7.253 
N241 X-133.838 Y17.885 Z7.365 
N242 X-133.829 Y17.989 Z7.476 
N243 X-133.821 Y18.093 Z7.587 
N244 X-133.813 Y18.196 Z7.698 
N245 X-133.805 Y18.300 Z7.810 
N246 X-133.797 Y18.404 Z7.921 
N247 X-133.789 Y18.508 Z8.032 
N248 X-133.781 Y18.611 Z8.143 
N249 X-133.772 Y18.715 Z8.255 
N250 X-133.764 Y18.819 Z8.366 
N251 X-133.756 Y18.923 Z8.477 
N252 X-133.748 Y19.026 Z8.589 
N253 X-133.740 Y19.130 Z8.699 
N254 X-133.732 Y19.233 Z8.810 
N255 X-133.724 Y19.336 Z8.920 
N256 X-133.715 Y19.439 Z9.031 
N257 X-133.707 Y19.542 Z9.142 
N258 X-133.699 Y19.645 Z9.252 
N259 X-133.691 Y19.749 Z9.363 
N260 X-133.683 Y19.852 Z9.474 
N261 X-133.675 Y19.955 Z9.584 
N262 X-133.667 Y20.058 Z9.695 
N263 X-133.659 Y20.161 Z9.806 
N264 X-133.651 Y20.265 Z9.916 
N265 X-133.642 Y20.368 Z10.027 
N266 X-133.634 Y20.471 Z10.138 
N267 X-133.626 Y20.574 Z10.248 
N268 X-133.618 Y20.677 Z10.359 
N269 X-133.610 Y20.780 Z10.470 
N270 X-133.602 Y20.884 Z10.580 
N271 X-133.594 Y20.987 Z10.691 
N272 X-133.586 Y21.090 Z10.802 
N273 X-133.578 Y21.193 Z10.912 
N274 X-133.569 Y21.296 Z11.023 
N275 X-133.561 Y21.400 Z11.134 
N276 X-133.553 Y21.503 Z11.244 
N277 X-133.545 Y21.606 Z11.355 
N278 X-133.537 Y21.709 Z11.465 
N279 X-133.529 Y21.812 Z11.576 
N280 X-133.521 Y21.916 Z11.687 
N281 X-133.513 Y22.019 Z11.797 
N282 X-133.505 Y22.122 Z11.908 
N283 X-133.496 Y22.225 Z12.019 
N284 X-133.488 Y22.328 Z12.129 
N285 X-133.480 Y22.431 Z12.240 
N286 G40 X-133.427 Y23.112 Z12.970 F458
N287 X-133.427 Y23.112 Z12.970 
N288 G00 X-133.427 Y45.053 Z-7.490 
N289 X-133.914 Y16.210 Z-33.777 
N290 X-133.914 Y-5.731 Z-13.317 
N291 ;FSA_1
N292 G01 G41 X-133.937 Y-5.049 Z-12.586 F458 
N293 X-133.941 Y-4.947 Z-12.476 
N294 X-133.944 Y-4.844 Z-12.366 
N295 X-133.948 Y-4.742 Z-12.257 
N296 X-133.951 Y-4.640 Z-12.147 
N297 X-133.955 Y-4.538 Z-12.037 
N298 X-133.958 Y-4.435 Z-11.928 
N299 X-133.961 Y-4.333 Z-11.818 
N300 X-133.965 Y-4.231 Z-11.708 
N301 X-133.968 Y-4.128 Z-11.599 
N302 X-133.972 Y-4.026 Z-11.489 
N303 X-133.975 Y-3.924 Z-11.379 
N304 X-133.979 Y-3.822 Z-11.270 
N305 X-133.982 Y-3.719 Z-11.160 
N306 X-133.986 Y-3.617 Z-11.050 
N307 X-133.989 Y-3.515 Z-10.941 
N308 X-133.992 Y-3.413 Z-10.831 
N309 X-133.996 Y-3.310 Z-10.721 
N310 X-133.999 Y-3.208 Z-10.612 
N311 X-134.003 Y-3.106 Z-10.502 
N312 X-134.006 Y-3.003 Z-10.392 
N313 X-134.010 Y-2.900 Z-10.282 
N314 X-134.013 Y-2.797 Z-10.171 
N315 X-134.017 Y-2.694 Z-10.060 
N316 X-134.020 Y-2.590 Z-9.949 
N317 X-134.024 Y-2.487 Z-9.838 
N318 X-134.027 Y-2.384 Z-9.728 
N319 X-134.031 Y-2.280 Z-9.617 
N320 X-134.034 Y-2.177 Z-9.506 
N321 X-134.038 Y-2.074 Z-9.395 
N322 X-134.041 Y-1.970 Z-9.284 
N323 X-134.044 Y-1.867 Z-9.174 
N324 X-134.048 Y-1.764 Z-9.063 
N325 X-134.051 Y-1.660 Z-8.952 
N326 X-134.055 Y-1.557 Z-8.841 
N327 X-134.058 Y-1.454 Z-8.731 
N328 X-134.062 Y-1.351 Z-8.620 
N329 X-134.065 Y-1.247 Z-8.509 
N330 X-134.069 Y-1.144 Z-8.398 
N331 X-134.072 Y-1.041 Z-8.287 
N332 X-134.076 Y-0.937 Z-8.177 
N333 X-134.079 Y-0.834 Z-8.066 
N334 X-134.083 Y-0.731 Z-7.955 
N335 X-134.086 Y-0.627 Z-7.844 
N336 X-134.090 Y-0.524 Z-7.734 
N337 X-134.093 Y-0.421 Z-7.623 
N338 X-134.097 Y-0.317 Z-7.512 
N339 X-134.100 Y-0.214 Z-7.401 
N340 X-134.104 Y-0.111 Z-7.290 
N341 X-134.107 Y-0.008 Z-7.180 
N342 X-134.111 Y0.096 Z-7.069 
N343 X-134.114 Y0.199 Z-6.958 
N344 X-134.118 Y0.302 Z-6.847 
N345 X-134.121 Y0.406 Z-6.736 
N346 X-134.125 Y0.510 Z-6.625 
N347 X-134.128 Y0.613 Z-6.514 
N348 X-134.132 Y0.717 Z-6.402 
N349 X-134.135 Y0.821 Z-6.291 
N350 X-134.139 Y0.925 Z-6.180 
N351 X-134.142 Y1.029 Z-6.068 
N352 X-134.146 Y1.133 Z-5.957 
N353 X-134.149 Y1.237 Z-5.845 
N354 X-134.153 Y1.340 Z-5.734 
N355 X-134.156 Y1.444 Z-5.623 
N356 X-134.160 Y1.548 Z-5.511 
N357 X-134.163 Y1.652 Z-5.400 
N358 X-134.167 Y1.756 Z-5.288 
N359 X-134.170 Y1.860 Z-5.177 
N360 X-134.174 Y1.964 Z-5.066 
N361 X-134.177 Y2.068 Z-4.954 
N362 X-134.181 Y2.171 Z-4.843 
N363 X-134.184 Y2.275 Z-4.732 
N364 X-134.187 Y2.379 Z-4.620 
N365 X-134.191 Y2.483 Z-4.509 
N366 X-134.194 Y2.587 Z-4.397 
N367 X-134.197 Y2.691 Z-4.286 
N368 X-134.199 Y2.795 Z-4.175 
N369 X-134.200 Y2.899 Z-4.063 
N370 X-134.201 Y3.002 Z-3.952 
N371 X-134.202 Y3.106 Z-3.840 
N372 X-134.204 Y3.210 Z-3.729 
N373 X-134.205 Y3.314 Z-3.617 
N374 X-134.206 Y3.418 Z-3.506 
N375 X-134.208 Y3.522 Z-3.395 
N376 X-134.209 Y3.626 Z-3.283 
N377 X-134.210 Y3.730 Z-3.172 
N378 X-134.211 Y3.834 Z-3.060 
N379 X-134.213 Y3.938 Z-2.949 
N380 X-134.214 Y4.041 Z-2.838 
N381 X-134.215 Y4.145 Z-2.726 
N382 X-134.217 Y4.249 Z-2.615 
N383 X-134.218 Y4.353 Z-2.503 
N384 X-134.219 Y4.457 Z-2.392 
N385 X-134.221 Y4.561 Z-2.281 
N386 X-134.222 Y4.665 Z-2.169 
N387 X-134.223 Y4.769 Z-2.058 
N388 X-134.224 Y4.873 Z-1.946 
N389 X-134.226 Y4.976 Z-1.835 
N390 X-134.227 Y5.080 Z-1.723 
N391 X-134.228 Y5.184 Z-1.612 
N392 X-134.230 Y5.288 Z-1.501 
N393 X-134.231 Y5.392 Z-1.389 
N394 X-134.232 Y5.496 Z-1.278 
N395 X-134.234 Y5.600 Z-1.166 
N396 X-134.234 Y5.704 Z-1.055 
N397 X-134.233 Y5.808 Z-0.944 
N398 X-134.232 Y5.912 Z-0.832 
N399 X-134.230 Y6.015 Z-0.721 
N400 X-134.229 Y6.119 Z-0.609 
N401 X-134.228 Y6.223 Z-0.498 
N402 X-134.227 Y6.327 Z-0.386 
N403 X-134.225 Y6.431 Z-0.275 
N404 X-134.224 Y6.535 Z-0.164 
N405 X-134.223 Y6.639 Z-0.052 
N406 X-134.222 Y6.743 Z0.059 
N407 X-134.221 Y6.847 Z0.171 
N408 X-134.219 Y6.950 Z0.282 
N409 X-134.218 Y7.054 Z0.393 
N410 X-134.217 Y7.158 Z0.505 
N411 X-134.216 Y7.262 Z0.616 
N412 X-134.214 Y7.366 Z0.728 
N413 X-134.213 Y7.470 Z0.839 
N414 X-134.212 Y7.574 Z0.950 
N415 X-134.211 Y7.678 Z1.062 
N416 X-134.209 Y7.782 Z1.173 
N417 X-134.208 Y7.886 Z1.285 
N418 X-134.207 Y7.989 Z1.396 
N419 X-134.206 Y8.093 Z1.508 
N420 X-134.205 Y8.197 Z1.619 
N421 X-134.203 Y8.301 Z1.730 
N422 X-134.202 Y8.405 Z1.842 
N423 X-134.201 Y8.509 Z1.953 
N424 X-134.200 Y8.613 Z2.065 
N425 X-134.198 Y8.717 Z2.176 
N426 X-134.195 Y8.821 Z2.287 
N427 X-134.191 Y8.924 Z2.399 
N428 X-134.188 Y9.028 Z2.510 
N429 X-134.184 Y9.132 Z2.622 
N430 X-134.181 Y9.236 Z2.733 
N431 X-134.177 Y9.340 Z2.844 
N432 X-134.174 Y9.444 Z2.956 
N433 X-134.171 Y9.548 Z3.067 
N434 X-134.167 Y9.652 Z3.179 
N435 X-134.164 Y9.755 Z3.290 
N436 X-134.160 Y9.859 Z3.401 
N437 X-134.157 Y9.963 Z3.513 
N438 X-134.153 Y10.067 Z3.624 
N439 X-134.150 Y10.171 Z3.735 
N440 X-134.146 Y10.275 Z3.847 
N441 X-134.143 Y10.379 Z3.958 
N442 X-134.140 Y10.482 Z4.070 
N443 X-134.136 Y10.586 Z4.181 
N444 X-134.133 Y10.690 Z4.292 
N445 X-134.129 Y10.794 Z4.404 
N446 X-134.126 Y10.898 Z4.515 
N447 X-134.122 Y11.002 Z4.627 
N448 X-134.116 Y11.106 Z4.738 
N449 X-134.110 Y11.209 Z4.849 
N450 X-134.104 Y11.313 Z4.961 
N451 X-134.099 Y11.417 Z5.072 
N452 X-134.093 Y11.521 Z5.183 
N453 X-134.087 Y11.625 Z5.295 
N454 X-134.081 Y11.729 Z5.406 
N455 X-134.076 Y11.832 Z5.517 
N456 X-134.070 Y11.936 Z5.629 
N457 X-134.064 Y12.040 Z5.740 
N458 X-134.058 Y12.144 Z5.851 
N459 X-134.053 Y12.248 Z5.963 
N460 X-134.047 Y12.352 Z6.074 
N461 X-134.041 Y12.455 Z6.185 
N462 X-134.035 Y12.559 Z6.297 
N463 X-134.030 Y12.663 Z6.408 
N464 X-134.024 Y12.767 Z6.519 
N465 X-134.018 Y12.871 Z6.631 
N466 X-134.012 Y12.974 Z6.742 
N467 X-134.007 Y13.078 Z6.853 
N468 X-134.001 Y13.182 Z6.965 
N469 X-133.995 Y13.286 Z7.076 
N470 X-133.989 Y13.390 Z7.187 
N471 X-133.984 Y13.494 Z7.299 
N472 X-133.978 Y13.597 Z7.410 
N473 X-133.972 Y13.701 Z7.521 
N474 X-133.966 Y13.805 Z7.633 
N475 X-133.960 Y13.909 Z7.744 
N476 X-133.955 Y14.013 Z7.855 
N477 X-133.949 Y14.117 Z7.967 
N478 X-133.943 Y14.220 Z8.078 
N479 X-133.935 Y14.324 Z8.189 
N480 X-133.927 Y14.428 Z8.301 
N481 X-133.919 Y14.532 Z8.412 
N482 X-133.911 Y14.635 Z8.523 
N483 X-133.903 Y14.739 Z8.634 
N484 X-133.895 Y14.843 Z8.746 
N485 X-133.887 Y14.947 Z8.857 
N486 X-133.878 Y15.050 Z8.968 
N487 X-133.870 Y15.154 Z9.079 
N488 X-133.862 Y15.258 Z9.191 
N489 X-133.854 Y15.362 Z9.302 
N490 X-133.846 Y15.465 Z9.413 
N491 X-133.838 Y15.569 Z9.524 
N492 X-133.829 Y15.673 Z9.636 
N493 X-133.821 Y15.777 Z9.747 
N494 X-133.813 Y15.880 Z9.858 
N495 X-133.805 Y15.984 Z9.969 
N496 X-133.797 Y16.088 Z10.081 
N497 X-133.789 Y16.192 Z10.192 
N498 X-133.781 Y16.295 Z10.303 
N499 X-133.772 Y16.399 Z10.414 
N500 X-133.764 Y16.503 Z10.526 
N501 X-133.756 Y16.607 Z10.637 
N502 X-133.748 Y16.710 Z10.748 
N503 X-133.740 Y16.814 Z10.859 
N504 X-133.732 Y16.917 Z10.969 
N505 X-133.724 Y17.020 Z11.080 
N506 X-133.715 Y17.123 Z11.191 
N507 X-133.707 Y17.226 Z11.301 
N508 X-133.699 Y17.329 Z11.412 
N509 X-133.691 Y17.433 Z11.523 
N510 X-133.683 Y17.536 Z11.633 
N511 X-133.675 Y17.639 Z11.744 
N512 X-133.667 Y17.742 Z11.855 
N513 X-133.659 Y17.845 Z11.965 
N514 X-133.651 Y17.949 Z12.076 
N515 X-133.642 Y18.052 Z12.187 
N516 X-133.634 Y18.155 Z12.297 
N517 X-133.626 Y18.258 Z12.408 
N518 X-133.618 Y18.361 Z12.519 
N519 X-133.610 Y18.465 Z12.629 
N520 X-133.602 Y18.568 Z12.740 
N521 X-133.594 Y18.671 Z12.851 
N522 X-133.586 Y18.774 Z12.961 
N523 X-133.578 Y18.877 Z13.072 
N524 X-133.569 Y18.980 Z13.183 
N525 X-133.561 Y19.084 Z13.293 
N526 X-133.553 Y19.187 Z13.404 
N527 X-133.545 Y19.290 Z13.514 
N528 X-133.537 Y19.393 Z13.625 
N529 X-133.529 Y19.496 Z13.736 
N530 X-133.521 Y19.600 Z13.846 
N531 X-133.513 Y19.703 Z13.957 
N532 X-133.505 Y19.806 Z14.068 
N533 X-133.496 Y19.909 Z14.178 
N534 X-133.488 Y20.012 Z14.289 
N535 X-133.480 Y20.115 Z14.400 
N536 G40 X-133.427 Y20.796 Z15.130 F458
N537 X-133.427 Y20.796 Z15.130 
N538 G00 X-133.427 Y42.737 Z-5.330 
N539 X-133.914 Y13.894 Z-31.617 
N540 X-133.914 Y-8.047 Z-11.157 
N541 ;FSA_1
N542 G01 G41 X-133.937 Y-7.365 Z-10.426 F458 
N543 X-133.941 Y-7.263 Z-10.316 
N544 X-133.944 Y-7.160 Z-10.207 
N545 X-133.948 Y-7.058 Z-10.097 
N546 X-133.951 Y-6.956 Z-9.987 
N547 X-133.955 Y-6.853 Z-9.878 
N548 X-133.958 Y-6.751 Z-9.768 
N549 X-133.961 Y-6.649 Z-9.658 
N550 X-133.965 Y-6.547 Z-9.549 
N551 X-133.968 Y-6.444 Z-9.439 
N552 X-133.972 Y-6.342 Z-9.329 
N553 X-133.975 Y-6.240 Z-9.220 
N554 X-133.979 Y-6.138 Z-9.110 
N555 X-133.982 Y-6.035 Z-9.000 
N556 X-133.986 Y-5.933 Z-8.891 
N557 X-133.989 Y-5.831 Z-8.781 
N558 X-133.992 Y-5.728 Z-8.671 
N559 X-133.996 Y-5.626 Z-8.562 
N560 X-133.999 Y-5.524 Z-8.452 
N561 X-134.003 Y-5.422 Z-8.342 
N562 X-134.006 Y-5.319 Z-8.233 
N563 X-134.010 Y-5.216 Z-8.122 
N564 X-134.013 Y-5.113 Z-8.011 
N565 X-134.017 Y-5.009 Z-7.900 
N566 X-134.020 Y-4.906 Z-7.790 
N567 X-134.024 Y-4.803 Z-7.679 
N568 X-134.027 Y-4.700 Z-7.568 
N569 X-134.031 Y-4.596 Z-7.457 
N570 X-134.034 Y-4.493 Z-7.346 
N571 X-134.038 Y-4.390 Z-7.236 
N572 X-134.041 Y-4.286 Z-7.125 
N573 X-134.044 Y-4.183 Z-7.014 
N574 X-134.048 Y-4.080 Z-6.903 
N575 X-134.051 Y-3.976 Z-6.792 
N576 X-134.055 Y-3.873 Z-6.682 
N577 X-134.058 Y-3.770 Z-6.571 
N578 X-134.062 Y-3.667 Z-6.460 
N579 X-134.065 Y-3.563 Z-6.349 
N580 X-134.069 Y-3.460 Z-6.239 
N581 X-134.072 Y-3.357 Z-6.128 
N582 X-134.076 Y-3.253 Z-6.017 
N583 X-134.079 Y-3.150 Z-5.906 
N584 X-134.083 Y-3.047 Z-5.795 
N585 X-134.086 Y-2.943 Z-5.685 
N586 X-134.090 Y-2.840 Z-5.574 
N587 X-134.093 Y-2.737 Z-5.463 
N588 X-134.097 Y-2.633 Z-5.352 
N589 X-134.100 Y-2.530 Z-5.242 
N590 X-134.104 Y-2.427 Z-5.131 
N591 X-134.107 Y-2.324 Z-5.020 
N592 X-134.111 Y-2.220 Z-4.909 
N593 X-134.114 Y-2.117 Z-4.798 
N594 X-134.118 Y-2.014 Z-4.688 
N595 X-134.121 Y-1.910 Z-4.577 
N596 X-134.125 Y-1.806 Z-4.465 
N597 X-134.128 Y-1.703 Z-4.354 
N598 X-134.132 Y-1.599 Z-4.243 
N599 X-134.135 Y-1.495 Z-4.131 
N600 X-134.139 Y-1.391 Z-4.020 
N601 X-134.142 Y-1.287 Z-3.909 
N602 X-134.146 Y-1.183 Z-3.797 
N603 X-134.149 Y-1.079 Z-3.686 
N604 X-134.153 Y-0.975 Z-3.574 
N605 X-134.156 Y-0.872 Z-3.463 
N606 X-134.160 Y-0.768 Z-3.352 
N607 X-134.163 Y-0.664 Z-3.240 
N608 X-134.167 Y-0.560 Z-3.129 
N609 X-134.170 Y-0.456 Z-3.017 
N610 X-134.174 Y-0.352 Z-2.906 
N611 X-134.177 Y-0.248 Z-2.795 
N612 X-134.181 Y-0.145 Z-2.683 
N613 X-134.184 Y-0.041 Z-2.572 
N614 X-134.187 Y0.063 Z-2.460 
N615 X-134.191 Y0.167 Z-2.349 
N616 X-134.194 Y0.271 Z-2.238 
N617 X-134.197 Y0.375 Z-2.126 
N618 X-134.199 Y0.479 Z-2.015 
N619 X-134.200 Y0.583 Z-1.903 
N620 X-134.201 Y0.687 Z-1.792 
N621 X-134.202 Y0.790 Z-1.681 
N622 X-134.204 Y0.894 Z-1.569 
N623 X-134.205 Y0.998 Z-1.458 
N624 X-134.206 Y1.102 Z-1.346 
N625 X-134.208 Y1.206 Z-1.235 
N626 X-134.209 Y1.310 Z-1.124 
N627 X-134.210 Y1.414 Z-1.012 
N628 X-134.211 Y1.518 Z-0.901 
N629 X-134.213 Y1.622 Z-0.789 
N630 X-134.214 Y1.725 Z-0.678 
N631 X-134.215 Y1.829 Z-0.567 
N632 X-134.217 Y1.933 Z-0.455 
N633 X-134.218 Y2.037 Z-0.344 
N634 X-134.219 Y2.141 Z-0.232 
N635 X-134.221 Y2.245 Z-0.121 
N636 X-134.222 Y2.349 Z-0.009 
N637 X-134.223 Y2.453 Z0.102 
N638 X-134.224 Y2.557 Z0.213 
N639 X-134.226 Y2.661 Z0.325 
N640 X-134.227 Y2.764 Z0.436 
N641 X-134.228 Y2.868 Z0.548 
N642 X-134.230 Y2.972 Z0.659 
N643 X-134.231 Y3.076 Z0.770 
N644 X-134.232 Y3.180 Z0.882 
N645 X-134.234 Y3.284 Z0.993 
N646 X-134.234 Y3.388 Z1.105 
N647 X-134.233 Y3.492 Z1.216 
N648 X-134.232 Y3.596 Z1.328 
N649 X-134.230 Y3.699 Z1.439 
N650 X-134.229 Y3.803 Z1.550 
N651 X-134.228 Y3.907 Z1.662 
N652 X-134.227 Y4.011 Z1.773 
N653 X-134.225 Y4.115 Z1.885 
N654 X-134.224 Y4.219 Z1.996 
N655 X-134.223 Y4.323 Z2.107 
N656 X-134.222 Y4.427 Z2.219 
N657 X-134.221 Y4.531 Z2.330 
N658 X-134.219 Y4.635 Z2.442 
N659 X-134.218 Y4.738 Z2.553 
N660 X-134.217 Y4.842 Z2.664 
N661 X-134.216 Y4.946 Z2.776 
N662 X-134.214 Y5.050 Z2.887 
N663 X-134.213 Y5.154 Z2.999 
N664 X-134.212 Y5.258 Z3.110 
N665 X-134.211 Y5.362 Z3.222 
N666 X-134.209 Y5.466 Z3.333 
N667 X-134.208 Y5.570 Z3.444 
N668 X-134.207 Y5.673 Z3.556 
N669 X-134.206 Y5.777 Z3.667 
N670 X-134.205 Y5.881 Z3.779 
N671 X-134.203 Y5.985 Z3.890 
N672 X-134.202 Y6.089 Z4.001 
N673 X-134.201 Y6.193 Z4.113 
N674 X-134.200 Y6.297 Z4.224 
N675 X-134.198 Y6.401 Z4.336 
N676 X-134.195 Y6.505 Z4.447 
N677 X-134.191 Y6.608 Z4.558 
N678 X-134.188 Y6.712 Z4.670 
N679 X-134.184 Y6.816 Z4.781 
N680 X-134.181 Y6.920 Z4.893 
N681 X-134.177 Y7.024 Z5.004 
N682 X-134.174 Y7.128 Z5.115 
N683 X-134.171 Y7.232 Z5.227 
N684 X-134.167 Y7.336 Z5.338 
N685 X-134.164 Y7.439 Z5.450 
N686 X-134.160 Y7.543 Z5.561 
N687 X-134.157 Y7.647 Z5.672 
N688 X-134.153 Y7.751 Z5.784 
N689 X-134.150 Y7.855 Z5.895 
N690 X-134.146 Y7.959 Z6.006 
N691 X-134.143 Y8.063 Z6.118 
N692 X-134.140 Y8.167 Z6.229 
N693 X-134.136 Y8.270 Z6.341 
N694 X-134.133 Y8.374 Z6.452 
N695 X-134.129 Y8.478 Z6.563 
N696 X-134.126 Y8.582 Z6.675 
N697 X-134.122 Y8.686 Z6.786 
N698 X-134.116 Y8.790 Z6.898 
N699 X-134.110 Y8.894 Z7.009 
N700 X-134.104 Y8.997 Z7.120 
N701 X-134.099 Y9.101 Z7.232 
N702 X-134.093 Y9.205 Z7.343 
N703 X-134.087 Y9.309 Z7.454 
N704 X-134.081 Y9.413 Z7.566 
N705 X-134.076 Y9.516 Z7.677 
N706 X-134.070 Y9.620 Z7.788 
N707 X-134.064 Y9.724 Z7.900 
N708 X-134.058 Y9.828 Z8.011 
N709 X-134.053 Y9.932 Z8.122 
N710 X-134.047 Y10.036 Z8.234 
N711 X-134.041 Y10.139 Z8.345 
N712 X-134.035 Y10.243 Z8.456 
N713 X-134.030 Y10.347 Z8.568 
N714 X-134.024 Y10.451 Z8.679 
N715 X-134.018 Y10.555 Z8.790 
N716 X-134.012 Y10.659 Z8.902 
N717 X-134.007 Y10.762 Z9.013 
N718 X-134.001 Y10.866 Z9.124 
N719 X-133.995 Y10.970 Z9.236 
N720 X-133.989 Y11.074 Z9.347 
N721 X-133.984 Y11.178 Z9.458 
N722 X-133.978 Y11.281 Z9.570 
N723 X-133.972 Y11.385 Z9.681 
N724 X-133.966 Y11.489 Z9.792 
N725 X-133.960 Y11.593 Z9.904 
N726 X-133.955 Y11.697 Z10.015 
N727 X-133.949 Y11.801 Z10.126 
N728 X-133.943 Y11.904 Z10.238 
N729 X-133.935 Y12.008 Z10.349 
N730 X-133.927 Y12.112 Z10.460 
N731 X-133.919 Y12.216 Z10.571 
N732 X-133.911 Y12.319 Z10.683 
N733 X-133.903 Y12.423 Z10.794 
N734 X-133.895 Y12.527 Z10.905 
N735 X-133.887 Y12.631 Z11.016 
N736 X-133.878 Y12.734 Z11.128 
N737 X-133.870 Y12.838 Z11.239 
N738 X-133.862 Y12.942 Z11.350 
N739 X-133.854 Y13.046 Z11.462 
N740 X-133.846 Y13.149 Z11.573 
N741 X-133.838 Y13.253 Z11.684 
N742 X-133.829 Y13.357 Z11.795 
N743 X-133.821 Y13.461 Z11.907 
N744 X-133.813 Y13.564 Z12.018 
N745 X-133.805 Y13.668 Z12.129 
N746 X-133.797 Y13.772 Z12.240 
N747 X-133.789 Y13.876 Z12.352 
N748 X-133.781 Y13.979 Z12.463 
N749 X-133.772 Y14.083 Z12.574 
N750 X-133.764 Y14.187 Z12.685 
N751 X-133.756 Y14.291 Z12.797 
N752 X-133.748 Y14.394 Z12.908 
N753 X-133.740 Y14.498 Z13.019 
N754 X-133.732 Y14.601 Z13.129 
N755 X-133.724 Y14.704 Z13.240 
N756 X-133.715 Y14.807 Z13.350 
N757 X-133.707 Y14.910 Z13.461 
N758 X-133.699 Y15.014 Z13.572 
N759 X-133.691 Y15.117 Z13.682 
N760 X-133.683 Y15.220 Z13.793 
N761 X-133.675 Y15.323 Z13.904 
N762 X-133.667 Y15.426 Z14.014 
N763 X-133.659 Y15.529 Z14.125 
N764 X-133.651 Y15.633 Z14.236 
N765 X-133.642 Y15.736 Z14.346 
N766 X-133.634 Y15.839 Z14.457 
N767 X-133.626 Y15.942 Z14.568 
N768 X-133.618 Y16.045 Z14.678 
N769 X-133.610 Y16.149 Z14.789 
N770 X-133.602 Y16.252 Z14.900 
N771 X-133.594 Y16.355 Z15.010 
N772 X-133.586 Y16.458 Z15.121 
N773 X-133.578 Y16.561 Z15.232 
N774 X-133.569 Y16.664 Z15.342 
N775 X-133.561 Y16.768 Z15.453 
N776 X-133.553 Y16.871 Z15.564 
N777 X-133.545 Y16.974 Z15.674 
N778 X-133.537 Y17.077 Z15.785 
N779 X-133.529 Y17.180 Z15.895 
N780 X-133.521 Y17.284 Z16.006 
N781 X-133.513 Y17.387 Z16.117 
N782 X-133.505 Y17.490 Z16.227 
N783 X-133.496 Y17.593 Z16.338 
N784 X-133.488 Y17.696 Z16.449 
N785 X-133.480 Y17.800 Z16.559 
N786 G40 X-133.427 Y18.481 Z17.290 F458
N787 X-133.427 Y18.481 Z17.290 
N788 G00 X-133.427 Y55.048 Z-16.810 
;RAPORT("TB123456","Side Milling:161 End")
;trailer : concat=None
; points cnt = 735
N790 M9 ; chlodziwo wyl.
N791 MSG (" --- KONIEC PODPROGRAMU --- ")
N792 FGROUP()
N793 TRAFOOF
N794 STOPRE
N795 G0 G53 D0 Z550.0 M9 M5
N796 G0 G53 Y150 A0 B0
N797 M17
