; PROGRAM NAME: B12345611
; ORDER       : B123456
; OPER. NAME  : Spiral Rough Rhombic:102
; OPER. DESCR.: spiral roughing rhombic/nozka_zgr
; OPER. TYPE  : rouRoot
; GEO. OPTION : 4
; MACHINE     : HSTM_500_SIM840D_Py
;             : HSTM500 - HAMUEL: 5-axis milling machine - SIM840D Traori PP_Script
; CONTROL     : SINUMERIK 840D
; created:   2023-06-06 12:03:11.793454
;-------DODATKOWE DANE-------------------
; PROGRAMISTA : Mariusz Malec
; PARTID      : 306T001953P1010_-
;  ap         : 2.5
;  ae         : 24.0
;  lean_angle : 1.0
;  fin_offset : 0.6
;----------------------------------------
;RAPORT("TB123456","Spiral Rough Rhombic:102")
N10 TRAFOOF
N11 D0
N12 G90 G94
N13 G0 G53 D0 Z550 B0
N14 STOPRE
M9 ; chlodziwo wyl
; --- Spiral Rough Rhombic:102 - spiral roughing rhombic/nozka_zgr ---
N16 ;ToolChange : concat=None ,current_tdmid=None, PP.tdmId=941292
N17 TRAFOOF
N18 G0 G53 D0 X-200 Y150 Z550 B0
N19 T="7741292"
;RAPORT("TB123456","ToolChangeStart 7741292")
N20 M6
;RAPORT("TB123456","ToolChangeEnd")
N21 STOPRE
N22 MSG(" TLID=941292 D=40.0 R=6.0 Ang=0.0 Len=90.0 ")
N23 ; (Preloading tool)
N24 T="7740969"
N25 S2148 M03
N26 STOPRE
N27 CYCLE832(0.1,3,1)
N28 G0 G53 A270.5743 B0.0000
N29 TRAORI
N30 G54 D1
N31 D2 
N32 ; DELTA A > 40.1
N33 TRAFOOF
N34 D2
N35 STOPRE
N36 G00 G54 Z296.000
N37 G01 A270.5743 F10000
N38 TRAORI
N39 G54 D2
N40 STOPRE
N41 TRANS 
N42 G00 X-146.998 Y87.083 Z-37.177 A270.5743 
N43 M348 ; chlodziwo mgla
N44 X-146.998 Y37.086 Z-37.678 
N45 G01 X-146.998 Y34.000 Z-37.166 F2835 
N46 X-146.998 Y31.223 Z-35.725 
N47 X-146.998 Y29.027 Z-33.496 
N48 X-146.998 Y27.627 Z-30.698 
N49 X-146.998 Y27.161 Z-27.604 
N50 X-146.998 Y27.182 Z-24.974 A270.5809 
N51 X-146.998 Y27.202 Z-22.390 A270.5860 
N52 X-146.998 Y27.220 Z-19.895 A270.5880 
N53 X-146.998 Y27.237 Z-17.527 A270.5881 
N54 X-146.998 Y27.253 Z-15.317 
N55 X-146.998 Y27.268 Z-13.288 
N56 X-146.998 Y27.281 Z-11.455 
N57 X-146.998 Y27.293 Z-9.825 A270.5890 
N58 X-146.998 Y27.328 Z-8.393 A270.6939 
N59 X-146.998 Y27.500 Z-7.149 A271.3896 
N60 X-146.998 Y27.989 Z-6.062 A273.4725 
N61 X-146.998 Y28.872 Z-5.063 A277.3487 
N62 X-146.998 Y30.036 Z-4.067 A282.6430 
N63 X-146.998 Y31.404 Z-2.980 A289.1464 
N64 X-146.998 Y32.984 Z-1.664 A297.1046 
N65 X-146.998 Y34.594 Z-0.046 A306.0841 
N66 X-146.998 Y36.021 Z1.854 A315.4882 
N67 X-146.998 Y37.037 Z3.843 A324.3037 
N68 X-146.998 Y37.656 Z5.860 A332.5740 
N69 X-146.998 Y37.870 Z7.792 A340.0828 
N70 X-146.998 Y37.703 Z9.524 A346.5934 
N71 X-146.998 Y37.208 Z11.000 A352.0700 
N72 X-146.998 Y36.433 Z12.163 A356.4019 
N73 X-146.998 Y35.421 Z12.924 A359.2745 
N74 X-146.998 Y34.209 Z13.282 A0.6511 
N75 X-146.998 Y32.807 Z13.367 A0.9823 
N76 X-146.998 Y31.205 Z13.370 A0.9953 
N77 X-146.998 Y29.399 Z13.370 
N78 X-146.998 Y27.392 Z13.370 
N79 X-146.998 Y25.197 Z13.370 
N80 X-146.998 Y22.834 Z13.371 
N81 X-146.998 Y20.332 Z13.371 
N82 X-146.998 Y17.728 Z13.371 
N83 X-146.998 Y15.064 Z13.371 
N84 X-146.998 Y12.386 Z13.372 
N85 X-146.998 Y9.739 Z13.372 
N86 X-146.998 Y7.169 Z13.372 
N87 X-146.998 Y4.715 Z13.372 
N88 X-146.998 Y2.410 Z13.372 
N89 X-146.998 Y0.283 Z13.373 
N90 X-146.998 Y-1.651 Z13.373 
N91 X-146.998 Y-3.381 Z13.374 A0.9996 
N92 X-146.998 Y-4.909 Z13.395 A1.0865 
N93 X-146.998 Y-6.242 Z13.534 A1.6797 
N94 X-146.998 Y-7.411 Z13.993 A3.6708 B-0.0002 
N95 X-146.998 Y-8.472 Z14.795 A7.2415 B-0.0026 
N96 X-146.998 Y-9.494 Z15.830 A12.0144 B-0.0121 
N97 X-146.998 Y-10.551 Z17.034 A17.7904 B-0.0324 
N98 X-146.999 Y-11.718 Z18.353 A24.4490 B-0.0533 
N99 X-146.999 Y-13.050 Z19.705 A31.8072 B-0.0569 
N100 X-146.999 Y-14.558 Z20.975 A39.5392 B-0.0388 
N101 X-146.998 Y-16.207 Z22.059 A47.3187 B-0.0035 
N102 X-146.998 Y-17.943 Z22.893 A54.9053 B0.0352 
N103 X-146.998 Y-19.690 Z23.437 A62.0864 B0.0659 
N104 X-146.998 Y-21.367 Z23.687 A68.6784 B0.0871 
N105 X-146.998 Y-22.906 Z23.660 A74.5443 B0.0998 
N106 X-146.998 Y-24.254 Z23.390 A79.6013 B0.1062 
N107 X-146.998 Y-25.380 Z22.920 A83.8140 B0.1087 
N108 X-146.998 Y-26.242 Z22.286 A87.0558 B0.1095 
N109 X-146.998 Y-26.813 Z21.525 A89.2270 B0.1117 
N110 X-146.998 Y-27.119 Z20.666 A90.4010 B0.1167 
N111 X-146.998 Y-27.227 Z19.726 A90.8180 B0.1231 
N112 X-146.998 Y-27.245 Z18.713 A90.8825 B0.1287 
N113 X-146.998 Y-27.248 Z17.634 A90.8835 B0.1337 
N114 X-146.998 Y-27.250 Z16.503 B0.1386 
N115 X-146.998 Y-27.252 Z15.335 B0.1437 
N116 X-146.998 Y-27.255 Z14.148 B0.1489 
N117 X-146.998 Y-27.257 Z12.960 B0.1541 
N118 X-146.998 Y-27.260 Z11.791 B0.1592 
N119 X-146.998 Y-27.262 Z10.657 B0.1641 
N120 X-146.998 Y-27.265 Z9.576 A90.8855 B0.1688 
N121 X-146.998 Y-27.272 Z8.559 A90.9093 B0.1735 
N122 X-146.998 Y-27.311 Z7.616 A91.0641 B0.1789 
N123 X-146.998 Y-27.473 Z6.751 A91.7411 B0.1882 
N124 X-146.997 Y-27.870 Z5.952 A93.4381 B0.2068 
N125 X-146.997 Y-28.521 Z5.195 A96.2795 B0.2395 
N126 X-146.997 Y-29.389 Z4.439 A100.1603 B0.2891 
N127 X-146.997 Y-30.439 Z3.633 A104.9932 B0.3572 
N128 X-146.996 Y-31.630 Z2.722 A110.6926 B0.4445 
N129 X-146.996 Y-32.951 Z1.629 A117.3698 B0.5461 
N130 X-146.996 Y-34.359 Z0.269 A125.0971 B0.6254 
N131 X-146.996 Y-35.654 Z-1.330 A133.2547 B0.6284 
N132 X-146.996 Y-36.655 Z-3.043 A141.1013 B0.5625 
N133 X-146.996 Y-37.393 Z-4.896 A148.9633 B0.4683 
N134 X-146.997 Y-37.812 Z-6.819 A156.6624 B0.3739 
N135 X-146.997 Y-37.852 Z-8.629 A163.6006 B0.2916 
N136 X-146.997 Y-37.544 Z-10.233 A169.6137 B0.2256 
N137 X-146.998 Y-36.932 Z-11.573 A174.6193 B0.1778 
N138 X-146.998 Y-36.058 Z-12.534 A178.2402 B0.1482 
N139 X-146.998 Y-34.971 Z-13.034 A180.1457 B0.1335 
N140 X-146.998 Y-33.693 Z-13.202 A180.7849 B0.1276 
N141 X-146.998 Y-32.221 Z-13.228 A180.8736 B0.1245 
N142 X-146.998 Y-30.544 Z-13.231 A180.8741 B0.1215 
N143 X-146.998 Y-28.661 Z-13.236 B0.1182 
N144 X-146.998 Y-26.579 Z-13.240 B0.1145 
N145 X-146.998 Y-24.314 Z-13.245 B0.1106 
N146 X-146.998 Y-21.890 Z-13.250 B0.1065 
N147 X-146.998 Y-19.340 Z-13.256 B0.1022 
N148 X-146.998 Y-16.703 Z-13.262 B0.0979 
N149 X-146.998 Y-14.022 Z-13.268 B0.0936 
N150 X-146.998 Y-11.345 Z-13.274 B0.0894 
N151 X-146.998 Y-8.717 Z-13.279 B0.0853 
N152 X-146.998 Y-6.182 Z-13.285 B0.0815 
N153 X-146.998 Y-3.779 Z-13.290 B0.0779 
N154 X-146.998 Y-1.537 Z-13.295 B0.0746 
N155 X-146.998 Y0.519 Z-13.300 B0.0717 
N156 X-146.998 Y2.375 Z-13.304 B0.0691 
N157 X-146.998 Y4.025 Z-13.309 A180.8796 B0.0669 
N158 X-146.998 Y5.473 Z-13.336 A180.9820 B0.0665 
N159 X-146.998 Y6.733 Z-13.544 A181.8509 B0.0720 
N160 X-146.998 Y7.842 Z-14.130 A184.3849 B0.0871 
N161 X-146.998 Y8.868 Z-15.045 A188.4715 B0.1062 
N162 X-146.998 Y9.888 Z-16.189 A193.7665 B0.1180 
N163 X-146.998 Y10.975 Z-17.476 A199.9982 B0.1188 
N164 X-146.998 Y12.194 Z-18.833 A206.9876 B0.1070 
N165 X-146.998 Y13.584 Z-20.173 A214.5183 B0.0802 
N166 X-146.998 Y15.174 Z-21.424 A222.4892 B0.0361 
N167 X-146.998 Y16.932 Z-22.481 A230.6009 B-0.0165 
N168 X-146.999 Y18.691 Z-23.204 A238.0949 B-0.0552 
N169 X-146.999 Y20.381 Z-23.607 A244.8796 B-0.0756 
N170 X-146.999 Y21.971 Z-23.730 A251.0258 B-0.0815 
N171 X-146.999 Y23.408 Z-23.599 A256.4532 B-0.0744 
N172 X-146.999 Y24.654 Z-23.250 A261.1039 B-0.0567 
N173 X-146.998 Y25.674 Z-22.717 A264.9152 B-0.0360 
N174 X-146.998 Y26.425 Z-22.036 A267.7334 B-0.0197 
N175 X-146.998 Y26.895 Z-21.239 A269.5132 B-0.0097 
N176 X-146.998 Y27.123 Z-20.351 A270.3776 B-0.0042 
N177 X-146.998 Y27.192 Z-19.384 A270.6287 B-0.0016 
N178 X-146.998 Y27.205 Z-18.347 A270.6552 B-0.0005 
N179 X-146.998 Y27.212 Z-17.249 A270.6552 B-0.0001 
N180 X-146.998 Y27.219 Z-16.104 B-0.0000 
N181 X-146.998 Y27.226 Z-14.929 B-0.0000 
N182 X-146.998 Y27.233 Z-13.741 
N183 X-146.998 Y27.240 Z-12.559 
N184 X-146.998 Y27.247 Z-11.403 
N185 X-146.998 Y27.254 Z-10.288 
N186 X-146.998 Y27.263 Z-9.231 A270.6655 
N187 X-146.998 Y27.296 Z-8.241 A270.7794 
N188 X-146.998 Y27.406 Z-7.327 A271.2250 
N189 X-146.998 Y27.682 Z-6.486 A272.3870 
N190 X-146.998 Y28.205 Z-5.703 A274.6442 
N191 X-146.998 Y28.964 Z-4.942 A277.9966 
N192 X-146.998 Y29.897 Z-4.166 A282.2358 
N193 X-146.998 Y30.970 Z-3.328 A287.2760 
N194 X-146.998 Y32.185 Z-2.362 A293.2287 
N195 X-146.998 Y33.532 Z-1.181 A300.2428 
N196 X-146.998 Y34.837 Z0.214 A307.7809 
N197 X-146.998 Y36.022 Z1.837 A315.7393 
N198 X-146.998 Y36.927 Z3.569 A323.4564 
N199 X-146.998 Y37.546 Z5.391 A331.0168 
N200 X-146.998 Y37.845 Z7.233 A338.2704 
N201 X-146.998 Y37.795 Z8.963 A344.8392 
N202 X-146.998 Y37.419 Z10.484 A350.5136 
N203 X-146.998 Y36.756 Z11.729 A355.1458 
N204 X-146.998 Y35.848 Z12.621 A358.5045 
N205 X-146.998 Y34.733 Z13.121 A0.4235 
N206 X-146.998 Y33.431 Z13.294 A1.1152 
N207 X-146.998 Y31.938 Z13.309 A1.1954 
N208 X-146.998 Y30.246 Z13.304 A1.1956 
N209 X-146.998 Y28.354 Z13.297 
N210 X-146.998 Y26.273 Z13.290 
N211 X-146.998 Y24.018 Z13.282 
N212 X-146.998 Y21.615 Z13.274 
N213 X-146.998 Y19.097 Z13.266 
N214 X-146.998 Y16.503 Z13.257 
N215 X-146.998 Y13.876 Z13.248 
N216 X-146.998 Y11.261 Z13.239 A1.1959 
N217 X-146.998 Y8.702 Z13.238 A1.2292 
N218 X-146.998 Y6.238 Z13.267 A1.3989 
N219 X-146.998 Y3.907 Z13.306 A1.6444 
N220 X-146.998 Y1.736 Z13.330 A1.8577 
N221 X-146.998 Y-0.253 Z13.354 A2.0938 
N222 X-146.998 Y-2.048 Z13.370 A2.3106 
N223 X-146.998 Y-3.646 Z13.376 A2.4943 B-0.0002 
N224 X-146.998 Y-5.053 Z13.454 A2.9760 B-0.0025 
N225 X-146.998 Y-6.292 Z13.756 A4.4285 B-0.0120 
N226 X-146.998 Y-7.414 Z14.402 A7.4214 B-0.0327 
N227 X-146.999 Y-8.486 Z15.341 A11.8386 B-0.0619 
N228 X-146.999 Y-9.578 Z16.476 A17.3585 B-0.0873 
N229 X-146.999 Y-10.752 Z17.713 A23.6864 B-0.0959 
N230 X-146.999 Y-12.050 Z18.967 A30.5815 B-0.0869 
N231 X-146.999 Y-13.486 Z20.150 A37.7988 B-0.0621 
N232 X-146.998 Y-15.039 Z21.178 A45.0735 B-0.0206 
N233 X-146.998 Y-16.674 Z21.998 A52.2333 B0.0312 
N234 X-146.998 Y-18.345 Z22.576 A59.1332 B0.0803 
N235 X-146.998 Y-19.996 Z22.897 A65.6535 B0.1220 
N236 X-146.998 Y-21.570 Z22.962 A71.6747 B0.1559 
N237 X-146.998 Y-23.002 Z22.786 A77.0527 B0.1828 
N238 X-146.997 Y-24.236 Z22.395 A81.6459 B0.2042 
N239 X-146.997 Y-25.216 Z21.827 A85.2983 B0.2222 
N240 X-146.997 Y-25.903 Z21.122 A87.8667 B0.2381 
N241 X-146.997 Y-26.306 Z20.313 A89.3695 B0.2525 
N242 X-146.997 Y-26.478 Z19.426 A89.9926 B0.2653 
N243 X-146.997 Y-26.529 Z18.470 A90.1356 B0.2770 
N244 X-146.997 Y-26.550 Z17.456 A90.1603 B0.2886 
N245 X-146.997 Y-26.574 Z16.395 A90.1955 B0.3000 
N246 X-146.997 Y-26.607 Z15.301 A90.2717 B0.3102 
N247 X-146.997 Y-26.652 Z14.190 A90.4002 B0.3191 
N248 X-146.997 Y-26.707 Z13.079 A90.5840 B0.3273 
N249 X-146.997 Y-26.764 Z11.986 A90.7887 B0.3355 
N250 X-146.997 Y-26.804 Z10.927 A90.9418 B0.3439 
N251 X-146.997 Y-26.823 Z9.917 A91.0211 B0.3519 
N252 X-146.997 Y-26.838 Z8.967 A91.0826 B0.3597 
N253 X-146.997 Y-26.881 Z8.086 A91.2698 B0.3688 
N254 X-146.997 Y-27.026 Z7.277 A91.8884 B0.3829 
N255 X-146.997 Y-27.372 Z6.532 A93.3714 B0.4076 
N256 X-146.996 Y-27.966 Z5.827 A95.9596 B0.4477 
N257 X-146.996 Y-28.806 Z5.122 A99.6841 B0.5051 
N258 X-146.996 Y-29.871 Z4.360 A104.5225 B0.5804 
N259 X-146.995 Y-31.114 Z3.477 A110.3784 B0.6731 
N260 X-146.995 Y-32.474 Z2.408 A117.1542 B0.7790 
N261 X-146.995 Y-33.880 Z1.094 A124.7718 B0.8709 
N262 X-146.995 Y-35.157 Z-0.434 A132.6841 B0.8955 
N263 X-146.995 Y-36.160 Z-2.070 A140.2873 B0.8459 
N264 X-146.995 Y-36.919 Z-3.841 A147.8991 B0.7571 
N265 X-146.996 Y-37.417 Z-5.760 A155.6996 B0.6579 
N266 X-146.996 Y-37.554 Z-7.638 A163.0054 B0.5642 
N267 X-146.996 Y-37.328 Z-9.318 A169.3801 B0.4842 
N268 X-146.997 Y-36.784 Z-10.696 A174.5736 B0.4227 
N269 X-146.997 Y-35.980 Z-11.666 A178.2565 B0.3822 
N270 X-146.997 Y-34.969 Z-12.210 A180.3540 B0.3613 
N271 X-146.997 Y-33.778 Z-12.422 A181.2057 B0.3548 
N272 X-146.997 Y-32.401 Z-12.457 A181.3765 B0.3556 
N273 X-146.997 Y-30.830 Z-12.447 A181.3809 B0.3581 
N274 X-146.997 Y-29.060 Z-12.436 B0.3609 
N275 X-146.997 Y-27.096 Z-12.423 B0.3640 
N276 X-146.997 Y-24.952 Z-12.408 B0.3674 
N277 X-146.997 Y-22.650 Z-12.393 B0.3711 
N278 X-146.997 Y-20.219 Z-12.377 B0.3749 
N279 X-146.997 Y-17.696 Z-12.360 B0.3789 
N280 X-146.997 Y-15.123 Z-12.343 B0.3830 
N281 X-146.997 Y-12.542 Z-12.326 B0.3871 
N282 X-146.997 Y-10.000 Z-12.309 B0.3912 
N283 X-146.997 Y-7.538 Z-12.293 A181.3810 B0.3951 
N284 X-146.997 Y-5.193 Z-12.279 A181.3882 B0.3988 
N285 X-146.997 Y-2.997 Z-12.281 A181.4644 B0.4024 
N286 X-146.997 Y-0.973 Z-12.313 A181.6745 B0.4061 
N287 X-146.997 Y0.864 Z-12.344 A181.9020 B0.4110 
N288 X-146.997 Y2.506 Z-12.345 A182.0199 B0.4175 
N289 X-146.997 Y3.955 Z-12.357 A182.1801 B0.4238 
N290 X-146.997 Y5.226 Z-12.516 A182.9578 B0.4267 
N291 X-146.997 Y6.356 Z-13.020 A185.2357 B0.4175 
N292 X-146.997 Y7.419 Z-13.924 A189.3486 B0.3906 
N293 X-146.997 Y8.517 Z-15.169 A195.1677 B0.3474 
N294 X-146.997 Y9.728 Z-16.569 A202.0790 B0.2902 
N295 X-146.997 Y11.078 Z-17.950 A209.4718 B0.2197 
N296 X-146.998 Y12.584 Z-19.231 A217.1424 B0.1354 
N297 X-146.998 Y14.251 Z-20.359 A225.0128 B0.0378 
N298 X-146.999 Y15.999 Z-21.227 A232.6524 B-0.0553 
N299 X-146.999 Y17.699 Z-21.767 A239.5814 B-0.1228 
N300 X-146.999 Y19.320 Z-22.021 A245.8724 B-0.1679 
N301 X-146.999 Y20.836 Z-22.019 A251.5780 B-0.1966 
N302 X-146.999 Y22.200 Z-21.786 A256.6085 B-0.2128 
N303 X-146.999 Y23.351 Z-21.348 A260.8055 B-0.2194 
N304 X-146.999 Y24.227 Z-20.739 A263.9602 B-0.2187 
N305 X-146.999 Y24.802 Z-19.998 A265.9716 B-0.2125 
N306 X-146.999 Y25.105 Z-19.159 A266.9331 B-0.2020 
N307 X-146.999 Y25.231 Z-18.242 A267.1941 B-0.1883 
N308 X-146.999 Y25.302 Z-17.263 A267.2173 B-0.1729 
N309 X-146.999 Y25.370 Z-16.235 A267.2173 B-0.1567 
N310 X-146.999 Y25.440 Z-15.171 B-0.1393 
N311 X-146.999 Y25.512 Z-14.086 B-0.1180 
N312 X-146.999 Y25.584 Z-12.998 B-0.0883 
N313 X-146.999 Y25.655 Z-11.922 B-0.0537 
N314 X-146.998 Y25.724 Z-10.875 B-0.0248 
N315 X-146.998 Y25.791 Z-9.872 A267.2173 B-0.0079 
N316 X-146.998 Y25.860 Z-8.926 A267.2459 B-0.0016 
N317 X-146.998 Y25.982 Z-8.048 A267.5120 B-0.0002 
N318 X-146.998 Y26.237 Z-7.246 A268.3696 B-0.0000 
N319 X-146.998 Y26.676 Z-6.517 A270.0546 B-0.0000 
N320 X-146.998 Y27.316 Z-5.842 A272.6680 
N321 X-146.998 Y28.141 Z-5.187 A276.1700 
N322 X-146.998 Y29.121 Z-4.515 A280.4617 
N323 X-146.998 Y30.233 Z-3.779 A285.5012 
N324 X-146.998 Y31.467 Z-2.926 A291.3213 
N325 X-146.998 Y32.841 Z-1.869 A298.1587 
N326 X-146.998 Y34.155 Z-0.628 A305.3288 
N327 X-146.998 Y35.326 Z0.776 A312.5921 
N328 X-146.998 Y36.307 Z2.326 A319.8777 
N329 X-146.998 Y37.046 Z3.975 A327.0231 
N330 X-146.998 Y37.546 Z5.743 A334.2546 
N331 X-146.998 Y37.748 Z7.537 A341.2853 
N332 X-146.998 Y37.614 Z9.197 A347.6050 
N333 X-146.998 Y37.167 Z10.581 A352.8008 
N334 X-146.998 Y36.458 Z11.603 A356.6199 
N335 X-146.998 Y35.539 Z12.268 A359.1248 
N336 X-146.998 Y34.436 Z12.634 A0.5251 
N337 X-146.998 Y33.153 Z12.771 A1.0692 
N338 X-146.998 Y31.684 Z12.793 A1.1730 
N339 X-146.998 Y30.025 Z12.790 A1.1823 
N340 X-146.998 Y28.177 Z12.784 A1.1823 
N341 X-146.998 Y26.151 Z12.777 
N342 X-146.998 Y23.963 Z12.770 
N343 X-146.998 Y21.640 Z12.763 
N344 X-146.998 Y19.214 Z12.755 
N345 X-146.998 Y16.722 Z12.747 
N346 X-146.998 Y14.204 Z12.739 
N347 X-146.998 Y11.704 Z12.731 A1.1826 
N348 X-146.998 Y9.260 Z12.743 A1.2644 
N349 X-146.998 Y6.907 Z12.850 A1.7779 
N350 X-146.998 Y4.677 Z13.017 A2.6476 
N351 X-146.998 Y2.598 Z13.132 A3.4157 
N352 X-146.998 Y0.687 Z13.226 A4.1731 B-0.0003 
N353 X-146.998 Y-1.045 Z13.299 A4.9054 B-0.0058 
N354 X-146.998 Y-2.593 Z13.347 A5.5615 B-0.0304 
N355 X-146.999 Y-3.973 Z13.463 A6.5154 B-0.0766 
N356 X-146.999 Y-5.217 Z13.792 A8.4023 B-0.1192 
N357 X-146.999 Y-6.382 Z14.425 A11.6771 B-0.1451 
N358 X-146.999 Y-7.539 Z15.340 A16.3453 B-0.1575 
N359 X-146.999 Y-8.747 Z16.421 A22.0462 B-0.1578 
N360 X-146.999 Y-10.029 Z17.528 A28.2804 B-0.1446 
N361 X-146.999 Y-11.382 Z18.558 A34.6765 B-0.1160 
N362 X-146.999 Y-12.792 Z19.455 A41.0309 B-0.0706 
N363 X-146.998 Y-14.245 Z20.194 A47.2603 B-0.0083 
N364 X-146.998 Y-15.741 Z20.768 A53.3907 B0.0637 
N365 X-146.998 Y-17.273 Z21.170 A59.4490 B0.1366 
N366 X-146.997 Y-18.827 Z21.385 A65.4139 B0.2078 
N367 X-146.997 Y-20.350 Z21.394 A71.1383 B0.2751 
N368 X-146.997 Y-21.747 Z21.182 A76.3084 B0.3354 
N369 X-146.997 Y-22.924 Z20.768 A80.6195 B0.3872 
N370 X-146.997 Y-23.813 Z20.189 A83.8346 B0.4297 
N371 X-146.996 Y-24.406 Z19.489 A85.9351 B0.4637 
N372 X-146.996 Y-24.752 Z18.704 A87.0880 B0.4906 
N373 X-146.996 Y-24.931 Z17.855 A87.5984 B0.5122 
N374 X-146.996 Y-25.034 Z16.956 A87.8068 B0.5305 
N375 X-146.996 Y-25.124 Z16.020 A87.9646 B0.5469 
N376 X-146.996 Y-25.237 Z15.060 A88.2267 B0.5620 
N377 X-146.996 Y-25.385 Z14.089 A88.6491 B0.5762 
N378 X-146.996 Y-25.564 Z13.119 A89.2332 B0.5910 
N379 X-146.996 Y-25.752 Z12.165 A89.8990 B0.6074 
N380 X-146.996 Y-25.901 Z11.238 A90.4516 B0.6242 
N381 X-146.996 Y-25.986 Z10.354 A90.7741 B0.6395 
N382 X-146.996 Y-26.026 Z9.522 A90.9285 B0.6532 
N383 X-146.995 Y-26.073 Z8.749 A91.1169 B0.6673 
N384 X-146.995 Y-26.201 Z8.039 A91.6545 B0.6869 
N385 X-146.995 Y-26.505 Z7.384 A92.9468 B0.7188 
N386 X-146.995 Y-27.055 Z6.766 A95.3097 B0.7690 
N387 X-146.995 Y-27.865 Z6.144 A98.8475 B0.8388 
N388 X-146.994 Y-28.921 Z5.463 A103.5567 B0.9259 
N389 X-146.994 Y-30.178 Z4.655 A109.3520 B1.0272 
N390 X-146.993 Y-31.565 Z3.659 A116.0860 B1.1379 
N391 X-146.993 Y-32.992 Z2.425 A123.5856 B1.2408 
N392 X-146.993 Y-34.306 Z0.976 A131.3822 B1.2919 
N393 X-146.993 Y-35.364 Z-0.594 A138.9182 B1.2673 
N394 X-146.993 Y-36.165 Z-2.264 A146.2637 B1.1896 
N395 X-146.994 Y-36.750 Z-4.123 A153.9697 B1.0866 
N396 X-146.994 Y-37.016 Z-6.033 A161.5363 B0.9767 
N397 X-146.995 Y-36.911 Z-7.782 A168.2549 B0.8739 
N398 X-146.995 Y-36.476 Z-9.247 A173.8255 B0.7875 
N399 X-146.995 Y-35.771 Z-10.284 A177.7745 B0.7265 
N400 X-146.995 Y-34.861 Z-10.872 A180.0349 B0.6921 
N401 X-146.995 Y-33.777 Z-11.130 A181.0536 B0.6776 
N402 X-146.995 Y-32.518 Z-11.202 A181.3690 B0.6746 
N403 X-146.995 Y-31.074 Z-11.204 A181.4190 B0.6763 
N404 X-146.995 Y-29.440 Z-11.193 A181.4225 B0.6792 
N405 X-146.995 Y-27.618 Z-11.179 B0.6825 
N406 X-146.995 Y-25.619 Z-11.164 B0.6861 
N407 X-146.995 Y-23.461 Z-11.148 B0.6900 
N408 X-146.995 Y-21.170 Z-11.132 B0.6941 
N409 X-146.995 Y-18.779 Z-11.114 A181.4226 B0.6984 
N410 X-146.995 Y-16.327 Z-11.096 A181.4228 B0.7028 
N411 X-146.995 Y-13.856 Z-11.078 A181.4238 B0.7073 
N412 X-146.995 Y-11.407 Z-11.060 A181.4246 B0.7118 
N413 X-146.995 Y-9.022 Z-11.042 A181.4247 B0.7163 
N414 X-146.995 Y-6.738 Z-11.026 A181.4270 B0.7205 
N415 X-146.995 Y-4.585 Z-11.023 A181.4844 B0.7241 
N416 X-146.995 Y-2.588 Z-11.080 A181.7990 B0.7259 
N417 X-146.995 Y-0.763 Z-11.177 A182.3327 B0.7279 
N418 X-146.995 Y0.881 Z-11.237 A182.7589 B0.7335 
N419 X-146.995 Y2.341 Z-11.253 A183.0168 B0.7424 
N420 X-146.995 Y3.631 Z-11.366 A183.6836 B0.7469 
N421 X-146.995 Y4.789 Z-11.803 A185.7464 B0.7307 
N422 X-146.995 Y5.888 Z-12.665 A189.7362 B0.6750 
N423 X-146.996 Y7.039 Z-13.921 A195.6683 B0.5801 
N424 X-146.996 Y8.346 Z-15.400 A203.0401 B0.4572 
N425 X-146.997 Y9.809 Z-16.816 A210.8154 B0.3208 
N426 X-146.998 Y11.412 Z-18.065 A218.6579 B0.1766 
N427 X-146.998 Y13.114 Z-19.077 A226.3233 B0.0311 
N428 X-146.999 Y14.830 Z-19.794 A233.4979 B-0.0949 
N429 X-146.999 Y16.487 Z-20.210 A240.0223 B-0.1881 
N430 X-146.999 Y18.047 Z-20.353 A245.8970 B-0.2537 
N431 X-147.000 Y19.473 Z-20.254 A251.0971 B-0.2970 
N432 X-147.000 Y20.710 Z-19.937 A255.5018 B-0.3219 
N433 X-147.000 Y21.703 Z-19.432 A258.9343 B-0.3309 
N434 X-147.000 Y22.411 Z-18.776 A261.2619 B-0.3264 
N435 X-147.000 Y22.846 Z-18.004 A262.5151 B-0.3112 
N436 X-147.000 Y23.085 Z-17.149 A262.9803 B-0.2891 
N437 X-146.999 Y23.241 Z-16.235 A263.0974 B-0.2638 
N438 X-146.999 Y23.379 Z-15.281 A263.1180 B-0.2371 
N439 X-146.999 Y23.515 Z-14.300 A263.1190 B-0.2096 
N440 X-146.999 Y23.652 Z-13.306 B-0.1816 
N441 X-146.999 Y23.789 Z-12.316 A263.1190 B-0.1528 
N442 X-146.999 Y23.924 Z-11.342 A263.1200 B-0.1199 
N443 X-146.999 Y24.057 Z-10.401 A263.1277 B-0.0819 
N444 X-146.999 Y24.191 Z-9.504 A263.1698 B-0.0456 
N445 X-146.998 Y24.345 Z-8.665 A263.3297 B-0.0195 
N446 X-146.998 Y24.570 Z-7.897 A263.8307 B-0.0057 
N447 X-146.998 Y24.936 Z-7.209 A264.9857 B-0.0010 
N448 X-146.998 Y25.482 Z-6.595 A266.9694 B-0.0001 
N449 X-146.998 Y26.214 Z-6.033 A269.8336 B-0.0000 
N450 X-146.998 Y27.114 Z-5.489 A273.5155 
N451 X-146.998 Y28.143 Z-4.927 A277.8649 
N452 X-146.998 Y29.274 Z-4.308 A282.8076 
N453 X-146.998 Y30.488 Z-3.594 A288.3097 
N454 X-146.998 Y31.810 Z-2.721 A294.5790 
N455 X-146.998 Y33.184 Z-1.640 A301.5540 
N456 X-146.998 Y34.375 Z-0.447 A308.2772 
N457 X-146.998 Y35.447 Z0.908 A315.1729 
N458 X-146.998 Y36.334 Z2.391 A322.0575 
N459 X-146.998 Y37.011 Z3.984 A328.9276 
N460 X-146.998 Y37.464 Z5.696 A335.9235 
N461 X-146.998 Y37.633 Z7.435 A342.7520 
N462 X-146.998 Y37.484 Z9.034 A348.8728 
N463 X-146.998 Y37.037 Z10.339 A353.8030 
N464 X-146.998 Y36.347 Z11.250 A357.2313 
N465 X-146.998 Y35.466 Z11.798 A359.2913 
N466 X-146.998 Y34.414 Z12.089 A0.3946 
N467 X-146.998 Y33.191 Z12.227 A0.9266 
N468 X-146.998 Y31.790 Z12.277 A1.1375 
N469 X-146.998 Y30.208 Z12.282 A1.1778 
N470 X-146.998 Y28.447 Z12.277 A1.1786 
N471 X-146.998 Y26.515 Z12.271 
N472 X-146.998 Y24.431 Z12.265 
N473 X-146.998 Y22.218 Z12.258 
N474 X-146.998 Y19.907 Z12.251 
N475 X-146.998 Y17.530 Z12.243 
N476 X-146.998 Y15.128 Z12.236 
N477 X-146.998 Y12.737 Z12.228 
N478 X-146.998 Y10.396 Z12.227 A1.2033 
N479 X-146.998 Y8.136 Z12.323 A1.6527 
N480 X-146.998 Y5.980 Z12.598 A2.9570 
N481 X-146.998 Y3.950 Z12.886 A4.5207 
N482 X-146.998 Y2.069 Z13.099 A5.9493 B-0.0000 
N483 X-146.998 Y0.346 Z13.282 A7.3796 B-0.0072 
N484 X-146.999 Y-1.212 Z13.415 A8.6879 B-0.0528 
N485 X-146.999 Y-2.616 Z13.561 A10.1035 B-0.1158 
N486 X-146.999 Y-3.906 Z13.858 A12.2067 B-0.1598 
N487 X-146.999 Y-5.139 Z14.401 A15.4598 B-0.1876 
N488 X-146.999 Y-6.377 Z15.184 A19.9432 B-0.2006 
N489 X-146.999 Y-7.666 Z16.106 A25.3552 B-0.1964 
N490 X-146.999 Y-9.008 Z17.026 A31.1732 B-0.1738 
N491 X-146.999 Y-10.367 Z17.830 A36.9262 B-0.1338 
N492 X-146.999 Y-11.713 Z18.474 A42.3859 B-0.0779 
N493 X-146.998 Y-13.045 Z18.971 A47.5966 B-0.0062 
N494 X-146.998 Y-14.403 Z19.356 A52.7980 B0.0784 
N495 X-146.998 Y-15.827 Z19.644 A58.1888 B0.1718 
N496 X-146.997 Y-17.318 Z19.809 A63.7697 B0.2720 
N497 X-146.997 Y-18.802 Z19.803 A69.2528 B0.3726 
N498 X-146.996 Y-20.160 Z19.593 A74.1801 B0.4656 
N499 X-146.996 Y-21.285 Z19.191 A78.1890 B0.5454 
N500 X-146.996 Y-22.129 Z18.638 A81.1144 B0.6099 
N501 X-146.996 Y-22.706 Z17.978 A83.0194 B0.6602 
N502 X-146.995 Y-23.071 Z17.246 A84.1079 B0.6984 
N503 X-146.995 Y-23.302 Z16.465 A84.6769 B0.7282 
N504 X-146.995 Y-23.476 Z15.653 A85.0282 B0.7528 
N505 X-146.995 Y-23.662 Z14.826 A85.4405 B0.7752 
N506 X-146.995 Y-23.907 Z13.996 A86.1214 B0.7984 
N507 X-146.995 Y-24.222 Z13.173 A87.1434 B0.8253 
N508 X-146.995 Y-24.574 Z12.363 A88.3858 B0.8565 
N509 X-146.995 Y-24.882 Z11.572 A89.5213 B0.8883 
N510 X-146.994 Y-25.076 Z10.813 A90.2497 B0.9156 
N511 X-146.994 Y-25.167 Z10.098 A90.5941 B0.9373 
N512 X-146.994 Y-25.221 Z9.433 A90.7953 B0.9564 
N513 X-146.994 Y-25.325 Z8.821 A91.2164 B0.9797 
N514 X-146.994 Y-25.582 Z8.258 A92.2896 B1.0164 
N515 X-146.994 Y-26.085 Z7.728 A94.4161 B1.0751 
N516 X-146.993 Y-26.859 Z7.194 A97.7374 B1.1576 
N517 X-146.993 Y-27.872 Z6.607 A102.1690 B1.2577 
N518 X-146.992 Y-29.070 Z5.912 A107.5708 B1.3673 
N519 X-146.992 Y-30.406 Z5.051 A113.8619 B1.4813 
N520 X-146.992 Y-31.810 Z3.970 A120.9268 B1.5909 
N521 X-146.991 Y-33.180 Z2.651 A128.5367 B1.6709 
N522 X-146.991 Y-34.365 Z1.156 A136.1725 B1.6863 
N523 X-146.991 Y-35.275 Z-0.424 A143.4414 B1.6358 
N524 X-146.992 Y-35.957 Z-2.134 A150.7622 B1.5424 
N525 X-146.992 Y-36.396 Z-4.001 A158.3555 B1.4251 
N526 X-146.993 Y-36.488 Z-5.806 A165.4151 B1.3018 
N527 X-146.993 Y-36.240 Z-7.393 A171.4996 B1.1874 
N528 X-146.994 Y-35.702 Z-8.645 A176.2893 B1.0942 
N529 X-146.994 Y-34.937 Z-9.420 A179.2684 B1.0350 
N530 X-146.994 Y-33.998 Z-9.786 A180.6973 B1.0066 
N531 X-146.994 Y-32.896 Z-9.920 A181.2433 B0.9967 
N532 X-146.994 Y-31.621 Z-9.956 A181.4205 B0.9952 
N533 X-146.994 Y-30.165 Z-9.956 A181.4649 B0.9971 
N534 X-146.994 Y-28.527 Z-9.944 A181.4717 B1.0002 
N535 X-146.994 Y-26.713 Z-9.929 A181.4720 B1.0038 
N536 X-146.994 Y-24.736 Z-9.913 B1.0078 
N537 X-146.994 Y-22.617 Z-9.895 B1.0121 
N538 X-146.994 Y-20.383 Z-9.877 A181.4721 B1.0166 
N539 X-146.994 Y-18.070 Z-9.858 A181.4728 B1.0212 
N540 X-146.994 Y-15.715 Z-9.839 A181.4738 B1.0260 
N541 X-146.994 Y-13.359 Z-9.819 A181.4740 B1.0308 
N542 X-146.994 Y-11.040 Z-9.800 B1.0355 
N543 X-146.994 Y-8.797 Z-9.782 B1.0401 
N544 X-146.994 Y-6.663 Z-9.766 A181.4816 B1.0444 
N545 X-146.994 Y-4.663 Z-9.781 A181.6179 B1.0468 
N546 X-146.994 Y-2.813 Z-9.901 A182.2192 B1.0436 
N547 X-146.994 Y-1.126 Z-10.067 A183.0920 B1.0400 
N548 X-146.994 Y0.391 Z-10.166 A183.7545 B1.0434 
N549 X-146.994 Y1.742 Z-10.245 A184.3652 B1.0495 
N550 X-146.994 Y2.957 Z-10.530 A185.8635 B1.0396 
N551 X-146.994 Y4.107 Z-11.261 A189.3353 B0.9778 
N552 X-146.995 Y5.297 Z-12.419 A194.8669 B0.8452 
N553 X-146.996 Y6.680 Z-13.952 A202.5040 B0.6524 
N554 X-146.996 Y8.258 Z-15.451 A210.7718 B0.4402 
N555 X-146.997 Y9.955 Z-16.696 A218.8159 B0.2326 
N556 X-146.998 Y11.688 Z-17.625 A226.3175 B0.0413 
N557 X-146.999 Y13.384 Z-18.231 A233.1265 B-0.1165 
N558 X-146.999 Y14.989 Z-18.541 A239.2071 B-0.2325 
N559 X-147.000 Y16.472 Z-18.592 A244.5748 B-0.3137 
N560 X-147.000 Y17.793 Z-18.412 A249.1796 B-0.3660 
N561 X-147.000 Y18.902 Z-18.031 A252.8927 B-0.3932 
N562 X-147.000 Y19.757 Z-17.478 A255.5759 B-0.3984 
N563 X-147.000 Y20.344 Z-16.789 A257.1837 B-0.3855 
N564 X-147.000 Y20.712 Z-16.001 A257.8969 B-0.3598 
N565 X-147.000 Y20.966 Z-15.151 A258.1242 B-0.3277 
N566 X-147.000 Y21.179 Z-14.265 A258.1694 B-0.2930 
N567 X-146.999 Y21.385 Z-13.361 A258.1717 B-0.2573 
N568 X-146.999 Y21.592 Z-12.454 A258.1723 B-0.2215 
N569 X-146.999 Y21.798 Z-11.557 A258.1801 B-0.1862 
N570 X-146.999 Y22.005 Z-10.683 A258.2101 B-0.1522 
N571 X-146.999 Y22.212 Z-9.845 A258.2809 B-0.1185 
N572 X-146.999 Y22.426 Z-9.056 A258.4251 B-0.0818 
N573 X-146.999 Y22.661 Z-8.326 A258.7204 B-0.0453 
N574 X-146.998 Y22.970 Z-7.671 A259.3936 B-0.0190 
N575 X-146.998 Y23.427 Z-7.103 A260.7772 B-0.0062 
N576 X-146.998 Y24.066 Z-6.615 A263.0218 B-0.0017 
N577 X-146.998 Y24.884 Z-6.181 A266.1231 B-0.0004 
N578 X-146.998 Y25.860 Z-5.764 A269.9942 B-0.0001 
N579 X-146.998 Y26.944 Z-5.325 A274.4365 B-0.0000 
N580 X-146.998 Y28.098 Z-4.835 A279.3014 
N581 X-146.998 Y29.300 Z-4.266 A284.5332 
N582 X-146.998 Y30.547 Z-3.586 A290.1752 
N583 X-146.998 Y31.899 Z-2.724 A296.5871 
N584 X-146.998 Y33.203 Z-1.694 A303.2538 
N585 X-146.998 Y34.300 Z-0.590 A309.4856 
N586 X-146.998 Y35.312 Z0.680 A315.9966 
N587 X-146.998 Y36.173 Z2.088 A322.5972 
N588 X-146.998 Y36.845 Z3.611 A329.2346 
N589 X-146.998 Y37.309 Z5.252 A336.0026 
N590 X-146.998 Y37.513 Z6.942 A342.6987 
N591 X-146.998 Y37.418 Z8.527 A348.8154 
N592 X-146.998 Y37.034 Z9.837 A353.8117 
N593 X-146.998 Y36.413 Z10.754 A357.2888 
N594 X-146.998 Y35.607 Z11.276 A359.2601 
N595 X-146.998 Y34.642 Z11.535 A0.2308 
N596 X-146.998 Y33.515 Z11.667 A0.7280 
N597 X-146.998 Y32.220 Z11.746 A1.0403 
N598 X-146.998 Y30.752 Z11.773 A1.1631 
N599 X-146.998 Y29.113 Z11.771 A1.1750 
N600 X-146.998 Y27.312 Z11.766 A1.1753 
N601 X-146.998 Y25.361 Z11.760 
N602 X-146.998 Y23.284 Z11.754 
N603 X-146.998 Y21.106 Z11.747 
N604 X-146.998 Y18.859 Z11.740 
N605 X-146.998 Y16.577 Z11.733 
N606 X-146.998 Y14.296 Z11.726 
N607 X-146.998 Y12.050 Z11.719 A1.1753 
N608 X-146.998 Y9.871 Z11.735 A1.2680 
N609 X-146.998 Y7.781 Z11.926 A2.1337 
N610 X-146.998 Y5.788 Z12.359 A4.1866 
N611 X-146.998 Y3.905 Z12.807 A6.5832 B-0.0000 
N612 X-146.998 Y2.151 Z13.176 A8.9090 B-0.0023 
N613 X-146.998 Y0.530 Z13.487 A11.1919 B-0.0254 
N614 X-146.999 Y-0.953 Z13.732 A13.3446 B-0.0905 
N615 X-146.999 Y-2.322 Z14.003 A15.7088 B-0.1555 
N616 X-146.999 Y-3.633 Z14.414 A18.7938 B-0.1948 
N617 X-146.999 Y-4.940 Z14.998 A22.8186 B-0.2148 
N618 X-146.999 Y-6.279 Z15.694 A27.6265 B-0.2139 
N619 X-146.999 Y-7.646 Z16.392 A32.8101 B-0.1911 
N620 X-146.999 Y-8.997 Z16.978 A37.8738 B-0.1494 
N621 X-146.999 Y-10.282 Z17.398 A42.4984 B-0.0934 
N622 X-146.998 Y-11.499 Z17.673 A46.7176 B-0.0245 
N623 X-146.998 Y-12.710 Z17.871 A50.9036 B0.0599 
N624 X-146.998 Y-13.994 Z18.038 A55.4390 B0.1616 
N625 X-146.997 Y-15.377 Z18.157 A60.4092 B0.2805 
N626 X-146.997 Y-16.792 Z18.162 A65.4959 B0.4082 
N627 X-146.996 Y-18.115 Z17.998 A70.1798 B0.5313 
N628 X-146.996 Y-19.239 Z17.662 A74.0653 B0.6397 
N629 X-146.995 Y-20.117 Z17.184 A76.9887 B0.7287 
N630 X-146.995 Y-20.750 Z16.604 A78.9673 B0.7977 
N631 X-146.995 Y-21.181 Z15.958 A80.1662 B0.8493 
N632 X-146.995 Y-21.482 Z15.276 A80.8666 B0.8880 
N633 X-146.994 Y-21.748 Z14.581 A81.4467 B0.9210 
N634 X-146.994 Y-22.069 Z13.895 A82.2926 B0.9557 
N635 X-146.994 Y-22.506 Z13.229 A83.6708 B0.9994 
N636 X-146.994 Y-23.040 Z12.579 A85.5293 B1.0533 
N637 X-146.994 Y-23.576 Z11.939 A87.4976 B1.1117 
N638 X-146.993 Y-23.982 Z11.311 A89.0261 B1.1629 
N639 X-146.993 Y-24.206 Z10.712 A89.8706 B1.2009 
N640 X-146.993 Y-24.308 Z10.151 A90.2480 B1.2287 
N641 X-146.993 Y-24.392 Z9.635 A90.5701 B1.2550 
N642 X-146.993 Y-24.580 Z9.162 A91.3294 B1.2921 
N643 X-146.993 Y-24.979 Z8.721 A92.9832 B1.3522 
N644 X-146.992 Y-25.660 Z8.284 A95.8477 B1.4423 
N645 X-146.992 Y-26.609 Z7.805 A99.9047 B1.5569 
N646 X-146.991 Y-27.743 Z7.236 A104.8798 B1.6808 
N647 X-146.991 Y-28.996 Z6.536 A110.5736 B1.8025 
N648 X-146.990 Y-30.339 Z5.654 A116.9906 B1.9179 
N649 X-146.990 Y-31.712 Z4.547 A124.0679 B2.0178 
N650 X-146.989 Y-33.020 Z3.208 A131.5861 B2.0791 
N651 X-146.989 Y-34.132 Z1.703 A139.0990 B2.0774 
N652 X-146.990 Y-34.972 Z0.123 A146.2577 B2.0155 
N653 X-146.990 Y-35.583 Z-1.582 A153.4756 B1.9111 
N654 X-146.991 Y-35.936 Z-3.403 A160.8301 B1.7793 
N655 X-146.991 Y-35.950 Z-5.104 A167.4703 B1.6415 
N656 X-146.992 Y-35.653 Z-6.572 A173.1150 B1.5134 
N657 X-146.992 Y-35.097 Z-7.695 A177.4393 B1.4107 
N658 X-146.993 Y-34.339 Z-8.328 A179.8946 B1.3505 
N659 X-146.993 Y-33.423 Z-8.590 A180.9272 B1.3251 
N660 X-146.993 Y-32.350 Z-8.679 A181.2994 B1.3169 
N661 X-146.993 Y-31.110 Z-8.709 A181.4533 B1.3152 
N662 X-146.993 Y-29.697 Z-8.711 A181.5132 B1.3167 
N663 X-146.993 Y-28.110 Z-8.700 A181.5266 B1.3199 
N664 X-146.993 Y-26.357 Z-8.684 A181.5270 B1.3239 
N665 X-146.993 Y-24.450 Z-8.667 B1.3281 
N666 X-146.993 Y-22.413 Z-8.648 B1.3327 
N667 X-146.993 Y-20.271 Z-8.628 A181.5270 B1.3375 
N668 X-146.993 Y-18.059 Z-8.608 B1.3424 
N669 X-146.993 Y-15.813 Z-8.587 B1.3475 
N670 X-146.993 Y-13.571 Z-8.567 A181.5271 B1.3525 
N671 X-146.993 Y-11.370 Z-8.546 B1.3574 
N672 X-146.993 Y-9.244 Z-8.527 B1.3622 
N673 X-146.992 Y-7.222 Z-8.510 A181.5330 B1.3666 
N674 X-146.992 Y-5.329 Z-8.524 A181.6695 B1.3683 
N675 X-146.993 Y-3.575 Z-8.680 A182.4232 B1.3589 
N676 X-146.993 Y-1.964 Z-8.940 A183.7113 B1.3426 
N677 X-146.993 Y-0.505 Z-9.134 A184.8374 B1.3349 
N678 X-146.993 Y0.808 Z-9.313 A185.9678 B1.3299 
N679 X-146.993 Y2.028 Z-9.773 A188.3413 B1.2934 
N680 X-146.993 Y3.266 Z-10.765 A193.1489 B1.1638 
N681 X-146.994 Y4.655 Z-12.168 A200.1465 B0.9275 
N682 X-146.996 Y6.339 Z-13.812 A209.0091 B0.6234 
N683 X-146.997 Y8.153 Z-15.142 A217.5212 B0.3357 
N684 X-146.998 Y9.942 Z-16.044 A225.0240 B0.0916 
N685 X-146.999 Y11.623 Z-16.568 A231.4908 B-0.0996 
N686 X-146.999 Y13.168 Z-16.784 A237.0536 B-0.2362 
N687 X-147.000 Y14.549 Z-16.746 A241.7556 B-0.3278 
N688 X-147.000 Y15.752 Z-16.497 A245.6427 B-0.3837 
N689 X-147.000 Y16.751 Z-16.069 A248.6564 B-0.4094 
N690 X-147.000 Y17.516 Z-15.486 A250.6939 B-0.4091 
N691 X-147.000 Y18.045 Z-14.781 A251.7516 B-0.3878 
N692 X-147.000 Y18.417 Z-13.996 A252.1423 B-0.3546 
N693 X-147.000 Y18.720 Z-13.174 A252.2320 B-0.3166 
N694 X-147.000 Y19.005 Z-12.339 A252.2383 B-0.2772 
N695 X-146.999 Y19.287 Z-11.510 A252.2393 B-0.2380 
N696 X-146.999 Y19.567 Z-10.698 A252.2560 B-0.1999 
N697 X-146.999 Y19.849 Z-9.917 A252.3240 B-0.1638 
N698 X-146.999 Y20.137 Z-9.179 A252.4733 B-0.1297 
N699 X-146.999 Y20.431 Z-8.493 A252.7287 B-0.0955 
N700 X-146.999 Y20.743 Z-7.869 A253.1444 B-0.0618 
N701 X-146.998 Y21.118 Z-7.323 A253.9302 B-0.0343 
N702 X-146.998 Y21.639 Z-6.878 A255.4521 B-0.0163 
N703 X-146.998 Y22.347 Z-6.525 A257.8775 B-0.0066 
N704 X-146.998 Y23.229 Z-6.233 A261.1506 B-0.0021 
N705 X-146.998 Y24.264 Z-5.962 A265.1658 B-0.0005 
N706 X-146.998 Y25.409 Z-5.670 A269.7318 B-0.0000 
N707 X-146.998 Y26.602 Z-5.326 A274.6079 B-0.0000 
N708 X-146.998 Y27.813 Z-4.910 A279.6811 
N709 X-146.998 Y29.031 Z-4.407 A284.9348 
N710 X-146.998 Y30.274 Z-3.791 A290.4942 
N711 X-146.998 Y31.622 Z-2.989 A296.8037 
N712 X-146.998 Y32.890 Z-2.041 A303.1801 
N713 X-146.998 Y33.933 Z-1.050 A308.9666 
N714 X-146.998 Y34.923 Z0.107 A315.0873 
N715 X-146.998 Y35.813 Z1.429 A321.4933 
N716 X-146.998 Y36.536 Z2.875 A327.9690 
N717 X-146.998 Y37.064 Z4.432 A334.5327 
N718 X-146.998 Y37.359 Z6.059 A341.0874 
N719 X-146.998 Y37.383 Z7.648 A347.3000 
N720 X-146.998 Y37.125 Z9.034 A352.6356 
N721 X-146.998 Y36.622 Z10.074 A356.6174 
N722 X-146.998 Y35.930 Z10.698 A359.0019 
N723 X-146.998 Y35.084 Z10.988 A0.0978 
N724 X-146.998 Y34.087 Z11.113 A0.5578 
N725 X-146.998 Y32.933 Z11.190 A0.8506 
N726 X-146.998 Y31.615 Z11.248 A1.0844 
N727 X-146.998 Y30.134 Z11.265 A1.1650 
N728 X-146.998 Y28.494 Z11.262 A1.1729 
N729 X-146.998 Y26.706 Z11.256 A1.1732 
N730 X-146.998 Y24.788 Z11.251 
N731 X-146.998 Y22.763 Z11.245 
N732 X-146.998 Y20.659 Z11.238 
N733 X-146.998 Y18.507 Z11.232 
N734 X-146.998 Y16.339 Z11.225 
N735 X-146.998 Y14.187 Z11.219 
N736 X-146.998 Y12.082 Z11.212 A1.1732 
N737 X-146.998 Y10.049 Z11.227 A1.2625 
N738 X-146.998 Y8.105 Z11.434 A2.1875 
N739 X-146.998 Y6.243 Z11.975 A4.6831 
N740 X-146.998 Y4.455 Z12.642 A8.0567 
N741 X-146.998 Y2.750 Z13.247 A11.5444 B-0.0029 
N742 X-146.998 Y1.133 Z13.780 A15.0580 B-0.0329 
N743 X-146.999 Y-0.380 Z14.202 A18.3736 B-0.0980 
N744 X-146.999 Y-1.812 Z14.582 A21.7300 B-0.1583 
N745 X-146.999 Y-3.205 Z14.995 A25.4472 B-0.1918 
N746 X-146.999 Y-4.589 Z15.446 A29.5935 B-0.2025 
N747 X-146.999 Y-5.966 Z15.880 A33.9702 B-0.1905 
N748 X-146.999 Y-7.307 Z16.230 A38.2687 B-0.1580 
N749 X-146.999 Y-8.562 Z16.441 A42.1575 B-0.1107 
N750 X-146.999 Y-9.706 Z16.504 A45.5091 B-0.0540 
N751 X-146.998 Y-10.779 Z16.480 A48.5793 B0.0140 
N752 X-146.998 Y-11.876 Z16.451 A51.8764 B0.1007 
N753 X-146.997 Y-13.066 Z16.446 A55.7141 B0.2126 
N754 X-146.997 Y-14.337 Z16.424 A59.9846 B0.3466 
N755 X-146.996 Y-15.597 Z16.315 A64.2544 B0.4890 
N756 X-146.996 Y-16.742 Z16.078 A68.0772 B0.6243 
N757 X-146.995 Y-17.695 Z15.715 A71.1505 B0.7412 
N758 X-146.995 Y-18.418 Z15.248 A73.3234 B0.8327 
N759 X-146.994 Y-18.930 Z14.713 A74.6801 B0.8992 
N760 X-146.994 Y-19.317 Z14.150 A75.5682 B0.9492 
N761 X-146.994 Y-19.709 Z13.600 A76.5283 B0.9976 
N762 X-146.994 Y-20.224 Z13.093 A78.0683 B1.0594 
N763 X-146.993 Y-20.909 Z12.629 A80.4053 B1.1427 
N764 X-146.993 Y-21.691 Z12.179 A83.2522 B1.2408 
N765 X-146.993 Y-22.426 Z11.721 A86.0147 B1.3377 
N766 X-146.992 Y-22.958 Z11.256 A88.0435 B1.4157 
N767 X-146.992 Y-23.252 Z10.808 A89.1616 B1.4695 
N768 X-146.992 Y-23.395 Z10.391 A89.6946 B1.5069 
N769 X-146.992 Y-23.528 Z10.009 A90.2069 B1.5435 
N770 X-146.992 Y-23.809 Z9.659 A91.3412 B1.5990 
N771 X-146.991 Y-24.334 Z9.324 A93.5053 B1.6861 
N772 X-146.991 Y-25.145 Z8.968 A96.8954 B1.8078 
N773 X-146.990 Y-26.218 Z8.536 A101.4580 B1.9536 
N774 X-146.989 Y-27.427 Z7.993 A106.7428 B2.0980 
N775 X-146.989 Y-28.684 Z7.316 A112.4619 B2.2261 
N776 X-146.988 Y-29.993 Z6.461 A118.7451 B2.3379 
N777 X-146.988 Y-31.316 Z5.390 A125.6009 B2.4276 
N778 X-146.988 Y-32.579 Z4.089 A132.9094 B2.4794 
N779 X-146.988 Y-33.677 Z2.602 A140.3508 B2.4745 
N780 X-146.988 Y-34.514 Z1.031 A147.4988 B2.4109 
N781 X-146.988 Y-35.098 Z-0.615 A154.4838 B2.3018 
N782 X-146.989 Y-35.436 Z-2.355 A161.5354 B2.1598 
N783 X-146.990 Y-35.458 Z-3.980 A167.9050 B2.0082 
N784 X-146.990 Y-35.191 Z-5.367 A173.2614 B1.8662 
N785 X-146.991 Y-34.685 Z-6.470 A177.5286 B1.7467 
N786 X-146.991 Y-33.988 Z-7.104 A180.0018 B1.6748 
N787 X-146.991 Y-33.140 Z-7.355 A180.9969 B1.6456 
N788 X-146.991 Y-32.143 Z-7.435 A181.3350 B1.6366 
N789 X-146.991 Y-30.988 Z-7.464 A181.4867 B1.6343 
N790 X-146.991 Y-29.668 Z-7.470 A181.5607 B1.6351 
N791 X-146.991 Y-28.181 Z-7.460 A181.5827 B1.6381 
N792 X-146.991 Y-26.535 Z-7.444 A181.5841 B1.6421 
N793 X-146.991 Y-24.741 Z-7.426 B1.6465 
N794 X-146.991 Y-22.820 Z-7.406 B1.6512 
N795 X-146.991 Y-20.796 Z-7.385 A181.5841 B1.6562 
N796 X-146.991 Y-18.701 Z-7.364 B1.6614 
N797 X-146.991 Y-16.568 Z-7.342 A181.5841 B1.6666 
N798 X-146.991 Y-14.433 Z-7.321 B1.6719 
N799 X-146.991 Y-12.330 Z-7.299 A181.5841 B1.6770 
N800 X-146.991 Y-10.292 Z-7.278 B1.6821 
N801 X-146.991 Y-8.346 Z-7.259 A181.5846 B1.6868 
N802 X-146.991 Y-6.513 Z-7.251 A181.6316 B1.6902 
N803 X-146.991 Y-4.805 Z-7.353 A182.1423 B1.6823 
N804 X-146.991 Y-3.219 Z-7.688 A183.7117 B1.6497 
N805 X-146.991 Y-1.751 Z-8.074 A185.6589 B1.6128 
N806 X-146.992 Y-0.402 Z-8.413 A187.5610 B1.5819 
N807 X-146.992 Y0.892 Z-9.017 A190.7173 B1.5113 
N808 X-146.993 Y2.303 Z-10.246 A196.8375 B1.2978 
N809 X-146.994 Y3.975 Z-11.829 A205.1902 B0.9349 
N810 X-146.996 Y5.935 Z-13.381 A214.5717 B0.5309 
N811 X-146.997 Y7.859 Z-14.382 A222.5771 B0.2042 
N812 X-146.998 Y9.576 Z-14.867 A228.8963 B-0.0314 
N813 X-146.999 Y11.058 Z-14.980 A233.8333 B-0.1863 
N814 X-147.000 Y12.316 Z-14.826 A237.6494 B-0.2807 
N815 X-147.000 Y13.395 Z-14.491 A240.6601 B-0.3345 
N816 X-147.000 Y14.304 Z-14.014 A242.9430 B-0.3573 
N817 X-147.000 Y15.015 Z-13.404 A244.3739 B-0.3525 
N818 X-147.000 Y15.536 Z-12.689 A244.9893 B-0.3271 
N819 X-147.000 Y15.954 Z-11.924 A245.1579 B-0.2926 
N820 X-146.999 Y16.335 Z-11.148 A245.1770 B-0.2557 
N821 X-146.999 Y16.704 Z-10.385 A245.1774 B-0.2192 
N822 X-146.999 Y17.066 Z-9.646 A245.1920 B-0.1840 
N823 X-146.999 Y17.425 Z-8.946 A245.2709 B-0.1513 
N824 X-146.999 Y17.793 Z-8.299 A245.4781 B-0.1219 
N825 X-146.999 Y18.174 Z-7.714 A245.8594 B-0.0950 
N826 X-146.999 Y18.567 Z-7.195 A246.4225 B-0.0698 
N827 X-146.999 Y18.999 Z-6.756 A247.2936 B-0.0468 
N828 X-146.998 Y19.555 Z-6.426 A248.8486 B-0.0280 
N829 X-146.998 Y20.293 Z-6.211 A251.3343 B-0.0143 
N830 X-146.998 Y21.203 Z-6.074 A254.6772 B-0.0060 
N831 X-146.998 Y22.263 Z-5.970 A258.7421 B-0.0019 
N832 X-146.998 Y23.444 Z-5.855 A263.3868 B-0.0004 
N833 X-146.998 Y24.687 Z-5.687 A268.3574 B-0.0000 
N834 X-146.998 Y25.935 Z-5.446 A273.4278 B-0.0000 
N835 X-146.998 Y27.163 Z-5.124 A278.5112 
N836 X-146.998 Y28.372 Z-4.714 A283.6399 
N837 X-146.998 Y29.592 Z-4.196 A288.9772 
N838 X-146.998 Y30.922 Z-3.504 A295.0319 
N839 X-146.998 Y32.233 Z-2.643 A301.3718 
N840 X-146.998 Y33.274 Z-1.768 A306.8603 
N841 X-146.998 Y34.252 Z-0.763 A312.5148 
N842 X-146.998 Y35.206 Z0.447 A318.7302 
N843 X-146.998 Y36.038 Z1.817 A325.1844 
N844 X-146.998 Y36.687 Z3.300 A331.6866 
N845 X-146.998 Y37.118 Z4.852 A338.1267 
N846 X-146.998 Y37.301 Z6.405 A344.3232 
N847 X-146.998 Y37.224 Z7.858 A349.9846 
N848 X-146.998 Y36.898 Z9.070 A354.6621 
N849 X-146.998 Y36.364 Z9.930 A357.9724 
N850 X-146.998 Y35.667 Z10.403 A359.7970 
N851 X-146.998 Y34.827 Z10.592 A0.5177 
N852 X-146.998 Y33.843 Z10.658 A0.7640 
N853 X-146.998 Y32.706 Z10.704 A0.9377 
N854 X-146.998 Y31.412 Z10.744 A1.1049 
N855 X-146.998 Y29.961 Z10.755 A1.1644 
N856 X-146.998 Y28.362 Z10.752 A1.1698 
N857 X-146.998 Y26.626 Z10.747 A1.1700 
N858 X-146.998 Y24.773 Z10.741 
N859 X-146.998 Y22.826 Z10.736 
N860 X-146.998 Y20.813 Z10.730 
N861 X-146.998 Y18.763 Z10.724 
N862 X-146.998 Y16.708 Z10.717 
N863 X-146.998 Y14.676 Z10.711 
N864 X-146.998 Y12.693 Z10.706 
N865 X-146.998 Y10.783 Z10.705 A1.1916 
N866 X-146.998 Y8.958 Z10.823 A1.7164 
N867 X-146.998 Y7.214 Z11.296 A3.8383 
N868 X-146.998 Y5.507 Z12.140 A7.8221 
N869 X-146.998 Y3.812 Z13.066 A12.6344 B-0.0004 
N870 X-146.998 Y2.117 Z13.965 A17.8661 B-0.0198 
N871 X-146.999 Y0.462 Z14.688 A22.8707 B-0.0798 
N872 X-146.999 Y-1.136 Z15.239 A27.5748 B-0.1285 
N873 X-146.999 Y-2.662 Z15.628 A31.9462 B-0.1516 
N874 X-146.999 Y-4.097 Z15.856 A35.8957 B-0.1530 
N875 X-146.999 Y-5.420 Z15.927 A39.3326 B-0.1377 
N876 X-146.999 Y-6.633 Z15.872 A42.3219 B-0.1089 
N877 X-146.999 Y-7.735 Z15.708 A44.8606 B-0.0706 
N878 X-146.998 Y-8.723 Z15.449 A46.9523 B-0.0270 
N879 X-146.998 Y-9.645 Z15.149 A48.8565 B0.0246 
N880 X-146.998 Y-10.581 Z14.879 A50.9981 B0.0937 
N881 X-146.998 Y-11.577 Z14.665 A53.6113 B0.1880 
N882 X-146.997 Y-12.627 Z14.485 A56.6373 B0.3065 
N883 X-146.996 Y-13.679 Z14.293 A59.8103 B0.4393 
N884 X-146.996 Y-14.655 Z14.047 A62.7591 B0.5708 
N885 X-146.995 Y-15.469 Z13.720 A65.1004 B0.6832 
N886 X-146.995 Y-16.088 Z13.321 A66.6925 B0.7676 
N887 X-146.995 Y-16.588 Z12.902 A67.8686 B0.8342 
N888 X-146.994 Y-17.123 Z12.529 A69.2958 B0.9077 
N889 X-146.994 Y-17.827 Z12.243 A71.5634 B1.0107 
N890 X-146.993 Y-18.741 Z12.031 A74.8342 B1.1502 
N891 X-146.993 Y-19.766 Z11.831 A78.6683 B1.3090 
N892 X-146.992 Y-20.742 Z11.596 A82.3973 B1.4626 
N893 X-146.992 Y-21.512 Z11.318 A85.3606 B1.5884 
N894 X-146.991 Y-22.027 Z11.027 A87.3535 B1.6805 
N895 X-146.991 Y-22.374 Z10.747 A88.7015 B1.7511 
N896 X-146.991 Y-22.673 Z10.488 A89.8850 B1.8170 
N897 X-146.990 Y-23.058 Z10.247 A91.4442 B1.8975 
N898 X-146.990 Y-23.639 Z10.008 A93.8268 B2.0076 
N899 X-146.989 Y-24.466 Z9.736 A97.2632 B2.1516 
N900 X-146.988 Y-25.579 Z9.371 A101.9563 B2.3256 
N901 X-146.988 Y-26.864 Z8.866 A107.5161 B2.4985 
N902 X-146.987 Y-28.119 Z8.239 A113.1767 B2.6369 
N903 X-146.987 Y-29.378 Z7.456 A119.1591 B2.7467 
N904 X-146.986 Y-30.655 Z6.467 A125.6853 B2.8305 
N905 X-146.986 Y-31.894 Z5.255 A132.6903 B2.8789 
N906 X-146.986 Y-33.018 Z3.825 A140.0361 B2.8784 
N907 X-146.986 Y-33.929 Z2.251 A147.3724 B2.8206 
N908 X-146.987 Y-34.555 Z0.654 A154.2679 B2.7137 
N909 X-146.987 Y-34.920 Z-0.962 A160.8870 B2.5709 
N910 X-146.988 Y-35.011 Z-2.508 A167.0090 B2.4108 
N911 X-146.989 Y-34.830 Z-3.813 A172.0645 B2.2600 
N912 X-146.989 Y-34.433 Z-4.915 A176.3219 B2.1236 
N913 X-146.990 Y-33.849 Z-5.712 A179.4366 B2.0200 
N914 X-146.990 Y-33.111 Z-6.085 A180.9137 B1.9700 
N915 X-146.990 Y-32.235 Z-6.204 A181.4130 B1.9539 
N916 X-146.990 Y-31.212 Z-6.230 A181.5543 B1.9511 
N917 X-146.990 Y-30.033 Z-6.231 A181.6088 B1.9521 
N918 X-146.990 Y-28.696 Z-6.224 A181.6394 B1.9545 
N919 X-146.990 Y-27.203 Z-6.209 A181.6454 B1.9584 
N920 X-146.990 Y-25.564 Z-6.191 A181.6454 B1.9628 
N921 X-146.990 Y-23.794 Z-6.171 B1.9676 
N922 X-146.990 Y-21.916 Z-6.150 A181.6454 B1.9726 
N923 X-146.990 Y-19.955 Z-6.127 B1.9779 
N924 X-146.990 Y-17.943 Z-6.105 A181.6454 B1.9834 
N925 X-146.990 Y-15.912 Z-6.082 B1.9888 
N926 X-146.990 Y-13.893 Z-6.059 A181.6455 B1.9943 
N927 X-146.990 Y-11.918 Z-6.037 B1.9996 
N928 X-146.990 Y-10.011 Z-6.016 A181.6455 B2.0048 
N929 X-146.990 Y-8.195 Z-5.996 A181.6471 B2.0096 
N930 X-146.990 Y-6.483 Z-5.996 A181.7306 B2.0118 
N931 X-146.990 Y-4.877 Z-6.185 A182.6160 B1.9898 
N932 X-146.990 Y-3.352 Z-6.737 A185.1539 B1.9185 
N933 X-146.991 Y-1.886 Z-7.425 A188.5346 B1.8239 
N934 X-146.991 Y-0.435 Z-8.247 A192.8042 B1.6963 
N935 X-146.992 Y1.241 Z-9.718 A200.3656 B1.3859 
N936 X-146.995 Y3.242 Z-11.368 A209.7918 B0.8853 
N937 X-146.997 Y5.393 Z-12.640 A218.9366 B0.4141 
N938 X-146.998 Y7.288 Z-13.210 A225.7776 B0.0942 
N939 X-146.999 Y8.787 Z-13.230 A230.3035 B-0.0888 
N940 X-146.999 Y9.911 Z-12.886 A232.9561 B-0.1730 
N941 X-146.999 Y10.836 Z-12.380 A234.7108 B-0.2110 
N942 X-146.999 Y11.650 Z-11.796 A236.0212 B-0.2257 
N943 X-146.999 Y12.323 Z-11.126 A236.7238 B-0.2180 
N944 X-146.999 Y12.873 Z-10.393 A236.9038 B-0.1957 
N945 X-146.999 Y13.378 Z-9.658 A236.9283 B-0.1705 
N946 X-146.999 Y13.861 Z-8.945 A236.9291 B-0.1457 
N947 X-146.999 Y14.322 Z-8.264 A236.9318 B-0.1220 
N948 X-146.999 Y14.762 Z-7.624 A236.9597 B-0.1001 
N949 X-146.999 Y15.199 Z-7.046 A237.1155 B-0.0813 
N950 X-146.999 Y15.666 Z-6.557 A237.5942 B-0.0667 
N951 X-146.999 Y16.166 Z-6.161 A238.4201 B-0.0545 
N952 X-146.999 Y16.687 Z-5.847 A239.5369 B-0.0425 
N953 X-146.998 Y17.284 Z-5.640 A241.1931 B-0.0303 
N954 X-146.998 Y18.026 Z-5.561 A243.6851 B-0.0190 
N955 X-146.998 Y18.917 Z-5.577 A246.9743 B-0.0099 
N956 X-146.998 Y19.938 Z-5.642 A250.9146 B-0.0041 
N957 X-146.998 Y21.077 Z-5.715 A255.4118 B-0.0013 
N958 X-146.998 Y22.309 Z-5.755 A260.3202 B-0.0003 
N959 X-146.998 Y23.572 Z-5.725 A265.3868 B-0.0000 
N960 X-146.998 Y24.821 Z-5.611 A270.4289 B-0.0000 
N961 X-146.998 Y26.035 Z-5.412 A275.3857 
N962 X-146.998 Y27.225 Z-5.127 A280.3245 
N963 X-146.998 Y28.427 Z-4.741 A285.4283 
N964 X-146.998 Y29.745 Z-4.199 A291.1975 
N965 X-146.998 Y31.180 Z-3.439 A297.7787 
N966 X-146.998 Y32.312 Z-2.658 A303.3467 
N967 X-146.998 Y33.281 Z-1.827 A308.5105 
N968 X-146.998 Y34.272 Z-0.801 A314.2791 
N969 X-146.998 Y35.237 Z0.447 A320.6605 
N970 X-146.998 Y36.070 Z1.860 A327.2870 
N971 X-146.998 Y36.700 Z3.364 A333.8552 
N972 X-146.998 Y37.089 Z4.881 A340.1350 
N973 X-146.998 Y37.228 Z6.329 A345.9104 
N974 X-146.998 Y37.128 Z7.636 A351.0116 
N975 X-146.998 Y36.812 Z8.723 A355.2149 
N976 X-146.998 Y36.315 Z9.510 A358.2617 
N977 X-146.998 Y35.666 Z9.968 A0.0422 
N978 X-146.998 Y34.881 Z10.158 A0.7844 
N979 X-146.998 Y33.957 Z10.212 A0.9980 
N980 X-146.998 Y32.886 Z10.228 A1.0638 
N981 X-146.998 Y31.663 Z10.241 A1.1284 
N982 X-146.998 Y30.289 Z10.246 A1.1633 
N983 X-146.998 Y28.770 Z10.243 A1.1668 
N984 X-146.998 Y27.120 Z10.238 
N985 X-146.998 Y25.355 Z10.233 
N986 X-146.998 Y23.499 Z10.227 
N987 X-146.998 Y21.579 Z10.222 
N988 X-146.998 Y19.624 Z10.216 
N989 X-146.998 Y17.663 Z10.210 
N990 X-146.998 Y15.724 Z10.205 
N991 X-146.998 Y13.830 Z10.199 
N992 X-146.998 Y12.004 Z10.194 A1.1669 
N993 X-146.998 Y10.258 Z10.209 A1.2520 
N994 X-146.998 Y8.597 Z10.420 A2.1788 
N995 X-146.998 Y6.990 Z11.092 A5.1843 
N996 X-146.998 Y5.351 Z12.232 A10.5614 
N997 X-146.998 Y3.595 Z13.571 A17.4601 B-0.0011 
N998 X-146.998 Y1.679 Z14.900 A25.2347 B-0.0297 
N999 X-146.999 Y-0.240 Z15.837 A32.2377 B-0.0774 
N1000 X-146.999 Y-2.053 Z16.369 A38.1777 B-0.0874 
N1001 X-146.999 Y-3.609 Z16.465 A42.4970 B-0.0710 
N1002 X-146.999 Y-4.815 Z16.161 A44.9242 B-0.0521 
N1003 X-146.999 Y-5.785 Z15.650 A46.2157 B-0.0373 
N1004 X-146.998 Y-6.661 Z15.090 A47.1720 B-0.0206 
N1005 X-146.998 Y-7.465 Z14.508 A47.9178 B-0.0024 
N1006 X-146.998 Y-8.213 Z13.922 A48.5338 B0.0173 
N1007 X-146.998 Y-8.933 Z13.366 A49.1849 B0.0424 
N1008 X-146.998 Y-9.644 Z12.859 A49.9892 B0.0772 
N1009 X-146.998 Y-10.349 Z12.409 A50.9771 B0.1237 
N1010 X-146.998 Y-11.038 Z12.011 A52.1079 B0.1805 
N1011 X-146.997 Y-11.712 Z11.667 A53.3922 B0.2480 
N1012 X-146.997 Y-12.378 Z11.382 A54.8641 B0.3274 
N1013 X-146.997 Y-13.022 Z11.144 A56.4351 B0.4140 
N1014 X-146.996 Y-13.673 Z10.968 A58.2391 B0.5133 
N1015 X-146.996 Y-14.406 Z10.888 A60.6040 B0.6397 
N1016 X-146.995 Y-15.274 Z10.910 A63.7332 B0.8022 
N1017 X-146.994 Y-16.266 Z10.990 A67.5145 B0.9942 
N1018 X-146.993 Y-17.345 Z11.081 A71.7289 B1.2045 
N1019 X-146.992 Y-18.459 Z11.141 A76.1299 B1.4212 
N1020 X-146.991 Y-19.549 Z11.147 A80.4556 B1.6318 
N1021 X-146.991 Y-20.575 Z11.096 A84.5485 B1.8293 
N1022 X-146.990 Y-21.521 Z10.994 A88.3461 B2.0114 
N1023 X-146.989 Y-22.388 Z10.854 A91.8615 B2.1796 
N1024 X-146.988 Y-23.188 Z10.682 A95.1373 B2.3365 
N1025 X-146.988 Y-23.928 Z10.486 A98.2087 B2.4849 
N1026 X-146.987 Y-24.681 Z10.255 A101.3737 B2.6359 
N1027 X-146.986 Y-25.872 Z9.865 A106.4471 B2.8394 
N1028 X-146.985 Y-27.550 Z9.155 A113.8372 B3.0585 
N1029 X-146.985 Y-28.856 Z8.392 A119.9713 B3.1807 
N1030 X-146.984 Y-30.044 Z7.510 A125.9656 B3.2554 
N1031 X-146.984 Y-31.203 Z6.435 A132.3685 B3.2953 
N1032 X-146.984 Y-32.275 Z5.168 A139.0895 B3.2936 
N1033 X-146.984 Y-33.198 Z3.738 A145.9748 B3.2442 
N1034 X-146.985 Y-33.907 Z2.215 A152.7596 B3.1468 
N1035 X-146.985 Y-34.354 Z0.712 A159.0668 B3.0125 
N1036 X-146.986 Y-34.558 Z-0.741 A164.9217 B2.8539 
N1037 X-146.987 Y-34.524 Z-2.053 A170.0771 B2.6908 
N1038 X-146.987 Y-34.271 Z-3.094 A174.1041 B2.5488 
N1039 X-146.988 Y-33.849 Z-3.977 A177.5229 B2.4213 
N1040 X-146.988 Y-33.271 Z-4.635 A180.1143 B2.3224 
N1041 X-146.989 Y-32.554 Z-4.930 A181.3013 B2.2770 
N1042 X-146.989 Y-31.704 Z-5.007 A181.6466 B2.2654 
N1043 X-146.989 Y-30.713 Z-5.011 A181.7094 B2.2657 
N1044 X-146.989 Y-29.571 Z-4.997 A181.7133 B2.2688 
N1045 X-146.989 Y-28.278 Z-4.981 B2.2726 
N1046 X-146.989 Y-26.837 Z-4.963 A181.7133 B2.2768 
N1047 X-146.989 Y-25.259 Z-4.944 B2.2813 
N1048 X-146.989 Y-23.559 Z-4.923 A181.7133 B2.2862 
N1049 X-146.989 Y-21.759 Z-4.900 A181.7136 B2.2915 
N1050 X-146.989 Y-19.884 Z-4.877 A181.7144 B2.2970 
N1051 X-146.988 Y-17.962 Z-4.853 A181.7149 B2.3026 
N1052 X-146.988 Y-16.023 Z-4.829 A181.7150 B2.3084 
N1053 X-146.988 Y-14.094 Z-4.805 A181.7150 B2.3142 
N1054 X-146.988 Y-12.201 Z-4.782 B2.3198 
N1055 X-146.988 Y-10.367 Z-4.759 A181.7150 B2.3253 
N1056 X-146.988 Y-8.606 Z-4.737 A181.7153 B2.3306 
N1057 X-146.988 Y-6.931 Z-4.725 A181.7533 B2.3344 
N1058 X-146.988 Y-5.336 Z-4.934 A182.7201 B2.3046 
N1059 X-146.989 Y-3.762 Z-5.810 A186.6536 B2.1641 
N1060 X-146.990 Y-2.066 Z-7.274 A193.5967 B1.8939 
N1061 X-146.992 Y-0.038 Z-9.136 A203.2650 B1.4520 
N1062 X-146.995 Y2.222 Z-10.669 A213.0061 B0.8512 
N1063 X-146.997 Y4.421 Z-11.561 A221.2248 B0.3519 
N1064 X-146.998 Y6.011 Z-11.541 A225.5515 B0.1154 
N1065 X-146.998 Y7.148 Z-11.063 A227.5038 B0.0211 
N1066 X-146.998 Y7.924 Z-10.291 A227.6374 B0.0138 
N1067 X-146.998 Y8.651 Z-9.521 A227.6380 B0.0122 
N1068 X-146.998 Y9.353 Z-8.777 B0.0108 
N1069 X-146.998 Y10.028 Z-8.062 B0.0093 
N1070 X-146.998 Y10.672 Z-7.381 B0.0080 
N1071 X-146.998 Y11.280 Z-6.737 A227.6380 B0.0067 
N1072 X-146.998 Y11.850 Z-6.136 A227.6460 B0.0054 
N1073 X-146.998 Y12.388 Z-5.592 A227.7180 B0.0034 
N1074 X-146.998 Y12.929 Z-5.143 A228.0780 B-0.0007 
N1075 X-146.998 Y13.527 Z-4.835 A229.0209 B-0.0074 
N1076 X-146.998 Y14.181 Z-4.661 A230.5529 B-0.0137 
N1077 X-146.998 Y14.885 Z-4.599 A232.5988 B-0.0169 
N1078 X-146.998 Y15.657 Z-4.642 A235.2027 B-0.0158 
N1079 X-146.998 Y16.502 Z-4.766 A238.3221 B-0.0114 
N1080 X-146.998 Y17.404 Z-4.935 A241.8183 B-0.0065 
N1081 X-146.998 Y18.365 Z-5.125 A245.6428 B-0.0028 
N1082 X-146.998 Y19.399 Z-5.320 A249.8140 B-0.0009 
N1083 X-146.998 Y20.505 Z-5.493 A254.2911 B-0.0002 
N1084 X-146.998 Y21.656 Z-5.617 A258.9456 B-0.0000 
N1085 X-146.998 Y22.828 Z-5.673 A263.6788 B-0.0000 
N1086 X-146.998 Y24.009 Z-5.652 A268.4523 
N1087 X-146.998 Y25.205 Z-5.546 A273.3108 
N1088 X-146.998 Y26.451 Z-5.340 A278.4270 
N1089 X-146.998 Y27.862 Z-4.985 A284.3285 
N1090 X-146.998 Y29.632 Z-4.336 A291.9826 
N1091 X-146.998 Y31.099 Z-3.569 A298.7027 
N1092 X-146.998 Y32.123 Z-2.868 A303.7347 
N1093 X-146.998 Y33.082 Z-2.073 A308.7833 
N1094 X-146.998 Y34.075 Z-1.076 A314.4829 
N1095 X-146.998 Y35.050 Z0.143 A320.8081 
N1096 X-146.998 Y35.910 Z1.543 A327.4581 
N1097 X-146.998 Y36.572 Z3.038 A334.0659 
N1098 X-146.998 Y36.989 Z4.526 A340.2862 
N1099 X-146.998 Y37.155 Z5.908 A345.8404 
N1100 X-146.998 Y37.096 Z7.124 A350.6104 
N1101 X-146.998 Y36.843 Z8.143 A354.5585 
N1102 X-146.998 Y36.422 Z8.934 A357.6192 
N1103 X-146.998 Y35.854 Z9.458 A359.6567 
N1104 X-146.998 Y35.152 Z9.702 A0.6099 
N1105 X-146.998 Y34.317 Z9.766 A0.8553 
N1106 X-146.998 Y33.339 Z9.776 A0.8902 
N1107 X-146.998 Y32.211 Z9.779 A0.8929 
N1108 X-146.998 Y30.933 Z9.781 
N1109 X-146.998 Y29.508 Z9.784 
N1110 X-146.998 Y27.946 Z9.787 
N1111 X-146.998 Y26.263 Z9.790 
N1112 X-146.998 Y24.481 Z9.794 
N1113 X-146.998 Y22.623 Z9.797 
N1114 X-146.998 Y20.718 Z9.801 
N1115 X-146.998 Y18.795 Z9.804 
N1116 X-146.998 Y16.882 Z9.808 
N1117 X-146.998 Y15.005 Z9.811 
N1118 X-146.998 Y13.184 Z9.815 
N1119 X-146.998 Y11.436 Z9.819 A0.8953 
N1120 X-146.998 Y9.771 Z9.876 A1.1232 
N1121 X-146.998 Y8.183 Z10.227 A2.6280 
N1122 X-146.998 Y6.615 Z11.149 A6.7475 
N1123 X-146.998 Y4.930 Z12.586 A13.5860 
N1124 X-146.998 Y2.979 Z14.283 A22.4894 B-0.0046 
N1125 X-146.999 Y0.823 Z15.724 A31.6175 B-0.0440 
N1126 X-146.999 Y-1.244 Z16.546 A39.1267 B-0.0629 
N1127 X-146.999 Y-3.001 Z16.764 A44.4833 B-0.0405 
N1128 X-146.998 Y-4.252 Z16.411 A47.0602 B-0.0150 
N1129 X-146.998 Y-5.095 Z15.705 A47.5637 B-0.0088 
N1130 X-146.998 Y-5.824 Z14.940 A47.5782 B-0.0102 
N1131 X-146.998 Y-6.526 Z14.198 B-0.0119 
N1132 X-146.998 Y-7.202 Z13.484 B-0.0135 
N1133 X-146.998 Y-7.847 Z12.802 B-0.0151 
N1134 X-146.998 Y-8.457 Z12.158 B-0.0165 
N1135 X-146.998 Y-9.027 Z11.555 B-0.0179 
N1136 X-146.998 Y-9.556 Z10.998 A47.5852 B-0.0188 
N1137 X-146.998 Y-10.061 Z10.511 A47.7141 B-0.0137 
N1138 X-146.998 Y-10.626 Z10.171 A48.4510 B0.0226 
N1139 X-146.998 Y-11.280 Z9.995 A49.9554 B0.1010 
N1140 X-146.997 Y-11.978 Z9.929 A51.9528 B0.2091 
N1141 X-146.997 Y-12.723 Z9.955 A54.4052 B0.3441 
N1142 X-146.996 Y-13.538 Z10.067 A57.3745 B0.5073 
N1143 X-146.995 Y-14.429 Z10.241 A60.8201 B0.6951 
N1144 X-146.994 Y-15.405 Z10.452 A64.7167 B0.9051 
N1145 X-146.993 Y-16.474 Z10.674 A69.0482 B1.1360 
N1146 X-146.992 Y-17.628 Z10.873 A73.7362 B1.3823 
N1147 X-146.991 Y-18.845 Z11.018 A78.6708 B1.6366 
N1148 X-146.990 Y-20.091 Z11.085 A83.7036 B1.8891 
N1149 X-146.989 Y-21.331 Z11.061 A88.7198 B2.1328 
N1150 X-146.988 Y-22.562 Z10.945 A93.7213 B2.3663 
N1151 X-146.987 Y-23.793 Z10.730 A98.7851 B2.5919 
N1152 X-146.986 Y-25.032 Z10.407 A103.9734 B2.8119 
N1153 X-146.985 Y-26.317 Z9.950 A109.5033 B3.0349 
N1154 X-146.984 Y-27.932 Z9.188 A116.7531 B3.2748 
N1155 X-146.984 Y-28.984 Z8.520 A121.8071 B3.3736 
N1156 X-146.984 Y-29.984 Z7.746 A126.9304 B3.4280 
N1157 X-146.984 Y-31.045 Z6.751 A132.8260 B3.4566 
N1158 X-146.984 Y-32.059 Z5.560 A139.1649 B3.4482 
N1159 X-146.984 Y-32.954 Z4.201 A145.7540 B3.3960 
N1160 X-146.984 Y-33.665 Z2.728 A152.3658 B3.2983 
N1161 X-146.985 Y-34.134 Z1.258 A158.5801 B3.1645 
N1162 X-146.985 Y-34.359 Z-0.137 A164.2308 B3.0091 
N1163 X-146.986 Y-34.361 Z-1.417 A169.2762 B2.8463 
N1164 X-146.987 Y-34.149 Z-2.435 A173.2130 B2.7036 
N1165 X-146.987 Y-33.771 Z-3.271 A176.4287 B2.5789 
N1166 X-146.988 Y-33.242 Z-3.968 A179.1402 B2.4708 
N1167 X-146.988 Y-32.571 Z-4.327 A180.5499 B2.4131 
N1168 X-146.988 Y-31.766 Z-4.432 A180.9632 B2.3957 
N1169 X-146.988 Y-30.821 Z-4.449 A181.0332 B2.3927 
N1170 X-146.988 Y-29.728 Z-4.450 A181.0389 B2.3924 
N1171 X-146.988 Y-28.485 Z-4.449 B2.3923 
N1172 X-146.988 Y-27.094 Z-4.448 B2.3923 
N1173 X-146.988 Y-25.564 Z-4.447 B2.3922 
N1174 X-146.988 Y-23.910 Z-4.446 B2.3921 
N1175 X-146.988 Y-22.154 Z-4.445 B2.3920 
N1176 X-146.988 Y-20.321 Z-4.443 B2.3919 
N1177 X-146.988 Y-18.440 Z-4.442 B2.3918 
N1178 X-146.988 Y-16.542 Z-4.441 B2.3917 
N1179 X-146.988 Y-14.659 Z-4.440 B2.3916 
N1180 X-146.988 Y-12.820 Z-4.438 B2.3915 
N1181 X-146.988 Y-11.052 Z-4.437 B2.3914 
N1182 X-146.988 Y-9.376 Z-4.436 B2.3914 
N1183 X-146.988 Y-7.808 Z-4.436 A181.0414 B2.3912 
N1184 X-146.988 Y-6.358 Z-4.469 A181.1849 B2.3863 
N1185 X-146.988 Y-5.020 Z-4.806 A182.6205 B2.3347 
N1186 X-146.989 Y-3.748 Z-5.620 A186.2138 B2.2023 
N1187 X-146.990 Y-2.469 Z-6.750 A191.4613 B1.9980 
N1188 X-146.991 Y-1.120 Z-8.014 A197.7352 B1.7315 
N1189 X-146.992 Y0.358 Z-9.335 A204.8544 B1.3683 
N1190 X-146.994 Y1.772 Z-10.252 A210.7688 B0.9887 
N1191 X-146.996 Y3.184 Z-10.994 A216.4058 B0.6310 
N1192 X-146.997 Y4.433 Z-11.390 A220.7793 B0.3720 
N1193 X-146.998 Y5.526 Z-11.533 A224.1623 B0.1865 
N1194 X-146.965 Y12.493 Z-18.707 
N1195 G00 X-146.802 Y47.328 Z-54.575 
N1196 ; DELTA A > 40.1
N1197 TRAFOOF
N1198 D2
N1199 STOPRE
N1200 G00 G54 Z296.000
N1201 G01 A270.6757 F10000
N1202 TRAORI
N1203 G54 D2
N1204 STOPRE
N1205 TRANS 
N1206 G00 X-170.050 Y87.214 Z-26.896 A270.6757 B0.0000 
N1207 X-170.050 Y37.218 Z-27.486 
N1208 G01 X-170.050 Y27.218 Z-27.604 F2835 
N1209 X-170.050 Y27.235 Z-24.974 A270.6814 
N1210 X-170.050 Y27.250 Z-22.392 A270.6858 
N1211 X-170.050 Y27.264 Z-19.897 A270.6876 
N1212 X-170.050 Y27.277 Z-17.530 A270.6876 
N1213 X-170.050 Y27.289 Z-15.321 
N1214 X-170.050 Y27.300 Z-13.294 
N1215 X-170.050 Y27.310 Z-11.463 
N1216 X-170.050 Y27.319 Z-9.834 A270.6884 
N1217 X-170.050 Y27.350 Z-8.405 A270.7835 
N1218 X-170.050 Y27.509 Z-7.164 A271.4339 
N1219 X-170.050 Y27.978 Z-6.080 A273.4375 
N1220 X-170.050 Y28.841 Z-5.089 A277.2257 
N1221 X-170.050 Y29.983 Z-4.107 A282.4119 
N1222 X-170.050 Y31.318 Z-3.044 A288.7446 
N1223 X-170.050 Y32.854 Z-1.776 A296.4400 
N1224 X-170.050 Y34.425 Z-0.231 A305.1017 
N1225 X-170.050 Y35.840 Z1.581 A314.1969 
N1226 X-170.050 Y36.890 Z3.503 A322.8493 
N1227 X-170.050 Y37.562 Z5.462 A330.9790 
N1228 X-170.050 Y37.856 Z7.380 A338.5069 
N1229 X-170.050 Y37.775 Z9.133 A345.1393 
N1230 X-170.050 Y37.362 Z10.657 A350.8036 
N1231 X-170.050 Y36.662 Z11.898 A355.4145 
N1232 X-170.050 Y35.714 Z12.761 A358.6611 
N1233 X-170.050 Y34.559 Z13.210 A0.3755 
N1234 X-170.050 Y33.213 Z13.347 A0.9034 
N1235 X-170.050 Y31.669 Z13.359 A0.9455 
N1236 X-170.050 Y29.921 Z13.361 
N1237 X-170.050 Y27.968 Z13.362 
N1238 X-170.050 Y25.820 Z13.364 
N1239 X-170.050 Y23.497 Z13.367 
N1240 X-170.050 Y21.024 Z13.369 
N1241 X-170.050 Y18.436 Z13.371 
N1242 X-170.050 Y15.775 Z13.374 
N1243 X-170.050 Y13.085 Z13.377 
N1244 X-170.050 Y10.413 Z13.379 
N1245 X-170.050 Y7.805 Z13.382 
N1246 X-170.050 Y5.301 Z13.384 
N1247 X-170.050 Y2.940 Z13.386 
N1248 X-170.050 Y0.749 Z13.388 
N1249 X-170.050 Y-1.251 Z13.390 
N1250 X-170.050 Y-3.047 Z13.392 
N1251 X-170.050 Y-4.637 Z13.394 A0.9481 
N1252 X-170.050 Y-6.027 Z13.445 A1.1561 
N1253 X-170.050 Y-7.235 Z13.739 A2.4034 
N1254 X-170.050 Y-8.305 Z14.386 A5.2333 B-0.0000 
N1255 X-170.050 Y-9.304 Z15.334 A9.4999 B-0.0014 
N1256 X-170.050 Y-10.308 Z16.487 A14.8836 B-0.0098 
N1257 X-170.050 Y-11.389 Z17.774 A21.1631 B-0.0274 
N1258 X-170.050 Y-12.610 Z19.129 A28.1967 B-0.0433 
N1259 X-170.050 Y-14.000 Z20.448 A35.7010 B-0.0419 
N1260 X-170.050 Y-15.538 Z21.622 A43.3280 B-0.0196 
N1261 X-170.050 Y-17.189 Z22.584 A50.8755 B0.0124 
N1262 X-170.050 Y-18.893 Z23.288 A58.1480 B0.0407 
N1263 X-170.050 Y-20.581 Z23.711 A64.9731 B0.0598 
N1264 X-170.050 Y-22.183 Z23.857 A71.2058 B0.0675 
N1265 X-170.050 Y-23.639 Z23.747 A76.7365 B0.0640 
N1266 X-170.050 Y-24.905 Z23.415 A81.4966 B0.0534 
N1267 X-170.050 Y-25.942 Z22.896 A85.4023 B0.0422 
N1268 X-170.050 Y-26.697 Z22.227 A88.2692 B0.0363 
N1269 X-170.050 Y-27.161 Z21.443 A90.0591 B0.0383 
N1270 X-170.050 Y-27.386 Z20.568 A90.9466 B0.0479 
N1271 X-170.050 Y-27.454 Z19.613 A91.2301 B0.0628 
N1272 X-170.050 Y-27.458 Z18.586 A91.2675 B0.0810 
N1273 X-170.050 Y-27.453 Z17.494 A91.2677 B0.1003 
N1274 X-170.050 Y-27.448 Z16.351 B0.1178 
N1275 X-170.050 Y-27.443 Z15.173 B0.1311 
N1276 X-170.050 Y-27.437 Z13.978 B0.1411 
N1277 X-170.050 Y-27.431 Z12.786 B0.1502 
N1278 X-170.050 Y-27.426 Z11.614 B0.1591 
N1279 X-170.049 Y-27.421 Z10.483 B0.1676 
N1280 X-170.049 Y-27.416 Z9.405 A91.2693 B0.1758 
N1281 X-170.049 Y-27.416 Z8.396 A91.2871 B0.1838 
N1282 X-170.049 Y-27.448 Z7.461 A91.4404 B0.1928 
N1283 X-170.049 Y-27.615 Z6.604 A92.1654 B0.2068 
N1284 X-170.049 Y-28.031 Z5.812 A93.9646 B0.2323 
N1285 X-170.049 Y-28.706 Z5.057 A96.9310 B0.2743 
N1286 X-170.049 Y-29.600 Z4.296 A100.9492 B0.3355 
N1287 X-170.048 Y-30.667 Z3.478 A105.8958 B0.4168 
N1288 X-170.048 Y-31.863 Z2.552 A111.6689 B0.5181 
N1289 X-170.048 Y-33.183 Z1.438 A118.4081 B0.6301 
N1290 X-170.047 Y-34.558 Z0.070 A126.0718 B0.7040 
N1291 X-170.047 Y-35.785 Z-1.502 A133.9733 B0.6918 
N1292 X-170.048 Y-36.730 Z-3.170 A141.5481 B0.6129 
N1293 X-170.048 Y-37.433 Z-4.979 A149.1922 B0.5090 
N1294 X-170.048 Y-37.832 Z-6.857 A156.6970 B0.4060 
N1295 X-170.049 Y-37.872 Z-8.640 A163.5321 B0.3159 
N1296 X-170.049 Y-37.572 Z-10.232 A169.5000 B0.2433 
N1297 X-170.049 Y-36.971 Z-11.569 A174.4910 B0.1904 
N1298 X-170.050 Y-36.110 Z-12.543 A178.1641 B0.1574 
N1299 X-170.050 Y-35.034 Z-13.061 A180.1399 B0.1416 
N1300 X-170.050 Y-33.768 Z-13.237 A180.8171 B0.1363 
N1301 X-170.050 Y-32.307 Z-13.265 A180.9181 B0.1350 
N1302 X-170.050 Y-30.642 Z-13.268 A180.9190 B0.1340 
N1303 X-170.050 Y-28.772 Z-13.270 B0.1329 
N1304 X-170.050 Y-26.701 Z-13.273 B0.1317 
N1305 X-170.050 Y-24.446 Z-13.276 B0.1303 
N1306 X-170.050 Y-22.030 Z-13.280 B0.1282 
N1307 X-170.050 Y-19.486 Z-13.283 B0.1247 
N1308 X-170.050 Y-16.853 Z-13.287 B0.1206 
N1309 X-170.050 Y-14.174 Z-13.291 B0.1164 
N1310 X-170.050 Y-11.495 Z-13.295 B0.1123 
N1311 X-170.050 Y-8.864 Z-13.298 B0.1083 
N1312 X-170.050 Y-6.322 Z-13.302 B0.1046 
N1313 X-170.050 Y-3.911 Z-13.305 B0.1011 
N1314 X-170.050 Y-1.660 Z-13.309 B0.0979 
N1315 X-170.050 Y0.407 Z-13.312 B0.0949 
N1316 X-170.050 Y2.274 Z-13.314 B0.0923 
N1317 X-170.050 Y3.935 Z-13.317 A180.9223 B0.0891 
N1318 X-170.050 Y5.394 Z-13.338 A180.9998 B0.0839 
N1319 X-170.050 Y6.662 Z-13.521 A181.7699 B0.0781 
N1320 X-170.050 Y7.775 Z-14.073 A184.1506 B0.0810 
N1321 X-170.050 Y8.799 Z-14.959 A188.0959 B0.0945 
N1322 X-170.050 Y9.805 Z-16.070 A193.2270 B0.1073 
N1323 X-170.050 Y10.866 Z-17.322 A199.2619 B0.1105 
N1324 X-170.050 Y12.042 Z-18.647 A206.0272 B0.1009 
N1325 X-170.050 Y13.371 Z-19.960 A213.2989 B0.0783 
N1326 X-170.050 Y14.876 Z-21.189 A220.9382 B0.0415 
N1327 X-170.050 Y16.550 Z-22.260 A228.7963 B-0.0046 
N1328 X-170.050 Y18.263 Z-23.039 A236.2188 B-0.0421 
N1329 X-170.050 Y19.922 Z-23.509 A242.9753 B-0.0627 
N1330 X-170.050 Y21.508 Z-23.709 A249.1660 B-0.0680 
N1331 X-170.050 Y22.974 Z-23.658 A254.7341 B-0.0595 
N1332 X-170.050 Y24.271 Z-23.384 A259.5902 B-0.0425 
N1333 X-170.050 Y25.368 Z-22.917 A263.6816 B-0.0247 
N1334 X-170.050 Y26.217 Z-22.290 A266.8684 B-0.0113 
N1335 X-170.050 Y26.790 Z-21.537 A269.0365 B-0.0039 
N1336 X-170.050 Y27.104 Z-20.684 A270.2326 B-0.0009 
N1337 X-170.050 Y27.221 Z-19.750 A270.6744 B-0.0001 
N1338 X-170.050 Y27.244 Z-18.742 A270.7502 B-0.0000 
N1339 X-170.050 Y27.249 Z-17.669 A270.7521 
N1340 X-170.050 Y27.254 Z-16.543 
N1341 X-170.050 Y27.259 Z-15.381 
N1342 X-170.050 Y27.264 Z-14.198 
N1343 X-170.050 Y27.269 Z-13.015 
N1344 X-170.050 Y27.275 Z-11.850 
N1345 X-170.050 Y27.279 Z-10.720 
N1346 X-170.050 Y27.284 Z-9.641 A270.7538 
N1347 X-170.050 Y27.301 Z-8.627 A270.8032 
N1348 X-170.050 Y27.366 Z-7.686 A271.0638 
N1349 X-170.050 Y27.554 Z-6.821 A271.8499 
N1350 X-170.050 Y27.961 Z-6.022 A273.5937 
N1351 X-170.050 Y28.619 Z-5.263 A276.4727 
N1352 X-170.050 Y29.472 Z-4.507 A280.3002 
N1353 X-170.050 Y30.470 Z-3.715 A284.9159 
N1354 X-170.050 Y31.593 Z-2.835 A290.3077 
N1355 X-170.050 Y32.864 Z-1.787 A296.7075 
N1356 X-170.050 Y34.167 Z-0.537 A303.8102 
N1357 X-170.050 Y35.388 Z0.917 A311.3194 
N1358 X-170.050 Y36.433 Z2.549 A318.9905 
N1359 X-170.050 Y37.198 Z4.262 A326.3861 
N1360 X-170.050 Y37.692 Z6.062 A333.6968 
N1361 X-170.050 Y37.866 Z7.844 A340.6122 
N1362 X-170.050 Y37.706 Z9.490 A346.8128 
N1363 X-170.050 Y37.239 Z10.915 A352.1189 
N1364 X-170.050 Y36.500 Z12.050 A356.3519 
N1365 X-170.050 Y35.530 Z12.812 A359.2362 
N1366 X-170.050 Y34.361 Z13.192 A0.7051 
N1367 X-170.050 Y33.006 Z13.295 A1.1193 
N1368 X-170.050 Y31.455 Z13.297 A1.1452 
N1369 X-170.050 Y29.703 Z13.293 
N1370 X-170.050 Y27.753 Z13.288 
N1371 X-170.050 Y25.614 Z13.282 
N1372 X-170.050 Y23.308 Z13.277 
N1373 X-170.050 Y20.861 Z13.270 
N1374 X-170.050 Y18.309 Z13.264 
N1375 X-170.050 Y15.691 Z13.257 
N1376 X-170.050 Y13.053 Z13.251 
N1377 X-170.050 Y10.439 Z13.244 A1.1469 
N1378 X-170.050 Y7.892 Z13.248 A1.1928 
N1379 X-170.050 Y5.452 Z13.286 A1.3943 
N1380 X-170.050 Y3.154 Z13.328 A1.6476 
N1381 X-170.050 Y1.025 Z13.357 A1.8810 
N1382 X-170.050 Y-0.917 Z13.386 A2.1384 
N1383 X-170.050 Y-2.662 Z13.402 A2.3593 
N1384 X-170.050 Y-4.207 Z13.407 A2.5379 B-0.0001 
N1385 X-170.050 Y-5.563 Z13.482 A3.0063 B-0.0009 
N1386 X-170.050 Y-6.755 Z13.810 A4.5620 B-0.0065 
N1387 X-170.050 Y-7.836 Z14.494 A7.7113 B-0.0228 
N1388 X-170.050 Y-8.880 Z15.478 A12.3150 B-0.0491 
N1389 X-170.051 Y-9.956 Z16.652 A18.0015 B-0.0733 
N1390 X-170.051 Y-11.122 Z17.911 A24.4376 B-0.0826 
N1391 X-170.051 Y-12.414 Z19.170 A31.3746 B-0.0749 
N1392 X-170.050 Y-13.835 Z20.338 A38.5390 B-0.0517 
N1393 X-170.050 Y-15.361 Z21.341 A45.6858 B-0.0143 
N1394 X-170.050 Y-16.961 Z22.138 A52.6978 B0.0298 
N1395 X-170.050 Y-18.594 Z22.701 A59.4507 B0.0704 
N1396 X-170.050 Y-20.210 Z23.017 A65.8452 B0.1045 
N1397 X-170.050 Y-21.758 Z23.087 A71.7810 B0.1321 
N1398 X-170.050 Y-23.177 Z22.922 A77.1215 B0.1539 
N1399 X-170.049 Y-24.407 Z22.545 A81.7163 B0.1714 
N1400 X-170.049 Y-25.388 Z21.991 A85.3830 B0.1865 
N1401 X-170.049 Y-26.074 Z21.297 A87.9518 B0.2004 
N1402 X-170.049 Y-26.475 Z20.500 A89.4579 B0.2140 
N1403 X-170.049 Y-26.652 Z19.621 A90.1031 B0.2272 
N1404 X-170.049 Y-26.702 Z18.672 A90.2517 B0.2403 
N1405 X-170.049 Y-26.718 Z17.662 A90.2644 B0.2536 
N1406 X-170.049 Y-26.736 Z16.601 A90.2834 B0.2675 
N1407 X-170.049 Y-26.761 Z15.504 A90.3307 B0.2816 
N1408 X-170.049 Y-26.794 Z14.386 A90.4160 B0.2951 
N1409 X-170.049 Y-26.839 Z13.266 A90.5575 B0.3079 
N1410 X-170.049 Y-26.897 Z12.159 A90.7640 B0.3201 
N1411 X-170.049 Y-26.955 Z11.083 A90.9920 B0.3327 
N1412 X-170.049 Y-26.997 Z10.054 A91.1709 B0.3454 
N1413 X-170.049 Y-27.019 Z9.085 A91.2740 B0.3580 
N1414 X-170.049 Y-27.050 Z8.183 A91.4198 B0.3710 
N1415 X-170.049 Y-27.156 Z7.355 A91.8867 B0.3879 
N1416 X-170.048 Y-27.436 Z6.594 A93.0995 B0.4146 
N1417 X-170.048 Y-27.959 Z5.882 A95.3803 B0.4569 
N1418 X-170.048 Y-28.733 Z5.181 A98.8039 B0.5174 
N1419 X-170.048 Y-29.738 Z4.440 A103.3454 B0.5964 
N1420 X-170.047 Y-30.927 Z3.599 A108.9021 B0.6933 
N1421 X-170.047 Y-32.242 Z2.595 A115.3531 B0.8055 
N1422 X-170.046 Y-33.622 Z1.370 A122.6413 B0.9126 
N1423 X-170.046 Y-34.918 Z-0.069 A130.3289 B0.9602 
N1424 X-170.046 Y-35.973 Z-1.629 A137.7952 B0.9256 
N1425 X-170.047 Y-36.775 Z-3.281 A145.0503 B0.8389 
N1426 X-170.047 Y-37.358 Z-5.094 A152.5515 B0.7335 
N1427 X-170.048 Y-37.639 Z-6.964 A159.9377 B0.6287 
N1428 X-170.048 Y-37.566 Z-8.718 A166.6479 B0.5354 
N1429 X-170.048 Y-37.160 Z-10.223 A172.3210 B0.4601 
N1430 X-170.048 Y-36.471 Z-11.374 A176.6573 B0.4066 
N1431 X-170.049 Y-35.556 Z-12.114 A179.4844 B0.3747 
N1432 X-170.049 Y-34.452 Z-12.471 A180.8770 B0.3612 
N1433 X-170.049 Y-33.167 Z-12.573 A181.3067 B0.3591 
N1434 X-170.049 Y-31.692 Z-12.575 A181.3500 B0.3612 
N1435 X-170.049 Y-30.020 Z-12.565 A181.3501 B0.3639 
N1436 X-170.049 Y-28.151 Z-12.553 B0.3669 
N1437 X-170.049 Y-26.095 Z-12.541 B0.3703 
N1438 X-170.049 Y-23.869 Z-12.527 B0.3739 
N1439 X-170.049 Y-21.500 Z-12.513 B0.3777 
N1440 X-170.049 Y-19.020 Z-12.497 B0.3818 
N1441 X-170.049 Y-16.469 Z-12.482 B0.3859 
N1442 X-170.049 Y-13.890 Z-12.466 B0.3901 
N1443 X-170.049 Y-11.326 Z-12.450 B0.3943 
N1444 X-170.048 Y-8.822 Z-12.435 B0.3984 
N1445 X-170.048 Y-6.417 Z-12.422 A181.3569 B0.4023 
N1446 X-170.048 Y-4.144 Z-12.433 A181.4674 B0.4059 
N1447 X-170.048 Y-2.032 Z-12.480 A181.7464 B0.4102 
N1448 X-170.048 Y-0.099 Z-12.530 A182.0715 B0.4166 
N1449 X-170.048 Y1.642 Z-12.557 A182.3302 B0.4246 
N1450 X-170.048 Y3.189 Z-12.562 A182.5057 B0.4299 
N1451 X-170.048 Y4.550 Z-12.632 A182.9535 B0.4243 
N1452 X-170.048 Y5.749 Z-12.932 A184.3857 B0.4051 
N1453 X-170.049 Y6.841 Z-13.604 A187.4739 B0.3757 
N1454 X-170.049 Y7.913 Z-14.658 A192.3680 B0.3380 
N1455 X-170.049 Y9.057 Z-15.964 A198.6646 B0.2908 
N1456 X-170.049 Y10.321 Z-17.327 A205.6837 B0.2331 
N1457 X-170.049 Y11.705 Z-18.604 A212.9174 B0.1657 
N1458 X-170.050 Y13.198 Z-19.729 A220.1676 B0.0893 
N1459 X-170.050 Y14.798 Z-20.678 A227.4158 B0.0066 
N1460 X-170.050 Y16.429 Z-21.376 A234.3151 B-0.0658 
N1461 X-170.051 Y18.020 Z-21.804 A240.6719 B-0.1173 
N1462 X-170.051 Y19.569 Z-21.994 A246.6201 B-0.1524 
N1463 X-170.051 Y21.047 Z-21.958 A252.1538 B-0.1749 
N1464 X-170.051 Y22.389 Z-21.701 A257.0958 B-0.1874 
N1465 X-170.051 Y23.522 Z-21.243 A261.2243 B-0.1918 
N1466 X-170.051 Y24.375 Z-20.619 A264.2980 B-0.1900 
N1467 X-170.051 Y24.927 Z-19.867 A266.2293 B-0.1833 
N1468 X-170.051 Y25.213 Z-19.018 A267.1355 B-0.1729 
N1469 X-170.051 Y25.335 Z-18.095 A267.3882 B-0.1604 
N1470 X-170.051 Y25.406 Z-17.112 A267.4234 B-0.1469 
N1471 X-170.051 Y25.471 Z-16.082 A267.4275 B-0.1311 
N1472 X-170.051 Y25.537 Z-15.019 A267.4277 B-0.1099 
N1473 X-170.051 Y25.605 Z-13.936 B-0.0826 
N1474 X-170.050 Y25.673 Z-12.852 B-0.0532 
N1475 X-170.050 Y25.739 Z-11.783 B-0.0281 
N1476 X-170.050 Y25.804 Z-10.745 B-0.0113 
N1477 X-170.050 Y25.866 Z-9.752 A267.4279 B-0.0031 
N1478 X-170.050 Y25.934 Z-8.817 A267.4669 B-0.0004 
N1479 X-170.050 Y26.062 Z-7.951 A267.7775 B-0.0000 
N1480 X-170.050 Y26.330 Z-7.161 A268.7070 B-0.0000 
N1481 X-170.050 Y26.781 Z-6.441 A270.4609 
N1482 X-170.050 Y27.428 Z-5.772 A273.1215 
N1483 X-170.050 Y28.254 Z-5.122 A276.6446 
N1484 X-170.050 Y29.229 Z-4.452 A280.9357 
N1485 X-170.050 Y30.329 Z-3.720 A285.9409 
N1486 X-170.050 Y31.547 Z-2.871 A291.7048 
N1487 X-170.050 Y32.898 Z-1.824 A298.4531 
N1488 X-170.050 Y34.171 Z-0.614 A305.4194 
N1489 X-170.050 Y35.305 Z0.747 A312.4581 
N1490 X-170.050 Y36.268 Z2.253 A319.5549 
N1491 X-170.050 Y36.997 Z3.847 A326.4870 
N1492 X-170.050 Y37.506 Z5.563 A333.5340 
N1493 X-170.050 Y37.738 Z7.329 A340.4802 
N1494 X-170.050 Y37.647 Z8.992 A346.8301 
N1495 X-170.050 Y37.243 Z10.410 A352.1566 
N1496 X-170.050 Y36.572 Z11.479 A356.1564 
N1497 X-170.050 Y35.686 Z12.190 A358.8269 
N1498 X-170.050 Y34.613 Z12.590 A0.3537 
N1499 X-170.050 Y33.360 Z12.751 A0.9835 
N1500 X-170.050 Y31.922 Z12.781 A1.1159 
N1501 X-170.050 Y30.294 Z12.781 A1.1287 
N1502 X-170.050 Y28.474 Z12.777 A1.1289 
N1503 X-170.050 Y26.473 Z12.773 
N1504 X-170.050 Y24.306 Z12.768 
N1505 X-170.050 Y21.999 Z12.762 
N1506 X-170.050 Y19.581 Z12.757 
N1507 X-170.050 Y17.090 Z12.751 
N1508 X-170.050 Y14.566 Z12.746 
N1509 X-170.050 Y12.052 Z12.740 A1.1289 
N1510 X-170.050 Y9.587 Z12.743 A1.1642 
N1511 X-170.050 Y7.209 Z12.817 A1.5166 
N1512 X-170.050 Y4.948 Z12.990 A2.3660 
N1513 X-170.050 Y2.834 Z13.136 A3.2270 
N1514 X-170.050 Y0.886 Z13.247 A4.0381 B-0.0001 
N1515 X-170.050 Y-0.883 Z13.339 A4.8455 B-0.0020 
N1516 X-170.050 Y-2.467 Z13.390 A5.5197 B-0.0149 
N1517 X-170.050 Y-3.872 Z13.451 A6.2525 B-0.0494 
N1518 X-170.051 Y-5.128 Z13.670 A7.6580 B-0.0931 
N1519 X-170.051 Y-6.285 Z14.186 A10.3771 B-0.1262 
N1520 X-170.051 Y-7.415 Z15.025 A14.6227 B-0.1421 
N1521 X-170.051 Y-8.587 Z16.093 A20.1215 B-0.1452 
N1522 X-170.051 Y-9.838 Z17.232 A26.3250 B-0.1363 
N1523 X-170.051 Y-11.166 Z18.314 A32.7660 B-0.1141 
N1524 X-170.051 Y-12.553 Z19.266 A39.1668 B-0.0773 
N1525 X-170.050 Y-13.980 Z20.055 A45.4006 B-0.0256 
N1526 X-170.050 Y-15.445 Z20.679 A51.5042 B0.0365 
N1527 X-170.050 Y-16.948 Z21.133 A57.5140 B0.1007 
N1528 X-170.049 Y-18.477 Z21.408 A63.4385 B0.1638 
N1529 X-170.049 Y-19.999 Z21.486 A69.1918 B0.2243 
N1530 X-170.049 Y-21.434 Z21.350 A74.5237 B0.2801 
N1531 X-170.049 Y-22.686 Z21.003 A79.1158 B0.3294 
N1532 X-170.049 Y-23.670 Z20.476 A82.6823 B0.3712 
N1533 X-170.048 Y-24.352 Z19.812 A85.1053 B0.4057 
N1534 X-170.048 Y-24.765 Z19.050 A86.5006 B0.4340 
N1535 X-170.048 Y-24.981 Z18.215 A87.1314 B0.4573 
N1536 X-170.048 Y-25.095 Z17.324 A87.3549 B0.4775 
N1537 X-170.048 Y-25.179 Z16.390 A87.4583 B0.4963 
N1538 X-170.048 Y-25.276 Z15.426 A87.6161 B0.5146 
N1539 X-170.048 Y-25.402 Z14.444 A87.9000 B0.5330 
N1540 X-170.048 Y-25.558 Z13.459 A88.3289 B0.5509 
N1541 X-170.048 Y-25.746 Z12.484 A88.9305 B0.5693 
N1542 X-170.048 Y-25.950 Z11.532 A89.6409 B0.5891 
N1543 X-170.048 Y-26.126 Z10.616 A90.2901 B0.6099 
N1544 X-170.048 Y-26.242 Z9.748 A90.7307 B0.6300 
N1545 X-170.047 Y-26.310 Z8.938 A91.0004 B0.6493 
N1546 X-170.047 Y-26.404 Z8.191 A91.3926 B0.6711 
N1547 X-170.047 Y-26.613 Z7.506 A92.2795 B0.7016 
N1548 X-170.047 Y-27.020 Z6.871 A94.0213 B0.7475 
N1549 X-170.047 Y-27.670 Z6.259 A96.8443 B0.8128 
N1550 X-170.046 Y-28.568 Z5.625 A100.8052 B0.8963 
N1551 X-170.046 Y-29.680 Z4.913 A105.8355 B0.9940 
N1552 X-170.045 Y-30.957 Z4.060 A111.8343 B1.1030 
N1553 X-170.045 Y-32.325 Z3.013 A118.6501 B1.2172 
N1554 X-170.045 Y-33.685 Z1.743 A126.0565 B1.3112 
N1555 X-170.044 Y-34.885 Z0.304 A133.5247 B1.3414 
N1556 X-170.045 Y-35.824 Z-1.217 A140.6288 B1.2991 
N1557 X-170.045 Y-36.531 Z-2.833 A147.6084 B1.2105 
N1558 X-170.045 Y-37.033 Z-4.612 A154.9004 B1.1005 
N1559 X-170.046 Y-37.241 Z-6.446 A162.1195 B0.9856 
N1560 X-170.046 Y-37.108 Z-8.150 A168.6515 B0.8787 
N1561 X-170.047 Y-36.653 Z-9.559 A173.9939 B0.7908 
N1562 X-170.047 Y-35.938 Z-10.552 A177.7657 B0.7291 
N1563 X-170.047 Y-35.021 Z-11.131 A179.9882 B0.6936 
N1564 X-170.047 Y-33.930 Z-11.387 A180.9951 B0.6785 
N1565 X-170.047 Y-32.663 Z-11.460 A181.3093 B0.6752 
N1566 X-170.047 Y-31.213 Z-11.464 A181.3627 B0.6768 
N1567 X-170.047 Y-29.572 Z-11.455 A181.3669 B0.6796 
N1568 X-170.047 Y-27.745 Z-11.443 B0.6828 
N1569 X-170.047 Y-25.742 Z-11.430 B0.6863 
N1570 X-170.047 Y-23.582 Z-11.417 A181.3669 B0.6900 
N1571 X-170.047 Y-21.290 Z-11.402 B0.6940 
N1572 X-170.047 Y-18.901 Z-11.387 B0.6982 
N1573 X-170.047 Y-16.452 Z-11.371 B0.7025 
N1574 X-170.047 Y-13.983 Z-11.355 B0.7068 
N1575 X-170.047 Y-11.539 Z-11.340 B0.7111 
N1576 X-170.047 Y-9.157 Z-11.324 A181.3669 B0.7152 
N1577 X-170.047 Y-6.876 Z-11.312 A181.3761 B0.7192 
N1578 X-170.047 Y-4.726 Z-11.345 A181.5786 B0.7219 
N1579 X-170.047 Y-2.727 Z-11.462 A182.1713 B0.7233 
N1580 X-170.047 Y-0.897 Z-11.593 A182.9065 B0.7277 
N1581 X-170.047 Y0.752 Z-11.675 A183.4974 B0.7370 
N1582 X-170.047 Y2.221 Z-11.726 A183.9894 B0.7431 
N1583 X-170.047 Y3.523 Z-11.867 A184.8694 B0.7277 
N1584 X-170.047 Y4.697 Z-12.267 A186.8839 B0.6825 
N1585 X-170.048 Y5.812 Z-13.062 A190.6826 B0.6117 
N1586 X-170.048 Y6.979 Z-14.250 A196.4138 B0.5193 
N1587 X-170.048 Y8.287 Z-15.650 A203.5168 B0.4082 
N1588 X-170.049 Y9.739 Z-17.001 A211.0516 B0.2870 
N1589 X-170.049 Y11.269 Z-18.136 A218.3394 B0.1653 
N1590 X-170.050 Y12.821 Z-19.011 A225.1558 B0.0482 
N1591 X-170.050 Y14.371 Z-19.644 A231.5355 B-0.0565 
N1592 X-170.051 Y15.909 Z-20.054 A237.5540 B-0.1389 
N1593 X-170.051 Y17.431 Z-20.257 A243.3008 B-0.2007 
N1594 X-170.051 Y18.904 Z-20.249 A248.7137 B-0.2453 
N1595 X-170.051 Y20.251 Z-20.025 A253.5595 B-0.2737 
N1596 X-170.051 Y21.389 Z-19.599 A257.5618 B-0.2872 
N1597 X-170.051 Y22.250 Z-19.000 A260.4832 B-0.2878 
N1598 X-170.051 Y22.818 Z-18.270 A262.2690 B-0.2777 
N1599 X-170.051 Y23.142 Z-17.443 A263.0920 B-0.2601 
N1600 X-170.051 Y23.331 Z-16.549 A263.3612 B-0.2384 
N1601 X-170.051 Y23.472 Z-15.608 A263.4240 B-0.2149 
N1602 X-170.051 Y23.603 Z-14.637 A263.4304 B-0.1904 
N1603 X-170.051 Y23.734 Z-13.648 A263.4304 B-0.1655 
N1604 X-170.051 Y23.866 Z-12.658 A263.4315 B-0.1401 
N1605 X-170.051 Y23.997 Z-11.680 A263.4366 B-0.1112 
N1606 X-170.051 Y24.126 Z-10.730 A263.4493 B-0.0758 
N1607 X-170.050 Y24.255 Z-9.819 A263.4816 B-0.0403 
N1608 X-170.050 Y24.394 Z-8.962 A263.5875 B-0.0162 
N1609 X-170.050 Y24.580 Z-8.170 A263.9299 B-0.0049 
N1610 X-170.050 Y24.883 Z-7.455 A264.8162 B-0.0010 
N1611 X-170.050 Y25.353 Z-6.816 A266.4694 B-0.0001 
N1612 X-170.050 Y26.001 Z-6.238 A268.9584 B-0.0000 
N1613 X-170.050 Y26.822 Z-5.692 A272.2766 
N1614 X-170.050 Y27.784 Z-5.144 A276.3071 
N1615 X-170.050 Y28.855 Z-4.556 A280.9350 
N1616 X-170.050 Y30.010 Z-3.895 A286.0936 
N1617 X-170.050 Y31.247 Z-3.115 A291.8533 
N1618 X-170.050 Y32.601 Z-2.138 A298.4986 
N1619 X-170.050 Y33.844 Z-1.022 A305.1629 
N1620 X-170.050 Y34.929 Z0.207 A311.7015 
N1621 X-170.050 Y35.897 Z1.596 A318.4598 
N1622 X-170.050 Y36.662 Z3.081 A325.0998 
N1623 X-170.050 Y37.228 Z4.682 A331.8273 
N1624 X-170.050 Y37.564 Z6.384 A338.6550 
N1625 X-170.050 Y37.608 Z8.061 A345.1611 
N1626 X-170.050 Y37.344 Z9.550 A350.8225 
N1627 X-170.050 Y36.805 Z10.710 A355.1972 
N1628 X-170.050 Y36.046 Z11.481 A358.0935 
N1629 X-170.050 Y35.106 Z11.924 A359.7622 
N1630 X-170.050 Y33.996 Z12.146 A0.6055 
N1631 X-170.050 Y32.712 Z12.244 A0.9845 
N1632 X-170.050 Y31.248 Z12.272 A1.1083 
N1633 X-170.050 Y29.603 Z12.272 A1.1221 
N1634 X-170.050 Y27.780 Z12.268 A1.1221 
N1635 X-170.050 Y25.791 Z12.264 
N1636 X-170.050 Y23.656 Z12.260 
N1637 X-170.050 Y21.402 Z12.255 
N1638 X-170.050 Y19.060 Z12.250 
N1639 X-170.050 Y16.665 Z12.245 
N1640 X-170.050 Y14.257 Z12.240 
N1641 X-170.050 Y11.873 Z12.235 A1.1222 
N1642 X-170.050 Y9.550 Z12.246 A1.1910 
N1643 X-170.050 Y7.318 Z12.380 A1.8013 
N1644 X-170.050 Y5.197 Z12.690 A3.2831 
N1645 X-170.050 Y3.209 Z12.983 A4.9081 
N1646 X-170.050 Y1.374 Z13.216 A6.4602 B-0.0004 
N1647 X-170.050 Y-0.301 Z13.401 A7.9447 B-0.0135 
N1648 X-170.050 Y-1.810 Z13.528 A9.2662 B-0.0584 
N1649 X-170.051 Y-3.167 Z13.672 A10.6991 B-0.1134 
N1650 X-170.051 Y-4.416 Z13.976 A12.8548 B-0.1543 
N1651 X-170.051 Y-5.623 Z14.547 A16.2458 B-0.1776 
N1652 X-170.051 Y-6.856 Z15.375 A20.9582 B-0.1856 
N1653 X-170.051 Y-8.158 Z16.338 A26.6123 B-0.1768 
N1654 X-170.051 Y-9.518 Z17.272 A32.5902 B-0.1509 
N1655 X-170.051 Y-10.889 Z18.061 A38.3857 B-0.1097 
N1656 X-170.050 Y-12.235 Z18.672 A43.8093 B-0.0545 
N1657 X-170.050 Y-13.570 Z19.135 A48.9952 B0.0142 
N1658 X-170.050 Y-14.938 Z19.488 A54.2029 B0.0924 
N1659 X-170.049 Y-16.371 Z19.736 A59.5868 B0.1779 
N1660 X-170.049 Y-17.849 Z19.846 A65.0743 B0.2682 
N1661 X-170.049 Y-19.288 Z19.775 A70.3335 B0.3575 
N1662 X-170.048 Y-20.571 Z19.501 A74.9350 B0.4392 
N1663 X-170.048 Y-21.602 Z19.046 A78.5471 B0.5088 
N1664 X-170.048 Y-22.351 Z18.449 A81.0672 B0.5652 
N1665 X-170.048 Y-22.846 Z17.754 A82.6066 B0.6095 
N1666 X-170.047 Y-23.153 Z16.992 A83.4138 B0.6440 
N1667 X-170.047 Y-23.354 Z16.184 A83.8027 B0.6720 
N1668 X-170.047 Y-23.520 Z15.349 A84.0521 B0.6965 
N1669 X-170.047 Y-23.705 Z14.501 A84.3920 B0.7205 
N1670 X-170.047 Y-23.945 Z13.654 A84.9803 B0.7462 
N1671 X-170.047 Y-24.253 Z12.819 A85.8990 B0.7749 
N1672 X-170.047 Y-24.618 Z12.003 A87.1123 B0.8074 
N1673 X-170.047 Y-24.977 Z11.209 A88.3879 B0.8421 
N1674 X-170.046 Y-25.262 Z10.447 A89.4350 B0.8758 
N1675 X-170.046 Y-25.445 Z9.729 A90.1151 B0.9056 
N1676 X-170.046 Y-25.564 Z9.061 A90.5689 B0.9331 
N1677 X-170.046 Y-25.723 Z8.448 A91.2070 B0.9654 
N1678 X-170.046 Y-26.020 Z7.885 A92.4443 B1.0111 
N1679 X-170.046 Y-26.531 Z7.355 A94.6098 B1.0776 
N1680 X-170.045 Y-27.288 Z6.824 A97.8673 B1.1663 
N1681 X-170.045 Y-28.267 Z6.246 A102.1575 B1.2705 
N1682 X-170.044 Y-29.409 Z5.575 A107.3128 B1.3808 
N1683 X-170.044 Y-30.678 Z4.757 A113.2783 B1.4935 
N1684 X-170.043 Y-32.022 Z3.742 A119.9881 B1.6035 
N1685 X-170.043 Y-33.353 Z2.505 A127.2572 B1.6916 
N1686 X-170.043 Y-34.536 Z1.089 A134.6396 B1.7243 
N1687 X-170.043 Y-35.471 Z-0.416 A141.7105 B1.6897 
N1688 X-170.043 Y-36.156 Z-1.985 A148.5132 B1.6054 
N1689 X-170.044 Y-36.633 Z-3.690 A155.5158 B1.4923 
N1690 X-170.044 Y-36.841 Z-5.461 A162.5142 B1.3663 
N1691 X-170.045 Y-36.728 Z-7.124 A168.9174 B1.2427 
N1692 X-170.045 Y-36.309 Z-8.510 A174.2038 B1.1366 
N1693 X-170.046 Y-35.637 Z-9.482 A177.9161 B1.0603 
N1694 X-170.046 Y-34.774 Z-10.032 A180.0349 B1.0165 
N1695 X-170.046 Y-33.745 Z-10.264 A180.9470 B0.9980 
N1696 X-170.046 Y-32.548 Z-10.339 A181.2618 B0.9927 
N1697 X-170.046 Y-31.176 Z-10.357 A181.3641 B0.9928 
N1698 X-170.046 Y-29.622 Z-10.352 A181.3876 B0.9951 
N1699 X-170.046 Y-27.890 Z-10.341 A181.3903 B0.9983 
N1700 X-170.046 Y-25.989 Z-10.328 A181.3903 B1.0018 
N1701 X-170.046 Y-23.937 Z-10.314 B1.0057 
N1702 X-170.046 Y-21.758 Z-10.299 B1.0098 
N1703 X-170.046 Y-19.484 Z-10.284 B1.0141 
N1704 X-170.046 Y-17.149 Z-10.268 A181.3903 B1.0184 
N1705 X-170.046 Y-14.794 Z-10.252 B1.0229 
N1706 X-170.046 Y-12.457 Z-10.236 B1.0273 
N1707 X-170.046 Y-10.176 Z-10.220 B1.0315 
N1708 X-170.046 Y-7.987 Z-10.206 A181.3909 B1.0356 
N1709 X-170.046 Y-5.917 Z-10.220 A181.5117 B1.0378 
N1710 X-170.046 Y-3.986 Z-10.362 A182.1964 B1.0337 
N1711 X-170.046 Y-2.205 Z-10.603 A183.3978 B1.0275 
N1712 X-170.046 Y-0.586 Z-10.798 A184.5325 B1.0288 
N1713 X-170.046 Y0.866 Z-10.924 A185.4523 B1.0339 
N1714 X-170.046 Y2.169 Z-11.115 A186.6853 B1.0139 
N1715 X-170.046 Y3.369 Z-11.556 A189.0358 B0.9443 
N1716 X-170.047 Y4.548 Z-12.385 A193.1768 B0.8274 
N1717 X-170.047 Y5.832 Z-13.623 A199.3943 B0.6721 
N1718 X-170.048 Y7.317 Z-15.068 A207.1124 B0.4887 
N1719 X-170.049 Y8.946 Z-16.369 A215.0054 B0.3020 
N1720 X-170.050 Y10.558 Z-17.305 A222.0173 B0.1370 
N1721 X-170.050 Y12.075 Z-17.902 A228.0494 B-0.0011 
N1722 X-170.051 Y13.534 Z-18.264 A233.5326 B-0.1127 
N1723 X-170.051 Y14.991 Z-18.459 A238.8462 B-0.2009 
N1724 X-170.051 Y16.441 Z-18.487 A244.0298 B-0.2695 
N1725 X-170.052 Y17.805 Z-18.319 A248.7880 B-0.3172 
N1726 X-170.052 Y18.980 Z-17.947 A252.7508 B-0.3430 
N1727 X-170.052 Y19.890 Z-17.395 A255.6487 B-0.3484 
N1728 X-170.052 Y20.516 Z-16.702 A257.4130 B-0.3371 
N1729 X-170.052 Y20.908 Z-15.907 A258.2345 B-0.3143 
N1730 X-170.051 Y21.170 Z-15.051 A258.5142 B-0.2856 
N1731 X-170.051 Y21.381 Z-14.161 A258.5696 B-0.2544 
N1732 X-170.051 Y21.581 Z-13.255 A258.5721 B-0.2224 
N1733 X-170.051 Y21.781 Z-12.349 A258.5734 B-0.1904 
N1734 X-170.051 Y21.981 Z-11.456 A258.5877 B-0.1585 
N1735 X-170.051 Y22.184 Z-10.589 A258.6361 B-0.1260 
N1736 X-170.051 Y22.389 Z-9.760 A258.7302 B-0.0917 
N1737 X-170.050 Y22.599 Z-8.980 A258.8957 B-0.0569 
N1738 X-170.050 Y22.834 Z-8.261 A259.2251 B-0.0270 
N1739 X-170.050 Y23.152 Z-7.618 A259.9726 B-0.0087 
N1740 X-170.050 Y23.626 Z-7.061 A261.4597 B-0.0017 
N1741 X-170.050 Y24.275 Z-6.578 A263.7783 B-0.0001 
N1742 X-170.050 Y25.090 Z-6.144 A266.8946 B-0.0000 
N1743 X-170.050 Y26.053 Z-5.723 A270.7395 
N1744 X-170.050 Y27.122 Z-5.280 A275.1371 
N1745 X-170.050 Y28.255 Z-4.786 A279.9395 
N1746 X-170.050 Y29.429 Z-4.216 A285.0754 
N1747 X-170.050 Y30.646 Z-3.539 A290.6048 
N1748 X-170.050 Y31.970 Z-2.685 A296.9093 
N1749 X-170.050 Y33.239 Z-1.674 A303.4162 
N1750 X-170.050 Y34.296 Z-0.605 A309.4360 
N1751 X-170.050 Y35.285 Z0.630 A315.7758 
N1752 X-170.050 Y36.135 Z2.002 A322.2342 
N1753 X-170.050 Y36.799 Z3.476 A328.6775 
N1754 X-170.050 Y37.269 Z5.067 A335.2609 
N1755 X-170.050 Y37.499 Z6.724 A341.8489 
N1756 X-170.050 Y37.441 Z8.308 A347.9746 
N1757 X-170.050 Y37.098 Z9.653 A353.1047 
N1758 X-170.050 Y36.510 Z10.630 A356.8102 
N1759 X-170.050 Y35.732 Z11.211 A359.0038 
N1760 X-170.050 Y34.792 Z11.505 A0.1059 
N1761 X-170.050 Y33.692 Z11.648 A0.6409 
N1762 X-170.050 Y32.423 Z11.730 A0.9595 
N1763 X-170.050 Y30.983 Z11.763 A1.0983 
N1764 X-170.050 Y29.371 Z11.764 A1.1152 
N1765 X-170.050 Y27.593 Z11.761 A1.1155 
N1766 X-170.050 Y25.665 Z11.757 
N1767 X-170.050 Y23.604 Z11.753 
N1768 X-170.050 Y21.438 Z11.748 
N1769 X-170.050 Y19.198 Z11.744 
N1770 X-170.050 Y16.917 Z11.739 
N1771 X-170.050 Y14.631 Z11.735 
N1772 X-170.050 Y12.375 Z11.730 
N1773 X-170.050 Y10.180 Z11.734 A1.1517 
N1774 X-170.050 Y8.073 Z11.850 A1.6705 
N1775 X-170.050 Y6.064 Z12.235 A3.4407 
N1776 X-170.050 Y4.158 Z12.732 A5.9509 
N1777 X-170.050 Y2.373 Z13.160 A8.4628 B-0.0005 
N1778 X-170.050 Y0.719 Z13.519 A10.9168 B-0.0126 
N1779 X-170.050 Y-0.794 Z13.784 A13.1526 B-0.0668 
N1780 X-170.051 Y-2.179 Z14.017 A15.3578 B-0.1314 
N1781 X-170.051 Y-3.481 Z14.336 A18.0305 B-0.1720 
N1782 X-170.051 Y-4.765 Z14.832 A21.6131 B-0.1952 
N1783 X-170.051 Y-6.086 Z15.500 A26.1943 B-0.1997 
N1784 X-170.051 Y-7.463 Z16.235 A31.4448 B-0.1828 
N1785 X-170.051 Y-8.855 Z16.892 A36.7720 B-0.1462 
N1786 X-170.051 Y-10.191 Z17.373 A41.6684 B-0.0955 
N1787 X-170.050 Y-11.445 Z17.678 A46.0432 B-0.0334 
N1788 X-170.050 Y-12.671 Z17.877 A50.2425 B0.0417 
N1789 X-170.050 Y-13.949 Z18.030 A54.6916 B0.1316 
N1790 X-170.049 Y-15.316 Z18.132 A59.5332 B0.2372 
N1791 X-170.049 Y-16.717 Z18.126 A64.5055 B0.3522 
N1792 X-170.048 Y-18.035 Z17.956 A69.1084 B0.4650 
N1793 X-170.048 Y-19.155 Z17.609 A72.9087 B0.5653 
N1794 X-170.047 Y-20.023 Z17.114 A75.7152 B0.6481 
N1795 X-170.047 Y-20.645 Z16.513 A77.5606 B0.7128 
N1796 X-170.047 Y-21.069 Z15.843 A78.6332 B0.7615 
N1797 X-170.047 Y-21.366 Z15.132 A79.2133 B0.7986 
N1798 X-170.047 Y-21.618 Z14.408 A79.6249 B0.8298 
N1799 X-170.047 Y-21.903 Z13.690 A80.1973 B0.8621 
N1800 X-170.046 Y-22.280 Z12.997 A81.2003 B0.9016 
N1801 X-170.046 Y-22.769 Z12.332 A82.7366 B0.9507 
N1802 X-170.046 Y-23.330 Z11.689 A84.6607 B1.0077 
N1803 X-170.046 Y-23.861 Z11.061 A86.5732 B1.0659 
N1804 X-170.045 Y-24.274 Z10.452 A88.0882 B1.1179 
N1805 X-170.045 Y-24.547 Z9.875 A89.1003 B1.1613 
N1806 X-170.045 Y-24.737 Z9.340 A89.8124 B1.1998 
N1807 X-170.045 Y-24.963 Z8.849 A90.7035 B1.2443 
N1808 X-170.045 Y-25.334 Z8.397 A92.2228 B1.3063 
N1809 X-170.044 Y-25.915 Z7.964 A94.6563 B1.3929 
N1810 X-170.044 Y-26.738 Z7.513 A98.1528 B1.5045 
N1811 X-170.043 Y-27.760 Z7.000 A102.5891 B1.6296 
N1812 X-170.043 Y-28.895 Z6.394 A107.6594 B1.7518 
N1813 X-170.042 Y-30.106 Z5.658 A113.2969 B1.8655 
N1814 X-170.042 Y-31.387 Z4.741 A119.5996 B1.9707 
N1815 X-170.041 Y-32.679 Z3.611 A126.4913 B2.0577 
N1816 X-170.041 Y-33.886 Z2.272 A133.7301 B2.1044 
N1817 X-170.041 Y-34.896 Z0.792 A140.9184 B2.0913 
N1818 X-170.042 Y-35.643 Z-0.739 A147.7274 B2.0221 
N1819 X-170.042 Y-36.155 Z-2.342 A154.4123 B1.9139 
N1820 X-170.043 Y-36.430 Z-4.026 A161.1500 B1.7820 
N1821 X-170.043 Y-36.417 Z-5.664 A167.5157 B1.6428 
N1822 X-170.044 Y-36.111 Z-7.097 A173.0128 B1.5137 
N1823 X-170.044 Y-35.550 Z-8.176 A177.1471 B1.4123 
N1824 X-170.044 Y-34.790 Z-8.826 A179.6575 B1.3492 
N1825 X-170.045 Y-33.869 Z-9.119 A180.8016 B1.3202 
N1826 X-170.045 Y-32.791 Z-9.211 A181.1791 B1.3112 
N1827 X-170.045 Y-31.547 Z-9.242 A181.3295 B1.3091 
N1828 X-170.045 Y-30.131 Z-9.249 A181.3959 B1.3100 
N1829 X-170.045 Y-28.544 Z-9.243 A181.4142 B1.3126 
N1830 X-170.045 Y-26.791 Z-9.230 A181.4155 B1.3161 
N1831 X-170.045 Y-24.887 Z-9.216 B1.3198 
N1832 X-170.045 Y-22.854 Z-9.202 B1.3239 
N1833 X-170.045 Y-20.718 Z-9.186 B1.3281 
N1834 X-170.044 Y-18.512 Z-9.170 A181.4155 B1.3325 
N1835 X-170.044 Y-16.272 Z-9.154 B1.3369 
N1836 X-170.044 Y-14.035 Z-9.138 B1.3414 
N1837 X-170.044 Y-11.837 Z-9.122 A181.4155 B1.3457 
N1838 X-170.044 Y-9.711 Z-9.107 B1.3499 
N1839 X-170.044 Y-7.687 Z-9.093 A181.4216 B1.3538 
N1840 X-170.044 Y-5.786 Z-9.146 A181.7050 B1.3522 
N1841 X-170.044 Y-4.015 Z-9.400 A182.8877 B1.3359 
N1842 X-170.045 Y-2.377 Z-9.777 A184.7415 B1.3132 
N1843 X-170.045 Y-0.881 Z-10.078 A186.4482 B1.3009 
N1844 X-170.045 Y0.476 Z-10.332 A188.0722 B1.2847 
N1845 X-170.045 Y1.742 Z-10.772 A190.5736 B1.2095 
N1846 X-170.046 Y3.006 Z-11.565 A194.7515 B1.0530 
N1847 X-170.047 Y4.400 Z-12.767 A201.0579 B0.8331 
N1848 X-170.048 Y6.043 Z-14.210 A209.1323 B0.5718 
N1849 X-170.049 Y7.840 Z-15.467 A217.3552 B0.3150 
N1850 X-170.050 Y9.509 Z-16.220 A224.0515 B0.1130 
N1851 X-170.050 Y10.946 Z-16.545 A229.1512 B-0.0311 
N1852 X-170.051 Y12.290 Z-16.664 A233.6731 B-0.1407 
N1853 X-170.051 Y13.651 Z-16.677 A238.2293 B-0.2307 
N1854 X-170.051 Y14.996 Z-16.556 A242.6881 B-0.3004 
N1855 X-170.052 Y16.216 Z-16.257 A246.5958 B-0.3444 
N1856 X-170.052 Y17.213 Z-15.777 A249.5731 B-0.3612 
N1857 X-170.052 Y17.943 Z-15.140 A251.4519 B-0.3543 
N1858 X-170.052 Y18.436 Z-14.390 A252.3533 B-0.3306 
N1859 X-170.051 Y18.786 Z-13.577 A252.6535 B-0.2983 
N1860 X-170.051 Y19.076 Z-12.738 A252.7012 B-0.2628 
N1861 X-170.051 Y19.354 Z-11.899 A252.7022 B-0.2270 
N1862 X-170.051 Y19.628 Z-11.074 A252.7086 B-0.1919 
N1863 X-170.051 Y19.903 Z-10.277 A252.7554 B-0.1583 
N1864 X-170.051 Y20.185 Z-9.520 A252.8836 B-0.1269 
N1865 X-170.051 Y20.473 Z-8.812 A253.1068 B-0.0956 
N1866 X-170.050 Y20.771 Z-8.161 A253.4537 B-0.0625 
N1867 X-170.050 Y21.106 Z-7.581 A254.0516 B-0.0329 
N1868 X-170.050 Y21.554 Z-7.092 A255.2380 B-0.0138 
N1869 X-170.050 Y22.182 Z-6.701 A257.2987 B-0.0048 
N1870 X-170.050 Y22.981 Z-6.382 A260.1903 B-0.0015 
N1871 X-170.050 Y23.927 Z-6.098 A263.8045 B-0.0004 
N1872 X-170.050 Y25.001 Z-5.813 A268.0476 B-0.0001 
N1873 X-170.050 Y26.153 Z-5.491 A272.7141 B-0.0000 
N1874 X-170.050 Y27.334 Z-5.108 A277.6136 
N1875 X-170.050 Y28.519 Z-4.651 A282.6603 
N1876 X-170.050 Y29.706 Z-4.103 A287.8839 
N1877 X-170.050 Y30.953 Z-3.420 A293.5893 
N1878 X-170.050 Y32.281 Z-2.541 A300.0050 
N1879 X-170.050 Y33.394 Z-1.603 A305.8627 
N1880 X-170.050 Y34.367 Z-0.586 A311.5169 
N1881 X-170.050 Y35.309 Z0.621 A317.6753 
N1882 X-170.050 Y36.122 Z1.971 A324.0004 
N1883 X-170.050 Y36.757 Z3.424 A330.3462 
N1884 X-170.050 Y37.193 Z4.978 A336.7696 
N1885 X-170.050 Y37.394 Z6.576 A343.1293 
N1886 X-170.050 Y37.323 Z8.094 A349.0203 
N1887 X-170.050 Y36.984 Z9.372 A353.9217 
N1888 X-170.050 Y36.420 Z10.286 A357.4132 
N1889 X-170.050 Y35.679 Z10.801 A359.3757 
N1890 X-170.050 Y34.787 Z11.033 A0.2472 
N1891 X-170.050 Y33.743 Z11.136 A0.6254 
N1892 X-170.050 Y32.538 Z11.206 A0.8931 
N1893 X-170.050 Y31.170 Z11.250 A1.0676 
N1894 X-170.050 Y29.639 Z11.257 A1.1075 
N1895 X-170.050 Y27.951 Z11.254 A1.1102 
N1896 X-170.050 Y26.120 Z11.251 A1.1103 
N1897 X-170.050 Y24.166 Z11.247 
N1898 X-170.050 Y22.113 Z11.243 
N1899 X-170.050 Y19.991 Z11.239 
N1900 X-170.050 Y17.830 Z11.235 
N1901 X-170.050 Y15.663 Z11.231 
N1902 X-170.050 Y13.522 Z11.227 
N1903 X-170.050 Y11.436 Z11.223 A1.1117 
N1904 X-170.050 Y9.429 Z11.256 A1.2680 
N1905 X-170.050 Y7.515 Z11.503 A2.3662 
N1906 X-170.050 Y5.681 Z12.108 A5.1611 
N1907 X-170.050 Y3.914 Z12.816 A8.7650 B-0.0000 
N1908 X-170.050 Y2.223 Z13.470 A12.5302 B-0.0047 
N1909 X-170.050 Y0.623 Z14.005 A16.1472 B-0.0366 
N1910 X-170.051 Y-0.875 Z14.417 A19.5111 B-0.1013 
N1911 X-170.051 Y-2.289 Z14.769 A22.8300 B-0.1527 
N1912 X-170.051 Y-3.663 Z15.140 A26.4462 B-0.1793 
N1913 X-170.051 Y-5.039 Z15.557 A30.5280 B-0.1856 
N1914 X-170.051 Y-6.431 Z15.984 A34.9748 B-0.1697 
N1915 X-170.051 Y-7.803 Z16.332 A39.4063 B-0.1334 
N1916 X-170.051 Y-9.083 Z16.519 A43.3611 B-0.0839 
N1917 X-170.050 Y-10.245 Z16.545 A46.7188 B-0.0264 
N1918 X-170.050 Y-11.353 Z16.492 A49.8796 B0.0428 
N1919 X-170.050 Y-12.510 Z16.439 A53.3788 B0.1315 
N1920 X-170.049 Y-13.756 Z16.391 A57.3781 B0.2433 
N1921 X-170.049 Y-15.031 Z16.285 A61.5676 B0.3700 
N1922 X-170.048 Y-16.222 Z16.059 A65.4376 B0.4961 
N1923 X-170.048 Y-17.229 Z15.695 A68.5813 B0.6082 
N1924 X-170.047 Y-18.010 Z15.214 A70.8296 B0.6984 
N1925 X-170.047 Y-18.574 Z14.650 A72.2294 B0.7654 
N1926 X-170.047 Y-18.982 Z14.043 A73.0284 B0.8138 
N1927 X-170.047 Y-19.330 Z13.433 A73.6232 B0.8536 
N1928 X-170.046 Y-19.724 Z12.854 A74.4661 B0.8982 
N1929 X-170.046 Y-20.248 Z12.332 A75.9329 B0.9593 
N1930 X-170.046 Y-20.923 Z11.863 A78.1312 B1.0400 
N1931 X-170.045 Y-21.690 Z11.420 A80.8236 B1.1339 
N1932 X-170.045 Y-22.425 Z10.978 A83.5004 B1.2276 
N1933 X-170.045 Y-23.014 Z10.532 A85.6790 B1.3087 
N1934 X-170.044 Y-23.439 Z10.098 A87.2591 B1.3751 
N1935 X-170.044 Y-23.754 Z9.691 A88.4493 B1.4326 
N1936 X-170.044 Y-24.069 Z9.318 A89.6767 B1.4936 
N1937 X-170.043 Y-24.501 Z8.972 A91.4184 B1.5722 
N1938 X-170.043 Y-25.117 Z8.637 A93.9566 B1.6765 
N1939 X-170.042 Y-25.949 Z8.279 A97.4454 B1.8079 
N1940 X-170.042 Y-26.996 Z7.850 A101.9093 B1.9579 
N1941 X-170.041 Y-28.145 Z7.322 A106.9516 B2.1020 
N1942 X-170.041 Y-29.297 Z6.692 A112.2046 B2.2234 
N1943 X-170.040 Y-30.480 Z5.923 A117.8681 B2.3264 
N1944 X-170.040 Y-31.703 Z4.965 A124.1182 B2.4127 
N1945 X-170.040 Y-32.909 Z3.792 A130.8955 B2.4727 
N1946 X-170.040 Y-34.018 Z2.413 A138.0264 B2.4893 
N1947 X-170.040 Y-34.931 Z0.890 A145.1670 B2.4499 
N1948 X-170.040 Y-35.575 Z-0.668 A151.9197 B2.3598 
N1949 X-170.041 Y-35.966 Z-2.250 A158.4012 B2.2341 
N1950 X-170.041 Y-36.104 Z-3.832 A164.6525 B2.0883 
N1951 X-170.042 Y-35.971 Z-5.297 A170.3208 B1.9405 
N1952 X-170.042 Y-35.584 Z-6.528 A175.0517 B1.8081 
N1953 X-170.043 Y-34.983 Z-7.409 A178.4465 B1.7091 
N1954 X-170.043 Y-34.211 Z-7.898 A180.3523 B1.6525 
N1955 X-170.043 Y-33.290 Z-8.083 A181.0912 B1.6307 
N1956 X-170.043 Y-32.217 Z-8.127 A181.2874 B1.6258 
N1957 X-170.043 Y-30.983 Z-8.141 A181.3755 B1.6251 
N1958 X-170.043 Y-29.584 Z-8.144 A181.4256 B1.6263 
N1959 X-170.043 Y-28.023 Z-8.136 A181.4402 B1.6291 
N1960 X-170.043 Y-26.309 Z-8.123 A181.4409 B1.6327 
N1961 X-170.043 Y-24.458 Z-8.108 B1.6365 
N1962 X-170.043 Y-22.491 Z-8.093 B1.6406 
N1963 X-170.043 Y-20.437 Z-8.077 A181.4409 B1.6449 
N1964 X-170.043 Y-18.327 Z-8.061 B1.6493 
N1965 X-170.043 Y-16.196 Z-8.045 B1.6538 
N1966 X-170.043 Y-14.077 Z-8.029 A181.4409 B1.6582 
N1967 X-170.043 Y-12.004 Z-8.013 B1.6626 
N1968 X-170.043 Y-10.006 Z-7.997 B1.6667 
N1969 X-170.043 Y-8.107 Z-7.983 A181.4440 B1.6706 
N1970 X-170.043 Y-6.322 Z-8.031 A181.7033 B1.6680 
N1971 X-170.043 Y-4.655 Z-8.332 A183.0736 B1.6399 
N1972 X-170.043 Y-3.087 Z-8.879 A185.6575 B1.5874 
N1973 X-170.044 Y-1.620 Z-9.403 A188.4016 B1.5381 
N1974 X-170.044 Y-0.247 Z-9.891 A191.2066 B1.4784 
N1975 X-170.045 Y1.121 Z-10.633 A195.3178 B1.3196 
N1976 X-170.046 Y2.614 Z-11.741 A201.4124 B1.0434 
N1977 X-170.047 Y4.374 Z-13.129 A209.4985 B0.7007 
N1978 X-170.049 Y6.336 Z-14.378 A218.0918 B0.3608 
N1979 X-170.050 Y8.103 Z-15.023 A224.7601 B0.1124 
N1980 X-170.050 Y9.469 Z-15.103 A228.9804 B-0.0318 
N1981 X-170.051 Y10.665 Z-14.964 A232.3188 B-0.1280 
N1982 X-170.051 Y11.878 Z-14.773 A235.7905 B-0.2093 
N1983 X-170.051 Y13.078 Z-14.502 A239.2522 B-0.2728 
N1984 X-170.052 Y14.150 Z-14.092 A242.1747 B-0.3088 
N1985 X-170.052 Y15.008 Z-13.527 A244.1949 B-0.3157 
N1986 X-170.051 Y15.635 Z-12.833 A245.2338 B-0.2988 
N1987 X-170.051 Y16.100 Z-12.062 A245.5882 B-0.2690 
N1988 X-170.051 Y16.491 Z-11.270 A245.6438 B-0.2348 
N1989 X-170.051 Y16.861 Z-10.489 A245.6449 B-0.2007 
N1990 X-170.051 Y17.221 Z-9.737 A245.6564 B-0.1679 
N1991 X-170.051 Y17.579 Z-9.026 A245.7370 B-0.1373 
N1992 X-170.051 Y17.946 Z-8.372 A245.9562 B-0.1098 
N1993 X-170.051 Y18.325 Z-7.781 A246.3452 B-0.0837 
N1994 X-170.050 Y18.715 Z-7.258 A246.9110 B-0.0575 
N1995 X-170.050 Y19.144 Z-6.815 A247.7798 B-0.0343 
N1996 X-170.050 Y19.701 Z-6.483 A249.3545 B-0.0180 
N1997 X-170.050 Y20.448 Z-6.266 A251.8894 B-0.0084 
N1998 X-170.050 Y21.355 Z-6.121 A255.2279 B-0.0033 
N1999 X-170.050 Y22.392 Z-6.004 A259.2033 B-0.0011 
N2000 X-170.050 Y23.543 Z-5.877 A263.7317 B-0.0002 
N2001 X-170.050 Y24.766 Z-5.703 A268.6223 B-0.0000 
N2002 X-170.050 Y26.000 Z-5.459 A273.6372 B-0.0000 
N2003 X-170.050 Y27.207 Z-5.136 A278.6400 
N2004 X-170.050 Y28.382 Z-4.732 A283.6285 
N2005 X-170.050 Y29.553 Z-4.233 A288.7509 
N2006 X-170.050 Y30.815 Z-3.580 A294.4883 
N2007 X-170.050 Y32.123 Z-2.742 A300.7654 
N2008 X-170.050 Y33.158 Z-1.893 A306.1702 
N2009 X-170.050 Y34.090 Z-0.957 A311.4948 
N2010 X-170.050 Y35.033 Z0.190 A317.4841 
N2011 X-170.050 Y35.885 Z1.515 A323.8310 
N2012 X-170.050 Y36.562 Z2.947 A330.2007 
N2013 X-170.050 Y37.035 Z4.456 A336.5258 
N2014 X-170.050 Y37.276 Z5.989 A342.6856 
N2015 X-170.050 Y37.265 Z7.456 A348.4263 
N2016 X-170.050 Y37.004 Z8.732 A353.3522 
N2017 X-170.050 Y36.525 Z9.695 A357.0554 
N2018 X-170.050 Y35.871 Z10.282 A359.3122 
N2019 X-170.050 Y35.071 Z10.546 A0.3263 
N2020 X-170.050 Y34.128 Z10.640 A0.6764 
N2021 X-170.050 Y33.033 Z10.686 A0.8430 
N2022 X-170.050 Y31.782 Z10.728 A1.0109 
N2023 X-170.050 Y30.374 Z10.747 A1.0930 
N2024 X-170.050 Y28.814 Z10.747 A1.1036 
N2025 X-170.050 Y27.113 Z10.744 A1.1041 
N2026 X-170.050 Y25.290 Z10.741 
N2027 X-170.050 Y23.366 Z10.737 
N2028 X-170.050 Y21.367 Z10.734 
N2029 X-170.050 Y19.325 Z10.730 
N2030 X-170.050 Y17.268 Z10.726 
N2031 X-170.050 Y15.227 Z10.722 
N2032 X-170.050 Y13.230 Z10.719 
N2033 X-170.050 Y11.298 Z10.716 A1.1068 
N2034 X-170.050 Y9.451 Z10.756 A1.2904 
N2035 X-170.050 Y7.692 Z11.036 A2.5209 
N2036 X-170.050 Y5.990 Z11.775 A5.8842 
N2037 X-170.050 Y4.295 Z12.755 A10.6986 B-0.0000 
N2038 X-170.050 Y2.585 Z13.749 A16.1308 B-0.0062 
N2039 X-170.050 Y0.887 Z14.591 A21.5013 B-0.0449 
N2040 X-170.051 Y-0.757 Z15.217 A26.4514 B-0.0990 
N2041 X-170.051 Y-2.323 Z15.639 A30.9303 B-0.1308 
N2042 X-170.051 Y-3.790 Z15.873 A34.8902 B-0.1392 
N2043 X-170.051 Y-5.157 Z15.952 A38.3871 B-0.1311 
N2044 X-170.051 Y-6.447 Z15.926 A41.6051 B-0.1071 
N2045 X-170.050 Y-7.647 Z15.796 A44.4818 B-0.0700 
N2046 X-170.050 Y-8.724 Z15.542 A46.8266 B-0.0271 
N2047 X-170.050 Y-9.708 Z15.211 A48.8201 B0.0214 
N2048 X-170.050 Y-10.690 Z14.888 A50.9611 B0.0847 
N2049 X-170.049 Y-11.729 Z14.613 A53.5517 B0.1715 
N2050 X-170.049 Y-12.805 Z14.357 A56.4756 B0.2794 
N2051 X-170.049 Y-13.840 Z14.065 A59.3530 B0.3953 
N2052 X-170.048 Y-14.745 Z13.698 A61.7685 B0.5021 
N2053 X-170.048 Y-15.464 Z13.248 A63.4761 B0.5872 
N2054 X-170.047 Y-16.013 Z12.746 A64.5374 B0.6489 
N2055 X-170.047 Y-16.474 Z12.242 A65.3204 B0.6985 
N2056 X-170.047 Y-16.965 Z11.795 A66.3501 B0.7554 
N2057 X-170.047 Y-17.587 Z11.443 A68.0827 B0.8380 
N2058 X-170.046 Y-18.383 Z11.187 A70.7052 B0.9532 
N2059 X-170.046 Y-19.311 Z10.983 A74.0124 B1.0923 
N2060 X-170.045 Y-20.266 Z10.779 A77.5380 B1.2378 
N2061 X-170.044 Y-21.121 Z10.546 A80.7431 B1.3710 
N2062 X-170.044 Y-21.822 Z10.291 A83.3966 B1.4852 
N2063 X-170.043 Y-22.402 Z10.032 A85.6198 B1.5861 
N2064 X-170.043 Y-22.928 Z9.784 A87.6734 B1.6832 
N2065 X-170.043 Y-23.478 Z9.548 A89.8692 B1.7878 
N2066 X-170.042 Y-24.126 Z9.313 A92.5023 B1.9098 
N2067 X-170.041 Y-24.915 Z9.059 A95.7596 B2.0540 
N2068 X-170.041 Y-25.879 Z8.749 A99.7956 B2.2202 
N2069 X-170.040 Y-27.045 Z8.330 A104.7757 B2.4003 
N2070 X-170.039 Y-28.266 Z7.789 A110.1580 B2.5599 
N2071 X-170.039 Y-29.389 Z7.164 A115.3383 B2.6771 
N2072 X-170.038 Y-30.498 Z6.415 A120.7358 B2.7659 
N2073 X-170.038 Y-31.644 Z5.479 A126.7135 B2.8335 
N2074 X-170.038 Y-32.777 Z4.333 A133.2219 B2.8726 
N2075 X-170.038 Y-33.832 Z2.969 A140.1875 B2.8710 
N2076 X-170.038 Y-34.725 Z1.423 A147.3888 B2.8174 
N2077 X-170.039 Y-35.357 Z-0.178 A154.3127 B2.7132 
N2078 X-170.039 Y-35.703 Z-1.727 A160.6482 B2.5751 
N2079 X-170.040 Y-35.784 Z-3.182 A166.3891 B2.4214 
N2080 X-170.040 Y-35.621 Z-4.466 A171.3561 B2.2713 
N2081 X-170.041 Y-35.243 Z-5.536 A175.4709 B2.1378 
N2082 X-170.041 Y-34.679 Z-6.342 A178.5854 B2.0328 
N2083 X-170.042 Y-33.957 Z-6.830 A180.4960 B1.9676 
N2084 X-170.042 Y-33.093 Z-7.020 A181.2682 B1.9418 
N2085 X-170.042 Y-32.084 Z-7.047 A181.4045 B1.9385 
N2086 X-170.042 Y-30.922 Z-7.043 A181.4233 B1.9399 
N2087 X-170.042 Y-29.601 Z-7.040 A181.4507 B1.9416 
N2088 X-170.042 Y-28.125 Z-7.032 A181.4664 B1.9442 
N2089 X-170.042 Y-26.504 Z-7.019 A181.4677 B1.9477 
N2090 X-170.042 Y-24.751 Z-7.005 B1.9516 
N2091 X-170.042 Y-22.888 Z-6.990 B1.9557 
N2092 X-170.042 Y-20.941 Z-6.974 A181.4677 B1.9600 
N2093 X-170.042 Y-18.939 Z-6.958 B1.9644 
N2094 X-170.042 Y-16.914 Z-6.941 A181.4677 B1.9689 
N2095 X-170.042 Y-14.898 Z-6.925 B1.9733 
N2096 X-170.042 Y-12.921 Z-6.909 A181.4677 B1.9777 
N2097 X-170.042 Y-11.008 Z-6.893 B1.9819 
N2098 X-170.042 Y-9.181 Z-6.878 B1.9859 
N2099 X-170.042 Y-7.454 Z-6.878 A181.5249 B1.9879 
N2100 X-170.042 Y-5.829 Z-7.063 A182.3734 B1.9665 
N2101 X-170.042 Y-4.278 Z-7.677 A185.1455 B1.8900 
N2102 X-170.043 Y-2.753 Z-8.569 A189.4179 B1.7697 
N2103 X-170.043 Y-1.228 Z-9.490 A194.2534 B1.6231 
N2104 X-170.044 Y0.401 Z-10.620 A200.5064 B1.3441 
N2105 X-170.046 Y2.270 Z-11.954 A208.4999 B0.9161 
N2106 X-170.048 Y4.384 Z-13.207 A217.3684 B0.4723 
N2107 X-170.050 Y6.354 Z-13.868 A224.5926 B0.1420 
N2108 X-170.050 Y7.746 Z-13.774 A228.3788 B-0.0147 
N2109 X-170.051 Y8.781 Z-13.332 A230.3268 B-0.0820 
N2110 X-170.051 Y9.784 Z-12.856 A232.2243 B-0.1343 
N2111 X-170.051 Y10.787 Z-12.369 A234.2377 B-0.1776 
N2112 X-170.051 Y11.698 Z-11.809 A235.9033 B-0.2000 
N2113 X-170.051 Y12.452 Z-11.148 A236.8995 B-0.1985 
N2114 X-170.051 Y13.051 Z-10.406 A237.2429 B-0.1800 
N2115 X-170.051 Y13.575 Z-9.649 A237.3047 B-0.1562 
N2116 X-170.051 Y14.066 Z-8.914 A237.3074 B-0.1324 
N2117 X-170.051 Y14.532 Z-8.217 A237.3120 B-0.1098 
N2118 X-170.051 Y14.977 Z-7.571 A237.3630 B-0.0892 
N2119 X-170.051 Y15.423 Z-6.995 A237.5792 B-0.0717 
N2120 X-170.050 Y15.899 Z-6.515 A238.1300 B-0.0572 
N2121 X-170.050 Y16.402 Z-6.127 A239.0085 B-0.0437 
N2122 X-170.050 Y16.933 Z-5.827 A240.2134 B-0.0307 
N2123 X-170.050 Y17.575 Z-5.654 A242.1248 B-0.0197 
N2124 X-170.050 Y18.394 Z-5.614 A244.9986 B-0.0112 
N2125 X-170.050 Y19.351 Z-5.651 A248.6059 B-0.0055 
N2126 X-170.050 Y20.412 Z-5.713 A252.7343 B-0.0021 
N2127 X-170.050 Y21.575 Z-5.768 A257.3375 B-0.0006 
N2128 X-170.050 Y22.821 Z-5.779 A262.3127 B-0.0001 
N2129 X-170.050 Y24.093 Z-5.715 A267.4245 B-0.0000 
N2130 X-170.050 Y25.340 Z-5.564 A272.4799 B-0.0000 
N2131 X-170.050 Y26.536 Z-5.330 A277.3945 
N2132 X-170.050 Y27.694 Z-5.012 A282.2421 
N2133 X-170.050 Y28.861 Z-4.597 A287.2471 
N2134 X-170.050 Y30.159 Z-4.018 A293.0031 
N2135 X-170.050 Y31.532 Z-3.235 A299.4063 
N2136 X-170.050 Y32.574 Z-2.468 A304.6447 
N2137 X-170.050 Y33.484 Z-1.649 A309.5956 
N2138 X-170.050 Y34.437 Z-0.621 A315.2623 
N2139 X-170.050 Y35.375 Z0.639 A321.6158 
N2140 X-170.050 Y36.174 Z2.055 A328.1818 
N2141 X-170.050 Y36.763 Z3.542 A334.6188 
N2142 X-170.050 Y37.115 Z5.033 A340.7537 
N2143 X-170.050 Y37.224 Z6.453 A346.3990 
N2144 X-170.050 Y37.100 Z7.729 A351.3663 
N2145 X-170.050 Y36.765 Z8.782 A355.4326 
N2146 X-170.050 Y36.252 Z9.540 A358.3602 
N2147 X-170.050 Y35.589 Z9.975 A0.0507 
