; PROGRAM NAME: B12345647
; ORDER       : B123456
; OPER. NAME  : Side Milling:141
; OPER. DESCR.: Side Milling/HHU_wk
; OPER. TYPE  : sideMill
; GEO. OPTION : 3
; MACHINE     : HSTM_500_SIM840D_Py
;             : HSTM500 - HAMUEL: 5-axis milling machine - SIM840D Traori PP_Script
; CONTROL     : SINUMERIK 840D
; created:   2023-06-06 12:05:10.315853
;-------DODATKOWE DANE-------------------
; PROGRAMISTA : Mariusz Malec
; PARTID      : 306T001953P1010_-
;  ap         : 19.0
;  ae         : 6.4
;  lean_angle : 0.02
;  fin_offset : 0.0
;----------------------------------------
;RAPORT("TB123456","Side Milling:141")
N10 TRAFOOF
N11 D0
N12 G90 G94
N13 G0 G53 D0 Z550 B0
N14 STOPRE
M9 ; chlodziwo wyl
; --- Side Milling:141 - Side Milling/HHU_wk ---
N16 ;ToolChange : concat=None ,current_tdmid=None, PP.tdmId=940729
N17 TRAFOOF
N18 G0 G53 D0 X-200 Y150 Z550 B0
N19 T="7740729"
;RAPORT("TB123456","ToolChangeStart 7740729")
N20 M6
;RAPORT("TB123456","ToolChangeEnd")
N21 STOPRE
N22 MSG(" TLID=940729 D=8.0 R=2.0 Ang=0.0 Len=111.0 ")
N23 ; (Preloading tool)
N24 T="7740661"
N25 S3978 M03
N26 STOPRE
N27 CYCLE832(0.01,1,1)
N28 G0 G53 A46.9801 B-0.0014
N29 TRAORI
N30 G54 D1
;tol5=0.03
N31 D1 
STOPRE
E_ZDARZ=300010
;ACS_FINISH_SLOT=7740729
STOPRE
;UWAGA : ZMIENIONA TOLERANCJA OSI A i B, ruchy osi A i B beda usuniete : TOL5=0.03
N32 ; DELTA A > 40.1
N33 TRAFOOF
N34 D1
N35 STOPRE
N36 G00 G54 Z275.000
N37 G01 A46.9801 F10000
N38 TRAORI
N39 G54 D1
N40 STOPRE
N41 TRANS 
N42 G00 X-153.149 Y-70.773 Z21.944 A46.9801 
N43 M342 ; chlodziwo woda
N44 X-153.148 Y-34.218 Z-12.168 
N45 G01 X-153.182 Y-31.625 Z-13.919 F318 
N46 X-153.282 Y-28.619 Z-14.784 
N47 X-153.437 Y-25.496 Z-14.678 
N48 X-153.633 Y-22.561 Z-13.613 
N49 ;NTE SemiFinishing
N50 D1 
N51 G41 X-153.850 Y-20.101 Z-11.693 
N52 X-153.861 Y-19.987 Z-11.571 
N53 X-153.873 Y-19.874 Z-11.449 
N54 X-153.885 Y-19.761 Z-11.328 
N55 X-153.896 Y-19.647 Z-11.206 
N56 X-153.908 Y-19.534 Z-11.085 
N57 X-153.920 Y-19.420 Z-10.963 
N58 X-153.931 Y-19.312 Z-10.846 
N59 X-153.942 Y-19.203 Z-10.730 
N60 X-153.954 Y-19.094 Z-10.613 
N61 X-153.965 Y-18.985 Z-10.496 
N62 X-153.976 Y-18.876 Z-10.379 
N63 X-153.987 Y-18.767 Z-10.263 
N64 X-153.998 Y-18.659 Z-10.146 
N65 X-154.010 Y-18.550 Z-10.029 
N66 X-154.021 Y-18.441 Z-9.913 
N67 X-154.032 Y-18.332 Z-9.796 
N68 X-154.043 Y-18.223 Z-9.679 
N69 X-154.055 Y-18.114 Z-9.562 
N70 X-154.066 Y-18.005 Z-9.446 
N71 X-154.077 Y-17.897 Z-9.329 
N72 X-154.088 Y-17.788 Z-9.212 
N73 X-154.099 Y-17.679 Z-9.095 
N74 X-154.111 Y-17.570 Z-8.979 
N75 X-154.122 Y-17.461 Z-8.862 
N76 X-154.133 Y-17.352 Z-8.745 
N77 X-154.144 Y-17.243 Z-8.629 
N78 X-154.156 Y-17.135 Z-8.512 
N79 X-154.167 Y-17.026 Z-8.395 
N80 X-154.178 Y-16.917 Z-8.278 
N81 X-154.189 Y-16.808 Z-8.162 
N82 X-154.200 Y-16.699 Z-8.045 
N83 X-154.212 Y-16.591 Z-7.929 
N84 X-154.223 Y-16.483 Z-7.813 
N85 X-154.234 Y-16.375 Z-7.697 
N86 X-154.245 Y-16.266 Z-7.581 
N87 X-154.256 Y-16.158 Z-7.465 
N88 X-154.266 Y-16.050 Z-7.349 
N89 X-154.277 Y-15.942 Z-7.232 
N90 X-154.288 Y-15.833 Z-7.116 
N91 X-154.298 Y-15.725 Z-7.000 
N92 X-154.309 Y-15.617 Z-6.884 
N93 X-154.319 Y-15.509 Z-6.768 
N94 X-154.329 Y-15.400 Z-6.652 
N95 X-154.340 Y-15.292 Z-6.536 
N96 X-154.350 Y-15.184 Z-6.420 
N97 X-154.360 Y-15.076 Z-6.304 
N98 X-154.370 Y-14.967 Z-6.188 
N99 X-154.379 Y-14.859 Z-6.071 
N100 X-154.389 Y-14.751 Z-5.955 
N101 X-154.399 Y-14.642 Z-5.839 
N102 X-154.408 Y-14.534 Z-5.723 
N103 X-154.418 Y-14.426 Z-5.607 
N104 X-154.427 Y-14.318 Z-5.491 
N105 X-154.436 Y-14.209 Z-5.375 
N106 X-154.446 Y-14.101 Z-5.259 
N107 X-154.455 Y-13.993 Z-5.142 
N108 X-154.464 Y-13.884 Z-5.026 
N109 X-154.473 Y-13.776 Z-4.910 
N110 X-154.482 Y-13.668 Z-4.794 
N111 X-154.490 Y-13.559 Z-4.678 
N112 X-154.499 Y-13.451 Z-4.562 
N113 X-154.508 Y-13.343 Z-4.445 
N114 X-154.516 Y-13.234 Z-4.329 
N115 X-154.525 Y-13.126 Z-4.213 
N116 X-154.533 Y-13.018 Z-4.097 
N117 X-154.541 Y-12.909 Z-3.981 
N118 X-154.549 Y-12.801 Z-3.865 
N119 X-154.557 Y-12.693 Z-3.748 
N120 X-154.565 Y-12.584 Z-3.632 
N121 X-154.573 Y-12.476 Z-3.516 
N122 X-154.581 Y-12.368 Z-3.400 
N123 X-154.589 Y-12.259 Z-3.284 
N124 X-154.597 Y-12.151 Z-3.167 
N125 X-154.604 Y-12.042 Z-3.051 
N126 X-154.612 Y-11.934 Z-2.935 
N127 X-154.619 Y-11.826 Z-2.819 
N128 X-154.626 Y-11.717 Z-2.703 
N129 X-154.633 Y-11.609 Z-2.586 
N130 X-154.640 Y-11.501 Z-2.470 
N131 X-154.648 Y-11.392 Z-2.354 
N132 X-154.654 Y-11.284 Z-2.238 
N133 X-154.661 Y-11.175 Z-2.121 
N134 X-154.668 Y-11.067 Z-2.005 
N135 X-154.675 Y-10.959 Z-1.889 
N136 X-154.681 Y-10.850 Z-1.773 
N137 X-154.688 Y-10.742 Z-1.656 
N138 X-154.694 Y-10.634 Z-1.540 
N139 X-154.700 Y-10.525 Z-1.424 
N140 X-154.707 Y-10.417 Z-1.308 
N141 X-154.713 Y-10.308 Z-1.191 
N142 X-154.719 Y-10.200 Z-1.075 
N143 X-154.725 Y-10.091 Z-0.959 
N144 X-154.731 Y-9.983 Z-0.843 
N145 X-154.737 Y-9.875 Z-0.726 
N146 X-154.742 Y-9.766 Z-0.610 
N147 X-154.748 Y-9.658 Z-0.494 
N148 X-154.753 Y-9.549 Z-0.378 
N149 X-154.759 Y-9.441 Z-0.261 
N150 X-154.764 Y-9.333 Z-0.145 
N151 X-154.769 Y-9.224 Z-0.029 
N152 X-154.775 Y-9.116 Z0.087 
N153 X-154.780 Y-9.007 Z0.204 
N154 X-154.785 Y-8.899 Z0.320 
N155 X-154.790 Y-8.790 Z0.436 
N156 X-154.794 Y-8.682 Z0.553 
N157 X-154.799 Y-8.573 Z0.669 
N158 X-154.804 Y-8.465 Z0.785 
N159 X-154.808 Y-8.357 Z0.901 
N160 X-154.813 Y-8.248 Z1.018 
N161 X-154.817 Y-8.140 Z1.134 
N162 X-154.821 Y-8.031 Z1.250 
N163 X-154.826 Y-7.923 Z1.367 
N164 X-154.830 Y-7.814 Z1.483 
N165 X-154.834 Y-7.706 Z1.599 
N166 X-154.838 Y-7.597 Z1.716 
N167 X-154.842 Y-7.489 Z1.832 
N168 X-154.845 Y-7.381 Z1.948 
N169 X-154.849 Y-7.272 Z2.064 
N170 X-154.853 Y-7.164 Z2.181 
N171 X-154.856 Y-7.055 Z2.297 
N172 X-154.860 Y-6.947 Z2.413 
N173 X-154.863 Y-6.838 Z2.530 
N174 X-154.866 Y-6.730 Z2.646 
N175 X-154.869 Y-6.621 Z2.762 
N176 X-154.872 Y-6.513 Z2.879 
N177 X-154.875 Y-6.404 Z2.995 
N178 X-154.878 Y-6.296 Z3.111 
N179 X-154.881 Y-6.187 Z3.228 
N180 X-154.884 Y-6.079 Z3.344 
N181 X-154.886 Y-5.970 Z3.460 
N182 X-154.889 Y-5.862 Z3.577 
N183 X-154.891 Y-5.754 Z3.693 
N184 X-154.894 Y-5.645 Z3.809 
N185 X-154.896 Y-5.537 Z3.926 
N186 X-154.898 Y-5.428 Z4.042 
N187 X-154.900 Y-5.320 Z4.158 
N188 X-154.902 Y-5.211 Z4.275 
N189 X-154.904 Y-5.103 Z4.391 
N190 X-154.906 Y-4.994 Z4.507 
N191 X-154.908 Y-4.886 Z4.624 
N192 X-154.910 Y-4.777 Z4.741 
N193 X-154.912 Y-4.668 Z4.858 
N194 X-154.913 Y-4.558 Z4.975 
N195 X-154.915 Y-4.449 Z5.092 
N196 X-154.917 Y-4.340 Z5.209 
N197 X-154.919 Y-4.231 Z5.326 
N198 X-154.921 Y-4.122 Z5.443 
N199 X-154.922 Y-4.013 Z5.560 
N200 X-154.924 Y-3.904 Z5.677 
N201 X-154.926 Y-3.795 Z5.794 
N202 X-154.928 Y-3.685 Z5.911 
N203 X-154.930 Y-3.576 Z6.028 
N204 X-154.932 Y-3.467 Z6.145 
N205 X-154.933 Y-3.358 Z6.262 
N206 X-154.935 Y-3.249 Z6.379 
N207 X-154.937 Y-3.140 Z6.496 
N208 X-154.939 Y-3.031 Z6.613 
N209 X-154.941 Y-2.922 Z6.730 
N210 X-154.942 Y-2.813 Z6.847 
N211 X-154.944 Y-2.703 Z6.964 
N212 X-154.946 Y-2.594 Z7.081 
N213 X-154.948 Y-2.485 Z7.198 
N214 X-154.950 Y-2.376 Z7.315 
N215 X-154.951 Y-2.267 Z7.432 
N216 X-154.953 Y-2.158 Z7.549 
N217 G40 X-154.954 Y-2.016 Z7.701 F595
N218 X-154.954 Y-2.016 Z7.701 
N219 X-154.955 Y-1.690 Z8.050 F1289 
N220 X-154.956 Y-1.181 Z8.596 F1566 
N221 X-154.958 Y-0.649 Z9.167 
N222 X-154.963 Y-0.117 Z9.737 
N223 X-154.970 Y0.414 Z10.307 
N224 X-154.982 Y0.946 Z10.877 
N225 X-154.999 Y1.478 Z11.448 
N226 X-155.022 Y2.009 Z12.018 
N227 X-155.054 Y2.541 Z12.587 
N228 X-155.094 Y3.072 Z13.157 
N229 X-155.145 Y3.602 Z13.726 
N230 X-155.209 Y4.132 Z14.294 
N231 X-155.292 Y4.661 Z14.861 
N232 X-155.438 Y5.182 Z15.420 
N233 X-155.559 Y4.694 Z14.896 
N234 X-155.576 Y4.186 Z14.352 A47.0106 
N235 X-155.582 Y3.615 Z13.739 
N236 X-155.582 Y3.117 Z13.205 
N237 X-155.579 Y2.607 Z12.658 
N238 X-155.575 Y2.078 Z12.091 F1289 
N239 X-155.571 Y1.699 Z11.685 F595 
N240 ;NNTE SemiFinishing
N241 D2 
N242 G41 X-155.571 Y1.563 Z11.538 F318 
N243 X-155.571 Y1.449 Z11.417 
N244 X-155.572 Y1.335 Z11.295 
N245 X-155.573 Y1.222 Z11.173 
N246 X-155.574 Y1.108 Z11.051 
N247 X-155.574 Y0.994 Z10.929 
N248 X-155.575 Y0.881 Z10.807 
N249 X-155.576 Y0.771 Z10.690 
N250 X-155.576 Y0.662 Z10.573 
N251 X-155.577 Y0.553 Z10.456 
N252 X-155.577 Y0.444 Z10.339 
N253 X-155.578 Y0.335 Z10.222 
N254 X-155.579 Y0.226 Z10.105 
N255 X-155.579 Y0.117 Z9.988 
N256 X-155.580 Y0.008 Z9.871 
N257 X-155.581 Y-0.102 Z9.754 
N258 X-155.581 Y-0.211 Z9.637 
N259 X-155.582 Y-0.320 Z9.520 
N260 X-155.583 Y-0.429 Z9.403 
N261 X-155.583 Y-0.538 Z9.286 
N262 X-155.584 Y-0.647 Z9.169 
N263 X-155.585 Y-0.756 Z9.052 
N264 X-155.585 Y-0.865 Z8.935 
N265 X-155.586 Y-0.974 Z8.818 
N266 X-155.587 Y-1.084 Z8.701 
N267 X-155.587 Y-1.193 Z8.584 
N268 X-155.588 Y-1.302 Z8.467 
N269 X-155.589 Y-1.411 Z8.350 
N270 X-155.589 Y-1.520 Z8.233 
N271 X-155.590 Y-1.629 Z8.116 
N272 X-155.591 Y-1.738 Z7.999 
N273 X-155.591 Y-1.847 Z7.882 
N274 X-155.592 Y-1.956 Z7.765 
N275 X-155.593 Y-2.065 Z7.648 
N276 X-155.593 Y-2.174 Z7.532 
N277 X-155.593 Y-2.283 Z7.415 
N278 X-155.594 Y-2.392 Z7.298 
N279 X-155.594 Y-2.500 Z7.181 
N280 X-155.594 Y-2.609 Z7.065 
N281 X-155.594 Y-2.718 Z6.948 
N282 X-155.594 Y-2.827 Z6.831 
N283 X-155.594 Y-2.936 Z6.714 
N284 X-155.594 Y-3.045 Z6.598 
N285 X-155.594 Y-3.154 Z6.481 
N286 X-155.594 Y-3.262 Z6.364 
N287 X-155.593 Y-3.371 Z6.248 
N288 X-155.593 Y-3.480 Z6.131 
N289 X-155.592 Y-3.589 Z6.014 
N290 X-155.591 Y-3.698 Z5.897 
N291 X-155.590 Y-3.807 Z5.781 
N292 X-155.590 Y-3.916 Z5.664 
N293 X-155.589 Y-4.024 Z5.547 
N294 X-155.588 Y-4.133 Z5.430 
N295 X-155.586 Y-4.242 Z5.314 
N296 X-155.585 Y-4.351 Z5.197 
N297 X-155.584 Y-4.460 Z5.080 
N298 X-155.582 Y-4.569 Z4.964 
N299 X-155.581 Y-4.677 Z4.847 
N300 X-155.579 Y-4.786 Z4.730 
N301 X-155.578 Y-4.895 Z4.613 
N302 X-155.576 Y-5.004 Z4.497 
N303 X-155.574 Y-5.113 Z4.380 
N304 X-155.572 Y-5.222 Z4.263 
N305 X-155.570 Y-5.330 Z4.147 
N306 X-155.568 Y-5.439 Z4.030 
N307 X-155.566 Y-5.548 Z3.913 
N308 X-155.564 Y-5.657 Z3.796 
N309 X-155.561 Y-5.766 Z3.680 
N310 X-155.559 Y-5.875 Z3.563 
N311 X-155.556 Y-5.984 Z3.446 
N312 X-155.554 Y-6.092 Z3.330 
N313 X-155.551 Y-6.201 Z3.213 
N314 X-155.548 Y-6.310 Z3.096 
N315 X-155.545 Y-6.419 Z2.979 
N316 X-155.542 Y-6.528 Z2.863 
N317 X-155.539 Y-6.637 Z2.746 
N318 X-155.536 Y-6.745 Z2.629 
N319 X-155.533 Y-6.854 Z2.513 
N320 X-155.529 Y-6.963 Z2.396 
N321 X-155.526 Y-7.072 Z2.279 
N322 X-155.522 Y-7.181 Z2.163 
N323 X-155.519 Y-7.289 Z2.046 
N324 X-155.515 Y-7.398 Z1.929 
N325 X-155.511 Y-7.507 Z1.812 
N326 X-155.507 Y-7.616 Z1.696 
N327 X-155.503 Y-7.725 Z1.579 
N328 X-155.499 Y-7.834 Z1.462 
N329 X-155.495 Y-7.942 Z1.346 
N330 X-155.491 Y-8.051 Z1.229 
N331 X-155.487 Y-8.160 Z1.112 
N332 X-155.482 Y-8.269 Z0.996 
N333 X-155.478 Y-8.378 Z0.879 
N334 X-155.473 Y-8.486 Z0.762 
N335 X-155.468 Y-8.595 Z0.646 
N336 X-155.464 Y-8.704 Z0.529 
N337 X-155.459 Y-8.813 Z0.412 
N338 X-155.454 Y-8.922 Z0.296 
N339 X-155.449 Y-9.030 Z0.179 
N340 X-155.444 Y-9.139 Z0.062 
N341 X-155.439 Y-9.248 Z-0.054 
N342 X-155.433 Y-9.357 Z-0.171 
N343 X-155.428 Y-9.466 Z-0.288 
N344 X-155.423 Y-9.574 Z-0.404 
N345 X-155.417 Y-9.683 Z-0.521 
N346 X-155.411 Y-9.792 Z-0.638 
N347 X-155.406 Y-9.901 Z-0.754 
N348 X-155.400 Y-10.009 Z-0.871 
N349 X-155.394 Y-10.118 Z-0.988 
N350 X-155.388 Y-10.227 Z-1.104 
N351 X-155.382 Y-10.336 Z-1.221 
N352 X-155.376 Y-10.445 Z-1.338 
N353 X-155.369 Y-10.553 Z-1.454 
N354 X-155.363 Y-10.662 Z-1.571 
N355 X-155.357 Y-10.771 Z-1.687 
N356 X-155.350 Y-10.880 Z-1.804 
N357 X-155.343 Y-10.988 Z-1.921 
N358 X-155.337 Y-11.097 Z-2.037 
N359 X-155.330 Y-11.206 Z-2.154 
N360 X-155.323 Y-11.315 Z-2.271 
N361 X-155.316 Y-11.423 Z-2.387 
N362 X-155.309 Y-11.532 Z-2.504 
N363 X-155.302 Y-11.641 Z-2.620 
N364 X-155.295 Y-11.750 Z-2.737 
N365 X-155.287 Y-11.858 Z-2.854 
N366 X-155.280 Y-11.967 Z-2.970 
N367 X-155.272 Y-12.076 Z-3.087 
N368 X-155.265 Y-12.184 Z-3.203 
N369 X-155.257 Y-12.293 Z-3.320 
N370 X-155.250 Y-12.402 Z-3.437 
N371 X-155.242 Y-12.511 Z-3.553 
N372 X-155.234 Y-12.619 Z-3.670 
N373 X-155.226 Y-12.728 Z-3.786 
N374 X-155.218 Y-12.837 Z-3.903 
N375 X-155.209 Y-12.945 Z-4.020 
N376 X-155.201 Y-13.054 Z-4.136 
N377 X-155.193 Y-13.163 Z-4.253 
N378 X-155.184 Y-13.272 Z-4.369 
N379 X-155.176 Y-13.380 Z-4.486 
N380 X-155.167 Y-13.489 Z-4.602 
N381 X-155.158 Y-13.598 Z-4.719 
N382 X-155.150 Y-13.706 Z-4.835 
N383 X-155.141 Y-13.815 Z-4.952 
N384 X-155.132 Y-13.924 Z-5.069 
N385 X-155.123 Y-14.033 Z-5.186 
N386 X-155.114 Y-14.142 Z-5.303 
N387 X-155.106 Y-14.251 Z-5.420 
N388 X-155.097 Y-14.360 Z-5.536 
N389 X-155.088 Y-14.469 Z-5.653 
N390 X-155.079 Y-14.578 Z-5.770 
N391 X-155.071 Y-14.687 Z-5.887 
N392 X-155.062 Y-14.796 Z-6.004 
N393 X-155.053 Y-14.905 Z-6.121 
N394 X-155.044 Y-15.014 Z-6.238 
N395 X-155.035 Y-15.123 Z-6.354 
N396 X-155.027 Y-15.232 Z-6.471 
N397 X-155.018 Y-15.341 Z-6.588 
N398 X-155.009 Y-15.450 Z-6.705 
N399 X-155.000 Y-15.559 Z-6.822 
N400 X-154.992 Y-15.668 Z-6.939 
N401 X-154.983 Y-15.776 Z-7.055 
N402 X-154.974 Y-15.885 Z-7.172 
N403 X-154.965 Y-15.994 Z-7.289 
N404 X-154.956 Y-16.103 Z-7.406 
N405 X-154.948 Y-16.212 Z-7.523 
N406 X-154.939 Y-16.321 Z-7.640 
N407 X-154.930 Y-16.430 Z-7.756 
N408 G40 X-154.381 Y-23.240 Z-15.059 F318
N409 X-154.381 Y-23.240 Z-15.059 
N410 G00 X-154.380 Y-59.819 Z19.028 
;RAPORT("TB123456","Side Milling:141 End")
;trailer : concat=None
; points cnt = 359
N412 MSG (" --- GROUPED OF SUBPROGRAM --- ")
N413 FGROUP()
N414 TRAFOOF
; PROGRAM NAME: B12345647
; ORDER       : B123456
; OPER. NAME  : Side Milling:142
; OPER. DESCR.: HHU finish milling NGE
; OPER. TYPE  : sideMill
; GEO. OPTION : 3
; MACHINE     : HSTM_500_SIM840D_Py
;             : HSTM500 - HAMUEL: 5-axis milling machine - SIM840D Traori PP_Script
; CONTROL     : SINUMERIK 840D
; created:   2023-06-06 12:05:15.683743
;-------DODATKOWE DANE-------------------
; PROGRAMISTA : Mariusz Malec
; PARTID      : 306T001953P1010_-
;  ap         : 19.0
;  ae         : 6.4
;  lean_angle : 0.02
;  fin_offset : 0.03
;----------------------------------------
;RAPORT("TB123456","Side Milling:142")
N10 TRAFOOF
N11 D0
N12 G90 G94
N13 G0 G53 D0 Z550 B0
N14 STOPRE
M9 ; chlodziwo wyl
; --- Side Milling:142 - HHU finish milling NGE ---
N16 ;ToolChange : concat=None ,current_tdmid=None, PP.tdmId=940729
N17 TRAFOOF
N18 G0 G53 D0 Z550 B0
N19 STOPRE
N20 MSG(" TLID=940729 D=8.0 R=2.0 Ang=0.0 Len=111.0 ")
N21 S3978 M03
N22 STOPRE
N23 CYCLE832(0.01,1,1)
N24 G0 G53 A46.9801 B-0.0014
N25 TRAORI
N26 G54 D1
;tol5=0.03
N27 D1 
STOPRE
E_ZDARZ=300010
;ACS_FINISH_SLOT=7740729
STOPRE
;UWAGA : ZMIENIONA TOLERANCJA OSI A i B, ruchy osi A i B beda usuniete : TOL5=0.03
N28 ; DELTA A > 40.1
N29 TRAFOOF
N30 D1
N31 STOPRE
N32 G00 G54 Z275.000
N33 G01 A46.9801 F10000
N34 TRAORI
N35 G54 D1
N36 STOPRE
N37 TRANS 
N38 G00 X-153.109 Y-70.793 Z21.967 A46.9801 
N39 M342 ; chlodziwo woda
N40 X-153.108 Y-34.238 Z-12.146 
N41 G01 X-153.142 Y-31.645 Z-13.896 F318 
N42 X-153.242 Y-28.639 Z-14.761 
N43 X-153.397 Y-25.516 Z-14.656 
N44 X-153.593 Y-22.581 Z-13.591 
N45 ;NTE Finishing
N46 D1 
N47 G41 X-153.810 Y-20.121 Z-11.670 
N48 X-153.821 Y-20.007 Z-11.549 
N49 X-153.833 Y-19.894 Z-11.427 
N50 X-153.845 Y-19.781 Z-11.305 
N51 X-153.857 Y-19.667 Z-11.184 
N52 X-153.868 Y-19.554 Z-11.062 
N53 X-153.880 Y-19.440 Z-10.941 
N54 X-153.891 Y-19.332 Z-10.824 
N55 X-153.902 Y-19.223 Z-10.707 
N56 X-153.914 Y-19.114 Z-10.590 
N57 X-153.925 Y-19.005 Z-10.474 
N58 X-153.936 Y-18.896 Z-10.357 
N59 X-153.947 Y-18.787 Z-10.240 
N60 X-153.959 Y-18.679 Z-10.123 
N61 X-153.970 Y-18.570 Z-10.007 
N62 X-153.981 Y-18.461 Z-9.890 
N63 X-153.992 Y-18.352 Z-9.773 
N64 X-154.003 Y-18.243 Z-9.657 
N65 X-154.015 Y-18.134 Z-9.540 
N66 X-154.026 Y-18.025 Z-9.423 
N67 X-154.037 Y-17.917 Z-9.306 
N68 X-154.048 Y-17.808 Z-9.190 
N69 X-154.060 Y-17.699 Z-9.073 
N70 X-154.071 Y-17.590 Z-8.956 
N71 X-154.082 Y-17.481 Z-8.839 
N72 X-154.093 Y-17.372 Z-8.723 
N73 X-154.104 Y-17.263 Z-8.606 
N74 X-154.116 Y-17.155 Z-8.489 
N75 X-154.127 Y-17.046 Z-8.373 
N76 X-154.138 Y-16.937 Z-8.256 
N77 X-154.149 Y-16.828 Z-8.139 
N78 X-154.161 Y-16.719 Z-8.022 
N79 X-154.172 Y-16.611 Z-7.906 
N80 X-154.183 Y-16.503 Z-7.790 
N81 X-154.194 Y-16.395 Z-7.674 
N82 X-154.205 Y-16.286 Z-7.558 
N83 X-154.216 Y-16.178 Z-7.442 
N84 X-154.227 Y-16.070 Z-7.326 
N85 X-154.237 Y-15.962 Z-7.210 
N86 X-154.248 Y-15.853 Z-7.094 
N87 X-154.258 Y-15.745 Z-6.978 
N88 X-154.269 Y-15.637 Z-6.862 
N89 X-154.279 Y-15.529 Z-6.746 
N90 X-154.289 Y-15.421 Z-6.630 
N91 X-154.300 Y-15.312 Z-6.514 
N92 X-154.310 Y-15.204 Z-6.398 
N93 X-154.320 Y-15.096 Z-6.281 
N94 X-154.330 Y-14.988 Z-6.165 
N95 X-154.339 Y-14.879 Z-6.049 
N96 X-154.349 Y-14.771 Z-5.933 
N97 X-154.359 Y-14.663 Z-5.817 
N98 X-154.368 Y-14.554 Z-5.701 
N99 X-154.378 Y-14.446 Z-5.585 
N100 X-154.387 Y-14.338 Z-5.469 
N101 X-154.397 Y-14.230 Z-5.353 
N102 X-154.406 Y-14.121 Z-5.236 
N103 X-154.415 Y-14.013 Z-5.120 
N104 X-154.424 Y-13.905 Z-5.004 
N105 X-154.433 Y-13.796 Z-4.888 
N106 X-154.442 Y-13.688 Z-4.772 
N107 X-154.450 Y-13.580 Z-4.656 
N108 X-154.459 Y-13.471 Z-4.540 
N109 X-154.468 Y-13.363 Z-4.423 
N110 X-154.476 Y-13.255 Z-4.307 
N111 X-154.485 Y-13.147 Z-4.191 
N112 X-154.493 Y-13.038 Z-4.075 
N113 X-154.501 Y-12.930 Z-3.959 
N114 X-154.509 Y-12.822 Z-3.843 
N115 X-154.518 Y-12.713 Z-3.726 
N116 X-154.526 Y-12.605 Z-3.610 
N117 X-154.533 Y-12.497 Z-3.494 
N118 X-154.541 Y-12.388 Z-3.378 
N119 X-154.549 Y-12.280 Z-3.262 
N120 X-154.557 Y-12.172 Z-3.146 
N121 X-154.564 Y-12.063 Z-3.029 
N122 X-154.572 Y-11.955 Z-2.913 
N123 X-154.579 Y-11.846 Z-2.797 
N124 X-154.586 Y-11.738 Z-2.681 
N125 X-154.593 Y-11.630 Z-2.565 
N126 X-154.601 Y-11.521 Z-2.448 
N127 X-154.608 Y-11.413 Z-2.332 
N128 X-154.614 Y-11.305 Z-2.216 
N129 X-154.621 Y-11.196 Z-2.100 
N130 X-154.628 Y-11.088 Z-1.983 
N131 X-154.635 Y-10.979 Z-1.867 
N132 X-154.641 Y-10.871 Z-1.751 
N133 X-154.648 Y-10.763 Z-1.635 
N134 X-154.654 Y-10.654 Z-1.519 
N135 X-154.661 Y-10.546 Z-1.402 
N136 X-154.667 Y-10.438 Z-1.286 
N137 X-154.673 Y-10.329 Z-1.170 
N138 X-154.679 Y-10.221 Z-1.054 
N139 X-154.685 Y-10.112 Z-0.937 
N140 X-154.691 Y-10.004 Z-0.821 
N141 X-154.697 Y-9.896 Z-0.705 
N142 X-154.702 Y-9.787 Z-0.589 
N143 X-154.708 Y-9.679 Z-0.472 
N144 X-154.713 Y-9.570 Z-0.356 
N145 X-154.719 Y-9.462 Z-0.240 
N146 X-154.724 Y-9.354 Z-0.124 
N147 X-154.729 Y-9.245 Z-0.007 
N148 X-154.735 Y-9.137 Z0.109 
N149 X-154.740 Y-9.028 Z0.225 
N150 X-154.745 Y-8.920 Z0.341 
N151 X-154.750 Y-8.811 Z0.458 
N152 X-154.754 Y-8.703 Z0.574 
N153 X-154.759 Y-8.595 Z0.690 
N154 X-154.764 Y-8.486 Z0.806 
N155 X-154.768 Y-8.378 Z0.923 
N156 X-154.773 Y-8.269 Z1.039 
N157 X-154.777 Y-8.161 Z1.155 
N158 X-154.782 Y-8.052 Z1.272 
N159 X-154.786 Y-7.944 Z1.388 
N160 X-154.790 Y-7.836 Z1.504 
N161 X-154.794 Y-7.727 Z1.620 
N162 X-154.798 Y-7.619 Z1.737 
N163 X-154.802 Y-7.510 Z1.853 
N164 X-154.805 Y-7.402 Z1.969 
N165 X-154.809 Y-7.293 Z2.086 
N166 X-154.813 Y-7.185 Z2.202 
N167 X-154.816 Y-7.077 Z2.318 
N168 X-154.820 Y-6.968 Z2.434 
N169 X-154.823 Y-6.860 Z2.551 
N170 X-154.826 Y-6.751 Z2.667 
N171 X-154.829 Y-6.643 Z2.783 
N172 X-154.832 Y-6.534 Z2.900 
N173 X-154.835 Y-6.426 Z3.016 
N174 X-154.838 Y-6.317 Z3.132 
N175 X-154.841 Y-6.209 Z3.249 
N176 X-154.844 Y-6.100 Z3.365 
N177 X-154.846 Y-5.992 Z3.481 
N178 X-154.849 Y-5.884 Z3.597 
N179 X-154.851 Y-5.775 Z3.714 
N180 X-154.854 Y-5.667 Z3.830 
N181 X-154.856 Y-5.558 Z3.946 
N182 X-154.858 Y-5.450 Z4.063 
N183 X-154.860 Y-5.341 Z4.179 
N184 X-154.862 Y-5.233 Z4.295 
N185 X-154.864 Y-5.124 Z4.412 
N186 X-154.866 Y-5.016 Z4.528 
N187 X-154.868 Y-4.907 Z4.644 
N188 X-154.870 Y-4.798 Z4.761 
N189 X-154.872 Y-4.689 Z4.878 
N190 X-154.873 Y-4.580 Z4.995 
N191 X-154.875 Y-4.471 Z5.112 
N192 X-154.877 Y-4.362 Z5.229 
N193 X-154.879 Y-4.253 Z5.346 
N194 X-154.881 Y-4.144 Z5.463 
N195 X-154.882 Y-4.034 Z5.580 
N196 X-154.884 Y-3.925 Z5.697 
N197 X-154.886 Y-3.816 Z5.814 
N198 X-154.888 Y-3.707 Z5.931 
N199 X-154.890 Y-3.598 Z6.048 
N200 X-154.892 Y-3.489 Z6.165 
N201 X-154.893 Y-3.380 Z6.282 
N202 X-154.895 Y-3.271 Z6.399 
N203 X-154.897 Y-3.162 Z6.516 
N204 X-154.899 Y-3.052 Z6.633 
N205 X-154.901 Y-2.943 Z6.750 
N206 X-154.902 Y-2.834 Z6.867 
N207 X-154.904 Y-2.725 Z6.984 
N208 X-154.906 Y-2.616 Z7.101 
N209 X-154.908 Y-2.507 Z7.218 
N210 X-154.910 Y-2.398 Z7.335 
N211 X-154.911 Y-2.289 Z7.453 
N212 X-154.913 Y-2.180 Z7.570 
N213 G40 X-154.914 Y-2.038 Z7.722 F595
N214 X-154.914 Y-2.038 Z7.722 
N215 X-154.915 Y-1.712 Z8.071 F1290 
N216 X-154.916 Y-1.201 Z8.618 F1568 
N217 X-154.919 Y-0.669 Z9.189 
N218 X-154.924 Y-0.137 Z9.760 
N219 X-154.932 Y0.395 Z10.331 
N220 X-154.946 Y0.928 Z10.901 
N221 X-154.965 Y1.460 Z11.472 
N222 X-154.991 Y1.992 Z12.043 
N223 X-155.026 Y2.523 Z12.613 
N224 X-155.072 Y3.055 Z13.183 
N225 X-155.129 Y3.586 Z13.752 
N226 X-155.201 Y4.116 Z14.320 
N227 X-155.294 Y4.644 Z14.887 
N228 X-155.458 Y5.162 Z15.443 
N229 X-155.593 Y4.674 Z14.919 
N230 X-155.613 Y4.164 Z14.372 A47.0106 
N231 X-155.621 Y3.596 Z13.763 
N232 X-155.622 Y3.094 Z13.225 
N233 X-155.619 Y2.583 Z12.677 
N234 X-155.615 Y2.054 Z12.109 F1290 
N235 X-155.611 Y1.679 Z11.707 F595 
N236 ;NNTE Finishing
N237 D2 
N238 G41 X-155.611 Y1.541 Z11.559 F318 
N239 X-155.611 Y1.427 Z11.437 
N240 X-155.612 Y1.313 Z11.315 
N241 X-155.613 Y1.200 Z11.193 
N242 X-155.614 Y1.086 Z11.071 
N243 X-155.614 Y0.972 Z10.950 
N244 X-155.615 Y0.859 Z10.828 
N245 X-155.616 Y0.750 Z10.711 
N246 X-155.616 Y0.641 Z10.594 
N247 X-155.617 Y0.531 Z10.477 
N248 X-155.617 Y0.422 Z10.360 
N249 X-155.618 Y0.313 Z10.243 
N250 X-155.619 Y0.204 Z10.126 
N251 X-155.619 Y0.095 Z10.009 
N252 X-155.620 Y-0.014 Z9.892 
N253 X-155.621 Y-0.123 Z9.775 
N254 X-155.621 Y-0.232 Z9.658 
N255 X-155.622 Y-0.342 Z9.541 
N256 X-155.623 Y-0.451 Z9.424 
N257 X-155.623 Y-0.560 Z9.306 
N258 X-155.624 Y-0.669 Z9.189 
N259 X-155.625 Y-0.778 Z9.072 
N260 X-155.625 Y-0.887 Z8.955 
N261 X-155.626 Y-0.996 Z8.838 
N262 X-155.627 Y-1.105 Z8.721 
N263 X-155.627 Y-1.215 Z8.604 
N264 X-155.628 Y-1.324 Z8.487 
N265 X-155.629 Y-1.433 Z8.370 
N266 X-155.629 Y-1.542 Z8.253 
N267 X-155.630 Y-1.651 Z8.136 
N268 X-155.631 Y-1.760 Z8.019 
N269 X-155.631 Y-1.869 Z7.902 
N270 X-155.632 Y-1.978 Z7.786 
N271 X-155.633 Y-2.087 Z7.669 
N272 X-155.633 Y-2.196 Z7.552 
N273 X-155.633 Y-2.305 Z7.435 
N274 X-155.634 Y-2.414 Z7.319 
N275 X-155.634 Y-2.522 Z7.202 
N276 X-155.634 Y-2.631 Z7.085 
N277 X-155.634 Y-2.740 Z6.968 
N278 X-155.634 Y-2.849 Z6.852 
N279 X-155.634 Y-2.958 Z6.735 
N280 X-155.634 Y-3.067 Z6.618 
N281 X-155.634 Y-3.176 Z6.501 
N282 X-155.634 Y-3.284 Z6.385 
N283 X-155.633 Y-3.393 Z6.268 
N284 X-155.633 Y-3.502 Z6.151 
N285 X-155.632 Y-3.611 Z6.034 
N286 X-155.631 Y-3.720 Z5.918 
N287 X-155.630 Y-3.829 Z5.801 
N288 X-155.630 Y-3.938 Z5.684 
N289 X-155.629 Y-4.046 Z5.567 
N290 X-155.628 Y-4.155 Z5.451 
N291 X-155.626 Y-4.264 Z5.334 
N292 X-155.625 Y-4.373 Z5.217 
N293 X-155.624 Y-4.482 Z5.101 
N294 X-155.622 Y-4.591 Z4.984 
N295 X-155.621 Y-4.700 Z4.867 
N296 X-155.619 Y-4.809 Z4.750 
N297 X-155.618 Y-4.917 Z4.634 
N298 X-155.616 Y-5.026 Z4.517 
N299 X-155.614 Y-5.135 Z4.400 
N300 X-155.612 Y-5.244 Z4.283 
N301 X-155.610 Y-5.353 Z4.167 
N302 X-155.608 Y-5.462 Z4.050 
N303 X-155.606 Y-5.570 Z3.933 
N304 X-155.604 Y-5.679 Z3.816 
N305 X-155.601 Y-5.788 Z3.700 
N306 X-155.599 Y-5.897 Z3.583 
N307 X-155.596 Y-6.006 Z3.466 
N308 X-155.594 Y-6.115 Z3.350 
N309 X-155.591 Y-6.224 Z3.233 
N310 X-155.588 Y-6.332 Z3.116 
N311 X-155.585 Y-6.441 Z2.999 
N312 X-155.582 Y-6.550 Z2.883 
N313 X-155.579 Y-6.659 Z2.766 
N314 X-155.576 Y-6.768 Z2.649 
N315 X-155.573 Y-6.877 Z2.532 
N316 X-155.569 Y-6.986 Z2.416 
N317 X-155.566 Y-7.094 Z2.299 
N318 X-155.562 Y-7.203 Z2.182 
N319 X-155.559 Y-7.312 Z2.066 
N320 X-155.555 Y-7.421 Z1.949 
N321 X-155.551 Y-7.530 Z1.832 
N322 X-155.547 Y-7.639 Z1.715 
N323 X-155.543 Y-7.747 Z1.599 
N324 X-155.539 Y-7.856 Z1.482 
N325 X-155.535 Y-7.965 Z1.365 
N326 X-155.531 Y-8.074 Z1.249 
N327 X-155.527 Y-8.183 Z1.132 
N328 X-155.522 Y-8.291 Z1.015 
N329 X-155.518 Y-8.400 Z0.899 
N330 X-155.513 Y-8.509 Z0.782 
N331 X-155.508 Y-8.618 Z0.665 
N332 X-155.504 Y-8.727 Z0.548 
N333 X-155.499 Y-8.836 Z0.432 
N334 X-155.494 Y-8.944 Z0.315 
N335 X-155.489 Y-9.053 Z0.198 
N336 X-155.484 Y-9.162 Z0.082 
N337 X-155.479 Y-9.271 Z-0.035 
N338 X-155.473 Y-9.380 Z-0.152 
N339 X-155.468 Y-9.488 Z-0.268 
N340 X-155.463 Y-9.597 Z-0.385 
N341 X-155.457 Y-9.706 Z-0.502 
N342 X-155.451 Y-9.815 Z-0.618 
N343 X-155.446 Y-9.924 Z-0.735 
N344 X-155.440 Y-10.032 Z-0.852 
N345 X-155.434 Y-10.141 Z-0.968 
N346 X-155.428 Y-10.250 Z-1.085 
N347 X-155.422 Y-10.359 Z-1.202 
N348 X-155.416 Y-10.468 Z-1.318 
N349 X-155.409 Y-10.576 Z-1.435 
N350 X-155.403 Y-10.685 Z-1.552 
N351 X-155.397 Y-10.794 Z-1.668 
N352 X-155.390 Y-10.903 Z-1.785 
N353 X-155.383 Y-11.011 Z-1.901 
N354 X-155.377 Y-11.120 Z-2.018 
N355 X-155.370 Y-11.229 Z-2.135 
N356 X-155.363 Y-11.338 Z-2.251 
N357 X-155.356 Y-11.446 Z-2.368 
N358 X-155.349 Y-11.555 Z-2.485 
N359 X-155.342 Y-11.664 Z-2.601 
N360 X-155.335 Y-11.773 Z-2.718 
N361 X-155.327 Y-11.881 Z-2.835 
N362 X-155.320 Y-11.990 Z-2.951 
N363 X-155.312 Y-12.099 Z-3.068 
N364 X-155.305 Y-12.208 Z-3.184 
N365 X-155.297 Y-12.316 Z-3.301 
N366 X-155.289 Y-12.425 Z-3.418 
N367 X-155.282 Y-12.534 Z-3.534 
N368 X-155.274 Y-12.643 Z-3.651 
N369 X-155.266 Y-12.751 Z-3.767 
N370 X-155.258 Y-12.860 Z-3.884 
N371 X-155.249 Y-12.969 Z-4.001 
N372 X-155.241 Y-13.078 Z-4.117 
N373 X-155.233 Y-13.186 Z-4.234 
N374 X-155.224 Y-13.295 Z-4.350 
N375 X-155.216 Y-13.404 Z-4.467 
N376 X-155.207 Y-13.512 Z-4.583 
N377 X-155.198 Y-13.621 Z-4.700 
N378 X-155.190 Y-13.730 Z-4.817 
N379 X-155.181 Y-13.839 Z-4.933 
N380 X-155.172 Y-13.948 Z-5.050 
N381 X-155.163 Y-14.057 Z-5.167 
N382 X-155.154 Y-14.166 Z-5.284 
N383 X-155.146 Y-14.275 Z-5.401 
N384 X-155.137 Y-14.384 Z-5.518 
N385 X-155.128 Y-14.492 Z-5.634 
N386 X-155.119 Y-14.601 Z-5.751 
N387 X-155.111 Y-14.710 Z-5.868 
N388 X-155.102 Y-14.819 Z-5.985 
N389 X-155.093 Y-14.928 Z-6.102 
N390 X-155.084 Y-15.037 Z-6.219 
N391 X-155.075 Y-15.146 Z-6.336 
N392 X-155.067 Y-15.255 Z-6.452 
N393 X-155.058 Y-15.364 Z-6.569 
N394 X-155.049 Y-15.473 Z-6.686 
N395 X-155.040 Y-15.582 Z-6.803 
N396 X-155.032 Y-15.691 Z-6.920 
N397 X-155.023 Y-15.800 Z-7.037 
N398 X-155.014 Y-15.909 Z-7.153 
N399 X-155.005 Y-16.018 Z-7.270 
N400 X-154.996 Y-16.127 Z-7.387 
N401 X-154.988 Y-16.236 Z-7.504 
N402 X-154.979 Y-16.345 Z-7.621 
N403 X-154.970 Y-16.454 Z-7.738 
N404 G40 X-154.421 Y-23.263 Z-15.040 F318
N405 X-154.421 Y-23.263 Z-15.040 
N406 G00 X-154.420 Y-59.843 Z19.047 
;RAPORT("TB123456","Side Milling:142 End")
;trailer : concat=None
; points cnt = 359
N408 MSG (" --- GROUPED OF SUBPROGRAM --- ")
N409 FGROUP()
N410 TRAFOOF
; PROGRAM NAME: B12345647
; ORDER       : B123456
; OPER. NAME  : Side Milling:143
; OPER. DESCR.: HHU SemiFinish milling NGA
; OPER. TYPE  : sideMill
; GEO. OPTION : 3
; MACHINE     : HSTM_500_SIM840D_Py
;             : HSTM500 - HAMUEL: 5-axis milling machine - SIM840D Traori PP_Script
; CONTROL     : SINUMERIK 840D
; created:   2023-06-06 12:05:20.166498
;-------DODATKOWE DANE-------------------
; PROGRAMISTA : Mariusz Malec
; PARTID      : 306T001953P1010_-
;  ap         : 19.0
;  ae         : 6.4
;  lean_angle : 0.02
;  fin_offset : 0.0
;----------------------------------------
;RAPORT("TB123456","Side Milling:143")
N10 TRAFOOF
N11 D0
N12 G90 G94
N13 G0 G53 D0 Z550 B0
N14 STOPRE
M9 ; chlodziwo wyl
; --- Side Milling:143 - HHU SemiFinish milling NGA ---
N16 ;ToolChange : concat=None ,current_tdmid=None, PP.tdmId=940729
N17 TRAFOOF
N18 G0 G53 D0 Z550 B0
N19 STOPRE
N20 MSG(" TLID=940729 D=8.0 R=2.0 Ang=0.0 Len=111.0 ")
N21 S3978 M03
N22 STOPRE
N23 CYCLE832(0.01,1,1)
N24 G0 G53 A226.9800 B-0.0014
N25 TRAORI
N26 G54 D3
;tol5=0.03
N27 D1 
STOPRE
E_ZDARZ=300010
;ACS_FINISH_SLOT=7740729
STOPRE
;UWAGA : ZMIENIONA TOLERANCJA OSI A i B, ruchy osi A i B beda usuniete : TOL5=0.03
N28 ; DELTA A > 40.1
N29 TRAFOOF
N30 D1
N31 STOPRE
N32 G00 G54 Z275.000
N33 G01 A226.9800 F10000
N34 TRAORI
N35 G54 D1
N36 STOPRE
N37 TRANS 
N38 G00 X-153.235 Y73.366 Z-16.743 A226.9800 
N39 M342 ; chlodziwo woda
N40 X-153.233 Y36.810 Z17.370 
N41 G01 X-153.267 Y34.217 Z19.120 F318 
N42 X-153.363 Y31.212 Z19.985 
N43 X-153.513 Y28.089 Z19.880 
N44 X-153.702 Y25.153 Z18.814 
N45 ;NTA SemiFinishing
N46 D3 
N47 G41 X-153.911 Y22.692 Z16.893 
N48 X-153.922 Y22.579 Z16.772 
N49 X-153.933 Y22.466 Z16.650 
N50 X-153.945 Y22.352 Z16.528 
N51 X-153.956 Y22.239 Z16.407 
N52 X-153.967 Y22.125 Z16.285 
N53 X-153.979 Y22.012 Z16.164 
N54 X-153.989 Y21.903 Z16.047 
N55 X-154.000 Y21.794 Z15.930 
N56 X-154.011 Y21.685 Z15.813 
N57 X-154.022 Y21.576 Z15.697 
N58 X-154.033 Y21.468 Z15.580 
N59 X-154.044 Y21.359 Z15.463 
N60 X-154.054 Y21.250 Z15.346 
N61 X-154.065 Y21.141 Z15.230 
N62 X-154.076 Y21.032 Z15.113 
N63 X-154.087 Y20.923 Z14.996 
N64 X-154.098 Y20.814 Z14.879 
N65 X-154.109 Y20.705 Z14.763 
N66 X-154.119 Y20.597 Z14.646 
N67 X-154.130 Y20.488 Z14.529 
N68 X-154.141 Y20.379 Z14.412 
N69 X-154.152 Y20.270 Z14.296 
N70 X-154.163 Y20.161 Z14.179 
N71 X-154.174 Y20.052 Z14.062 
N72 X-154.184 Y19.943 Z13.945 
N73 X-154.195 Y19.835 Z13.829 
N74 X-154.206 Y19.726 Z13.712 
N75 X-154.217 Y19.617 Z13.595 
N76 X-154.228 Y19.508 Z13.478 
N77 X-154.239 Y19.399 Z13.362 
N78 X-154.249 Y19.290 Z13.245 
N79 X-154.260 Y19.182 Z13.129 
N80 X-154.271 Y19.074 Z13.013 
N81 X-154.282 Y18.966 Z12.897 
N82 X-154.292 Y18.857 Z12.781 
N83 X-154.303 Y18.749 Z12.665 
N84 X-154.313 Y18.641 Z12.549 
N85 X-154.323 Y18.533 Z12.433 
N86 X-154.334 Y18.425 Z12.317 
N87 X-154.344 Y18.316 Z12.200 
N88 X-154.354 Y18.208 Z12.084 
N89 X-154.364 Y18.100 Z11.968 
N90 X-154.374 Y17.992 Z11.852 
N91 X-154.384 Y17.883 Z11.736 
N92 X-154.393 Y17.775 Z11.620 
N93 X-154.403 Y17.667 Z11.504 
N94 X-154.412 Y17.559 Z11.388 
N95 X-154.422 Y17.450 Z11.272 
N96 X-154.431 Y17.342 Z11.156 
N97 X-154.440 Y17.234 Z11.040 
N98 X-154.449 Y17.126 Z10.924 
N99 X-154.459 Y17.017 Z10.807 
N100 X-154.468 Y16.909 Z10.691 
N101 X-154.476 Y16.801 Z10.575 
N102 X-154.485 Y16.692 Z10.459 
N103 X-154.494 Y16.584 Z10.343 
N104 X-154.503 Y16.476 Z10.227 
N105 X-154.511 Y16.368 Z10.111 
N106 X-154.520 Y16.259 Z9.995 
N107 X-154.528 Y16.151 Z9.878 
N108 X-154.536 Y16.043 Z9.762 
N109 X-154.545 Y15.934 Z9.646 
N110 X-154.553 Y15.826 Z9.530 
N111 X-154.561 Y15.718 Z9.414 
N112 X-154.569 Y15.609 Z9.298 
N113 X-154.577 Y15.501 Z9.182 
N114 X-154.584 Y15.393 Z9.065 
N115 X-154.592 Y15.284 Z8.949 
N116 X-154.600 Y15.176 Z8.833 
N117 X-154.607 Y15.068 Z8.717 
N118 X-154.615 Y14.959 Z8.601 
N119 X-154.622 Y14.851 Z8.485 
N120 X-154.629 Y14.743 Z8.368 
N121 X-154.636 Y14.634 Z8.252 
N122 X-154.643 Y14.526 Z8.136 
N123 X-154.650 Y14.418 Z8.020 
N124 X-154.657 Y14.309 Z7.904 
N125 X-154.664 Y14.201 Z7.787 
N126 X-154.671 Y14.093 Z7.671 
N127 X-154.677 Y13.984 Z7.555 
N128 X-154.684 Y13.876 Z7.439 
N129 X-154.690 Y13.768 Z7.323 
N130 X-154.697 Y13.659 Z7.206 
N131 X-154.703 Y13.551 Z7.090 
N132 X-154.709 Y13.443 Z6.974 
N133 X-154.715 Y13.334 Z6.858 
N134 X-154.721 Y13.226 Z6.742 
N135 X-154.727 Y13.117 Z6.625 
N136 X-154.733 Y13.009 Z6.509 
N137 X-154.739 Y12.901 Z6.393 
N138 X-154.744 Y12.792 Z6.277 
N139 X-154.750 Y12.684 Z6.161 
N140 X-154.756 Y12.576 Z6.044 
N141 X-154.761 Y12.467 Z5.928 
N142 X-154.766 Y12.359 Z5.812 
N143 X-154.772 Y12.250 Z5.696 
N144 X-154.777 Y12.142 Z5.579 
N145 X-154.782 Y12.034 Z5.463 
N146 X-154.787 Y11.925 Z5.347 
N147 X-154.792 Y11.817 Z5.231 
N148 X-154.796 Y11.708 Z5.114 
N149 X-154.801 Y11.600 Z4.998 
N150 X-154.806 Y11.492 Z4.882 
N151 X-154.810 Y11.383 Z4.766 
N152 X-154.815 Y11.275 Z4.649 
N153 X-154.819 Y11.166 Z4.533 
N154 X-154.823 Y11.058 Z4.417 
N155 X-154.827 Y10.950 Z4.301 
N156 X-154.831 Y10.841 Z4.184 
N157 X-154.835 Y10.733 Z4.068 
N158 X-154.839 Y10.624 Z3.952 
N159 X-154.843 Y10.516 Z3.836 
N160 X-154.847 Y10.407 Z3.719 
N161 X-154.851 Y10.299 Z3.603 
N162 X-154.854 Y10.191 Z3.487 
N163 X-154.858 Y10.082 Z3.371 
N164 X-154.861 Y9.974 Z3.254 
N165 X-154.864 Y9.865 Z3.138 
N166 X-154.867 Y9.757 Z3.022 
N167 X-154.871 Y9.649 Z2.905 
N168 X-154.874 Y9.540 Z2.789 
N169 X-154.877 Y9.432 Z2.673 
N170 X-154.879 Y9.323 Z2.557 
N171 X-154.882 Y9.215 Z2.440 
N172 X-154.885 Y9.106 Z2.324 
N173 X-154.887 Y8.998 Z2.208 
N174 X-154.890 Y8.889 Z2.091 
N175 X-154.892 Y8.781 Z1.975 
N176 X-154.895 Y8.673 Z1.859 
N177 X-154.897 Y8.564 Z1.743 
N178 X-154.899 Y8.456 Z1.626 
N179 X-154.901 Y8.347 Z1.510 
N180 X-154.903 Y8.239 Z1.394 
N181 X-154.905 Y8.130 Z1.277 
N182 X-154.907 Y8.022 Z1.161 
N183 X-154.909 Y7.914 Z1.045 
N184 X-154.910 Y7.805 Z0.929 
N185 X-154.912 Y7.697 Z0.812 
N186 X-154.913 Y7.588 Z0.696 
N187 X-154.915 Y7.480 Z0.580 
N188 X-154.916 Y7.371 Z0.463 
N189 X-154.917 Y7.262 Z0.346 
N190 X-154.919 Y7.152 Z0.229 
N191 X-154.920 Y7.043 Z0.112 
N192 X-154.922 Y6.934 Z-0.005 
N193 X-154.923 Y6.825 Z-0.122 
N194 X-154.925 Y6.716 Z-0.239 
N195 X-154.926 Y6.607 Z-0.356 
N196 X-154.927 Y6.498 Z-0.473 
N197 X-154.929 Y6.389 Z-0.590 
N198 X-154.930 Y6.279 Z-0.707 
N199 X-154.932 Y6.170 Z-0.824 
N200 X-154.933 Y6.061 Z-0.941 
N201 X-154.935 Y5.952 Z-1.058 
N202 X-154.936 Y5.843 Z-1.175 
N203 X-154.937 Y5.734 Z-1.292 
N204 X-154.939 Y5.625 Z-1.409 
N205 X-154.940 Y5.516 Z-1.526 
N206 X-154.942 Y5.407 Z-1.643 
N207 X-154.943 Y5.297 Z-1.761 
N208 X-154.945 Y5.188 Z-1.878 
N209 X-154.946 Y5.079 Z-1.995 
N210 X-154.947 Y4.970 Z-2.112 
N211 X-154.949 Y4.861 Z-2.229 
N212 X-154.950 Y4.752 Z-2.346 
N213 G40 X-154.950 Y4.608 Z-2.500 F600
N214 X-154.950 Y4.608 Z-2.500 
N215 X-154.949 Y4.276 Z-2.856 F1307 
N216 X-154.947 Y3.754 Z-3.415 F1589 
N217 X-154.947 Y3.215 Z-3.994 
N218 X-154.948 Y2.675 Z-4.572 
N219 X-154.953 Y2.136 Z-5.151 
N220 X-154.962 Y1.596 Z-5.729 
N221 X-154.976 Y1.057 Z-6.308 
N222 X-154.997 Y0.518 Z-6.886 
N223 X-155.025 Y-0.021 Z-7.464 
N224 X-155.062 Y-0.560 Z-8.042 
N225 X-155.109 Y-1.099 Z-8.620 
N226 X-155.166 Y-1.637 Z-9.197 
N227 X-155.240 Y-2.174 Z-9.773 
N228 X-155.345 Y-2.708 Z-10.346 
N229 X-155.509 Y-2.547 Z-10.173 
N230 X-155.534 Y-2.019 Z-9.606 A227.0106 
N231 X-155.543 Y-1.452 Z-8.998 
N232 X-155.546 Y-0.910 Z-8.417 
N233 X-155.545 Y-0.410 Z-7.881 
N234 X-155.543 Y0.107 Z-7.327 F1307 
N235 X-155.541 Y0.477 Z-6.930 F600 
N236 ;NNTA SemiFinishing
N237 D4 
N238 G41 X-155.541 Y0.672 Z-6.721 F318 
N239 X-155.542 Y0.785 Z-6.599 
N240 X-155.544 Y0.899 Z-6.477 
N241 X-155.545 Y1.013 Z-6.355 
N242 X-155.547 Y1.126 Z-6.233 
N243 X-155.548 Y1.240 Z-6.112 
N244 X-155.549 Y1.354 Z-5.990 
N245 X-155.551 Y1.463 Z-5.873 
N246 X-155.552 Y1.572 Z-5.756 
N247 X-155.553 Y1.681 Z-5.639 
N248 X-155.555 Y1.790 Z-5.522 
N249 X-155.556 Y1.899 Z-5.405 
N250 X-155.557 Y2.008 Z-5.288 
N251 X-155.559 Y2.118 Z-5.171 
N252 X-155.560 Y2.227 Z-5.054 
N253 X-155.561 Y2.336 Z-4.937 
N254 X-155.563 Y2.445 Z-4.820 
N255 X-155.564 Y2.554 Z-4.703 
N256 X-155.565 Y2.663 Z-4.586 
N257 X-155.567 Y2.772 Z-4.469 
N258 X-155.568 Y2.881 Z-4.352 
N259 X-155.569 Y2.990 Z-4.234 
N260 X-155.571 Y3.100 Z-4.117 
N261 X-155.572 Y3.209 Z-4.000 
N262 X-155.573 Y3.318 Z-3.883 
N263 X-155.575 Y3.427 Z-3.766 
N264 X-155.576 Y3.536 Z-3.649 
N265 X-155.577 Y3.645 Z-3.532 
N266 X-155.579 Y3.754 Z-3.415 
N267 X-155.580 Y3.863 Z-3.298 
N268 X-155.581 Y3.972 Z-3.181 
N269 X-155.583 Y4.082 Z-3.064 
N270 X-155.584 Y4.190 Z-2.948 
N271 X-155.585 Y4.299 Z-2.831 
N272 X-155.587 Y4.408 Z-2.714 
N273 X-155.588 Y4.517 Z-2.598 
N274 X-155.589 Y4.626 Z-2.481 
N275 X-155.590 Y4.735 Z-2.364 
N276 X-155.591 Y4.843 Z-2.247 
N277 X-155.591 Y4.952 Z-2.131 
N278 X-155.592 Y5.061 Z-2.014 
N279 X-155.593 Y5.170 Z-1.897 
N280 X-155.593 Y5.279 Z-1.781 
N281 X-155.594 Y5.388 Z-1.664 
N282 X-155.594 Y5.496 Z-1.547 
N283 X-155.594 Y5.605 Z-1.431 
N284 X-155.594 Y5.714 Z-1.314 
N285 X-155.594 Y5.823 Z-1.197 
N286 X-155.594 Y5.932 Z-1.080 
N287 X-155.594 Y6.040 Z-0.964 
N288 X-155.594 Y6.149 Z-0.847 
N289 X-155.594 Y6.258 Z-0.730 
N290 X-155.593 Y6.367 Z-0.614 
N291 X-155.593 Y6.476 Z-0.497 
N292 X-155.592 Y6.585 Z-0.380 
N293 X-155.592 Y6.693 Z-0.264 
N294 X-155.591 Y6.802 Z-0.147 
N295 X-155.590 Y6.911 Z-0.030 
N296 X-155.589 Y7.020 Z0.087 
N297 X-155.588 Y7.129 Z0.203 
N298 X-155.587 Y7.238 Z0.320 
N299 X-155.586 Y7.346 Z0.437 
N300 X-155.585 Y7.455 Z0.553 
N301 X-155.583 Y7.564 Z0.670 
N302 X-155.582 Y7.673 Z0.787 
N303 X-155.581 Y7.782 Z0.904 
N304 X-155.579 Y7.891 Z1.020 
N305 X-155.577 Y7.999 Z1.137 
N306 X-155.575 Y8.108 Z1.254 
N307 X-155.574 Y8.217 Z1.370 
N308 X-155.572 Y8.326 Z1.487 
N309 X-155.570 Y8.435 Z1.604 
N310 X-155.567 Y8.543 Z1.720 
N311 X-155.565 Y8.652 Z1.837 
N312 X-155.563 Y8.761 Z1.954 
N313 X-155.560 Y8.870 Z2.070 
N314 X-155.558 Y8.979 Z2.187 
N315 X-155.555 Y9.088 Z2.304 
N316 X-155.553 Y9.196 Z2.421 
N317 X-155.550 Y9.305 Z2.537 
N318 X-155.547 Y9.414 Z2.654 
N319 X-155.544 Y9.523 Z2.771 
N320 X-155.541 Y9.632 Z2.887 
N321 X-155.538 Y9.740 Z3.004 
N322 X-155.535 Y9.849 Z3.121 
N323 X-155.532 Y9.958 Z3.237 
N324 X-155.528 Y10.067 Z3.354 
N325 X-155.525 Y10.176 Z3.471 
N326 X-155.521 Y10.284 Z3.587 
N327 X-155.518 Y10.393 Z3.704 
N328 X-155.514 Y10.502 Z3.821 
N329 X-155.510 Y10.611 Z3.937 
N330 X-155.506 Y10.720 Z4.054 
N331 X-155.502 Y10.828 Z4.171 
N332 X-155.498 Y10.937 Z4.287 
N333 X-155.494 Y11.046 Z4.404 
N334 X-155.490 Y11.155 Z4.521 
N335 X-155.485 Y11.264 Z4.637 
N336 X-155.481 Y11.372 Z4.754 
N337 X-155.476 Y11.481 Z4.871 
N338 X-155.472 Y11.590 Z4.987 
N339 X-155.467 Y11.699 Z5.104 
N340 X-155.462 Y11.807 Z5.221 
N341 X-155.457 Y11.916 Z5.337 
N342 X-155.452 Y12.025 Z5.454 
N343 X-155.447 Y12.134 Z5.571 
N344 X-155.442 Y12.243 Z5.687 
N345 X-155.437 Y12.351 Z5.804 
N346 X-155.432 Y12.460 Z5.920 
N347 X-155.426 Y12.569 Z6.037 
N348 X-155.421 Y12.678 Z6.154 
N349 X-155.415 Y12.786 Z6.270 
N350 X-155.410 Y12.895 Z6.387 
N351 X-155.404 Y13.004 Z6.504 
N352 X-155.398 Y13.113 Z6.620 
N353 X-155.392 Y13.221 Z6.737 
N354 X-155.386 Y13.330 Z6.854 
N355 X-155.380 Y13.439 Z6.970 
N356 X-155.374 Y13.548 Z7.087 
N357 X-155.367 Y13.656 Z7.203 
N358 X-155.361 Y13.765 Z7.320 
N359 X-155.355 Y13.874 Z7.437 
N360 X-155.348 Y13.983 Z7.553 
N361 X-155.341 Y14.091 Z7.670 
N362 X-155.335 Y14.200 Z7.786 
N363 X-155.328 Y14.309 Z7.903 
N364 X-155.321 Y14.418 Z8.020 
N365 X-155.314 Y14.526 Z8.136 
N366 X-155.307 Y14.635 Z8.253 
N367 X-155.300 Y14.744 Z8.369 
N368 X-155.292 Y14.852 Z8.486 
N369 X-155.285 Y14.961 Z8.603 
N370 X-155.278 Y15.070 Z8.719 
N371 X-155.270 Y15.179 Z8.836 
N372 X-155.263 Y15.287 Z8.952 
N373 X-155.255 Y15.396 Z9.069 
N374 X-155.247 Y15.505 Z9.185 
N375 X-155.239 Y15.613 Z9.302 
N376 X-155.231 Y15.722 Z9.418 
N377 X-155.223 Y15.831 Z9.535 
N378 X-155.215 Y15.939 Z9.652 
N379 X-155.207 Y16.048 Z9.768 
N380 X-155.199 Y16.157 Z9.885 
N381 X-155.191 Y16.266 Z10.002 
N382 X-155.183 Y16.375 Z10.119 
N383 X-155.175 Y16.484 Z10.236 
N384 X-155.167 Y16.593 Z10.353 
N385 X-155.158 Y16.702 Z10.470 
N386 X-155.150 Y16.811 Z10.587 
N387 X-155.142 Y16.920 Z10.703 
N388 X-155.134 Y17.029 Z10.820 
N389 X-155.126 Y17.138 Z10.937 
N390 X-155.118 Y17.247 Z11.054 
N391 X-155.110 Y17.356 Z11.171 
N392 X-155.102 Y17.465 Z11.288 
N393 X-155.094 Y17.574 Z11.405 
N394 X-155.086 Y17.683 Z11.521 
N395 X-155.077 Y17.792 Z11.638 
N396 X-155.069 Y17.901 Z11.755 
N397 X-155.061 Y18.010 Z11.872 
N398 X-155.053 Y18.119 Z11.989 
N399 X-155.045 Y18.228 Z12.106 
N400 X-155.037 Y18.337 Z12.223 
N401 X-155.029 Y18.446 Z12.340 
N402 X-155.021 Y18.555 Z12.456 
N403 X-155.013 Y18.664 Z12.573 
N404 G40 X-154.506 Y25.475 Z19.877 F318
N405 X-154.506 Y25.475 Z19.877 
N406 G00 X-154.505 Y62.055 Z-14.210 
;RAPORT("TB123456","Side Milling:143 End")
;trailer : concat=None
; points cnt = 359
N408 MSG (" --- GROUPED OF SUBPROGRAM --- ")
N409 FGROUP()
N410 TRAFOOF
; PROGRAM NAME: B12345647
; ORDER       : B123456
; OPER. NAME  : Side Milling:144
; OPER. DESCR.: HHU finish milling NGA
; OPER. TYPE  : sideMill
; GEO. OPTION : 3
; MACHINE     : HSTM_500_SIM840D_Py
;             : HSTM500 - HAMUEL: 5-axis milling machine - SIM840D Traori PP_Script
; CONTROL     : SINUMERIK 840D
; created:   2023-06-06 12:05:24.818276
;-------DODATKOWE DANE-------------------
; PROGRAMISTA : Mariusz Malec
; PARTID      : 306T001953P1010_-
;  ap         : 19.0
;  ae         : 6.4
;  lean_angle : 0.02
;  fin_offset : 0.03
;----------------------------------------
;RAPORT("TB123456","Side Milling:144")
N10 TRAFOOF
N11 D0
N12 G90 G94
N13 G0 G53 D0 Z550 B0
N14 STOPRE
M9 ; chlodziwo wyl
; --- Side Milling:144 - HHU finish milling NGA ---
N16 ;ToolChange : concat=None ,current_tdmid=None, PP.tdmId=940729
N17 TRAFOOF
N18 G0 G53 D0 Z550 B0
N19 STOPRE
N20 MSG(" TLID=940729 D=8.0 R=2.0 Ang=0.0 Len=111.0 ")
N21 S3978 M03
N22 STOPRE
N23 CYCLE832(0.01,1,1)
N24 G0 G53 A226.9800 B-0.0014
N25 TRAORI
N26 G54 D3
;tol5=0.03
N27 D3 
STOPRE
E_ZDARZ=300010
;ACS_FINISH_SLOT=7740729
STOPRE
;UWAGA : ZMIENIONA TOLERANCJA OSI A i B, ruchy osi A i B beda usuniete : TOL5=0.03
N28 ; DELTA A > 40.1
N29 TRAFOOF
N30 D3
N31 STOPRE
N32 G00 G54 Z275.000
N33 G01 A226.9800 F10000
N34 TRAORI
N35 G54 D3
N36 STOPRE
N37 TRANS 
N38 G00 X-153.195 Y73.386 Z-16.765 A226.9800 
N39 M342 ; chlodziwo woda
N40 X-153.194 Y36.830 Z17.348 
N41 G01 X-153.227 Y34.237 Z19.098 F318 
N42 X-153.323 Y31.232 Z19.963 
N43 X-153.473 Y28.109 Z19.857 
N44 X-153.662 Y25.173 Z18.792 
N45 ;NTA finishing
N46 D3 
N47 G41 X-153.871 Y22.712 Z16.871 
N48 X-153.882 Y22.599 Z16.749 
N49 X-153.893 Y22.486 Z16.628 
N50 X-153.905 Y22.372 Z16.506 
N51 X-153.916 Y22.259 Z16.384 
N52 X-153.927 Y22.145 Z16.263 
N53 X-153.939 Y22.032 Z16.141 
N54 X-153.949 Y21.923 Z16.024 
N55 X-153.960 Y21.814 Z15.908 
N56 X-153.971 Y21.705 Z15.791 
N57 X-153.982 Y21.597 Z15.674 
N58 X-153.993 Y21.488 Z15.557 
N59 X-154.004 Y21.379 Z15.441 
N60 X-154.015 Y21.270 Z15.324 
N61 X-154.025 Y21.161 Z15.207 
N62 X-154.036 Y21.052 Z15.090 
N63 X-154.047 Y20.943 Z14.974 
N64 X-154.058 Y20.834 Z14.857 
N65 X-154.069 Y20.726 Z14.740 
N66 X-154.080 Y20.617 Z14.623 
N67 X-154.090 Y20.508 Z14.507 
N68 X-154.101 Y20.399 Z14.390 
N69 X-154.112 Y20.290 Z14.273 
N70 X-154.123 Y20.181 Z14.156 
N71 X-154.134 Y20.072 Z14.040 
N72 X-154.145 Y19.963 Z13.923 
N73 X-154.155 Y19.855 Z13.806 
N74 X-154.166 Y19.746 Z13.689 
N75 X-154.177 Y19.637 Z13.573 
N76 X-154.188 Y19.528 Z13.456 
N77 X-154.199 Y19.419 Z13.339 
N78 X-154.210 Y19.310 Z13.222 
N79 X-154.220 Y19.202 Z13.106 
N80 X-154.231 Y19.094 Z12.990 
N81 X-154.242 Y18.986 Z12.874 
N82 X-154.252 Y18.878 Z12.758 
N83 X-154.263 Y18.769 Z12.642 
N84 X-154.273 Y18.661 Z12.526 
N85 X-154.284 Y18.553 Z12.410 
N86 X-154.294 Y18.445 Z12.294 
N87 X-154.304 Y18.336 Z12.178 
N88 X-154.314 Y18.228 Z12.062 
N89 X-154.324 Y18.120 Z11.946 
N90 X-154.334 Y18.012 Z11.830 
N91 X-154.344 Y17.904 Z11.714 
N92 X-154.353 Y17.795 Z11.598 
N93 X-154.363 Y17.687 Z11.482 
N94 X-154.372 Y17.579 Z11.366 
N95 X-154.382 Y17.471 Z11.250 
N96 X-154.391 Y17.362 Z11.134 
N97 X-154.400 Y17.254 Z11.017 
N98 X-154.410 Y17.146 Z10.901 
N99 X-154.419 Y17.038 Z10.785 
N100 X-154.428 Y16.929 Z10.669 
N101 X-154.437 Y16.821 Z10.553 
N102 X-154.445 Y16.713 Z10.437 
N103 X-154.454 Y16.605 Z10.321 
N104 X-154.463 Y16.496 Z10.205 
N105 X-154.471 Y16.388 Z10.089 
N106 X-154.480 Y16.280 Z9.973 
N107 X-154.488 Y16.171 Z9.856 
N108 X-154.496 Y16.063 Z9.740 
N109 X-154.505 Y15.955 Z9.624 
N110 X-154.513 Y15.847 Z9.508 
N111 X-154.521 Y15.738 Z9.392 
N112 X-154.529 Y15.630 Z9.276 
N113 X-154.537 Y15.522 Z9.160 
N114 X-154.544 Y15.413 Z9.044 
N115 X-154.552 Y15.305 Z8.927 
N116 X-154.560 Y15.197 Z8.811 
N117 X-154.567 Y15.088 Z8.695 
N118 X-154.575 Y14.980 Z8.579 
N119 X-154.582 Y14.872 Z8.463 
N120 X-154.589 Y14.764 Z8.347 
N121 X-154.596 Y14.655 Z8.230 
N122 X-154.603 Y14.547 Z8.114 
N123 X-154.610 Y14.439 Z7.998 
N124 X-154.617 Y14.330 Z7.882 
N125 X-154.624 Y14.222 Z7.766 
N126 X-154.631 Y14.114 Z7.650 
N127 X-154.637 Y14.005 Z7.533 
N128 X-154.644 Y13.897 Z7.417 
N129 X-154.650 Y13.789 Z7.301 
N130 X-154.657 Y13.680 Z7.185 
N131 X-154.663 Y13.572 Z7.069 
N132 X-154.669 Y13.463 Z6.952 
N133 X-154.675 Y13.355 Z6.836 
N134 X-154.681 Y13.247 Z6.720 
N135 X-154.687 Y13.138 Z6.604 
N136 X-154.693 Y13.030 Z6.488 
N137 X-154.699 Y12.922 Z6.371 
N138 X-154.705 Y12.813 Z6.255 
N139 X-154.710 Y12.705 Z6.139 
N140 X-154.716 Y12.597 Z6.023 
N141 X-154.721 Y12.488 Z5.907 
N142 X-154.726 Y12.380 Z5.790 
N143 X-154.732 Y12.271 Z5.674 
N144 X-154.737 Y12.163 Z5.558 
N145 X-154.742 Y12.055 Z5.442 
N146 X-154.747 Y11.946 Z5.326 
N147 X-154.752 Y11.838 Z5.209 
N148 X-154.756 Y11.730 Z5.093 
N149 X-154.761 Y11.621 Z4.977 
N150 X-154.766 Y11.513 Z4.861 
N151 X-154.770 Y11.404 Z4.744 
N152 X-154.775 Y11.296 Z4.628 
N153 X-154.779 Y11.188 Z4.512 
N154 X-154.783 Y11.079 Z4.396 
N155 X-154.787 Y10.971 Z4.279 
N156 X-154.791 Y10.862 Z4.163 
N157 X-154.795 Y10.754 Z4.047 
N158 X-154.799 Y10.646 Z3.931 
N159 X-154.803 Y10.537 Z3.814 
N160 X-154.807 Y10.429 Z3.698 
N161 X-154.811 Y10.320 Z3.582 
N162 X-154.814 Y10.212 Z3.466 
N163 X-154.818 Y10.104 Z3.349 
N164 X-154.821 Y9.995 Z3.233 
N165 X-154.824 Y9.887 Z3.117 
N166 X-154.827 Y9.778 Z3.001 
N167 X-154.831 Y9.670 Z2.884 
N168 X-154.834 Y9.562 Z2.768 
N169 X-154.837 Y9.453 Z2.652 
N170 X-154.839 Y9.345 Z2.536 
N171 X-154.842 Y9.236 Z2.419 
N172 X-154.845 Y9.128 Z2.303 
N173 X-154.847 Y9.019 Z2.187 
N174 X-154.850 Y8.911 Z2.071 
N175 X-154.852 Y8.803 Z1.954 
N176 X-154.855 Y8.694 Z1.838 
N177 X-154.857 Y8.586 Z1.722 
N178 X-154.859 Y8.477 Z1.606 
N179 X-154.861 Y8.369 Z1.489 
N180 X-154.863 Y8.260 Z1.373 
N181 X-154.865 Y8.152 Z1.257 
N182 X-154.867 Y8.044 Z1.140 
N183 X-154.869 Y7.935 Z1.024 
N184 X-154.870 Y7.827 Z0.908 
N185 X-154.872 Y7.718 Z0.792 
N186 X-154.873 Y7.610 Z0.675 
N187 X-154.875 Y7.501 Z0.559 
N188 X-154.876 Y7.392 Z0.442 
N189 X-154.877 Y7.283 Z0.325 
N190 X-154.879 Y7.174 Z0.208 
N191 X-154.880 Y7.065 Z0.091 
N192 X-154.882 Y6.956 Z-0.026 
N193 X-154.883 Y6.847 Z-0.143 
N194 X-154.885 Y6.738 Z-0.260 
N195 X-154.886 Y6.629 Z-0.377 
N196 X-154.887 Y6.519 Z-0.494 
N197 X-154.889 Y6.410 Z-0.611 
N198 X-154.890 Y6.301 Z-0.728 
N199 X-154.892 Y6.192 Z-0.845 
N200 X-154.893 Y6.083 Z-0.962 
N201 X-154.895 Y5.974 Z-1.079 
N202 X-154.896 Y5.865 Z-1.196 
N203 X-154.897 Y5.756 Z-1.313 
N204 X-154.899 Y5.647 Z-1.430 
N205 X-154.900 Y5.537 Z-1.547 
N206 X-154.902 Y5.428 Z-1.664 
N207 X-154.903 Y5.319 Z-1.781 
N208 X-154.905 Y5.210 Z-1.898 
N209 X-154.906 Y5.101 Z-2.015 
N210 X-154.907 Y4.992 Z-2.132 
N211 X-154.909 Y4.883 Z-2.249 
N212 X-154.910 Y4.774 Z-2.366 
N213 G40 X-154.910 Y4.630 Z-2.520 F600
N214 X-154.910 Y4.630 Z-2.520 
N215 X-154.909 Y4.297 Z-2.877 F1307 
N216 X-154.907 Y3.776 Z-3.437 F1590 
N217 X-154.907 Y3.235 Z-4.016 
N218 X-154.910 Y2.695 Z-4.595 
N219 X-154.915 Y2.155 Z-5.174 
N220 X-154.926 Y1.615 Z-5.753 
N221 X-154.942 Y1.075 Z-6.332 
N222 X-154.966 Y0.535 Z-6.911 
N223 X-154.998 Y-0.005 Z-7.490 
N224 X-155.040 Y-0.544 Z-8.069 
N225 X-155.092 Y-1.083 Z-8.647 
N226 X-155.157 Y-1.621 Z-9.224 
N227 X-155.240 Y-2.158 Z-9.800 
N228 X-155.358 Y-2.692 Z-10.372 
N229 X-155.542 Y-2.524 Z-10.192 
N230 X-155.571 Y-1.994 Z-9.624 A227.0106 
N231 X-155.582 Y-1.428 Z-9.017 
N232 X-155.585 Y-0.886 Z-8.435 
N233 X-155.585 Y-0.383 Z-7.896 
N234 X-155.583 Y0.134 Z-7.342 F1307 
N235 X-155.581 Y0.503 Z-6.945 F600 
N236 ;NNTA finishing
N237 D4 
N238 G41 X-155.581 Y0.693 Z-6.742 F318 
N239 X-155.582 Y0.807 Z-6.620 
N240 X-155.584 Y0.921 Z-6.498 
N241 X-155.585 Y1.034 Z-6.376 
N242 X-155.587 Y1.148 Z-6.254 
N243 X-155.588 Y1.262 Z-6.132 
N244 X-155.589 Y1.375 Z-6.010 
N245 X-155.591 Y1.485 Z-5.893 
N246 X-155.592 Y1.594 Z-5.776 
N247 X-155.593 Y1.703 Z-5.659 
N248 X-155.595 Y1.812 Z-5.542 
N249 X-155.596 Y1.921 Z-5.425 
N250 X-155.597 Y2.030 Z-5.308 
N251 X-155.599 Y2.139 Z-5.191 
N252 X-155.600 Y2.248 Z-5.074 
N253 X-155.601 Y2.357 Z-4.957 
N254 X-155.603 Y2.467 Z-4.840 
N255 X-155.604 Y2.576 Z-4.723 
N256 X-155.605 Y2.685 Z-4.606 
N257 X-155.607 Y2.794 Z-4.489 
N258 X-155.608 Y2.903 Z-4.372 
N259 X-155.609 Y3.012 Z-4.255 
N260 X-155.611 Y3.121 Z-4.138 
N261 X-155.612 Y3.230 Z-4.021 
N262 X-155.613 Y3.339 Z-3.904 
N263 X-155.615 Y3.449 Z-3.787 
N264 X-155.616 Y3.558 Z-3.670 
N265 X-155.617 Y3.667 Z-3.553 
N266 X-155.619 Y3.776 Z-3.436 
N267 X-155.620 Y3.885 Z-3.319 
N268 X-155.621 Y3.994 Z-3.202 
N269 X-155.623 Y4.103 Z-3.085 
N270 X-155.624 Y4.212 Z-2.968 
N271 X-155.625 Y4.321 Z-2.852 
N272 X-155.627 Y4.430 Z-2.735 
N273 X-155.628 Y4.539 Z-2.618 
N274 X-155.629 Y4.647 Z-2.502 
N275 X-155.630 Y4.756 Z-2.385 
N276 X-155.631 Y4.865 Z-2.268 
N277 X-155.631 Y4.974 Z-2.151 
N278 X-155.632 Y5.083 Z-2.035 
N279 X-155.633 Y5.192 Z-1.918 
N280 X-155.633 Y5.301 Z-1.801 
N281 X-155.634 Y5.409 Z-1.684 
N282 X-155.634 Y5.518 Z-1.568 
N283 X-155.634 Y5.627 Z-1.451 
N284 X-155.634 Y5.736 Z-1.334 
N285 X-155.634 Y5.845 Z-1.218 
N286 X-155.634 Y5.954 Z-1.101 
N287 X-155.634 Y6.062 Z-0.984 
N288 X-155.634 Y6.171 Z-0.867 
N289 X-155.634 Y6.280 Z-0.751 
N290 X-155.633 Y6.389 Z-0.634 
N291 X-155.633 Y6.498 Z-0.517 
N292 X-155.632 Y6.607 Z-0.401 
N293 X-155.632 Y6.715 Z-0.284 
N294 X-155.631 Y6.824 Z-0.167 
N295 X-155.630 Y6.933 Z-0.050 
N296 X-155.629 Y7.042 Z0.066 
N297 X-155.628 Y7.151 Z0.183 
N298 X-155.627 Y7.260 Z0.300 
N299 X-155.626 Y7.369 Z0.416 
N300 X-155.625 Y7.477 Z0.533 
N301 X-155.623 Y7.586 Z0.650 
N302 X-155.622 Y7.695 Z0.767 
N303 X-155.621 Y7.804 Z0.883 
N304 X-155.619 Y7.913 Z1.000 
N305 X-155.617 Y8.022 Z1.117 
N306 X-155.615 Y8.130 Z1.233 
N307 X-155.614 Y8.239 Z1.350 
N308 X-155.612 Y8.348 Z1.467 
N309 X-155.610 Y8.457 Z1.584 
N310 X-155.607 Y8.566 Z1.700 
N311 X-155.605 Y8.675 Z1.817 
N312 X-155.603 Y8.783 Z1.934 
N313 X-155.600 Y8.892 Z2.050 
N314 X-155.598 Y9.001 Z2.167 
N315 X-155.595 Y9.110 Z2.284 
N316 X-155.593 Y9.219 Z2.401 
N317 X-155.590 Y9.328 Z2.517 
N318 X-155.587 Y9.436 Z2.634 
N319 X-155.584 Y9.545 Z2.751 
N320 X-155.581 Y9.654 Z2.867 
N321 X-155.578 Y9.763 Z2.984 
N322 X-155.575 Y9.872 Z3.101 
N323 X-155.572 Y9.980 Z3.217 
N324 X-155.568 Y10.089 Z3.334 
N325 X-155.565 Y10.198 Z3.451 
N326 X-155.561 Y10.307 Z3.568 
N327 X-155.558 Y10.416 Z3.684 
N328 X-155.554 Y10.525 Z3.801 
N329 X-155.550 Y10.633 Z3.918 
N330 X-155.546 Y10.742 Z4.034 
N331 X-155.542 Y10.851 Z4.151 
N332 X-155.538 Y10.960 Z4.268 
N333 X-155.534 Y11.069 Z4.384 
N334 X-155.530 Y11.177 Z4.501 
N335 X-155.525 Y11.286 Z4.618 
N336 X-155.521 Y11.395 Z4.734 
N337 X-155.516 Y11.504 Z4.851 
N338 X-155.512 Y11.613 Z4.968 
N339 X-155.507 Y11.721 Z5.084 
N340 X-155.502 Y11.830 Z5.201 
N341 X-155.497 Y11.939 Z5.318 
N342 X-155.492 Y12.048 Z5.434 
N343 X-155.487 Y12.157 Z5.551 
N344 X-155.482 Y12.265 Z5.668 
N345 X-155.477 Y12.374 Z5.784 
N346 X-155.472 Y12.483 Z5.901 
N347 X-155.466 Y12.592 Z6.018 
N348 X-155.461 Y12.700 Z6.134 
N349 X-155.455 Y12.809 Z6.251 
N350 X-155.449 Y12.918 Z6.368 
N351 X-155.444 Y13.027 Z6.484 
N352 X-155.438 Y13.136 Z6.601 
N353 X-155.432 Y13.244 Z6.718 
N354 X-155.426 Y13.353 Z6.834 
N355 X-155.420 Y13.462 Z6.951 
N356 X-155.414 Y13.571 Z7.067 
N357 X-155.407 Y13.679 Z7.184 
N358 X-155.401 Y13.788 Z7.301 
N359 X-155.395 Y13.897 Z7.417 
N360 X-155.388 Y14.006 Z7.534 
N361 X-155.381 Y14.114 Z7.651 
N362 X-155.375 Y14.223 Z7.767 
N363 X-155.368 Y14.332 Z7.884 
N364 X-155.361 Y14.441 Z8.000 
N365 X-155.354 Y14.549 Z8.117 
N366 X-155.347 Y14.658 Z8.234 
N367 X-155.340 Y14.767 Z8.350 
N368 X-155.332 Y14.876 Z8.467 
N369 X-155.325 Y14.984 Z8.583 
N370 X-155.318 Y15.093 Z8.700 
N371 X-155.310 Y15.202 Z8.817 
N372 X-155.303 Y15.310 Z8.933 
N373 X-155.295 Y15.419 Z9.050 
N374 X-155.287 Y15.528 Z9.166 
N375 X-155.279 Y15.637 Z9.283 
N376 X-155.271 Y15.745 Z9.399 
N377 X-155.263 Y15.854 Z9.516 
N378 X-155.255 Y15.963 Z9.633 
N379 X-155.247 Y16.072 Z9.749 
N380 X-155.239 Y16.181 Z9.866 
N381 X-155.231 Y16.290 Z9.983 
N382 X-155.223 Y16.399 Z10.100 
N383 X-155.215 Y16.508 Z10.217 
N384 X-155.207 Y16.617 Z10.334 
N385 X-155.198 Y16.726 Z10.451 
N386 X-155.190 Y16.835 Z10.568 
N387 X-155.182 Y16.944 Z10.684 
N388 X-155.174 Y17.053 Z10.801 
N389 X-155.166 Y17.162 Z10.918 
N390 X-155.158 Y17.270 Z11.035 
N391 X-155.150 Y17.379 Z11.152 
N392 X-155.142 Y17.488 Z11.269 
N393 X-155.134 Y17.597 Z11.386 
N394 X-155.125 Y17.706 Z11.502 
N395 X-155.117 Y17.815 Z11.619 
N396 X-155.109 Y17.924 Z11.736 
N397 X-155.101 Y18.033 Z11.853 
N398 X-155.093 Y18.142 Z11.970 
N399 X-155.085 Y18.251 Z12.087 
N400 X-155.077 Y18.360 Z12.204 
N401 X-155.069 Y18.469 Z12.321 
N402 X-155.061 Y18.578 Z12.437 
N403 X-155.053 Y18.687 Z12.554 
N404 G40 X-154.546 Y25.498 Z19.858 F318
N405 X-154.546 Y25.498 Z19.858 
N406 G00 X-154.545 Y62.078 Z-14.229 
;RAPORT("TB123456","Side Milling:144 End")
;trailer : concat=None
; points cnt = 359
N408 M9 ; chlodziwo wyl.
N409 MSG (" --- KONIEC PODPROGRAMU --- ")
N410 FGROUP()
N411 TRAFOOF
N412 STOPRE
N413 G0 G53 D0 Z550.0 M9 M5
N414 G0 G53 Y150 A0 B0
N415 M17
