; PROGRAM NAME: B12345639
; ORDER       : B123456
; OPER. NAME  : Side Milling:174
; OPER. DESCR.: Side Milling/czolo_nozki_po_luku_wk
; OPER. TYPE  : sideMill
; GEO. OPTION : 1
; MACHINE     : HSTM_500_SIM840D_Py
;             : HSTM500 - HAMUEL: 5-axis milling machine - SIM840D Traori PP_Script
; CONTROL     : SINUMERIK 840D
; created:   2023-06-06 12:08:25.896344
;-------DODATKOWE DANE-------------------
; PROGRAMISTA : Mariusz Malec
; PARTID      : 306T001953P1010_-
;  ap         : 22.0
;  ae         : 0.05
;  lean_angle : 0.0
;  fin_offset : -9.0
;----------------------------------------
;RAPORT("TB123456","Side Milling:174")
N10 TRAFOOF
N11 D0
N12 G90 G94
N13 G0 G53 D0 Z550 B0
N14 STOPRE
M9 ; chlodziwo wyl
; --- Side Milling:174 - Side Milling/czolo_nozki_po_luku_wk ---
N16 ;ToolChange : concat=None ,current_tdmid=None, PP.tdmId=957773
N17 TRAFOOF
N18 G0 G53 D0 X-200 Y150 Z550 B0
N19 T="7757773"
;RAPORT("TB123456","ToolChangeStart 7757773")
N20 M6
;RAPORT("TB123456","ToolChangeEnd")
N21 STOPRE
N22 MSG(" TLID=957773 D=9.5 R=1.0 Ang=0.0 Len=129.0 ")
N23 ; (Preloading tool)
N24 T="7757453"
N25 S6701 M03
N26 STOPRE
N27 CYCLE832(0.01,1,1)
N28 G0 G53 A47.0000 B0.0000
N29 TRAORI
N30 G54 D1
;tol5=0.15
N31 D1 
STOPRE
E_ZDARZ=300007
;ACS_FINISH_ROOT_FRONT=7757773
STOPRE
;UWAGA : ZMIENIONA TOLERANCJA OSI A i B, ruchy osi A i B beda usuniete : TOL5=0.15
N32 ; DELTA A > 40.1
N33 TRAFOOF
N34 D1
N35 STOPRE
N36 G00 G54 Z257.000
N37 G01 A47.0000 F10000
N38 TRAORI
N39 G54 D1
N40 STOPRE
N41 TRANS 
N42 G00 X-134.425 Y-30.225 Z46.584 A47.0000 
N43 M342 ; chlodziwo woda
N44 X-134.425 Y6.342 Z12.484 
N45 ;finish FSE
N46 G01 G41 X-134.446 Y5.661 Z11.753 F804 
N47 X-134.455 Y5.368 Z11.440 
N48 X-134.465 Y5.076 Z11.126 
N49 X-134.474 Y4.784 Z10.813 
N50 X-134.483 Y4.492 Z10.500 
N51 X-134.492 Y4.199 Z10.186 
N52 X-134.501 Y3.907 Z9.873 
N53 X-134.510 Y3.615 Z9.560 
N54 X-134.521 Y3.291 Z9.212 
N55 X-134.529 Y3.018 Z8.920 
N56 X-134.537 Y2.746 Z8.627 
N57 X-134.544 Y2.473 Z8.335 
N58 X-134.551 Y2.200 Z8.042 
N59 X-134.557 Y1.927 Z7.750 
N60 X-134.562 Y1.655 Z7.457 
N61 X-134.567 Y1.382 Z7.165 
N62 X-134.571 Y1.109 Z6.872 
N63 X-134.575 Y0.836 Z6.580 
N64 X-134.578 Y0.563 Z6.287 
N65 X-134.581 Y0.291 Z5.994 
N66 X-134.582 Y0.018 Z5.702 
N67 X-134.584 Y-0.255 Z5.409 
N68 X-134.584 Y-0.528 Z5.117 
N69 X-134.584 Y-0.801 Z4.824 
N70 X-134.584 Y-1.074 Z4.532 
N71 X-134.583 Y-1.346 Z4.239 
N72 X-134.581 Y-1.619 Z3.947 
N73 X-134.579 Y-1.892 Z3.654 
N74 X-134.576 Y-2.165 Z3.361 
N75 X-134.572 Y-2.438 Z3.069 
N76 X-134.568 Y-2.710 Z2.776 
N77 X-134.563 Y-2.983 Z2.484 
N78 X-134.558 Y-3.256 Z2.191 
N79 X-134.552 Y-3.529 Z1.899 
N80 X-134.546 Y-3.802 Z1.606 
N81 X-134.539 Y-4.074 Z1.314 
N82 X-134.531 Y-4.347 Z1.021 
N83 X-134.523 Y-4.620 Z0.729 
N84 X-134.514 Y-4.893 Z0.436 
N85 X-134.504 Y-5.165 Z0.144 
N86 X-134.494 Y-5.438 Z-0.149 
N87 X-134.483 Y-5.711 Z-0.441 
N88 X-134.472 Y-5.984 Z-0.734 
N89 X-134.460 Y-6.256 Z-1.026 
N90 X-134.448 Y-6.529 Z-1.319 
N91 X-134.435 Y-6.802 Z-1.611 
N92 X-134.421 Y-7.074 Z-1.903 
N93 X-134.407 Y-7.347 Z-2.196 
N94 X-134.392 Y-7.620 Z-2.488 
N95 X-134.376 Y-7.892 Z-2.780 
N96 X-134.360 Y-8.165 Z-3.073 
N97 X-134.344 Y-8.437 Z-3.365 
N98 X-134.326 Y-8.710 Z-3.657 
N99 X-134.309 Y-8.982 Z-3.950 
N100 X-134.290 Y-9.255 Z-4.242 
N101 X-134.271 Y-9.527 Z-4.534 
N102 X-134.251 Y-9.800 Z-4.826 
N103 X-134.231 Y-10.072 Z-5.118 
N104 X-134.210 Y-10.345 Z-5.411 
N105 X-134.189 Y-10.617 Z-5.703 
N106 X-134.167 Y-10.890 Z-5.995 
N107 X-134.144 Y-11.162 Z-6.287 
N108 X-134.121 Y-11.434 Z-6.579 
N109 X-134.097 Y-11.707 Z-6.871 
N110 X-134.073 Y-11.979 Z-7.163 
N111 X-134.048 Y-12.251 Z-7.455 
N112 X-134.022 Y-12.524 Z-7.747 
N113 X-133.996 Y-12.796 Z-8.039 
N114 X-133.969 Y-13.068 Z-8.331 
N115 X-133.942 Y-13.340 Z-8.623 
N116 X-133.909 Y-13.663 Z-8.969 
N117 G40 X-133.841 Y-14.344 Z-9.699 F804
N118 X-133.841 Y-14.344 Z-9.699 
N119 G00 X-133.841 Y-36.284 Z10.761 
N120 X-134.475 Y-15.597 Z32.945 
N121 X-134.475 Y6.343 Z12.485 
N122 ;finish FSE
N123 G01 G41 X-134.496 Y5.661 Z11.754 F804 
N124 X-134.505 Y5.369 Z11.441 
N125 X-134.515 Y5.077 Z11.127 
N126 X-134.524 Y4.785 Z10.814 
N127 X-134.533 Y4.492 Z10.500 
N128 X-134.542 Y4.200 Z10.187 
N129 X-134.551 Y3.908 Z9.874 
N130 X-134.560 Y3.616 Z9.560 
N131 X-134.571 Y3.292 Z9.213 
N132 X-134.579 Y3.019 Z8.921 
N133 X-134.587 Y2.746 Z8.628 
N134 X-134.594 Y2.473 Z8.335 
N135 X-134.601 Y2.201 Z8.043 
N136 X-134.607 Y1.928 Z7.750 
N137 X-134.612 Y1.655 Z7.458 
N138 X-134.617 Y1.382 Z7.165 
N139 X-134.621 Y1.109 Z6.872 
N140 X-134.625 Y0.836 Z6.580 
N141 X-134.628 Y0.564 Z6.287 
N142 X-134.631 Y0.291 Z5.995 
N143 X-134.632 Y0.018 Z5.702 
N144 X-134.634 Y-0.255 Z5.409 
N145 X-134.634 Y-0.528 Z5.117 
N146 X-134.634 Y-0.801 Z4.824 
N147 X-134.634 Y-1.074 Z4.532 
N148 X-134.633 Y-1.347 Z4.239 
N149 X-134.631 Y-1.619 Z3.946 
N150 X-134.629 Y-1.892 Z3.654 
N151 X-134.626 Y-2.165 Z3.361 
N152 X-134.622 Y-2.438 Z3.069 
N153 X-134.618 Y-2.711 Z2.776 
N154 X-134.613 Y-2.984 Z2.483 
N155 X-134.608 Y-3.256 Z2.191 
N156 X-134.602 Y-3.529 Z1.898 
N157 X-134.596 Y-3.802 Z1.606 
N158 X-134.589 Y-4.075 Z1.313 
N159 X-134.581 Y-4.348 Z1.020 
N160 X-134.573 Y-4.621 Z0.728 
N161 X-134.564 Y-4.893 Z0.435 
N162 X-134.554 Y-5.166 Z0.143 
N163 X-134.544 Y-5.439 Z-0.150 
N164 X-134.533 Y-5.712 Z-0.442 
N165 X-134.522 Y-5.985 Z-0.735 
N166 X-134.510 Y-6.257 Z-1.027 
N167 X-134.498 Y-6.530 Z-1.320 
N168 X-134.485 Y-6.803 Z-1.612 
N169 X-134.471 Y-7.075 Z-1.905 
N170 X-134.457 Y-7.348 Z-2.197 
N171 X-134.442 Y-7.621 Z-2.489 
N172 X-134.426 Y-7.893 Z-2.782 
N173 X-134.410 Y-8.166 Z-3.074 
N174 X-134.394 Y-8.439 Z-3.367 
N175 X-134.376 Y-8.711 Z-3.659 
N176 X-134.358 Y-8.984 Z-3.951 
N177 X-134.340 Y-9.257 Z-4.244 
N178 X-134.321 Y-9.529 Z-4.536 
N179 X-134.301 Y-9.802 Z-4.828 
N180 X-134.281 Y-10.074 Z-5.120 
N181 X-134.260 Y-10.347 Z-5.413 
N182 X-134.239 Y-10.619 Z-5.705 
N183 X-134.217 Y-10.892 Z-5.997 
N184 X-134.194 Y-11.164 Z-6.289 
N185 X-134.171 Y-11.436 Z-6.581 
N186 X-134.147 Y-11.709 Z-6.873 
N187 X-134.123 Y-11.981 Z-7.165 
N188 X-134.098 Y-12.253 Z-7.457 
N189 X-134.072 Y-12.526 Z-7.749 
N190 X-134.046 Y-12.798 Z-8.041 
N191 X-134.019 Y-13.070 Z-8.333 
N192 X-133.991 Y-13.343 Z-8.625 
N193 X-133.959 Y-13.666 Z-8.972 
N194 G40 X-133.890 Y-14.346 Z-9.701 F804
N195 X-133.890 Y-14.346 Z-9.701 
N196 G00 X-133.890 Y-50.914 Z24.398 
;RAPORT("TB123456","Side Milling:174 End")
;trailer : concat=None
; points cnt = 144
N198 MSG (" --- GROUPED OF SUBPROGRAM --- ")
N199 FGROUP()
N200 TRAFOOF
; PROGRAM NAME: B12345639
; ORDER       : B123456
; OPER. NAME  : Side Milling:175
; OPER. DESCR.: finish face root outlet FSA
; OPER. TYPE  : sideMill
; GEO. OPTION : 1
; MACHINE     : HSTM_500_SIM840D_Py
;             : HSTM500 - HAMUEL: 5-axis milling machine - SIM840D Traori PP_Script
; CONTROL     : SINUMERIK 840D
; created:   2023-06-06 12:08:32.506926
;-------DODATKOWE DANE-------------------
; PROGRAMISTA : Mariusz Malec
; PARTID      : 306T001953P1010_-
;  ap         : 22.0
;  ae         : 0.05
;  lean_angle : 0.0
;  fin_offset : -9.0
;----------------------------------------
;RAPORT("TB123456","Side Milling:175")
N10 TRAFOOF
N11 D0
N12 G90 G94
N13 G0 G53 D0 Z550 B0
N14 STOPRE
M9 ; chlodziwo wyl
; --- Side Milling:175 - finish face root outlet FSA ---
N16 ;ToolChange : concat=None ,current_tdmid=None, PP.tdmId=957773
N17 TRAFOOF
N18 G0 G53 D0 Z550 B0
N19 STOPRE
N20 MSG(" TLID=957773 D=9.5 R=1.0 Ang=0.0 Len=129.0 ")
N21 S6701 M03
N22 STOPRE
N23 CYCLE832(0.01,1,1)
N24 G0 G53 A227.0000 B-0.0000
N25 TRAORI
N26 G54 D2
;tol5=0.15
N27 D2 
STOPRE
E_ZDARZ=300007
;ACS_FINISH_ROOT_FRONT=7757773
STOPRE
;UWAGA : ZMIENIONA TOLERANCJA OSI A i B, ruchy osi A i B beda usuniete : TOL5=0.15
N28 ; DELTA A > 40.1
N29 TRAFOOF
N30 D2
N31 STOPRE
N32 G00 G54 Z257.000
N33 G01 A227.0000 F10000
N34 TRAORI
N35 G54 D2
N36 STOPRE
N37 TRANS 
N38 G00 X-134.425 Y33.305 Z-40.860 A227.0000 
N39 M342 ; chlodziwo woda
N40 X-134.425 Y-3.263 Z-6.760 
N41 ;FSA_1
N42 G01 G41 X-134.447 Y-2.581 Z-6.029 F804 
N43 X-134.456 Y-2.289 Z-5.716 
N44 X-134.465 Y-1.996 Z-5.402 
N45 X-134.474 Y-1.704 Z-5.089 
N46 X-134.483 Y-1.412 Z-4.776 
N47 X-134.492 Y-1.120 Z-4.462 
N48 X-134.502 Y-0.828 Z-4.149 
N49 X-134.511 Y-0.535 Z-3.836 
N50 X-134.521 Y-0.212 Z-3.488 
N51 X-134.529 Y0.061 Z-3.196 
N52 X-134.537 Y0.334 Z-2.903 
N53 X-134.544 Y0.607 Z-2.611 
N54 X-134.551 Y0.879 Z-2.318 
N55 X-134.557 Y1.152 Z-2.026 
N56 X-134.562 Y1.425 Z-1.733 
N57 X-134.567 Y1.698 Z-1.441 
N58 X-134.571 Y1.971 Z-1.148 
N59 X-134.575 Y2.243 Z-0.856 
N60 X-134.578 Y2.516 Z-0.563 
N61 X-134.581 Y2.789 Z-0.271 
N62 X-134.582 Y3.062 Z0.022 
N63 X-134.584 Y3.334 Z0.314 
N64 X-134.584 Y3.607 Z0.607 
N65 X-134.584 Y3.880 Z0.899 
N66 X-134.584 Y4.153 Z1.192 
N67 X-134.583 Y4.426 Z1.484 
N68 X-134.581 Y4.698 Z1.777 
N69 X-134.579 Y4.971 Z2.069 
N70 X-134.576 Y5.244 Z2.362 
N71 X-134.572 Y5.517 Z2.655 
N72 X-134.568 Y5.789 Z2.947 
N73 X-134.563 Y6.062 Z3.240 
N74 X-134.558 Y6.335 Z3.532 
N75 X-134.552 Y6.608 Z3.825 
N76 X-134.545 Y6.881 Z4.117 
N77 X-134.538 Y7.153 Z4.410 
N78 X-134.531 Y7.426 Z4.702 
N79 X-134.522 Y7.699 Z4.994 
N80 X-134.513 Y7.971 Z5.287 
N81 X-134.504 Y8.244 Z5.579 
N82 X-134.494 Y8.517 Z5.872 
N83 X-134.483 Y8.790 Z6.164 
N84 X-134.472 Y9.062 Z6.457 
N85 X-134.460 Y9.335 Z6.749 
N86 X-134.447 Y9.608 Z7.041 
N87 X-134.434 Y9.880 Z7.334 
N88 X-134.421 Y10.153 Z7.626 
N89 X-134.406 Y10.425 Z7.918 
N90 X-134.391 Y10.698 Z8.211 
N91 X-134.376 Y10.971 Z8.503 
N92 X-134.360 Y11.243 Z8.795 
N93 X-134.343 Y11.516 Z9.088 
N94 X-134.326 Y11.788 Z9.380 
N95 X-134.308 Y12.061 Z9.672 
N96 X-134.289 Y12.333 Z9.964 
N97 X-134.270 Y12.606 Z10.257 
N98 X-134.251 Y12.878 Z10.549 
N99 X-134.230 Y13.151 Z10.841 
N100 X-134.210 Y13.423 Z11.133 
N101 X-134.188 Y13.695 Z11.425 
N102 X-134.166 Y13.968 Z11.717 
N103 X-134.143 Y14.240 Z12.009 
N104 X-134.120 Y14.513 Z12.301 
N105 X-134.096 Y14.785 Z12.593 
N106 X-134.072 Y15.057 Z12.885 
N107 X-134.047 Y15.329 Z13.177 
N108 X-134.021 Y15.602 Z13.469 
N109 X-133.995 Y15.874 Z13.761 
N110 X-133.968 Y16.146 Z14.053 
N111 X-133.941 Y16.418 Z14.345 
N112 X-133.908 Y16.741 Z14.691 
N113 G40 X-133.840 Y17.422 Z15.421 F804
N114 X-133.840 Y17.422 Z15.421 
N115 G00 X-133.840 Y39.362 Z-5.039 
N116 X-134.475 Y18.677 Z-27.221 
N117 X-134.475 Y-3.264 Z-6.761 
N118 ;FSA_1
N119 G01 G41 X-134.497 Y-2.582 Z-6.030 F804 
N120 X-134.506 Y-2.289 Z-5.717 
N121 X-134.515 Y-1.997 Z-5.403 
N122 X-134.524 Y-1.705 Z-5.090 
N123 X-134.533 Y-1.413 Z-4.776 
N124 X-134.542 Y-1.121 Z-4.463 
N125 X-134.552 Y-0.828 Z-4.150 
N126 X-134.561 Y-0.536 Z-3.836 
N127 X-134.571 Y-0.212 Z-3.489 
N128 X-134.579 Y0.061 Z-3.197 
N129 X-134.587 Y0.333 Z-2.904 
N130 X-134.594 Y0.606 Z-2.611 
N131 X-134.601 Y0.879 Z-2.319 
N132 X-134.607 Y1.152 Z-2.026 
N133 X-134.612 Y1.425 Z-1.734 
N134 X-134.617 Y1.697 Z-1.441 
N135 X-134.621 Y1.970 Z-1.149 
N136 X-134.625 Y2.243 Z-0.856 
N137 X-134.628 Y2.516 Z-0.564 
N138 X-134.631 Y2.789 Z-0.271 
N139 X-134.632 Y3.061 Z0.022 
N140 X-134.634 Y3.334 Z0.314 
N141 X-134.634 Y3.607 Z0.607 
N142 X-134.634 Y3.880 Z0.899 
N143 X-134.634 Y4.153 Z1.192 
N144 X-134.633 Y4.426 Z1.485 
N145 X-134.631 Y4.699 Z1.777 
N146 X-134.629 Y4.971 Z2.070 
N147 X-134.626 Y5.244 Z2.362 
N148 X-134.622 Y5.517 Z2.655 
N149 X-134.618 Y5.790 Z2.947 
N150 X-134.613 Y6.063 Z3.240 
N151 X-134.608 Y6.335 Z3.533 
N152 X-134.602 Y6.608 Z3.825 
N153 X-134.595 Y6.881 Z4.118 
N154 X-134.588 Y7.154 Z4.410 
N155 X-134.581 Y7.427 Z4.703 
N156 X-134.572 Y7.699 Z4.995 
N157 X-134.563 Y7.972 Z5.288 
N158 X-134.554 Y8.245 Z5.580 
N159 X-134.544 Y8.518 Z5.873 
N160 X-134.533 Y8.790 Z6.165 
N161 X-134.522 Y9.063 Z6.458 
N162 X-134.510 Y9.336 Z6.750 
N163 X-134.497 Y9.609 Z7.043 
N164 X-134.484 Y9.881 Z7.335 
N165 X-134.470 Y10.154 Z7.627 
N166 X-134.456 Y10.427 Z7.920 
N167 X-134.441 Y10.699 Z8.212 
N168 X-134.426 Y10.972 Z8.505 
N169 X-134.410 Y11.245 Z8.797 
N170 X-134.393 Y11.517 Z9.089 
N171 X-134.376 Y11.790 Z9.382 
N172 X-134.358 Y12.062 Z9.674 
N173 X-134.339 Y12.335 Z9.966 
N174 X-134.320 Y12.607 Z10.258 
N175 X-134.301 Y12.880 Z10.551 
N176 X-134.280 Y13.152 Z10.843 
N177 X-134.260 Y13.425 Z11.135 
N178 X-134.238 Y13.697 Z11.427 
N179 X-134.216 Y13.970 Z11.719 
N180 X-134.193 Y14.242 Z12.011 
N181 X-134.170 Y14.515 Z12.303 
N182 X-134.146 Y14.787 Z12.596 
N183 X-134.122 Y15.059 Z12.888 
N184 X-134.097 Y15.332 Z13.180 
N185 X-134.071 Y15.604 Z13.472 
N186 X-134.045 Y15.876 Z13.764 
N187 X-134.018 Y16.148 Z14.055 
N188 X-133.991 Y16.420 Z14.347 
N189 X-133.958 Y16.744 Z14.694 
N190 G40 X-133.890 Y17.424 Z15.424 F804
N191 X-133.890 Y17.424 Z15.424 
N192 G00 X-133.890 Y53.992 Z-18.676 
;RAPORT("TB123456","Side Milling:175 End")
;trailer : concat=None
; points cnt = 144
N194 M9 ; chlodziwo wyl.
N195 MSG (" --- KONIEC PODPROGRAMU --- ")
N196 FGROUP()
N197 TRAFOOF
N198 STOPRE
N199 G0 G53 D0 Z550.0 M9 M5
N200 G0 G53 Y150 A0 B0
N201 M17
