; PROGRAM NAME: D12345637
; ORDER       : D123456
; OPER. NAME  : Side Milling:143
; OPER. DESCR.: Side Milling/rowek_wyk
; OPER. TYPE  : sideMill
; GEO. OPTION : 3
; MACHINE     : HSTM_300HD_SIM840D_Py
;             : HSTM300/500 - HAMUEL: 5-axis milling machine-SIM840D Traori PP_Script
; CONTROL     : SINUMERIK 840D
; created:   2023-06-05 09:21:01.594044
;-------DODATKOWE DANE-------------------
; PROGRAMISTA : Mariusz Malec
; PARTID      : 301T002184P1010_-
;  ap         : 5.0
;  ae         : 5.0
;  lean_angle : 0.0
;  fin_offset : 0.0
;----------------------------------------
;RAPORT("TD123456","Side Milling:143")
N10 TRAFOOF
N11 D0
N12 G90 G94
N13 G0 G53 D0 Z550
N14 STOPRE
M9 ; chlodziwo wyl
; --- Side Milling:143 - Side Milling/rowek_wyk ---
N16 ;ToolChange : concat=None ,current_tdmid=None, PP.tdmId=940664
N17 TRAFOOF
N18 G0 G53 D0 X-200 Y150 Z550 B0
N19 T="7740664"
;RAPORT("TD123456","ToolChangeStart 7740664")
N20 M6
;RAPORT("TD123456","ToolChangeEnd")
N21 STOPRE
N22 MSG(" TLID=940664 D=6.0 R=0.6 Ang=0.0 Len=100.0 ")
N23 ; (Preloading tool)
N24 T="7770356"
N25 S9018 M03
N26 STOPRE
N27 CYCLE832(0.1,1,1)
N28 G0 G53 A52.0000 B0.0000
N29 TRAORI
N30 G54 D1
;tol5=0.15
STOPRE
E_ZDARZ=300010
;ACS_FINISH_SLOT=7740664
STOPRE
;UWAGA : ZMIENIONA TOLERANCJA OSI A i B, ruchy osi A i B beda usuniete : TOL5=0.15
N31 ; DELTA A > 40.1
N32 TRAFOOF
N33 D1
N34 STOPRE
N35 G00 G54 Z286.000
N36 G01 A52.0000 F10000
N37 TRAORI
N38 G54 D1
N39 STOPRE
N40 TRANS 
N41 G00 X-149.408 Y-66.055 Z8.040 A52.0000 
N42 M342 ; chlodziwo woda
N43 X-149.408 Y-26.654 Z-22.743 
N44 ;rowek od strony mocowania
N45 D2 
N46 G01 G41 X-148.820 Y-20.508 Z-14.876 F541 
N47 X-148.804 Y-20.340 Z-14.662 
N48 X-148.788 Y-20.173 Z-14.447 
N49 X-148.772 Y-20.005 Z-14.233 
N50 X--148.756 Y-19.838 Z-14.018 
N51 X-148.740 Y-19.670 Z-13.803 
N52 X-148.724 Y-19.502 Z-13.589 
N53 X-148.708 Y-19.335 Z-13.374 
N54 X-148.692 Y-19.167 Z-13.160 
N55 X-148.676 Y-19.000 Z-12.945 
N56 X-148.660 Y-18.832 Z-12.731 
N57 X-148.644 Y-18.664 Z-12.516 
N58 X-148.628 Y-18.497 Z-12.302 
N59 X-148.611 Y-18.329 Z-12.087 
N60 X-148.595 Y-18.161 Z-11.873 
N61 X-148.579 Y-17.994 Z-11.658 
N62 X-148.563 Y-17.826 Z-11.444 
N63 X-148.547 Y-17.659 Z-11.229 
N64 X-148.531 Y-17.491 Z-11.014 
N65 X-148.515 Y-17.323 Z-10.800 
N66 X-148.499 Y-17.156 Z-10.585 
N67 X-148.483 Y-16.988 Z-10.371 
N68 X-148.467 Y-16.821 Z-10.156 
N69 X-148.451 Y-16.655 Z-9.944 
N70 X-148.435 Y-16.489 Z-9.732 
N71 X-148.420 Y-16.323 Z-9.519 
N72 X-148.405 Y-16.157 Z-9.307 
N73 X-148.389 Y-15.991 Z-9.094 
N74 X-148.374 Y-15.825 Z-8.882 
N75 X-148.360 Y-15.659 Z-8.670 
N76 X-148.345 Y-15.493 Z-8.457 
N77 X-148.331 Y-15.327 Z-8.245 
N78 X-148.317 Y-15.161 Z-8.032 
N79 X-148.303 Y-14.995 Z-7.820 
N80 X-148.289 Y-14.829 Z-7.607 
N81 X-148.275 Y-14.663 Z-7.395 
N82 X-148.262 Y-14.497 Z-7.182 
N83 X-148.249 Y-14.331 Z-6.970 
N84 X-148.236 Y-14.165 Z-6.757 
N85 X-148.223 Y-13.999 Z-6.545 
N86 X-148.210 Y-13.833 Z-6.332 
N87 X-148.198 Y-13.667 Z-6.120 
N88 X-148.186 Y-13.501 Z-5.907 
N89 X-148.174 Y-13.335 Z-5.695 
N90 X-148.162 Y-13.169 Z-5.482 
N91 X-148.151 Y-13.003 Z-5.270 
N92 X-148.139 Y-12.837 Z-5.057 
N93 X-148.128 Y-12.671 Z-4.845 
N94 X-148.117 Y-12.505 Z-4.632 
N95 X-148.106 Y-12.338 Z-4.419 
N96 X-148.096 Y-12.172 Z-4.207 
N97 X-148.085 Y-12.006 Z-3.994 
N98 X-148.075 Y-11.840 Z-3.782 
N99 X-148.065 Y-11.674 Z-3.569 
N100 X-148.055 Y-11.508 Z-3.357 
N101 X-148.046 Y-11.342 Z-3.144 
N102 X-148.036 Y-11.176 Z-2.931 
N103 X-148.027 Y-11.010 Z-2.719 
N104 X-148.018 Y-10.844 Z-2.506 
N105 X-148.009 Y-10.677 Z-2.293 
N106 X-148.001 Y-10.511 Z-2.081 
N107 X-147.992 Y-10.345 Z-1.868 
N108 X-147.984 Y-10.179 Z-1.656 
N109 X-147.976 Y-10.013 Z-1.443 
N110 X-147.968 Y-9.847 Z-1.230 
N111 X-147.961 Y-9.681 Z-1.018 
N112 X-147.953 Y-9.514 Z-0.805 
N113 X-147.946 Y-9.348 Z-0.592 
N114 X-147.939 Y-9.182 Z-0.380 
N115 X-147.932 Y-9.016 Z-0.167 
N116 X-147.926 Y-8.850 Z0.046 
N117 X-147.919 Y-8.684 Z0.258 
N118 X-147.913 Y-8.517 Z0.471 
N119 X-147.907 Y-8.351 Z0.684 
N120 X-147.901 Y-8.185 Z0.896 
N121 X-147.896 Y-8.019 Z1.109 
N122 X-147.890 Y-7.853 Z1.322 
N123 X-147.885 Y-7.687 Z1.535 
N124 X-147.880 Y-7.520 Z1.747 
N125 X-147.875 Y-7.354 Z1.960 
N126 X-147.871 Y-7.188 Z2.173 
N127 X-147.866 Y-7.022 Z2.385 
N128 X-147.862 Y-6.856 Z2.598 
N129 X-147.858 Y-6.689 Z2.811 
N130 X-147.854 Y-6.523 Z3.024 
N131 X-147.851 Y-6.357 Z3.236 
N132 X-147.847 Y-6.191 Z3.449 
N133 X-147.844 Y-6.025 Z3.662 
N134 X-147.841 Y-5.858 Z3.874 
N135 X-147.838 Y-5.692 Z4.087 
N136 X-147.836 Y-5.526 Z4.300 
N137 X-147.833 Y-5.360 Z4.513 
N138 X-147.831 Y-5.194 Z4.725 
N139 X-147.829 Y-5.027 Z4.938 
N140 X-147.827 Y-4.861 Z5.151 
N141 X-147.826 Y-4.695 Z5.364 
N142 X-147.824 Y-4.529 Z5.576 
N143 X-147.823 Y-4.363 Z5.789 
N144 X-147.822 Y-4.196 Z6.002 
N145 X-147.821 Y-4.030 Z6.215 
N146 X-147.821 Y-3.864 Z6.427 
N147 X-147.820 Y-3.698 Z6.640 
N148 X-147.820 Y-3.532 Z6.853 
N149 X-147.820 Y-3.365 Z7.065 
N150 X-147.820 Y-3.199 Z7.278 
N151 X-147.821 Y-3.033 Z7.491 
N152 X-147.821 Y-2.867 Z7.704 
N153 X-147.822 Y-2.701 Z7.916 
N154 X-147.823 Y-2.534 Z8.129 
N155 X-147.824 Y-2.368 Z8.342 
N156 X-147.826 Y-2.202 Z8.555 
N157 X-147.827 Y-2.036 Z8.767 
N158 X-147.829 Y-1.869 Z8.980 
N159 X-147.831 Y-1.703 Z9.193 
N160 X-147.833 Y-1.537 Z9.406 
N161 X-147.835 Y-1.371 Z9.618 
N162 X-147.838 Y-1.205 Z9.831 
N163 X-147.840 Y-1.037 Z10.046 
N164 X-147.843 Y-0.869 Z10.261 
N165 X-147.846 Y-0.701 Z10.476 
N166 X-147.848 Y-0.533 Z10.691 
N167 X-147.851 Y-0.365 Z10.906 
N168 X-147.853 Y-0.197 Z11.120 
N169 X-147.856 Y-0.029 Z11.335 
N170 X-147.858 Y0.139 Z11.550 
N171 X-147.861 Y0.306 Z11.765 
N172 X-147.863 Y0.474 Z11.980 
N173 X-147.866 Y0.642 Z12.195 
N174 G40 X-147.868 Y0.829 Z12.434 F795
N175 X-147.868 Y0.829 Z12.434 
N176 X-147.874 Y1.168 Z12.868 F1558 
N177 X-147.884 Y1.812 Z13.692 F2831 
N178 X-147.902 Y2.861 Z15.035 F4103 
N179 X-147.930 Y4.214 Z16.767 F4867 
N180 X-147.980 Y5.719 Z18.693 F5121 
N181 X-148.100 Y7.287 Z20.699 
N182 X-148.196 Y6.081 Z19.156 F4867 
N183 X-148.185 Y4.689 Z17.375 F4103 
N184 X-148.172 Y3.672 Z16.073 F2831 
N185 X-148.163 Y3.057 Z15.285 F1558 
N186 X-148.158 Y2.722 Z14.857 F795 
N187 ;rowek od strony piora
N188 D1 
N189 G41 X-148.155 Y2.526 Z14.607 F541 
N190 X-148.152 Y2.358 Z14.392 
N191 X-148.150 Y2.191 Z14.177 
N192 X-148.147 Y2.023 Z13.962 
N193 X-148.145 Y1.855 Z13.747 
N194 X-148.142 Y1.687 Z13.532 
N195 X-148.140 Y1.519 Z13.317 
N196 X-148.137 Y1.351 Z13.102 
N197 X-148.134 Y1.183 Z12.887 
N198 X-148.132 Y1.015 Z12.672 
N199 X-148.129 Y0.847 Z12.458 
N200 X-148.127 Y0.679 Z12.243 
N201 X-148.124 Y0.512 Z12.028 
N202 X-148.122 Y0.344 Z11.813 
N203 X-148.119 Y0.176 Z11.598 
N204 X-148.116 Y0.008 Z11.383 
N205 X-148.114 Y-0.160 Z11.168 
N206 X-148.111 Y-0.328 Z10.953 
N207 X-148.109 Y-0.496 Z10.738 
N208 X-148.106 Y-0.664 Z10.523 
N209 X-148.104 Y-0.832 Z10.308 
N210 X-148.101 Y-1.000 Z10.094 
N211 X-148.099 Y-1.167 Z9.879 
N212 X-148.096 Y-1.334 Z9.666 
N213 X-148.094 Y-1.500 Z9.453 
N214 X-148.091 Y-1.666 Z9.240 
N215 X-148.089 Y-1.833 Z9.027 
N216 X-148.088 Y-1.999 Z8.814 
N217 X-148.086 Y-2.165 Z8.601 
N218 X-148.085 Y-2.332 Z8.389 
N219 X-148.083 Y-2.498 Z8.176 
N220 X-148.082 Y-2.664 Z7.963 
N221 X-148.081 Y-2.831 Z7.750 
N222 X-148.081 Y-2.997 Z7.537 
N223 X-148.080 Y-3.163 Z7.324 
N224 X-148.080 Y-3.330 Z7.111 
N225 X-148.080 Y-3.496 Z6.898 
N226 X-148.080 Y-3.662 Z6.686 
N227 X-148.081 Y-3.829 Z6.473 
N228 X-148.081 Y-3.995 Z6.260 
N229 X-148.082 Y-4.161 Z6.047 
N230 X-148.083 Y-4.327 Z5.834 
N231 X-148.084 Y-4.494 Z5.621 
N232 X-148.086 Y-4.660 Z5.408 
N233 X-148.087 Y-4.826 Z5.195 
N234 X-148.089 Y-4.993 Z4.983 
N235 X-148.091 Y-5.159 Z4.770 
N236 X-148.093 Y-5.325 Z4.557 
N237 X-148.095 Y-5.492 Z4.344 
N238 X-148.098 Y-5.658 Z4.131 
N239 X-148.101 Y-5.824 Z3.918 
N240 X-148.104 Y-5.991 Z3.705 
N241 X-148.107 Y-6.157 Z3.493 
N242 X-148.110 Y-6.323 Z3.280 
N243 X-148.114 Y-6.490 Z3.067 
N244 X-148.118 Y-6.656 Z2.854 
N245 X-148.121 Y-6.822 Z2.641 
N246 X-148.126 Y-6.988 Z2.428 
N247 X-148.130 Y-7.155 Z2.215 
N248 X-148.135 Y-7.321 Z2.003 
N249 X-148.139 Y-7.487 Z1.790 
N250 X-148.144 Y-7.654 Z1.577 
N251 X-148.149 Y-7.820 Z1.364 
N252 X-148.155 Y-7.986 Z1.151 
N253 X-148.160 Y-8.152 Z0.938 
N254 X-148.166 Y-8.319 Z0.726 
N255 X-148.172 Y-8.485 Z0.513 
N256 X-148.178 Y-8.651 Z0.300 
N257 X-148.185 Y-8.818 Z0.087 
N258 X-148.191 Y-8.984 Z-0.126 
N259 X-148.198 Y-9.150 Z-0.339 
N260 X-148.205 Y-9.316 Z-0.551 
N261 X-148.212 Y-9.483 Z-0.764 
N262 X-148.219 Y-9.649 Z-0.977 
N263 X-148.227 Y-9.815 Z-1.190 
N264 X-148.235 Y-9.981 Z-1.403 
N265 X-148.243 Y-10.148 Z-1.615 
N266 X-148.251 Y-10.314 Z-1.828 
N267 X-148.259 Y-10.480 Z-2.041 
N268 X-148.268 Y-10.646 Z-2.254 
N269 X-148.277 Y-10.813 Z-2.466 
N270 X-148.286 Y-10.979 Z-2.679 
N271 X-148.295 Y-11.145 Z-2.892 
N272 X-148.304 Y-11.311 Z-3.105 
N273 X-148.314 Y-11.477 Z-3.317 
N274 X-148.323 Y-11.644 Z-3.530 
N275 X-148.333 Y-11.810 Z-3.743 
N276 X-148.344 Y-11.976 Z-3.956 
N277 X-148.354 Y-12.142 Z-4.168 
N278 X-148.364 Y-12.308 Z-4.381 
N279 X-148.375 Y-12.475 Z-4.594 
N280 X-148.386 Y-12.641 Z-4.806 
N281 X-148.397 Y-12.807 Z-5.019 
N282 X-148.409 Y-12.973 Z-5.232 
N283 X-148.420 Y-13.139 Z-5.445 
N284 X-148.432 Y-13.305 Z-5.657 
N285 X-148.444 Y-13.472 Z-5.870 
N286 X-148.456 Y-13.638 Z-6.083 
N287 X-148.469 Y-13.804 Z-6.295 
N288 X-148.481 Y-13.970 Z-6.508 
N289 X-148.494 Y-14.136 Z-6.721 
N290 X-148.507 Y-14.302 Z-6.933 
N291 X-148.520 Y-14.468 Z-7.146 
N292 X-148.533 Y-14.635 Z-7.358 
N293 X-148.547 Y-14.801 Z-7.571 
N294 X-148.561 Y-14.967 Z-7.784 
N295 X-148.575 Y-15.133 Z-7.996 
N296 X-148.589 Y-15.299 Z-8.209 
N297 X-148.603 Y-15.465 Z-8.421 
N298 X-148.618 Y-15.631 Z-8.634 
N299 X-148.632 Y-15.797 Z-8.846 
N300 X-148.647 Y-15.963 Z-9.059 
N301 X-148.662 Y-16.129 Z-9.272 
N302 X-148.678 Y-16.295 Z-9.484 
N303 X-148.693 Y-16.461 Z-9.697 
N304 X-148.709 Y-16.627 Z-9.909 
N305 X-148.725 Y-16.793 Z-10.122 
N306 X-148.741 Y-16.961 Z-10.336 
N307 X-148.757 Y-17.129 Z-10.551 
N308 X-148.773 Y-17.296 Z-10.765 
N309 X-148.789 Y-17.464 Z-10.980 
N310 X-148.805 Y-17.632 Z-11.194 
N311 X-148.821 Y-17.799 Z-11.409 
N312 X-148.837 Y-17.967 Z-11.623 
N313 X-148.853 Y-18.134 Z-11.838 
N314 X-148.869 Y-18.302 Z-12.053 
N315 X-148.885 Y-18.470 Z-12.267 
N316 X-148.901 Y-18.637 Z-12.482 
N317 G40 X-149.488 Y-24.783 Z-20.348 F541
N318 X-149.488 Y-24.783 Z-20.348 
N319 G00 X-149.488 Y-64.184 Z10.435 
;RAPORT("TD123456","Side Milling:143 End")
;trailer : concat=None
; points cnt = 269
N321 MSG (" --- GROUPED OF SUBPROGRAM --- ")
N322 FGROUP()
N323 TRAFOOF
; PROGRAM NAME: D12345637
; ORDER       : D123456
; OPER. NAME  : Side Milling:144
; OPER. DESCR.: finish slot NGE
; OPER. TYPE  : sideMill
; GEO. OPTION : 3
; MACHINE     : HSTM_300HD_SIM840D_Py
;             : HSTM300/500 - HAMUEL: 5-axis milling machine-SIM840D Traori PP_Script
; CONTROL     : SINUMERIK 840D
; created:   2023-06-05 09:21:07.368627
;-------DODATKOWE DANE-------------------
; PROGRAMISTA : Mariusz Malec
; PARTID      : 301T002184P1010_-
;  ap         : 5.0
;  ae         : 5.0
;  lean_angle : 0.0
;  fin_offset : 0.03
;----------------------------------------
;RAPORT("TD123456","Side Milling:144")
N10 TRAFOOF
N11 D0
N12 G90 G94
N13 G0 G53 D0 Z550
N14 STOPRE
M9 ; chlodziwo wyl
; --- Side Milling:144 - finish slot NGE ---
N16 ;ToolChange : concat=None ,current_tdmid=None, PP.tdmId=940664
N17 TRAFOOF
N18 G0 G53 D0 Z550 B0
N19 STOPRE
N20 MSG(" TLID=940664 D=6.0 R=0.6 Ang=0.0 Len=100.0 ")
N21 S9018 M03
N22 STOPRE
N23 CYCLE832(0.1,1,1)
N24 G0 G53 A52.0000 B0.0000
N25 TRAORI
N26 G54 D1
;tol5=0.15
STOPRE
E_ZDARZ=300010
;ACS_FINISH_SLOT=7740664
STOPRE
;UWAGA : ZMIENIONA TOLERANCJA OSI A i B, ruchy osi A i B beda usuniete : TOL5=0.15
N27 ; DELTA A > 40.1
N28 TRAFOOF
N29 D1
N30 STOPRE
N31 G00 G54 Z286.000
N32 G01 A52.0000 F10000
N33 TRAORI
N34 G54 D1
N35 STOPRE
N36 TRANS 
N37 G00 X-149.388 Y-66.079 Z8.058 A52.0000 
N38 M342 ; chlodziwo woda
N39 X-149.388 Y-26.678 Z-22.725 
N40 ;rowek od strony mocowania
N41 D2 
N42 G01 G41 X-148.800 Y-20.532 Z-14.859 F541 
N43 X-148.784 Y-20.365 Z-14.644 
N44 X-148.768 Y-20.197 Z-14.430 
N45 X-148.752 Y-20.030 Z-14.215 
N46 X-148.736 Y-19.862 Z-14.001 
N47 X-148.720 Y-19.694 Z-13.786 
N48 X-148.704 Y-19.527 Z-13.571 
N49 X-148.688 Y-19.359 Z-13.357 
N50 X-148.672 Y-19.192 Z-13.142 
N51 X-148.656 Y-19.024 Z-12.928 
N52 X-148.640 Y-18.856 Z-12.713 
N53 X-148.624 Y-18.689 Z-12.499 
N54 X-148.608 Y-18.521 Z-12.284 
N55 X-148.592 Y-18.353 Z-12.070 
N56 X-148.575 Y-18.186 Z-11.855 
N57 X-148.559 Y-18.018 Z-11.641 
N58 X-148.543 Y-17.851 Z-11.426 
N59 X-148.527 Y-17.683 Z-11.211 
N60 X-148.511 Y-17.515 Z-10.997 
N61 X-148.495 Y-17.348 Z-10.782 
N62 X-148.479 Y-17.180 Z-10.568 
N63 X-148.463 Y-17.013 Z-10.353 
N64 X-148.447 Y-16.845 Z-10.139 
N65 X-148.431 Y-16.679 Z-9.926 
N66 X-148.416 Y-16.513 Z-9.714 
N67 X-148.400 Y-16.347 Z-9.502 
N68 X-148.385 Y-16.181 Z-9.289 
N69 X-148.369 Y-16.015 Z-9.077 
N70 X-148.354 Y-15.849 Z-8.864 
N71 X-148.340 Y-15.683 Z-8.652 
N72 X-148.325 Y-15.517 Z-8.439 
N73 X-148.311 Y-15.351 Z-8.227 
N74 X-148.297 Y-15.185 Z-8.015 
N75 X-148.283 Y-15.019 Z-7.802 
N76 X-148.269 Y-14.853 Z-7.590 
N77 X-148.255 Y-14.687 Z-7.377 
N78 X-148.242 Y-14.521 Z-7.165 
N79 X-148.229 Y-14.355 Z-6.952 
N80 X-148.216 Y-14.189 Z-6.740 
N81 X-148.203 Y-14.023 Z-6.527 
N82 X-148.190 Y-13.857 Z-6.315 
N83 X-148.178 Y-13.691 Z-6.102 
N84 X-148.166 Y-13.525 Z-5.890 
N85 X-148.154 Y-13.359 Z-5.677 
N86 X-148.142 Y-13.193 Z-5.464 
N87 X-148.131 Y-13.027 Z-5.252 
N88 X-148.119 Y-12.861 Z-5.039 
N89 X-148.108 Y-12.695 Z-4.827 
N90 X-148.097 Y-12.529 Z-4.614 
N91 X-148.086 Y-12.363 Z-4.402 
N92 X-148.076 Y-12.196 Z-4.189 
N93 X-148.065 Y-12.030 Z-3.976 
N94 X-148.055 Y-11.864 Z-3.764 
N95 X-148.045 Y-11.698 Z-3.551 
N96 X-148.035 Y-11.532 Z-3.339 
N97 X-148.026 Y-11.366 Z-3.126 
N98 X-148.016 Y-11.200 Z-2.913 
N99 X-148.007 Y-11.034 Z-2.701 
N100 X-147.998 Y-10.868 Z-2.488 
N101 X-147.989 Y-10.701 Z-2.275 
N102 X-147.981 Y-10.535 Z-2.063 
N103 X-147.972 Y-10.369 Z-1.850 
N104 X-147.964 Y-10.203 Z-1.638 
N105 X-147.956 Y-10.037 Z-1.425 
N106 X-147.948 Y-9.871 Z-1.212 
N107 X-147.941 Y-9.705 Z-1.000 
N108 X-147.933 Y-9.538 Z-0.787 
N109 X-147.926 Y-9.372 Z-0.574 
N110 X-147.919 Y-9.206 Z-0.362 
N111 X-147.912 Y-9.040 Z-0.149 
N112 X-147.906 Y-8.874 Z0.064 
N113 X-147.899 Y-8.708 Z0.277 
N114 X-147.893 Y-8.541 Z0.489 
N115 X-147.887 Y-8.375 Z0.702 
N116 X-147.881 Y-8.209 Z0.915 
N117 X-147.876 Y-8.043 Z1.127 
N118 X-147.870 Y-7.877 Z1.340 
N119 X-147.865 Y-7.710 Z1.553 
N120 X-147.860 Y-7.544 Z1.765 
N121 X-147.855 Y-7.378 Z1.978 
N122 X-147.851 Y-7.212 Z2.191 
N123 X-147.846 Y-7.046 Z2.404 
N124 X-147.842 Y-6.879 Z2.616 
N125 X-147.838 Y-6.713 Z2.829 
N126 X-147.834 Y-6.547 Z3.042 
N127 X-147.831 Y-6.381 Z3.255 
N128 X-147.827 Y-6.215 Z3.467 
N129 X-147.824 Y-6.048 Z3.680 
N130 X-147.821 Y-5.882 Z3.893 
N131 X-147.818 Y-5.716 Z4.105 
N132 X-147.816 Y-5.550 Z4.318 
N133 X-147.813 Y-5.384 Z4.531 
N134 X-147.811 Y-5.217 Z4.744 
N135 X-147.809 Y-5.051 Z4.956 
N136 X-147.807 Y-4.885 Z5.169 
N137 X-147.806 Y-4.719 Z5.382 
N138 X-147.804 Y-4.553 Z5.595 
N139 X-147.803 Y-4.386 Z5.807 
N140 X-147.802 Y-4.220 Z6.020 
N141 X-147.801 Y-4.054 Z6.233 
N142 X-147.801 Y-3.888 Z6.446 
N143 X-147.800 Y-3.721 Z6.658 
N144 X-147.800 Y-3.555 Z6.871 
N145 X-147.800 Y-3.389 Z7.084 
N146 X-147.800 Y-3.223 Z7.297 
N147 X-147.801 Y-3.057 Z7.509 
N148 X-147.801 Y-2.890 Z7.722 
N149 X-147.802 Y-2.724 Z7.935 
N150 X-147.803 Y-2.558 Z8.148 
N151 X-147.804 Y-2.392 Z8.360 
N152 X-147.806 Y-2.225 Z8.573 
N153 X-147.807 Y-2.059 Z8.786 
N154 X-147.809 Y-1.893 Z8.999 
N155 X-147.811 Y-1.727 Z9.211 
N156 X-147.813 Y-1.561 Z9.424 
N157 X-147.815 Y-1.394 Z9.637 
N158 X-147.818 Y-1.228 Z9.850 
N159 X-147.820 Y-1.060 Z10.065 
N160 X-147.823 Y-0.892 Z10.279 
N161 X-147.826 Y-0.724 Z10.494 
N162 X-147.828 Y-0.557 Z10.709 
N163 X-147.831 Y-0.389 Z10.924 
N164 X-147.833 Y-0.221 Z11.139 
N165 X-147.836 Y-0.053 Z11.354 
N166 X-147.838 Y0.115 Z11.569 
N167 X-147.841 Y0.283 Z11.784 
N168 X-147.843 Y0.451 Z11.999 
N169 X-147.846 Y0.619 Z12.214 
N170 G40 X-147.848 Y0.806 Z12.453 F795
N171 X-147.848 Y0.806 Z12.453 
N172 X-147.854 Y1.145 Z12.887 F1559 
N173 X-147.864 Y1.789 Z13.711 F2832 
N174 X-147.883 Y2.838 Z15.055 F4105 
N175 X-147.915 Y4.192 Z16.787 F4869 
N176 X-147.977 Y5.698 Z18.715 F5123 
N177 X-148.142 Y7.264 Z20.720 
N178 X-148.291 Y6.059 Z19.177 F4869 
N179 X-148.284 Y4.673 Z17.402 F4105 
N180 X-148.272 Y3.649 Z16.092 F2832 
N181 X-148.263 Y3.032 Z15.302 F1559 
N182 X-148.258 Y2.697 Z14.874 F795 
N183 ;rowek od strony piora
N184 D1 
N185 G41 X-148.255 Y2.502 Z14.624 F541 
N186 X-148.252 Y2.334 Z14.409 
N187 X-148.250 Y2.166 Z14.194 
N188 X-148.247 Y1.998 Z13.980 
N189 X-148.245 Y1.830 Z13.765 
N190 X-148.242 Y1.663 Z13.550 
N191 X-148.240 Y1.495 Z13.335 
N192 X-148.237 Y1.327 Z13.120 
N193 X-148.234 Y1.159 Z12.905 
N194 X-148.232 Y0.991 Z12.690 
N195 X-148.229 Y0.823 Z12.475 
N196 X-148.227 Y0.655 Z12.260 
N197 X-148.224 Y0.487 Z12.045 
N198 X-148.222 Y0.319 Z11.830 
N199 X-148.219 Y0.151 Z11.616 
N200 X-148.216 Y-0.016 Z11.401 
N201 X-148.214 Y-0.184 Z11.186 
N202 X-148.211 Y-0.352 Z10.971 
N203 X-148.209 Y-0.520 Z10.756 
N204 X-148.206 Y-0.688 Z10.541 
N205 X-148.204 Y-0.856 Z10.326 
N206 X-148.201 Y-1.024 Z10.111 
N207 X-148.199 Y-1.192 Z9.896 
N208 X-148.196 Y-1.358 Z9.684 
N209 X-148.194 Y-1.524 Z9.471 
N210 X-148.191 Y-1.691 Z9.258 
N211 X-148.189 Y-1.857 Z9.045 
N212 X-148.188 Y-2.023 Z8.832 
N213 X-148.186 Y-2.189 Z8.619 
N214 X-148.185 Y-2.356 Z8.407 
N215 X-148.183 Y-2.522 Z8.194 
N216 X-148.182 Y-2.688 Z7.981 
N217 X-148.181 Y-2.854 Z7.768 
N218 X-148.181 Y-3.021 Z7.555 
N219 X-148.180 Y-3.187 Z7.343 
N220 X-148.180 Y-3.353 Z7.130 
N221 X-148.180 Y-3.520 Z6.917 
N222 X-148.180 Y-3.686 Z6.704 
N223 X-148.181 Y-3.852 Z6.491 
N224 X-148.181 Y-4.018 Z6.278 
N225 X-148.182 Y-4.185 Z6.066 
N226 X-148.183 Y-4.351 Z5.853 
N227 X-148.184 Y-4.517 Z5.640 
N228 X-148.186 Y-4.683 Z5.427 
N229 X-148.187 Y-4.850 Z5.214 
N230 X-148.189 Y-5.016 Z5.002 
N231 X-148.191 Y-5.182 Z4.789 
N232 X-148.193 Y-5.348 Z4.576 
N233 X-148.195 Y-5.515 Z4.363 
N234 X-148.198 Y-5.681 Z4.150 
N235 X-148.201 Y-5.847 Z3.938 
N236 X-148.204 Y-6.014 Z3.725 
N237 X-148.207 Y-6.180 Z3.512 
N238 X-148.210 Y-6.346 Z3.299 
N239 X-148.214 Y-6.512 Z3.086 
N240 X-148.218 Y-6.679 Z2.874 
N241 X-148.221 Y-6.845 Z2.661 
N242 X-148.226 Y-7.011 Z2.448 
N243 X-148.230 Y-7.177 Z2.235 
N244 X-148.235 Y-7.344 Z2.022 
N245 X-148.239 Y-7.510 Z1.810 
N246 X-148.244 Y-7.676 Z1.597 
N247 X-148.249 Y-7.842 Z1.384 
N248 X-148.255 Y-8.009 Z1.171 
N249 X-148.260 Y-8.175 Z0.958 
N250 X-148.266 Y-8.341 Z0.746 
N251 X-148.272 Y-8.507 Z0.533 
N252 X-148.278 Y-8.673 Z0.320 
N253 X-148.285 Y-8.840 Z0.107 
N254 X-148.291 Y-9.006 Z-0.105 
N255 X-148.298 Y-9.172 Z-0.318 
N256 X-148.305 Y-9.338 Z-0.531 
N257 X-148.312 Y-9.505 Z-0.744 
N258 X-148.319 Y-9.671 Z-0.956 
N259 X-148.327 Y-9.837 Z-1.169 
N260 X-148.335 Y-10.003 Z-1.382 
N261 X-148.343 Y-10.169 Z-1.595 
N262 X-148.351 Y-10.336 Z-1.807 
N263 X-148.359 Y-10.502 Z-2.020 
N264 X-148.368 Y-10.668 Z-2.233 
N265 X-148.377 Y-10.834 Z-2.445 
N266 X-148.386 Y-11.000 Z-2.658 
N267 X-148.395 Y-11.167 Z-2.871 
N268 X-148.404 Y-11.333 Z-3.083 
N269 X-148.414 Y-11.499 Z-3.296 
N270 X-148.423 Y-11.665 Z-3.509 
N271 X-148.433 Y-11.831 Z-3.722 
N272 X-148.443 Y-11.997 Z-3.934 
N273 X-148.454 Y-12.163 Z-4.147 
N274 X-148.464 Y-12.330 Z-4.360 
N275 X-148.475 Y-12.496 Z-4.572 
N276 X-148.486 Y-12.662 Z-4.785 
N277 X-148.497 Y-12.828 Z-4.997 
N278 X-148.509 Y-12.994 Z-5.210 
N279 X-148.520 Y-13.160 Z-5.423 
N280 X-148.532 Y-13.326 Z-5.635 
N281 X-148.544 Y-13.493 Z-5.848 
N282 X-148.556 Y-13.659 Z-6.061 
N283 X-148.568 Y-13.825 Z-6.273 
N284 X-148.581 Y-13.991 Z-6.486 
N285 X-148.594 Y-14.157 Z-6.698 
N286 X-148.607 Y-14.323 Z-6.911 
N287 X-148.620 Y-14.489 Z-7.123 
N288 X-148.633 Y-14.655 Z-7.336 
N289 X-148.647 Y-14.821 Z-7.549 
N290 X-148.660 Y-14.987 Z-7.761 
N291 X-148.674 Y-15.153 Z-7.974 
N292 X-148.689 Y-15.319 Z-8.186 
N293 X-148.703 Y-15.485 Z-8.399 
N294 X-148.717 Y-15.651 Z-8.611 
N295 X-148.732 Y-15.817 Z-8.824 
N296 X-148.747 Y-15.983 Z-9.036 
N297 X-148.762 Y-16.149 Z-9.249 
N298 X-148.778 Y-16.315 Z-9.461 
N299 X-148.793 Y-16.481 Z-9.674 
N300 X-148.809 Y-16.647 Z-9.886 
N301 X-148.825 Y-16.813 Z-10.098 
N302 X-148.841 Y-16.981 Z-10.313 
N303 X-148.857 Y-17.149 Z-10.528 
N304 X-148.873 Y-17.316 Z-10.742 
N305 X-148.889 Y-17.484 Z-10.957 
N306 X-148.905 Y-17.652 Z-11.171 
N307 X-148.921 Y-17.819 Z-11.386 
N308 X-148.937 Y-17.987 Z-11.600 
N309 X-148.953 Y-18.154 Z-11.815 
N310 X-148.969 Y-18.322 Z-12.029 
N311 X-148.985 Y-18.490 Z-12.244 
N312 X-149.001 Y-18.657 Z-12.458 
N313 G40 X-149.588 Y-24.803 Z-20.325 F541
N314 X-149.588 Y-24.803 Z-20.325 
N315 G00 X-149.588 Y-64.204 Z10.458 
;RAPORT("TD123456","Side Milling:144 End")
;trailer : concat=None
; points cnt = 269
N317 MSG (" --- GROUPED OF SUBPROGRAM --- ")
N318 FGROUP()
N319 TRAFOOF
; PROGRAM NAME: D12345637
; ORDER       : D123456
; OPER. NAME  : Side Milling:145
; OPER. DESCR.: semifinish slot NGA
; OPER. TYPE  : sideMill
; GEO. OPTION : 3
; MACHINE     : HSTM_300HD_SIM840D_Py
;             : HSTM300/500 - HAMUEL: 5-axis milling machine-SIM840D Traori PP_Script
; CONTROL     : SINUMERIK 840D
; created:   2023-06-05 09:21:11.409862
;-------DODATKOWE DANE-------------------
; PROGRAMISTA : Mariusz Malec
; PARTID      : 301T002184P1010_-
;  ap         : 5.0
;  ae         : 5.0
;  lean_angle : 0.0
;  fin_offset : 0.0
;----------------------------------------
;RAPORT("TD123456","Side Milling:145")
N10 TRAFOOF
N11 D0
N12 G90 G94
N13 G0 G53 D0 Z550
N14 STOPRE
M9 ; chlodziwo wyl
; --- Side Milling:145 - semifinish slot NGA ---
N16 ;ToolChange : concat=None ,current_tdmid=None, PP.tdmId=940664
N17 TRAFOOF
N18 G0 G53 D0 Z550 B0
N19 STOPRE
N20 MSG(" TLID=940664 D=6.0 R=0.6 Ang=0.0 Len=100.0 ")
N21 S9018 M03
N22 STOPRE
N23 CYCLE832(0.1,1,1)
N24 G0 G53 A232.0000 B-0.0000
N25 TRAORI
N26 G54 D1
;tol5=0.15
STOPRE
E_ZDARZ=300010
;ACS_FINISH_SLOT=7740664
STOPRE
;UWAGA : ZMIENIONA TOLERANCJA OSI A i B, ruchy osi A i B beda usuniete : TOL5=0.15
N27 ; DELTA A > 40.1
N28 TRAFOOF
N29 D1
N30 STOPRE
N31 G00 G54 Z286.000
N32 G01 A232.0000 F10000
N33 TRAORI
N34 G54 D1
N35 STOPRE
N36 TRANS 
N37 G00 X-148.809 Y66.321 Z-7.693 A232.0000 
N38 M342 ; chlodziwo woda
N39 X-148.809 Y26.921 Z23.090 
N40 ;rowek od strony mocowania
N41 D4 
N42 G01 G41 X-148.394 Y20.770 Z15.217 F541 
N43 X-148.383 Y20.602 Z15.002 
N44 X-148.371 Y20.434 Z14.788 
N45 X-148.360 Y20.266 Z14.573 
N46 X-148.349 Y20.099 Z14.358 
N47 X-148.337 Y19.931 Z14.143 
N48 X-148.326 Y19.763 Z13.929 
N49 X-148.315 Y19.595 Z13.714 
N50 X-148.303 Y19.428 Z13.499 
N51 X-148.292 Y19.260 Z13.285 
N52 X-148.281 Y19.092 Z13.070 
N53 X-148.269 Y18.924 Z12.855 
N54 X-148.258 Y18.756 Z12.640 
N55 X-148.247 Y18.589 Z12.426 
N56 X-148.235 Y18.421 Z12.211 
N57 X-148.224 Y18.253 Z11.996 
N58 X-148.213 Y18.085 Z11.781 
N59 X-148.201 Y17.918 Z11.567 
N60 X-148.190 Y17.750 Z11.352 
N61 X-148.179 Y17.582 Z11.137 
N62 X-148.167 Y17.414 Z10.923 
N63 X-148.156 Y17.247 Z10.708 
N64 X-148.145 Y17.079 Z10.493 
N65 X-148.134 Y16.913 Z10.281 
N66 X-148.122 Y16.747 Z10.068 
N67 X-148.112 Y16.581 Z9.855 
N68 X-148.101 Y16.415 Z9.643 
N69 X-148.090 Y16.248 Z9.430 
N70 X-148.080 Y16.082 Z9.218 
N71 X-148.070 Y15.916 Z9.005 
N72 X-148.060 Y15.750 Z8.792 
N73 X-148.050 Y15.584 Z8.580 
N74 X-148.041 Y15.418 Z8.367 
N75 X-148.032 Y15.252 Z8.155 
N76 X-148.023 Y15.086 Z7.942 
N77 X-148.014 Y14.920 Z7.729 
N78 X-148.005 Y14.753 Z7.517 
N79 X-147.997 Y14.587 Z7.304 
N80 X-147.988 Y14.421 Z7.091 
N81 X-147.980 Y14.255 Z6.879 
N82 X-147.972 Y14.089 Z6.666 
N83 X-147.965 Y13.923 Z6.453 
N84 X-147.957 Y13.757 Z6.241 
N85 X-147.950 Y13.590 Z6.028 
N86 X-147.943 Y13.424 Z5.815 
N87 X-147.936 Y13.258 Z5.603 
N88 X-147.929 Y13.092 Z5.390 
N89 X-147.923 Y12.926 Z5.177 
N90 X-147.916 Y12.760 Z4.965 
N91 X-147.910 Y12.593 Z4.752 
N92 X-147.904 Y12.427 Z4.539 
N93 X-147.899 Y12.261 Z4.327 
N94 X-147.893 Y12.095 Z4.114 
N95 X-147.888 Y11.929 Z3.901 
N96 X-147.883 Y11.763 Z3.689 
N97 X-147.878 Y11.596 Z3.476 
N98 X-147.873 Y11.430 Z3.263 
N99 X-147.869 Y11.264 Z3.050 
N100 X-147.864 Y11.098 Z2.838 
N101 X-147.860 Y10.932 Z2.625 
N102 X-147.856 Y10.765 Z2.412 
N103 X-147.853 Y10.599 Z2.200 
N104 X-147.849 Y10.433 Z1.987 
N105 X-147.846 Y10.267 Z1.774 
N106 X-147.843 Y10.101 Z1.561 
N107 X-147.840 Y9.934 Z1.349 
N108 X-147.837 Y9.768 Z1.136 
N109 X-147.835 Y9.602 Z0.923 
N110 X-147.832 Y9.436 Z0.710 
N111 X-147.830 Y9.270 Z0.498 
N112 X-147.828 Y9.103 Z0.285 
N113 X-147.827 Y8.937 Z0.072 
N114 X-147.825 Y8.771 Z-0.141 
N115 X-147.824 Y8.605 Z-0.353 
N116 X-147.823 Y8.438 Z-0.566 
N117 X-147.822 Y8.272 Z-0.779 
N118 X-147.821 Y8.106 Z-0.992 
N119 X-147.820 Y7.940 Z-1.204 
N120 X-147.820 Y7.774 Z-1.417 
N121 X-147.820 Y7.607 Z-1.630 
N122 X-147.820 Y7.441 Z-1.842 
N123 X-147.820 Y7.275 Z-2.055 
N124 X-147.821 Y7.109 Z-2.268 
N125 X-147.822 Y6.943 Z-2.481 
N126 X-147.822 Y6.776 Z-2.693 
N127 X-147.824 Y6.610 Z-2.906 
N128 X-147.825 Y6.444 Z-3.119 
N129 X-147.826 Y6.278 Z-3.332 
N130 X-147.828 Y6.111 Z-3.544 
N131 X-147.830 Y5.945 Z-3.757 
N132 X-147.832 Y5.779 Z-3.970 
N133 X-147.834 Y5.613 Z-4.183 
N134 X-147.837 Y5.447 Z-4.395 
N135 X-147.839 Y5.280 Z-4.608 
N136 X-147.842 Y5.114 Z-4.821 
N137 X-147.845 Y4.948 Z-5.034 
N138 X-147.849 Y4.782 Z-5.246 
N139 X-147.852 Y4.616 Z-5.459 
N140 X-147.856 Y4.449 Z-5.672 
N141 X-147.860 Y4.283 Z-5.884 
N142 X-147.864 Y4.117 Z-6.097 
N143 X-147.868 Y3.951 Z-6.310 
N144 X-147.872 Y3.785 Z-6.523 
N145 X-147.877 Y3.618 Z-6.735 
N146 X-147.882 Y3.452 Z-6.948 
N147 X-147.887 Y3.286 Z-7.161 
N148 X-147.892 Y3.120 Z-7.373 
N149 X-147.898 Y2.954 Z-7.586 
N150 X-147.903 Y2.788 Z-7.799 
N151 X-147.909 Y2.621 Z-8.012 
N152 X-147.915 Y2.455 Z-8.224 
N153 X-147.922 Y2.289 Z-8.437 
N154 X-147.928 Y2.123 Z-8.650 
N155 X-147.935 Y1.957 Z-8.862 
N156 X-147.942 Y1.791 Z-9.075 
N157 X-147.949 Y1.624 Z-9.288 
N158 X-147.956 Y1.458 Z-9.500 
N159 X-147.963 Y1.290 Z-9.715 
N160 X-147.971 Y1.123 Z-9.930 
N161 X-147.978 Y0.955 Z-10.145 
N162 X-147.985 Y0.787 Z-10.360 
N163 X-147.993 Y0.619 Z-10.574 
N164 X-148.000 Y0.451 Z-10.789 
N165 X-148.007 Y0.283 Z-11.004 
N166 X-148.015 Y0.115 Z-11.219 
N167 X-148.022 Y-0.052 Z-11.434 
N168 X-148.029 Y-0.220 Z-11.649 
N169 X-148.037 Y-0.388 Z-11.863 
N170 G40 X-148.045 Y-0.574 Z-12.102 F794
N171 X-148.045 Y-0.574 Z-12.102 
N172 X-148.059 Y-0.912 Z-12.534 F1554 
N173 X-148.087 Y-1.551 Z-13.352 F2820 
N174 X-148.134 Y-2.593 Z-14.686 F4086 
N175 X-148.199 Y-3.936 Z-16.405 F4846 
N176 X-148.290 Y-5.431 Z-18.318 F5099 
N177 X-148.463 Y-6.989 Z-20.312 
N178 X-148.508 Y-5.639 Z-18.584 F4846 
N179 X-148.457 Y-4.240 Z-16.794 F4086 
N180 X-148.416 Y-3.251 Z-15.528 F2820 
N181 X-148.390 Y-2.630 Z-14.732 F1554 
N182 X-148.375 Y-2.289 Z-14.296 F794 
N183 ;rowek od strony piora
N184 D3 
N185 G41 X-148.367 Y-2.086 Z-14.037 F541 
N186 X-148.360 Y-1.919 Z-13.822 
N187 X-148.352 Y-1.751 Z-13.608 
N188 X-148.345 Y-1.583 Z-13.393 
N189 X-148.338 Y-1.415 Z-13.178 
N190 X-148.331 Y-1.247 Z-12.963 
N191 X-148.324 Y-1.079 Z-12.748 
N192 X-148.317 Y-0.911 Z-12.533 
N193 X-148.310 Y-0.744 Z-12.318 
N194 X-148.302 Y-0.576 Z-12.104 
N195 X-148.295 Y-0.408 Z-11.889 
N196 X-148.288 Y-0.240 Z-11.674 
N197 X-148.281 Y-0.072 Z-11.459 
N198 X-148.274 Y0.096 Z-11.244 
N199 X-148.267 Y0.264 Z-11.029 
N200 X-148.260 Y0.431 Z-10.815 
N201 X-148.252 Y0.599 Z-10.600 
N202 X-148.245 Y0.767 Z-10.385 
N203 X-148.238 Y0.935 Z-10.170 
N204 X-148.231 Y1.103 Z-9.955 
N205 X-148.224 Y1.271 Z-9.740 
N206 X-148.217 Y1.438 Z-9.526 
N207 X-148.210 Y1.606 Z-9.311 
N208 X-148.203 Y1.773 Z-9.098 
N209 X-148.196 Y1.939 Z-8.885 
N210 X-148.189 Y2.105 Z-8.672 
N211 X-148.182 Y2.271 Z-8.460 
N212 X-148.176 Y2.438 Z-8.247 
N213 X-148.170 Y2.604 Z-8.034 
N214 X-148.164 Y2.770 Z-7.821 
N215 X-148.158 Y2.937 Z-7.608 
N216 X-148.153 Y3.103 Z-7.395 
N217 X-148.148 Y3.269 Z-7.183 
N218 X-148.143 Y3.435 Z-6.970 
N219 X-148.138 Y3.602 Z-6.757 
N220 X-148.133 Y3.768 Z-6.544 
N221 X-148.128 Y3.934 Z-6.331 
N222 X-148.124 Y4.101 Z-6.118 
N223 X-148.120 Y4.267 Z-5.905 
N224 X-148.116 Y4.433 Z-5.693 
N225 X-148.113 Y4.600 Z-5.480 
N226 X-148.109 Y4.766 Z-5.267 
N227 X-148.106 Y4.932 Z-5.054 
N228 X-148.103 Y5.098 Z-4.841 
N229 X-148.100 Y5.265 Z-4.628 
N230 X-148.097 Y5.431 Z-4.415 
N231 X-148.094 Y5.597 Z-4.202 
N232 X-148.092 Y5.764 Z-3.990 
N233 X-148.090 Y5.930 Z-3.777 
N234 X-148.088 Y6.096 Z-3.564 
N235 X-148.086 Y6.263 Z-3.351 
N236 X-148.085 Y6.429 Z-3.138 
N237 X-148.084 Y6.595 Z-2.925 
N238 X-148.083 Y6.762 Z-2.712 
N239 X-148.082 Y6.928 Z-2.499 
N240 X-148.081 Y7.094 Z-2.287 
N241 X-148.080 Y7.261 Z-2.074 
N242 X-148.080 Y7.427 Z-1.861 
N243 X-148.080 Y7.593 Z-1.648 
N244 X-148.080 Y7.760 Z-1.435 
N245 X-148.080 Y7.926 Z-1.222 
N246 X-148.081 Y8.092 Z-1.009 
N247 X-148.082 Y8.258 Z-0.796 
N248 X-148.083 Y8.425 Z-0.584 
N249 X-148.084 Y8.591 Z-0.371 
N250 X-148.085 Y8.757 Z-0.158 
N251 X-148.086 Y8.924 Z0.055 
N252 X-148.088 Y9.090 Z0.268 
N253 X-148.090 Y9.256 Z0.481 
N254 X-148.092 Y9.423 Z0.694 
N255 X-148.094 Y9.589 Z0.907 
N256 X-148.097 Y9.755 Z1.120 
N257 X-148.100 Y9.922 Z1.332 
N258 X-148.102 Y10.088 Z1.545 
N259 X-148.106 Y10.254 Z1.758 
N260 X-148.109 Y10.421 Z1.971 
N261 X-148.112 Y10.587 Z2.184 
N262 X-148.116 Y10.753 Z2.397 
N263 X-148.120 Y10.920 Z2.610 
N264 X-148.124 Y11.086 Z2.822 
N265 X-148.128 Y11.252 Z3.035 
N266 X-148.133 Y11.418 Z3.248 
N267 X-148.138 Y11.585 Z3.461 
N268 X-148.142 Y11.751 Z3.674 
N269 X-148.148 Y11.917 Z3.887 
N270 X-148.153 Y12.084 Z4.100 
N271 X-148.158 Y12.250 Z4.312 
N272 X-148.164 Y12.416 Z4.525 
N273 X-148.170 Y12.582 Z4.738 
N274 X-148.176 Y12.749 Z4.951 
N275 X-148.182 Y12.915 Z5.164 
N276 X-148.189 Y13.081 Z5.376 
N277 X-148.195 Y13.248 Z5.589 
N278 X-148.202 Y13.414 Z5.802 
N279 X-148.209 Y13.580 Z6.015 
N280 X-148.217 Y13.746 Z6.228 
N281 X-148.224 Y13.913 Z6.441 
N282 X-148.232 Y14.079 Z6.653 
N283 X-148.240 Y14.245 Z6.866 
N284 X-148.248 Y14.411 Z7.079 
N285 X-148.256 Y14.578 Z7.292 
N286 X-148.265 Y14.744 Z7.504 
N287 X-148.273 Y14.910 Z7.717 
N288 X-148.282 Y15.076 Z7.930 
N289 X-148.291 Y15.243 Z8.143 
N290 X-148.301 Y15.409 Z8.356 
N291 X-148.310 Y15.575 Z8.568 
N292 X-148.320 Y15.741 Z8.781 
N293 X-148.330 Y15.907 Z8.994 
N294 X-148.340 Y16.074 Z9.206 
N295 X-148.350 Y16.240 Z9.419 
N296 X-148.361 Y16.406 Z9.632 
N297 X-148.371 Y16.572 Z9.845 
N298 X-148.382 Y16.738 Z10.057 
N299 X-148.393 Y16.905 Z10.270 
N300 X-148.405 Y17.071 Z10.483 
N301 X-148.416 Y17.237 Z10.695 
N302 X-148.427 Y17.405 Z10.910 
N303 X-148.439 Y17.572 Z11.125 
N304 X-148.451 Y17.740 Z11.340 
N305 X-148.462 Y17.908 Z11.554 
N306 X-148.474 Y18.076 Z11.769 
N307 X-148.485 Y18.243 Z11.984 
N308 X-148.497 Y18.411 Z12.198 
N309 X-148.508 Y18.579 Z12.413 
N310 X-148.520 Y18.747 Z12.628 
N311 X-148.531 Y18.914 Z12.843 
N312 X-148.543 Y19.082 Z13.057 
N313 G40 X-148.965 Y25.233 Z20.930 F541
N314 X-148.965 Y25.233 Z20.930 
N315 G00 X-148.965 Y64.634 Z-9.853 
;RAPORT("TD123456","Side Milling:145 End")
;trailer : concat=None
; points cnt = 269
N317 MSG (" --- GROUPED OF SUBPROGRAM --- ")
N318 FGROUP()
N319 TRAFOOF
; PROGRAM NAME: D12345637
; ORDER       : D123456
; OPER. NAME  : Side Milling:146
; OPER. DESCR.: finish slot NGA
; OPER. TYPE  : sideMill
; GEO. OPTION : 3
; MACHINE     : HSTM_300HD_SIM840D_Py
;             : HSTM300/500 - HAMUEL: 5-axis milling machine-SIM840D Traori PP_Script
; CONTROL     : SINUMERIK 840D
; created:   2023-06-05 09:21:21.823945
;-------DODATKOWE DANE-------------------
; PROGRAMISTA : Mariusz Malec
; PARTID      : 301T002184P1010_-
;  ap         : 5.0
;  ae         : 5.0
;  lean_angle : 0.0
;  fin_offset : 0.03
;----------------------------------------
;RAPORT("TD123456","Side Milling:146")
N10 TRAFOOF
N11 D0
N12 G90 G94
N13 G0 G53 D0 Z550
N14 STOPRE
M9 ; chlodziwo wyl
; --- Side Milling:146 - finish slot NGA ---
N16 ;ToolChange : concat=None ,current_tdmid=None, PP.tdmId=940664
N17 TRAFOOF
N18 G0 G53 D0 Z550 B0
N19 STOPRE
N20 MSG(" TLID=940664 D=6.0 R=0.6 Ang=0.0 Len=100.0 ")
N21 S9018 M03
N22 STOPRE
N23 CYCLE832(0.1,1,1)
N24 G0 G53 A232.0000 B-0.0000
N25 TRAORI
N26 G54 D1
;tol5=0.15
STOPRE
E_ZDARZ=300010
;ACS_FINISH_SLOT=7740664
STOPRE
;UWAGA : ZMIENIONA TOLERANCJA OSI A i B, ruchy osi A i B beda usuniete : TOL5=0.15
N27 ; DELTA A > 40.1
N28 TRAFOOF
N29 D1
N30 STOPRE
N31 G00 G54 Z286.000
N32 G01 A232.0000 F10000
N33 TRAORI
N34 G54 D1
N35 STOPRE
N36 TRANS 
N37 G00 X-148.789 Y66.346 Z-7.710 A232.0000 
N38 M342 ; chlodziwo woda
N39 X-148.789 Y26.945 Z23.073 
N40 ;rowek od strony mocowania
N41 D4 
N42 G01 G41 X-148.374 Y20.794 Z15.199 F541 
N43 X-148.363 Y20.626 Z14.985 
N44 X-148.351 Y20.458 Z14.770 
N45 X-148.340 Y20.290 Z14.555 
N46 X-148.329 Y20.123 Z14.340 
N47 X-148.317 Y19.955 Z14.126 
N48 X-148.306 Y19.787 Z13.911 
N49 X-148.295 Y19.619 Z13.696 
N50 X-148.283 Y19.452 Z13.481 
N51 X-148.272 Y19.284 Z13.267 
N52 X-148.261 Y19.116 Z13.052 
N53 X-148.249 Y18.948 Z12.837 
N54 X-148.238 Y18.781 Z12.623 
N55 X-148.227 Y18.613 Z12.408 
N56 X-148.215 Y18.445 Z12.193 
N57 X-148.204 Y18.277 Z11.978 
N58 X-148.193 Y18.110 Z11.764 
N59 X-148.181 Y17.942 Z11.549 
N60 X-148.170 Y17.774 Z11.334 
N61 X-148.159 Y17.606 Z11.119 
N62 X-148.147 Y17.439 Z10.905 
N63 X-148.136 Y17.271 Z10.690 
N64 X-148.125 Y17.103 Z10.475 
N65 X-148.114 Y16.937 Z10.263 
N66 X-148.102 Y16.771 Z10.050 
N67 X-148.092 Y16.605 Z9.838 
N68 X-148.081 Y16.439 Z9.625 
N69 X-148.070 Y16.273 Z9.412 
N70 X-148.060 Y16.106 Z9.200 
N71 X-148.050 Y15.940 Z8.987 
N72 X-148.040 Y15.774 Z8.775 
N73 X-148.030 Y15.608 Z8.562 
N74 X-148.021 Y15.442 Z8.349 
N75 X-148.012 Y15.276 Z8.137 
N76 X-148.003 Y15.110 Z7.924 
N77 X-147.994 Y14.944 Z7.711 
N78 X-147.985 Y14.777 Z7.499 
N79 X-147.977 Y14.611 Z7.286 
N80 X-147.968 Y14.445 Z7.073 
N81 X-147.960 Y14.279 Z6.861 
N82 X-147.952 Y14.113 Z6.648 
N83 X-147.945 Y13.947 Z6.435 
N84 X-147.937 Y13.781 Z6.223 
N85 X-147.930 Y13.614 Z6.010 
N86 X-147.923 Y13.448 Z5.797 
N87 X-147.916 Y13.282 Z5.585 
N88 X-147.909 Y13.116 Z5.372 
N89 X-147.903 Y12.950 Z5.159 
N90 X-147.896 Y12.784 Z4.947 
N91 X-147.890 Y12.617 Z4.734 
N92 X-147.884 Y12.451 Z4.521 
N93 X-147.879 Y12.285 Z4.309 
N94 X-147.873 Y12.119 Z4.096 
N95 X-147.868 Y11.953 Z3.883 
N96 X-147.863 Y11.786 Z3.670 
N97 X-147.858 Y11.620 Z3.458 
N98 X-147.853 Y11.454 Z3.245 
N99 X-147.849 Y11.288 Z3.032 
N100 X-147.844 Y11.122 Z2.819 
N101 X-147.840 Y10.955 Z2.607 
N102 X-147.836 Y10.789 Z2.394 
N103 X-147.833 Y10.623 Z2.181 
N104 X-147.829 Y10.457 Z1.969 
N105 X-147.826 Y10.291 Z1.756 
N106 X-147.823 Y10.124 Z1.543 
N107 X-147.820 Y9.958 Z1.330 
N108 X-147.817 Y9.792 Z1.118 
N109 X-147.815 Y9.626 Z0.905 
N110 X-147.812 Y9.459 Z0.692 
N111 X-147.810 Y9.293 Z0.479 
N112 X-147.808 Y9.127 Z0.267 
N113 X-147.807 Y8.961 Z0.054 
N114 X-147.805 Y8.795 Z-0.159 
N115 X-147.804 Y8.628 Z-0.372 
N116 X-147.803 Y8.462 Z-0.584 
N117 X-147.802 Y8.296 Z-0.797 
N118 X-147.801 Y8.130 Z-1.010 
N119 X-147.800 Y7.964 Z-1.223 
N120 X-147.800 Y7.797 Z-1.435 
N121 X-147.800 Y7.631 Z-1.648 
N122 X-147.800 Y7.465 Z-1.861 
N123 X-147.800 Y7.299 Z-2.074 
N124 X-147.801 Y7.132 Z-2.286 
N125 X-147.802 Y6.966 Z-2.499 
N126 X-147.802 Y6.800 Z-2.712 
N127 X-147.804 Y6.634 Z-2.925 
N128 X-147.805 Y6.467 Z-3.137 
N129 X-147.806 Y6.301 Z-3.350 
N130 X-147.808 Y6.135 Z-3.563 
N131 X-147.810 Y5.969 Z-3.776 
N132 X-147.812 Y5.803 Z-3.989 
N133 X-147.814 Y5.636 Z-4.201 
N134 X-147.817 Y5.470 Z-4.414 
N135 X-147.819 Y5.304 Z-4.627 
N136 X-147.822 Y5.138 Z-4.839 
N137 X-147.825 Y4.972 Z-5.052 
N138 X-147.829 Y4.805 Z-5.265 
N139 X-147.832 Y4.639 Z-5.478 
N140 X-147.836 Y4.473 Z-5.690 
N141 X-147.840 Y4.307 Z-5.903 
N142 X-147.844 Y4.141 Z-6.116 
N143 X-147.848 Y3.974 Z-6.329 
N144 X-147.852 Y3.808 Z-6.541 
N145 X-147.857 Y3.642 Z-6.754 
N146 X-147.862 Y3.476 Z-6.967 
N147 X-147.867 Y3.310 Z-7.180 
N148 X-147.872 Y3.143 Z-7.392 
N149 X-147.878 Y2.977 Z-7.605 
N150 X-147.884 Y2.811 Z-7.818 
N151 X-147.889 Y2.645 Z-8.030 
N152 X-147.895 Y2.479 Z-8.243 
N153 X-147.902 Y2.312 Z-8.456 
N154 X-147.908 Y2.146 Z-8.668 
N155 X-147.915 Y1.980 Z-8.881 
N156 X-147.922 Y1.814 Z-9.094 
N157 X-147.929 Y1.648 Z-9.307 
N158 X-147.936 Y1.482 Z-9.519 
N159 X-147.943 Y1.314 Z-9.734 
N160 X-147.951 Y1.146 Z-9.949 
N161 X-147.958 Y0.978 Z-10.164 
N162 X-147.965 Y0.810 Z-10.379 
N163 X-147.973 Y0.642 Z-10.593 
N164 X-147.980 Y0.474 Z-10.808 
N165 X-147.987 Y0.307 Z-11.023 
N166 X-147.995 Y0.139 Z-11.238 
N167 X-148.002 Y-0.029 Z-11.453 
N168 X-148.009 Y-0.197 Z-11.668 
N169 X-148.017 Y-0.365 Z-11.882 
N170 G40 X-148.025 Y-0.551 Z-12.121 F794
N171 X-148.025 Y-0.551 Z-12.121 
N172 X-148.039 Y-0.889 Z-12.553 F1554 
N173 X-148.067 Y-1.528 Z-13.372 F2821 
N174 X-148.115 Y-2.571 Z-14.706 F4088 
N175 X-148.184 Y-3.915 Z-16.427 F4848 
N176 X-148.287 Y-5.410 Z-18.340 F5101 
N177 X-148.510 Y-6.966 Z-20.332 
N178 X-148.603 Y-5.615 Z-18.602 F4848 
N179 X-148.556 Y-4.224 Z-16.822 F4088 
N180 X-148.516 Y-3.226 Z-15.545 F2821 
N181 X-148.490 Y-2.603 Z-14.748 F1554 
N182 X-148.475 Y-2.263 Z-14.312 F794 
N183 ;rowek od strony piora
N184 D3 
N185 G41 X-148.467 Y-2.061 Z-14.054 F541 
N186 X-148.460 Y-1.893 Z-13.839 
N187 X-148.452 Y-1.725 Z-13.624 
N188 X-148.445 Y-1.558 Z-13.409 
N189 X-148.438 Y-1.390 Z-13.194 
N190 X-148.431 Y-1.222 Z-12.979 
N191 X-148.424 Y-1.054 Z-12.765 
N192 X-148.417 Y-0.886 Z-12.550 
N193 X-148.410 Y-0.718 Z-12.335 
N194 X-148.402 Y-0.550 Z-12.120 
N195 X-148.395 Y-0.383 Z-11.905 
N196 X-148.388 Y-0.215 Z-11.690 
N197 X-148.381 Y-0.047 Z-11.476 
N198 X-148.374 Y0.121 Z-11.261 
N199 X-148.367 Y0.289 Z-11.046 
N200 X-148.360 Y0.457 Z-10.831 
N201 X-148.352 Y0.625 Z-10.616 
N202 X-148.345 Y0.792 Z-10.401 
N203 X-148.338 Y0.960 Z-10.186 
N204 X-148.331 Y1.128 Z-9.972 
N205 X-148.324 Y1.296 Z-9.757 
N206 X-148.317 Y1.464 Z-9.542 
N207 X-148.310 Y1.632 Z-9.327 
N208 X-148.302 Y1.798 Z-9.114 
N209 X-148.296 Y1.964 Z-8.902 
N210 X-148.289 Y2.130 Z-8.689 
N211 X-148.282 Y2.297 Z-8.476 
N212 X-148.276 Y2.463 Z-8.263 
N213 X-148.270 Y2.629 Z-8.051 
N214 X-148.264 Y2.795 Z-7.838 
N215 X-148.258 Y2.961 Z-7.625 
N216 X-148.253 Y3.128 Z-7.412 
N217 X-148.248 Y3.294 Z-7.199 
N218 X-148.243 Y3.460 Z-6.987 
N219 X-148.238 Y3.626 Z-6.774 
N220 X-148.233 Y3.793 Z-6.561 
N221 X-148.228 Y3.959 Z-6.348 
N222 X-148.224 Y4.125 Z-6.136 
N223 X-148.220 Y4.291 Z-5.923 
N224 X-148.216 Y4.458 Z-5.710 
N225 X-148.212 Y4.624 Z-5.497 
N226 X-148.209 Y4.790 Z-5.284 
N227 X-148.206 Y4.957 Z-5.071 
N228 X-148.203 Y5.123 Z-4.859 
N229 X-148.200 Y5.289 Z-4.646 
N230 X-148.197 Y5.455 Z-4.433 
N231 X-148.194 Y5.622 Z-4.220 
N232 X-148.192 Y5.788 Z-4.007 
N233 X-148.190 Y5.954 Z-3.795 
N234 X-148.188 Y6.120 Z-3.582 
N235 X-148.186 Y6.287 Z-3.369 
N236 X-148.185 Y6.453 Z-3.156 
N237 X-148.184 Y6.619 Z-2.943 
N238 X-148.183 Y6.785 Z-2.731 
N239 X-148.182 Y6.952 Z-2.518 
N240 X-148.181 Y7.118 Z-2.305 
N241 X-148.180 Y7.284 Z-2.092 
N242 X-148.180 Y7.451 Z-1.879 
N243 X-148.180 Y7.617 Z-1.666 
N244 X-148.180 Y7.783 Z-1.454 
N245 X-148.180 Y7.949 Z-1.241 
N246 X-148.181 Y8.116 Z-1.028 
N247 X-148.182 Y8.282 Z-0.815 
N248 X-148.183 Y8.448 Z-0.602 
N249 X-148.184 Y8.615 Z-0.389 
N250 X-148.185 Y8.781 Z-0.177 
N251 X-148.186 Y8.947 Z0.036 
N252 X-148.188 Y9.113 Z0.249 
N253 X-148.190 Y9.280 Z0.462 
N254 X-148.192 Y9.446 Z0.675 
N255 X-148.194 Y9.612 Z0.887 
N256 X-148.197 Y9.778 Z1.100 
N257 X-148.200 Y9.945 Z1.313 
N258 X-148.202 Y10.111 Z1.526 
N259 X-148.206 Y10.277 Z1.739 
N260 X-148.209 Y10.443 Z1.952 
N261 X-148.212 Y10.610 Z2.164 
N262 X-148.216 Y10.776 Z2.377 
N263 X-148.220 Y10.942 Z2.590 
N264 X-148.224 Y11.109 Z2.803 
N265 X-148.228 Y11.275 Z3.016 
N266 X-148.233 Y11.441 Z3.228 
N267 X-148.238 Y11.607 Z3.441 
N268 X-148.242 Y11.774 Z3.654 
N269 X-148.248 Y11.940 Z3.867 
N270 X-148.253 Y12.106 Z4.079 
N271 X-148.258 Y12.272 Z4.292 
N272 X-148.264 Y12.438 Z4.505 
N273 X-148.270 Y12.605 Z4.718 
N274 X-148.276 Y12.771 Z4.931 
N275 X-148.282 Y12.937 Z5.143 
N276 X-148.289 Y13.103 Z5.356 
N277 X-148.295 Y13.270 Z5.569 
N278 X-148.302 Y13.436 Z5.782 
N279 X-148.309 Y13.602 Z5.994 
N280 X-148.317 Y13.768 Z6.207 
N281 X-148.324 Y13.935 Z6.420 
N282 X-148.332 Y14.101 Z6.633 
N283 X-148.340 Y14.267 Z6.845 
N284 X-148.348 Y14.433 Z7.058 
N285 X-148.356 Y14.599 Z7.271 
N286 X-148.365 Y14.766 Z7.483 
N287 X-148.373 Y14.932 Z7.696 
N288 X-148.382 Y15.098 Z7.909 
N289 X-148.391 Y15.264 Z8.122 
N290 X-148.401 Y15.430 Z8.334 
N291 X-148.410 Y15.596 Z8.547 
N292 X-148.420 Y15.763 Z8.760 
N293 X-148.430 Y15.929 Z8.972 
N294 X-148.440 Y16.095 Z9.185 
N295 X-148.450 Y16.261 Z9.398 
N296 X-148.460 Y16.427 Z9.610 
N297 X-148.471 Y16.593 Z9.823 
N298 X-148.482 Y16.760 Z10.036 
N299 X-148.493 Y16.926 Z10.248 
N300 X-148.504 Y17.092 Z10.461 
N301 X-148.516 Y17.258 Z10.674 
N302 X-148.527 Y17.426 Z10.888 
N303 X-148.539 Y17.593 Z11.103 
N304 X-148.550 Y17.761 Z11.318 
N305 X-148.562 Y17.929 Z11.532 
N306 X-148.573 Y18.097 Z11.747 
N307 X-148.585 Y18.264 Z11.962 
N308 X-148.597 Y18.432 Z12.177 
N309 X-148.608 Y18.600 Z12.391 
N310 X-148.620 Y18.768 Z12.606 
N311 X-148.631 Y18.935 Z12.821 
N312 X-148.643 Y19.103 Z13.036 
N313 G40 X-149.065 Y25.254 Z20.909 F541
N314 X-149.065 Y25.254 Z20.909 
N315 G00 X-149.065 Y64.655 Z-9.874 
;RAPORT("TD123456","Side Milling:146 End")
;trailer : concat=None
; points cnt = 269
N317 M9 ; chlodziwo wyl.
N318 MSG (" --- KONIEC PODPROGRAMU --- ")
N319 FGROUP()
N320 TRAFOOF
N321 STOPRE
N322 G0 G53 D0 Z550.0 M9 M5
N323 G0 G53 Y150 A0 B0
N324 M17
