; PROGRAM NAME: D12345634
; ORDER       : D123456
; OPER. NAME  : Spiral Finish Airfoil:149
; OPER. DESCR.: Spiral Finishing Airfoil/pioro_wk
; OPER. TYPE  : finAirfoil
; GEO. OPTION : 5
; MACHINE     : HSTM_300HD_SIM840D_Py
;             : HSTM300/500 - HAMUEL: 5-axis milling machine-SIM840D Traori PP_Script
; CONTROL     : SINUMERIK 840D
; created:   2023-06-05 09:22:00.275501
;-------DODATKOWE DANE-------------------
; PROGRAMISTA : Mariusz Malec
; PARTID      : 301T002184P1010_-
;  ae         : 1.5
;  lean_angle : 20.0
;  airf_offset: 0.05
;----------------------------------------
;RAPORT("TD123456","Spiral Finish Airfoil:149")
N10 TRAFOOF
N11 D0
N12 G90 G94
N13 G0 G53 D0 Z550
N14 STOPRE
M9 ; chlodziwo wyl
; --- Spiral Finish Airfoil:149 - Spiral Finishing Airfoil/pioro_wk ---
N16 ;ToolChange : concat=None ,current_tdmid=None, PP.tdmId=941084
N17 TRAFOOF
N18 G0 G53 D0 X-200 Y150 Z550 B0
N19 T="7741084"
;RAPORT("TD123456","ToolChangeStart 7741084")
N20 M6
;RAPORT("TD123456","ToolChangeEnd")
N21 STOPRE
N22 MSG(" TLID=941084 D=12.0 R=3.0 Ang=0.0 Len=130.0 ")
N23 ; (Preloading tool)
N24 T="7757774"
N25 S7427 M03
N26 STOPRE
N27 CYCLE832(0.01,1,1)
N28 G0 G53 A202.0311 B-0.1915
N29 TRAORI
N30 G54 D1
N31 D1 
N32 TRANS  A=R25
STOPRE
E_ZDARZ=300001
;ACS_FINISH_AIRFOIL=7741084
STOPRE
N33 ; DELTA A > 40.1
N34 TRAFOOF
N35 D1
N36 STOPRE
N37 G00 G54 Z256.000
N38 G01 A202.0311 F10000
N39 TRAORI
N40 G54 D1
N41 STOPRE
N42 TRANS  A=R25
N43 G00 X-201.925 Y56.389 Z-39.123 A202.0311 B-0.1915 
N44 M342 ; chlodziwo woda
N45 X-201.758 Y37.634 Z7.226 
N46 G01 X-201.763 Y35.201 Z9.194 F2079 
N47 X-201.777 Y32.280 Z10.314 
N48 X-201.798 Y29.156 Z10.476 
N49 X-201.826 Y26.134 Z9.664 
N50 X-201.856 Y23.511 Z7.959 
N51 X-201.853 Y23.466 Z7.806 A200.4085 B-0.2105 
N52 X-201.853 Y23.415 Z7.726 A199.8280 B-0.2169 
N53 X-201.853 Y23.356 Z7.670 A199.6511 B-0.2198 
N54 X-201.854 Y23.285 Z7.611 A199.5777 B-0.2203 
N55 X-201.855 Y23.200 Z7.543 A199.5286 B-0.2208 
N56 X-201.857 Y23.100 Z7.463 A199.4930 B-0.2208 
N57 X-201.858 Y22.983 Z7.369 A199.4622 B-0.2211 
N58 X-201.860 Y22.847 Z7.260 A199.4311 B-0.2213 
N59 X-201.862 Y22.691 Z7.135 A199.3966 B-0.2217 
N60 X-201.865 Y22.516 Z6.993 A199.3573 B-0.2221 
N61 X-201.868 Y22.320 Z6.834 A199.3115 B-0.2225 
N62 X-201.871 Y22.104 Z6.658 A199.2578 B-0.2232 
N63 X-201.874 Y21.868 Z6.466 A199.1941 B-0.2237 
N64 X-201.878 Y21.613 Z6.258 A199.1181 B-0.2246 
N65 X-201.881 Y21.341 Z6.035 A199.0270 B-0.2256 
N66 X-201.885 Y21.053 Z5.799 A198.9184 B-0.2267 
N67 X-201.890 Y20.750 Z5.551 A198.7903 B-0.2282 
N68 X-201.894 Y20.435 Z5.292 A198.6417 B-0.2299 
N69 X-201.899 Y20.109 Z5.025 A198.4719 B-0.2318 
N70 X-201.903 Y19.774 Z4.750 A198.2807 B-0.2339 
N71 X-201.908 Y19.431 Z4.471 A198.0678 B-0.2363 
N72 X-201.913 Y19.083 Z4.187 A197.8329 B-0.2390 
N73 X-201.918 Y18.730 Z3.901 A197.5757 B-0.2418 
N74 X-201.923 Y18.374 Z3.613 A197.2951 B-0.2450 
N75 X-201.928 Y18.016 Z3.324 A196.9895 B-0.2483 
N76 X-201.933 Y17.656 Z3.036 A196.6568 B-0.2520 
N77 X-201.938 Y17.295 Z2.748 A196.2945 B-0.2560 
N78 X-201.943 Y16.934 Z2.462 A195.9013 B-0.2604 
N79 X-201.948 Y16.573 Z2.177 A195.4764 B-0.2651 
N80 X-201.953 Y16.212 Z1.895 A195.0194 B-0.2701 
N81 X-201.958 Y15.851 Z1.615 A194.5304 B-0.2755 
N82 X-201.963 Y15.491 Z1.339 A194.0087 B-0.2812 
N83 X-201.969 Y15.132 Z1.065 A193.4537 B-0.2873 
N84 X-201.974 Y14.773 Z0.796 A192.8644 B-0.2937 
N85 X-201.979 Y14.416 Z0.530 A192.2396 B-0.3004 
N86 X-201.984 Y14.059 Z0.268 A191.5782 B-0.3075 
N87 X-201.989 Y13.703 Z0.011 A190.8787 B-0.3150 
N88 X-201.994 Y13.349 Z-0.243 A190.1396 B-0.3228 
N89 X-201.999 Y12.995 Z-0.492 A189.3592 B-0.3310 
N90 X-202.005 Y12.642 Z-0.736 A188.5352 B-0.3396 
N91 X-202.010 Y12.289 Z-0.976 A187.6649 B-0.3486 
N92 X-202.015 Y11.938 Z-1.211 A186.7452 B-0.3580 
N93 X-202.020 Y11.587 Z-1.442 A185.7730 B-0.3679 
N94 X-202.025 Y11.237 Z-1.667 A184.7459 B-0.3783 
N95 X-202.030 Y10.887 Z-1.888 A183.6633 B-0.3891 
N96 X-202.036 Y10.537 Z-2.103 A182.5258 B-0.4004 
N97 X-202.041 Y10.188 Z-2.313 A181.3352 B-0.4120 
N98 X-202.046 Y9.839 Z-2.516 A180.0931 B-0.4239 
N99 X-202.051 Y9.490 Z-2.713 A178.8004 B-0.4360 
N100 X-202.056 Y9.141 Z-2.904 A177.4570 B-0.4484 
N101 X-202.062 Y8.792 Z-3.088 A176.0618 B-0.4610 
N102 X-202.067 Y8.442 Z-3.265 A174.6137 B-0.4738 
N103 X-202.072 Y8.092 Z-3.435 A173.1114 B-0.4867 
N104 X-202.078 Y7.742 Z-3.598 A171.5542 B-0.4998 
N105 X-202.083 Y7.391 Z-3.755 A169.9417 B-0.5130 
N106 X-202.088 Y7.038 Z-3.903 A168.2741 B-0.5262 
N107 X-202.094 Y6.684 Z-4.044 A166.5519 B-0.5394 
N108 X-202.099 Y6.329 Z-4.177 A164.7765 B-0.5525 
N109 X-202.105 Y5.973 Z-4.301 A162.9497 B-0.5654 
N110 X-202.111 Y5.615 Z-4.417 A161.0737 B-0.5781 
N111 X-202.116 Y5.255 Z-4.523 A159.1509 B-0.5904 
N112 X-202.122 Y4.893 Z-4.619 A157.1846 B-0.6023 
N113 X-202.128 Y4.530 Z-4.705 A155.1781 B-0.6138 
N114 X-202.135 Y4.165 Z-4.781 A153.1357 B-0.6246 
N115 X-202.141 Y3.798 Z-4.845 A151.0619 B-0.6349 
N116 X-202.147 Y3.431 Z-4.898 A148.9614 B-0.6444 
N117 X-202.154 Y3.062 Z-4.938 A146.8393 B-0.6530 
N118 X-202.161 Y2.693 Z-4.966 A144.7006 B-0.6609 
N119 X-202.168 Y2.323 Z-4.980 A142.5505 B-0.6678 
N120 X-202.175 Y1.953 Z-4.982 A140.3943 B-0.6738 
N121 X-202.183 Y1.584 Z-4.969 A138.2374 B-0.6789 
N122 X-202.191 Y1.216 Z-4.943 A136.0856 B-0.6829 
N123 X-202.199 Y0.849 Z-4.902 A133.9443 B-0.6860 
N124 X-202.207 Y0.485 Z-4.846 A131.8189 B-0.6880 
N125 X-202.215 Y0.123 Z-4.776 A129.7140 B-0.6891 
N126 X-202.224 Y-0.236 Z-4.692 A127.6344 B-0.6893 
N127 X-202.233 Y-0.591 Z-4.593 A125.5841 B-0.6885 
N128 X-202.242 Y-0.941 Z-4.480 A123.5674 B-0.6870 
N129 X-202.251 Y-1.287 Z-4.352 A121.5878 B-0.6845 
N130 X-202.261 Y-1.627 Z-4.210 A119.6487 B-0.6814 
N131 X-202.270 Y-1.962 Z-4.054 A117.7528 B-0.6775 
N132 X-202.280 Y-2.290 Z-3.885 A115.9023 B-0.6730 
N133 X-202.290 Y-2.612 Z-3.703 A114.0987 B-0.6680 
N134 X-202.300 Y-2.926 Z-3.509 A112.3433 B-0.6625 
N135 X-202.310 Y-3.233 Z-3.302 A110.6370 B-0.6565 
N136 X-202.321 Y-3.532 Z-3.084 A108.9801 B-0.6501 
N137 X-202.331 Y-3.824 Z-2.855 A107.3726 B-0.6434 
N138 X-202.341 Y-4.107 Z-2.617 A105.8135 B-0.6365 
N139 X-202.352 Y-4.381 Z-2.368 A104.3005 B-0.6293 
N140 X-202.362 Y-4.648 Z-2.111 A102.8298 B-0.6220 
N141 X-202.373 Y-4.906 Z-1.846 A101.3960 B-0.6144 
N142 X-202.383 Y-5.157 Z-1.574 A99.9927 B-0.6067 
N143 X-202.394 Y-5.399 Z-1.295 A98.6143 B-0.5986 
N144 X-202.404 Y-5.633 Z-1.011 A97.2579 B-0.5905 
N145 X-202.414 Y-5.858 Z-0.723 A95.9242 B-0.5820 
N146 X-202.424 Y-6.074 Z-0.432 A94.6154 B-0.5732 
N147 X-202.434 Y-6.281 Z-0.138 A93.3333 B-0.5648 
N148 X-202.444 Y-6.478 Z0.156 A92.0754 B-0.5560 
N149 X-202.453 Y-6.666 Z0.450 A90.8339 B-0.5471 
N150 X-202.462 Y-6.845 Z0.742 A89.5964 B-0.5384 
N151 X-202.471 Y-7.016 Z1.031 A88.3493 B-0.5291 
N152 X-202.480 Y-7.181 Z1.317 A87.0815 B-0.5193 
N153 X-202.488 Y-7.338 Z1.598 A85.7855 B-0.5094 
N154 X-202.496 Y-7.488 Z1.874 A84.4559 B-0.4983 
N155 X-202.504 Y-7.632 Z2.144 A83.0866 B-0.4872 
N156 X-202.512 Y-7.770 Z2.407 A81.6677 B-0.4752 
N157 X-202.519 Y-7.903 Z2.664 A80.1897 B-0.4623 
N158 X-202.526 Y-8.031 Z2.913 A78.6510 B-0.4484 
N159 X-202.532 Y-8.155 Z3.154 A77.0512 B-0.4340 
N160 X-202.538 Y-8.275 Z3.389 A75.3719 B-0.4193 
N161 X-202.544 Y-8.394 Z3.619 A73.5729 B-0.4030 
N162 X-202.550 Y-8.515 Z3.847 A71.6079 B-0.3850 
N163 X-202.556 Y-8.641 Z4.077 A69.4264 B-0.3644 
N164 X-202.562 Y-8.774 Z4.313 A66.9665 B-0.3411 
N165 X-202.569 Y-8.916 Z4.562 A64.1561 B-0.3136 
N166 X-202.576 Y-9.068 Z4.831 A60.9224 B-0.2798 
N167 X-202.584 Y-9.228 Z5.128 A57.2061 B-0.2397 
N168 X-202.593 Y-9.392 Z5.457 A52.9824 B-0.1907 
N169 X-202.604 Y-9.550 Z5.822 A48.2840 B-0.1332 
N170 X-202.615 Y-9.692 Z6.219 A43.1977 B-0.0700 
N171 X-202.626 Y-9.807 Z6.642 A37.8435 B-0.0019 
N172 X-202.638 Y-9.885 Z7.082 A32.3484 B0.0680 
N173 X-202.649 Y-9.924 Z7.527 A26.8203 B0.1357 
N174 X-202.659 Y-9.919 Z7.970 A21.3334 B0.2018 
N175 X-202.669 Y-9.872 Z8.405 A15.9349 B0.2647 
N176 X-202.678 Y-9.785 Z8.825 A10.6601 B0.3233 
N177 X-202.686 Y-9.660 Z9.224 A5.5489 B0.3782 
N178 X-202.693 Y-9.501 Z9.597 A0.6563 B0.4277 
N179 X-202.699 Y-9.314 Z9.937 A356.0509 B0.4711 
N180 X-202.703 Y-9.106 Z10.239 A351.8004 B0.5082 
N181 X-202.706 Y-8.884 Z10.500 A347.9525 B0.5382 
N182 X-202.708 Y-8.653 Z10.722 A344.5145 B0.5626 
N183 X-202.708 Y-8.415 Z10.908 A341.4555 B0.5819 
N184 X-202.707 Y-8.171 Z11.063 A338.7260 B0.5981 
N185 X-202.705 Y-7.921 Z11.190 A336.2754 B0.6116 
N186 X-202.703 Y-7.664 Z11.293 A334.0631 B0.6227 
N187 X-202.699 Y-7.398 Z11.374 A332.0553 B0.6321 
N188 X-202.695 Y-7.123 Z11.435 A330.2151 B0.6399 
N189 X-202.690 Y-6.837 Z11.478 A328.5078 B0.6470 
N190 X-202.684 Y-6.539 Z11.503 A326.9233 B0.6535 
N191 X-202.677 Y-6.230 Z11.509 A325.4732 B0.6585 
N192 X-202.669 Y-5.912 Z11.497 A324.1649 B0.6631 
N193 X-202.661 Y-5.586 Z11.466 A322.9960 B0.6663 
N194 X-202.651 Y-5.251 Z11.418 A321.9642 B0.6695 
N195 X-202.641 Y-4.908 Z11.353 A321.0704 B0.6716 
N196 X-202.631 Y-4.560 Z11.272 A320.3154 B0.6736 
N197 X-202.619 Y-4.206 Z11.176 A319.6956 B0.6747 
N198 X-202.607 Y-3.848 Z11.066 A319.2020 B0.6760 
N199 X-202.595 Y-3.486 Z10.946 A318.8232 B0.6766 
N200 X-202.582 Y-3.122 Z10.815 A318.5492 B0.6773 
N201 X-202.569 Y-2.755 Z10.675 A318.3738 B0.6776 
N202 X-202.555 Y-2.388 Z10.528 A318.2956 B0.6778 
N203 X-202.541 Y-2.023 Z10.376 A318.3170 B0.6778 
N204 X-202.528 Y-1.660 Z10.218 A318.4418 B0.6775 
N205 X-202.514 Y-1.302 Z10.057 A318.6747 B0.6771 
N206 X-202.500 Y-0.951 Z9.893 A319.0197 B0.6764 
N207 X-202.485 Y-0.606 Z9.727 A319.4794 B0.6754 
N208 X-202.472 Y-0.270 Z9.561 A320.0539 B0.6740 
N209 X-202.458 Y0.058 Z9.395 A320.7400 B0.6723 
N210 X-202.444 Y0.378 Z9.230 A321.5313 B0.6702 
N211 X-202.430 Y0.690 Z9.068 A322.4193 B0.6677 
N212 X-202.417 Y0.994 Z8.908 A323.3945 B0.6648 
N213 X-202.404 Y1.291 Z8.753 A324.4479 B0.6614 
N214 X-202.390 Y1.582 Z8.601 A325.5707 B0.6575 
N215 X-202.378 Y1.868 Z8.453 A326.7550 B0.6531 
N216 X-202.365 Y2.148 Z8.310 A327.9923 B0.6482 
N217 X-202.352 Y2.426 Z8.173 A329.2737 B0.6428 
N218 X-202.340 Y2.700 Z8.040 A330.5895 B0.6370 
N219 X-202.327 Y2.973 Z7.913 A331.9298 B0.6307 
N220 X-202.315 Y3.244 Z7.793 A333.2840 B0.6242 
N221 X-202.303 Y3.516 Z7.679 A334.6407 B0.6175 
N222 X-202.291 Y3.787 Z7.573 A335.9871 B0.6110 
N223 X-202.279 Y4.060 Z7.475 A337.3090 B0.6048 
N224 X-202.268 Y4.333 Z7.386 A338.5920 B0.5993 
N225 X-202.256 Y4.608 Z7.306 A339.8248 B0.5947 
N226 X-202.245 Y4.885 Z7.236 A341.0033 B0.5909 
N227 X-202.233 Y5.163 Z7.176 A342.1338 B0.5876 
N228 X-202.222 Y5.444 Z7.124 A343.2337 B0.5843 
N229 X-202.211 Y5.728 Z7.080 A344.3273 B0.5803 
N230 X-202.200 Y6.016 Z7.041 A345.4389 B0.5749 
N231 X-202.189 Y6.309 Z7.007 A346.5869 B0.5677 
N232 X-202.178 Y6.606 Z6.977 A347.7797 B0.5586 
N233 X-202.167 Y6.910 Z6.952 A349.0163 B0.5476 
N234 X-202.156 Y7.219 Z6.932 A350.2887 B0.5351 
N235 X-202.146 Y7.534 Z6.919 A351.5861 B0.5213 
N236 X-202.135 Y7.854 Z6.912 A352.8961 B0.5067 
N237 X-202.125 Y8.180 Z6.913 A354.2017 B0.4917 
N238 X-202.115 Y8.510 Z6.923 A355.4803 B0.4768 
N239 X-202.104 Y8.844 Z6.943 A356.7067 B0.4625 
N240 X-202.094 Y9.180 Z6.975 A357.8597 B0.4494 
N241 X-202.085 Y9.517 Z7.018 A358.9282 B0.4377 
N242 X-202.075 Y9.854 Z7.072 A359.9116 B0.4272 
N243 X-202.066 Y10.190 Z7.136 A0.8170 B0.4179 
N244 X-202.056 Y10.524 Z7.208 A1.6547 B0.4094 
N245 X-202.048 Y10.855 Z7.288 A2.4344 B0.4016 
N246 X-202.039 Y11.182 Z7.375 A3.1634 B0.3943 
N247 X-202.031 Y11.503 Z7.466 A3.8448 B0.3874 
N248 X-202.023 Y11.817 Z7.562 A4.4775 B0.3811 
N249 X-202.015 Y12.121 Z7.660 A5.0574 B0.3750 
N250 X-202.008 Y12.414 Z7.760 A5.5811 B0.3698 
N251 X-202.001 Y12.694 Z7.861 A6.0473 B0.3650 
N252 X-201.995 Y12.959 Z7.960 A6.4588 B0.3609 
N253 X-201.989 Y13.207 Z8.056 A6.8212 B0.3575 
N254 X-201.984 Y13.437 Z8.148 A7.1412 B0.3542 
N255 X-201.979 Y13.649 Z8.234 A7.4251 B0.3514 
N256 X-201.975 Y13.840 Z8.313 A7.6770 B0.3490 
N257 X-201.971 Y14.012 Z8.384 A7.8990 B0.3464 
N258 X-201.967 Y14.164 Z8.447 A8.0902 B0.3446 
N259 X-201.964 Y14.297 Z8.504 A8.2461 B0.3425 
N260 X-201.962 Y14.413 Z8.554 A8.3555 B0.3410 
N261 X-201.960 Y14.511 Z8.601 A8.3940 B0.3395 
N262 X-201.958 Y14.595 Z8.648 A8.3136 B0.3383 
N263 X-201.957 Y14.666 Z8.702 A8.0296 B0.3385 
N264 X-201.956 Y14.728 Z8.774 A7.4064 B0.3409 
N265 X-201.956 Y14.785 Z8.877 A6.2604 B0.3500 
N266 X-201.960 Y14.850 Z9.071 A3.7707 B0.3741 
N267 X-201.968 Y14.968 Z9.474 A358.2188 B0.4291 
N268 X-201.982 Y15.214 Z10.090 A349.2328 B0.5177 
N269 X-201.997 Y15.593 Z10.730 A339.0876 B0.6101 
N270 X-202.006 Y16.058 Z11.276 A329.2595 B0.6657 
N271 X-202.010 Y16.553 Z11.696 A320.3501 B0.6904 
N272 X-202.012 Y16.988 Z11.971 A313.2724 B0.7001 
N273 X-202.012 Y17.392 Z12.166 A307.1014 B0.6986 
N274 X-202.010 Y17.762 Z12.301 A301.6736 B0.6914 
N275 X-202.008 Y18.105 Z12.391 A296.7941 B0.6807 
N276 X-202.006 Y18.425 Z12.449 A292.2948 B0.6675 
N277 X-202.003 Y18.733 Z12.481 A288.0245 B0.6519 
N278 X-202.000 Y19.035 Z12.489 A283.8583 B0.6337 
N279 X-201.996 Y19.337 Z12.476 A279.6775 B0.6129 
N280 X-201.991 Y19.647 Z12.440 A275.3628 B0.5889 
N281 X-201.986 Y19.973 Z12.377 A270.7814 B0.5606 
N282 X-201.979 Y20.322 Z12.279 A265.7874 B0.5265 
N283 X-201.971 Y20.700 Z12.135 A260.2077 B0.4836 
N284 X-201.961 Y21.110 Z11.929 A253.8847 B0.4267 
N285 X-201.947 Y21.589 Z11.610 A245.9591 B0.3500 
N286 X-201.928 Y22.112 Z11.132 A236.2192 B0.2432 
N287 X-201.903 Y22.579 Z10.520 A225.6286 B0.0979 
N288 X-201.878 Y22.943 Z9.782 A214.3439 B-0.0478 
N289 X-201.861 Y23.105 Z9.194 A206.0644 B-0.1448 
N290 X-201.853 Y23.136 Z8.886 A202.0311 B-0.1915 
N291 X-201.850 Y23.117 Z8.743 A200.4085 B-0.2105 
N292 X-201.849 Y23.076 Z8.667 A199.8280 B-0.2169 
N293 X-201.849 Y23.020 Z8.611 A199.6511 B-0.2198 
N294 X-201.850 Y22.950 Z8.553 A199.5777 B-0.2203 
N295 X-201.851 Y22.866 Z8.485 A199.5286 B-0.2208 
N296 X-201.853 Y22.767 Z8.405 A199.4930 B-0.2208 
N297 X-201.854 Y22.650 Z8.312 A199.4622 B-0.2211 
N298 X-201.856 Y22.514 Z8.203 A199.4311 B-0.2213 
N299 X-201.859 Y22.359 Z8.078 A199.3966 B-0.2217 
N300 X-201.861 Y22.184 Z7.936 A199.3573 B-0.2221 
N301 X-201.864 Y21.989 Z7.778 A199.3115 B-0.2225 
N302 X-201.867 Y21.774 Z7.602 A199.2578 B-0.2232 
N303 X-201.870 Y21.539 Z7.410 A199.1941 B-0.2237 
N304 X-201.874 Y21.286 Z7.203 A199.1181 B-0.2246 
N305 X-201.877 Y21.015 Z6.980 A199.0270 B-0.2256 
N306 X-201.881 Y20.728 Z6.745 A198.9184 B-0.2267 
N307 X-201.886 Y20.428 Z6.497 A198.7903 B-0.2282 
N308 X-201.890 Y20.115 Z6.240 A198.6417 B-0.2299 
N309 X-201.895 Y19.792 Z5.973 A198.4719 B-0.2318 
N310 X-201.899 Y19.460 Z5.700 A198.2807 B-0.2339 
N311 X-201.904 Y19.121 Z5.421 A198.0678 B-0.2363 
N312 X-201.909 Y18.777 Z5.139 A197.8329 B-0.2390 
N313 X-201.914 Y18.428 Z4.854 A197.5757 B-0.2418 
N314 X-201.919 Y18.077 Z4.567 A197.2951 B-0.2450 
N315 X-201.924 Y17.724 Z4.281 A196.9895 B-0.2483 
N316 X-201.929 Y17.369 Z3.994 A196.6568 B-0.2520 
N317 X-201.934 Y17.015 Z3.708 A196.2945 B-0.2560 
N318 X-201.939 Y16.660 Z3.423 A195.9013 B-0.2604 
N319 X-201.944 Y16.306 Z3.141 A195.4764 B-0.2651 
N320 X-201.949 Y15.952 Z2.861 A195.0194 B-0.2701 
N321 X-201.954 Y15.600 Z2.583 A194.5304 B-0.2755 
N322 X-201.959 Y15.249 Z2.309 A194.0087 B-0.2812 
N323 X-201.964 Y14.899 Z2.038 A193.4537 B-0.2873 
N324 X-201.969 Y14.551 Z1.771 A192.8644 B-0.2937 
N325 X-201.974 Y14.204 Z1.507 A192.2396 B-0.3004 
N326 X-201.979 Y13.858 Z1.248 A191.5782 B-0.3075 
N327 X-201.984 Y13.515 Z0.993 A190.8787 B-0.3150 
N328 X-201.989 Y13.172 Z0.742 A190.1396 B-0.3228 
N329 X-201.994 Y12.832 Z0.495 A189.3592 B-0.3310 
N330 X-201.999 Y12.493 Z0.253 A188.5352 B-0.3396 
N331 X-202.004 Y12.156 Z0.015 A187.6649 B-0.3486 
N332 X-202.009 Y11.821 Z-0.218 A186.7452 B-0.3580 
N333 X-202.014 Y11.487 Z-0.447 A185.7730 B-0.3679 
N334 X-202.019 Y11.154 Z-0.671 A184.7459 B-0.3783 
N335 X-202.024 Y10.823 Z-0.890 A183.6633 B-0.3891 
N336 X-202.029 Y10.493 Z-1.104 A182.5258 B-0.4004 
N337 X-202.034 Y10.165 Z-1.313 A181.3352 B-0.4120 
N338 X-202.039 Y9.837 Z-1.516 A180.0931 B-0.4239 
N339 X-202.044 Y9.511 Z-1.713 A178.8004 B-0.4360 
N340 X-202.049 Y9.185 Z-1.905 A177.4570 B-0.4484 
N341 X-202.054 Y8.860 Z-2.090 A176.0618 B-0.4610 
N342 X-202.059 Y8.536 Z-2.269 A174.6137 B-0.4738 
N343 X-202.064 Y8.212 Z-2.442 A173.1114 B-0.4867 
N344 X-202.069 Y7.889 Z-2.609 A171.5542 B-0.4998 
N345 X-202.074 Y7.565 Z-2.770 A169.9417 B-0.5130 
N346 X-202.079 Y7.241 Z-2.924 A168.2741 B-0.5262 
N347 X-202.084 Y6.917 Z-3.072 A166.5519 B-0.5394 
N348 X-202.090 Y6.592 Z-3.212 A164.7765 B-0.5525 
N349 X-202.095 Y6.266 Z-3.345 A162.9497 B-0.5654 
N350 X-202.101 Y5.939 Z-3.471 A161.0737 B-0.5781 
N351 X-202.106 Y5.611 Z-3.588 A159.1509 B-0.5904 
N352 X-202.112 Y5.281 Z-3.697 A157.1846 B-0.6023 
N353 X-202.118 Y4.950 Z-3.798 A155.1781 B-0.6138 
N354 X-202.124 Y4.617 Z-3.889 A153.1357 B-0.6246 
N355 X-202.130 Y4.282 Z-3.970 A151.0619 B-0.6349 
N356 X-202.136 Y3.946 Z-4.041 A148.9614 B-0.6444 
N357 X-202.143 Y3.609 Z-4.101 A146.8393 B-0.6530 
N358 X-202.149 Y3.270 Z-4.150 A144.7006 B-0.6609 
N359 X-202.156 Y2.931 Z-4.187 A142.5505 B-0.6678 
N360 X-202.164 Y2.591 Z-4.211 A140.3943 B-0.6738 
N361 X-202.171 Y2.250 Z-4.223 A138.2374 B-0.6789 
N362 X-202.179 Y1.909 Z-4.222 A136.0856 B-0.6829 
N363 X-202.187 Y1.569 Z-4.208 A133.9443 B-0.6860 
N364 X-202.195 Y1.230 Z-4.180 A131.8189 B-0.6880 
N365 X-202.203 Y0.892 Z-4.138 A129.7140 B-0.6891 
N366 X-202.212 Y0.556 Z-4.081 A127.6344 B-0.6893 
N367 X-202.221 Y0.222 Z-4.011 A125.5841 B-0.6885 
N368 X-202.230 Y-0.108 Z-3.927 A123.5674 B-0.6870 
N369 X-202.239 Y-0.435 Z-3.828 A121.5878 B-0.6845 
N370 X-202.249 Y-0.758 Z-3.715 A119.6487 B-0.6814 
N371 X-202.258 Y-1.077 Z-3.589 A117.7528 B-0.6775 
N372 X-202.268 Y-1.391 Z-3.449 A115.9023 B-0.6730 
N373 X-202.278 Y-1.699 Z-3.295 A114.0987 B-0.6680 
N374 X-202.289 Y-2.001 Z-3.129 A112.3433 B-0.6625 
N375 X-202.299 Y-2.297 Z-2.950 A110.6370 B-0.6565 
N376 X-202.309 Y-2.587 Z-2.759 A108.9801 B-0.6501 
N377 X-202.320 Y-2.869 Z-2.557 A107.3726 B-0.6434 
N378 X-202.330 Y-3.145 Z-2.344 A105.8135 B-0.6365 
N379 X-202.341 Y-3.413 Z-2.121 A104.3005 B-0.6293 
N380 X-202.352 Y-3.673 Z-1.889 A102.8298 B-0.6220 
N381 X-202.362 Y-3.926 Z-1.648 A101.3960 B-0.6144 
N382 X-202.373 Y-4.172 Z-1.400 A99.9927 B-0.6067 
N383 X-202.383 Y-4.410 Z-1.146 A98.6143 B-0.5986 
N384 X-202.394 Y-4.641 Z-0.885 A97.2579 B-0.5905 
N385 X-202.404 Y-4.864 Z-0.620 A95.9242 B-0.5820 
N386 X-202.414 Y-5.078 Z-0.351 A94.6154 B-0.5732 
N387 X-202.424 Y-5.283 Z-0.080 A93.3333 B-0.5648 
N388 X-202.434 Y-5.479 Z0.192 A92.0754 B-0.5560 
N389 X-202.444 Y-5.666 Z0.464 A90.8339 B-0.5471 
N390 X-202.453 Y-5.845 Z0.734 A89.5964 B-0.5384 
N391 X-202.462 Y-6.017 Z1.002 A88.3493 B-0.5291 
N392 X-202.471 Y-6.182 Z1.266 A87.0815 B-0.5193 
N393 X-202.479 Y-6.341 Z1.525 A85.7855 B-0.5094 
N394 X-202.488 Y-6.493 Z1.777 A84.4559 B-0.4983 
N395 X-202.496 Y-6.639 Z2.024 A83.0866 B-0.4872 
N396 X-202.503 Y-6.781 Z2.262 A81.6677 B-0.4752 
N397 X-202.511 Y-6.918 Z2.493 A80.1897 B-0.4623 
N398 X-202.518 Y-7.051 Z2.716 A78.6510 B-0.4484 
N399 X-202.524 Y-7.180 Z2.930 A77.0512 B-0.4340 
N400 X-202.531 Y-7.307 Z3.136 A75.3719 B-0.4193 
N401 X-202.537 Y-7.435 Z3.336 A73.5729 B-0.4030 
N402 X-202.543 Y-7.566 Z3.531 A71.6079 B-0.3850 
N403 X-202.550 Y-7.705 Z3.725 A69.4264 B-0.3644 
N404 X-202.556 Y-7.854 Z3.922 A66.9665 B-0.3411 
N405 X-202.563 Y-8.016 Z4.126 A64.1561 B-0.3136 
N406 X-202.571 Y-8.194 Z4.345 A60.9224 B-0.2798 
N407 X-202.580 Y-8.387 Z4.586 A57.2061 B-0.2397 
N408 X-202.590 Y-8.593 Z4.855 A52.9824 B-0.1907 
N409 X-202.601 Y-8.804 Z5.157 A48.2840 B-0.1332 
N410 X-202.613 Y-9.007 Z5.490 A43.1977 B-0.0700 
N411 X-202.626 Y-9.193 Z5.853 A37.8435 B-0.0019 
N412 X-202.639 Y-9.350 Z6.237 A32.3484 B0.0680 
N413 X-202.651 Y-9.472 Z6.635 A26.8203 B0.1357 
N414 X-202.663 Y-9.555 Z7.039 A21.3334 B0.2018 
N415 X-202.674 Y-9.598 Z7.443 A15.9349 B0.2647 
N416 X-202.684 Y-9.600 Z7.842 A10.6601 B0.3233 
N417 X-202.693 Y-9.563 Z8.229 A5.5489 B0.3782 
N418 X-202.701 Y-9.490 Z8.597 A0.6563 B0.4277 
N419 X-202.707 Y-9.383 Z8.940 A356.0509 B0.4711 
N420 X-202.712 Y-9.249 Z9.249 A351.8004 B0.5082 
N421 X-202.716 Y-9.093 Z9.523 A347.9525 B0.5382 
N422 X-202.718 Y-8.920 Z9.759 A344.5145 B0.5626 
N423 X-202.718 Y-8.733 Z9.960 A341.4555 B0.5819 
N424 X-202.718 Y-8.534 Z10.131 A338.7260 B0.5981 
N425 X-202.716 Y-8.323 Z10.274 A336.2754 B0.6116 
N426 X-202.714 Y-8.101 Z10.394 A334.0631 B0.6227 
N427 X-202.710 Y-7.867 Z10.490 A332.0553 B0.6321 
N428 X-202.706 Y-7.620 Z10.567 A330.2151 B0.6399 
N429 X-202.701 Y-7.359 Z10.625 A328.5078 B0.6470 
N430 X-202.695 Y-7.084 Z10.665 A326.9233 B0.6535 
N431 X-202.688 Y-6.797 Z10.685 A325.4732 B0.6585 
N432 X-202.681 Y-6.498 Z10.686 A324.1649 B0.6631 
N433 X-202.672 Y-6.187 Z10.667 A322.9960 B0.6663 
N434 X-202.663 Y-5.867 Z10.630 A321.9642 B0.6695 
N435 X-202.653 Y-5.537 Z10.575 A321.0704 B0.6716 
N436 X-202.642 Y-5.198 Z10.502 A320.3154 B0.6736 
N437 X-202.631 Y-4.853 Z10.413 A319.6956 B0.6747 
N438 X-202.619 Y-4.502 Z10.310 A319.2020 B0.6760 
N439 X-202.607 Y-4.145 Z10.193 A318.8232 B0.6766 
N440 X-202.594 Y-3.783 Z10.065 A318.5492 B0.6773 
N441 X-202.581 Y-3.419 Z9.928 A318.3738 B0.6776 
N442 X-202.567 Y-3.053 Z9.782 A318.2956 B0.6778 
N443 X-202.553 Y-2.688 Z9.629 A318.3170 B0.6778 
N444 X-202.539 Y-2.324 Z9.470 A318.4418 B0.6775 
N445 X-202.525 Y-1.963 Z9.306 A318.6747 B0.6771 
N446 X-202.511 Y-1.607 Z9.138 A319.0197 B0.6764 
N447 X-202.497 Y-1.256 Z8.967 A319.4794 B0.6754 
N448 X-202.483 Y-0.912 Z8.794 A320.0539 B0.6740 
N449 X-202.469 Y-0.575 Z8.620 A320.7400 B0.6723 
N450 X-202.456 Y-0.244 Z8.447 A321.5313 B0.6702 
N451 X-202.442 Y0.080 Z8.275 A322.4193 B0.6677 
N452 X-202.428 Y0.397 Z8.106 A323.3945 B0.6648 
N453 X-202.415 Y0.710 Z7.939 A324.4479 B0.6614 
N454 X-202.402 Y1.017 Z7.776 A325.5707 B0.6575 
N455 X-202.389 Y1.319 Z7.617 A326.7550 B0.6531 
N456 X-202.376 Y1.618 Z7.462 A327.9923 B0.6482 
N457 X-202.363 Y1.915 Z7.313 A329.2737 B0.6428 
N458 X-202.351 Y2.209 Z7.169 A330.5895 B0.6370 
N459 X-202.338 Y2.502 Z7.031 A331.9298 B0.6307 
N460 X-202.326 Y2.795 Z6.900 A333.2840 B0.6242 
N461 X-202.314 Y3.087 Z6.776 A334.6407 B0.6175 
N462 X-202.302 Y3.380 Z6.659 A335.9871 B0.6110 
N463 X-202.290 Y3.674 Z6.552 A337.3090 B0.6048 
N464 X-202.278 Y3.968 Z6.455 A338.5920 B0.5993 
N465 X-202.266 Y4.263 Z6.367 A339.8248 B0.5947 
N466 X-202.255 Y4.559 Z6.291 A341.0033 B0.5909 
N467 X-202.244 Y4.856 Z6.224 A342.1338 B0.5876 
N468 X-202.232 Y5.155 Z6.167 A343.2337 B0.5843 
N469 X-202.221 Y5.458 Z6.117 A344.3273 B0.5803 
N470 X-202.210 Y5.765 Z6.073 A345.4389 B0.5749 
N471 X-202.199 Y6.077 Z6.034 A346.5869 B0.5677 
N472 X-202.188 Y6.395 Z6.000 A347.7797 B0.5586 
N473 X-202.177 Y6.719 Z5.970 A349.0163 B0.5476 
N474 X-202.166 Y7.050 Z5.947 A350.2887 B0.5351 
N475 X-202.155 Y7.387 Z5.930 A351.5861 B0.5213 
N476 X-202.144 Y7.731 Z5.920 A352.8961 B0.5067 
N477 X-202.133 Y8.079 Z5.918 A354.2017 B0.4917 
N478 X-202.123 Y8.432 Z5.926 A355.4803 B0.4768 
N479 X-202.112 Y8.787 Z5.945 A356.7067 B0.4625 
N480 X-202.102 Y9.143 Z5.976 A357.8597 B0.4494 
N481 X-202.092 Y9.498 Z6.018 A358.9282 B0.4377 
N482 X-202.082 Y9.852 Z6.072 A359.9116 B0.4272 
N483 X-202.073 Y10.204 Z6.136 A0.8170 B0.4179 
N484 X-202.064 Y10.553 Z6.209 A1.6547 B0.4094 
N485 X-202.055 Y10.898 Z6.289 A2.4344 B0.4016 
N486 X-202.046 Y11.237 Z6.376 A3.1634 B0.3943 
N487 X-202.037 Y11.570 Z6.468 A3.8448 B0.3874 
N488 X-202.029 Y11.895 Z6.565 A4.4775 B0.3811 
N489 X-202.021 Y12.209 Z6.664 A5.0574 B0.3750 
N490 X-202.014 Y12.511 Z6.765 A5.5811 B0.3698 
N491 X-202.007 Y12.799 Z6.866 A6.0473 B0.3650 
N492 X-202.001 Y13.071 Z6.967 A6.4588 B0.3609 
N493 X-201.995 Y13.326 Z7.064 A6.8212 B0.3575 
N494 X-201.990 Y13.562 Z7.156 A7.1412 B0.3542 
N495 X-201.985 Y13.778 Z7.242 A7.4251 B0.3514 
N496 X-201.981 Y13.974 Z7.322 A7.6770 B0.3490 
N497 X-201.977 Y14.150 Z7.393 A7.8990 B0.3464 
N498 X-201.973 Y14.305 Z7.457 A8.0902 B0.3446 
N499 X-201.970 Y14.441 Z7.514 A8.2461 B0.3425 
N500 X-201.968 Y14.558 Z7.565 A8.3555 B0.3410 
N501 X-201.966 Y14.657 Z7.611 A8.3940 B0.3395 
N502 X-201.964 Y14.739 Z7.658 A8.3136 B0.3383 
N503 X-201.962 Y14.806 Z7.712 A8.0296 B0.3385 
N504 X-201.962 Y14.857 Z7.782 A7.4064 B0.3409 
N505 X-201.963 Y14.894 Z7.883 A6.2604 B0.3500 
N506 X-201.966 Y14.915 Z8.073 A3.7707 B0.3741 
N507 X-201.976 Y14.937 Z8.474 A358.2188 B0.4291 
N508 X-201.991 Y15.027 Z9.108 A349.2328 B0.5177 
N509 X-202.008 Y15.236 Z9.796 A339.0876 B0.6101 
N510 X-202.018 Y15.547 Z10.416 A329.2595 B0.6657 
N511 X-202.023 Y15.915 Z10.926 A320.3501 B0.6904 
N512 X-202.024 Y16.260 Z11.286 A313.2724 B0.7001 
N513 X-202.024 Y16.595 Z11.563 A307.1014 B0.6986 
N514 X-202.022 Y16.911 Z11.776 A301.6736 B0.6914 
N515 X-202.020 Y17.212 Z11.941 A296.7941 B0.6807 
N516 X-202.018 Y17.500 Z12.070 A292.2948 B0.6675 
N517 X-202.015 Y17.782 Z12.171 A288.0245 B0.6519 
N518 X-202.011 Y18.064 Z12.250 A283.8583 B0.6337 
N519 X-202.007 Y18.351 Z12.308 A279.6775 B0.6129 
N520 X-202.002 Y18.652 Z12.347 A275.3628 B0.5889 
N521 X-201.996 Y18.973 Z12.363 A270.7814 B0.5606 
N522 X-201.989 Y19.324 Z12.353 A265.7874 B0.5265 
N523 X-201.980 Y19.715 Z12.305 A260.2077 B0.4836 
N524 X-201.969 Y20.149 Z12.206 A253.8847 B0.4267 
N525 X-201.953 Y20.676 Z12.017 A245.9591 B0.3500 
N526 X-201.932 Y21.280 Z11.688 A236.2192 B0.2432 
N527 X-201.904 Y21.864 Z11.219 A225.6286 B0.0979 
N528 X-201.877 Y22.379 Z10.607 A214.3439 B-0.0478 
N529 X-201.858 Y22.666 Z10.092 A206.0644 B-0.1448 
N530 X-201.849 Y22.761 Z9.813 A202.0311 B-0.1915 
N531 X-201.846 Y22.770 Z9.676 A200.4085 B-0.2105 
N532 X-201.845 Y22.739 Z9.600 A199.8280 B-0.2169 
N533 X-201.846 Y22.687 Z9.541 A199.6511 B-0.2198 
N534 X-201.846 Y22.621 Z9.480 A199.5777 B-0.2203 
N535 X-201.848 Y22.539 Z9.408 A199.5286 B-0.2208 
N536 X-201.849 Y22.441 Z9.325 A199.4930 B-0.2208 
N537 X-201.851 Y22.326 Z9.227 A199.4622 B-0.2211 
N538 X-201.853 Y22.193 Z9.115 A199.4311 B-0.2213 
N539 X-201.855 Y22.040 Z8.986 A199.3966 B-0.2217 
N540 X-201.857 Y21.867 Z8.840 A199.3573 B-0.2221 
N541 X-201.860 Y21.674 Z8.678 A199.3115 B-0.2225 
N542 X-201.863 Y21.461 Z8.499 A199.2578 B-0.2232 
N543 X-201.866 Y21.228 Z8.303 A199.1941 B-0.2237 
N544 X-201.870 Y20.977 Z8.092 A199.1181 B-0.2246 
N545 X-201.874 Y20.709 Z7.867 A199.0270 B-0.2256 
N546 X-201.878 Y20.426 Z7.628 A198.9184 B-0.2267 
N547 X-201.882 Y20.129 Z7.377 A198.7903 B-0.2282 
N548 X-201.886 Y19.820 Z7.116 A198.6417 B-0.2299 
N549 X-201.891 Y19.500 Z6.847 A198.4719 B-0.2318 
N550 X-201.895 Y19.173 Z6.570 A198.2807 B-0.2339 
N551 X-201.900 Y18.838 Z6.289 A198.0678 B-0.2363 
N552 X-201.905 Y18.499 Z6.004 A197.8329 B-0.2390 
N553 X-201.910 Y18.155 Z5.716 A197.5757 B-0.2418 
N554 X-201.915 Y17.810 Z5.427 A197.2951 B-0.2450 
N555 X-201.920 Y17.462 Z5.137 A196.9895 B-0.2483 
N556 X-201.925 Y17.114 Z4.848 A196.6568 B-0.2520 
N557 X-201.930 Y16.766 Z4.560 A196.2945 B-0.2560 
N558 X-201.935 Y16.418 Z4.273 A195.9013 B-0.2604 
N559 X-201.939 Y16.071 Z3.988 A195.4764 B-0.2651 
N560 X-201.944 Y15.726 Z3.706 A195.0194 B-0.2701 
N561 X-201.949 Y15.382 Z3.426 A194.5304 B-0.2755 
N562 X-201.954 Y15.039 Z3.150 A194.0087 B-0.2812 
N563 X-201.959 Y14.698 Z2.877 A193.4537 B-0.2873 
N564 X-201.964 Y14.360 Z2.608 A192.8644 B-0.2937 
N565 X-201.969 Y14.023 Z2.342 A192.2396 B-0.3004 
N566 X-201.974 Y13.688 Z2.081 A191.5782 B-0.3075 
N567 X-201.979 Y13.355 Z1.823 A190.8787 B-0.3150 
N568 X-201.984 Y13.024 Z1.570 A190.1396 B-0.3228 
N569 X-201.989 Y12.696 Z1.321 A189.3592 B-0.3310 
N570 X-201.994 Y12.370 Z1.077 A188.5352 B-0.3396 
N571 X-201.999 Y12.046 Z0.837 A187.6649 B-0.3486 
N572 X-202.004 Y11.724 Z0.601 A186.7452 B-0.3580 
N573 X-202.008 Y11.404 Z0.370 A185.7730 B-0.3679 
N574 X-202.013 Y11.087 Z0.143 A184.7459 B-0.3783 
N575 X-202.018 Y10.771 Z-0.079 A183.6633 B-0.3891 
N576 X-202.023 Y10.458 Z-0.297 A182.5258 B-0.4004 
N577 X-202.028 Y10.146 Z-0.509 A181.3352 B-0.4120 
N578 X-202.033 Y9.836 Z-0.716 A180.0931 B-0.4239 
N579 X-202.037 Y9.527 Z-0.918 A178.8004 B-0.4360 
N580 X-202.042 Y9.220 Z-1.114 A177.4570 B-0.4484 
N581 X-202.047 Y8.914 Z-1.304 A176.0618 B-0.4610 
N582 X-202.052 Y8.610 Z-1.489 A174.6137 B-0.4738 
N583 X-202.057 Y8.306 Z-1.669 A173.1114 B-0.4867 
N584 X-202.062 Y8.003 Z-1.843 A171.5542 B-0.4998 
N585 X-202.067 Y7.700 Z-2.011 A169.9417 B-0.5130 
N586 X-202.072 Y7.397 Z-2.173 A168.2741 B-0.5262 
N587 X-202.077 Y7.094 Z-2.330 A166.5519 B-0.5394 
N588 X-202.082 Y6.791 Z-2.480 A164.7765 B-0.5525 
N589 X-202.088 Y6.487 Z-2.624 A162.9497 B-0.5654 
N590 X-202.093 Y6.182 Z-2.761 A161.0737 B-0.5781 
N591 X-202.098 Y5.876 Z-2.891 A159.1509 B-0.5904 
N592 X-202.104 Y5.568 Z-3.014 A157.1846 B-0.6023 
N593 X-202.110 Y5.259 Z-3.128 A155.1781 B-0.6138 
N594 X-202.116 Y4.948 Z-3.235 A153.1357 B-0.6246 
N595 X-202.122 Y4.635 Z-3.332 A151.0619 B-0.6349 
N596 X-202.128 Y4.320 Z-3.420 A148.9614 B-0.6444 
N597 X-202.134 Y4.003 Z-3.498 A146.8393 B-0.6530 
N598 X-202.141 Y3.685 Z-3.565 A144.7006 B-0.6609 
N599 X-202.148 Y3.364 Z-3.621 A142.5505 B-0.6678 
N600 X-202.155 Y3.042 Z-3.666 A140.3943 B-0.6738 
N601 X-202.163 Y2.719 Z-3.698 A138.2374 B-0.6789 
N602 X-202.170 Y2.395 Z-3.718 A136.0856 B-0.6829 
N603 X-202.178 Y2.070 Z-3.725 A133.9443 B-0.6860 
N604 X-202.186 Y1.745 Z-3.718 A131.8189 B-0.6880 
N605 X-202.195 Y1.421 Z-3.698 A129.7140 B-0.6891 
N606 X-202.204 Y1.097 Z-3.664 A127.6344 B-0.6893 
N607 X-202.212 Y0.775 Z-3.616 A125.5841 B-0.6885 
N608 X-202.222 Y0.454 Z-3.553 A123.5674 B-0.6870 
N609 X-202.231 Y0.136 Z-3.477 A121.5878 B-0.6845 
N610 X-202.241 Y-0.179 Z-3.386 A119.6487 B-0.6814 
N611 X-202.251 Y-0.491 Z-3.280 A117.7528 B-0.6775 
N612 X-202.261 Y-0.798 Z-3.161 A115.9023 B-0.6730 
N613 X-202.271 Y-1.102 Z-3.028 A114.0987 B-0.6680 
N614 X-202.281 Y-1.400 Z-2.882 A112.3433 B-0.6625 
N615 X-202.291 Y-1.693 Z-2.722 A110.6370 B-0.6565 
N616 X-202.302 Y-1.980 Z-2.550 A108.9801 B-0.6501 
N617 X-202.313 Y-2.261 Z-2.367 A107.3726 B-0.6434 
N618 X-202.323 Y-2.535 Z-2.171 A105.8135 B-0.6365 
N619 X-202.334 Y-2.803 Z-1.966 A104.3005 B-0.6293 
N620 X-202.345 Y-3.064 Z-1.750 A102.8298 B-0.6220 
N621 X-202.356 Y-3.318 Z-1.526 A101.3960 B-0.6144 
N622 X-202.366 Y-3.564 Z-1.293 A99.9927 B-0.6067 
N623 X-202.377 Y-3.805 Z-1.054 A98.6143 B-0.5986 
N624 X-202.387 Y-4.037 Z-0.808 A97.2579 B-0.5905 
N625 X-202.398 Y-4.263 Z-0.558 A95.9242 B-0.5820 
N626 X-202.408 Y-4.480 Z-0.303 A94.6154 B-0.5732 
N627 X-202.418 Y-4.688 Z-0.045 A93.3333 B-0.5648 
N628 X-202.428 Y-4.887 Z0.214 A92.0754 B-0.5560 
N629 X-202.438 Y-5.078 Z0.473 A90.8339 B-0.5471 
N630 X-202.448 Y-5.262 Z0.730 A89.5964 B-0.5384 
N631 X-202.457 Y-5.438 Z0.985 A88.3493 B-0.5291 
N632 X-202.466 Y-5.608 Z1.236 A87.0815 B-0.5193 
N633 X-202.474 Y-5.771 Z1.483 A85.7855 B-0.5094 
N634 X-202.483 Y-5.929 Z1.723 A84.4559 B-0.4983 
N635 X-202.491 Y-6.081 Z1.956 A83.0866 B-0.4872 
N636 X-202.499 Y-6.228 Z2.181 A81.6677 B-0.4752 
N637 X-202.506 Y-6.372 Z2.399 A80.1897 B-0.4623 
N638 X-202.513 Y-6.512 Z2.608 A78.6510 B-0.4484 
N639 X-202.520 Y-6.648 Z2.808 A77.0512 B-0.4340 
N640 X-202.527 Y-6.783 Z2.999 A75.3719 B-0.4193 
N641 X-202.533 Y-6.919 Z3.184 A73.5729 B-0.4030 
N642 X-202.540 Y-7.060 Z3.363 A71.6079 B-0.3850 
N643 X-202.546 Y-7.210 Z3.539 A69.4264 B-0.3644 
N644 X-202.553 Y-7.371 Z3.716 A66.9665 B-0.3411 
N645 X-202.560 Y-7.547 Z3.899 A64.1561 B-0.3136 
N646 X-202.569 Y-7.742 Z4.094 A60.9224 B-0.2798 
N647 X-202.578 Y-7.957 Z4.309 A57.2061 B-0.2397 
N648 X-202.588 Y-8.187 Z4.549 A52.9824 B-0.1907 
N649 X-202.600 Y-8.427 Z4.821 A48.2840 B-0.1332 
N650 X-202.613 Y-8.665 Z5.126 A43.1977 B-0.0700 
N651 X-202.626 Y-8.889 Z5.461 A37.8435 B-0.0019 
N652 X-202.640 Y-9.087 Z5.821 A32.3484 B0.0680 
N653 X-202.652 Y-9.252 Z6.200 A26.8203 B0.1357 
N654 X-202.665 Y-9.379 Z6.589 A21.3334 B0.2018 
N655 X-202.676 Y-9.466 Z6.983 A15.9349 B0.2647 
N656 X-202.687 Y-9.512 Z7.375 A10.6601 B0.3233 
N657 X-202.696 Y-9.518 Z7.761 A5.5489 B0.3782 
N658 X-202.704 Y-9.484 Z8.131 A0.6563 B0.4277 
N659 X-202.711 Y-9.415 Z8.478 A356.0509 B0.4711 
N660 X-202.716 Y-9.314 Z8.796 A351.8004 B0.5082 
N661 X-202.720 Y-9.188 Z9.078 A347.9525 B0.5382 
N662 X-202.722 Y-9.040 Z9.325 A344.5145 B0.5626 
N663 X-202.723 Y-8.875 Z9.537 A341.4555 B0.5819 
N664 X-202.722 Y-8.694 Z9.719 A338.7260 B0.5981 
N665 X-202.721 Y-8.499 Z9.874 A336.2754 B0.6116 
N666 X-202.718 Y-8.291 Z10.004 A334.0631 B0.6227 
N667 X-202.715 Y-8.068 Z10.111 A332.0553 B0.6321 
N668 X-202.711 Y-7.831 Z10.198 A330.2151 B0.6399 
N669 X-202.706 Y-7.579 Z10.266 A328.5078 B0.6470 
N670 X-202.700 Y-7.312 Z10.315 A326.9233 B0.6535 
N671 X-202.693 Y-7.031 Z10.345 A325.4732 B0.6585 
N672 X-202.685 Y-6.737 Z10.355 A324.1649 B0.6631 
N673 X-202.677 Y-6.431 Z10.345 A322.9960 B0.6663 
N674 X-202.668 Y-6.113 Z10.315 A321.9642 B0.6695 
N675 X-202.658 Y-5.785 Z10.267 A321.0704 B0.6716 
N676 X-202.647 Y-5.448 Z10.201 A320.3154 B0.6736 
N677 X-202.635 Y-5.104 Z10.118 A319.6956 B0.6747 
N678 X-202.624 Y-4.752 Z10.019 A319.2020 B0.6760 
N679 X-202.611 Y-4.394 Z9.908 A318.8232 B0.6766 
N680 X-202.598 Y-4.032 Z9.784 A318.5492 B0.6773 
N681 X-202.585 Y-3.665 Z9.651 A318.3738 B0.6776 
N682 X-202.571 Y-3.297 Z9.508 A318.2956 B0.6778 
N683 X-202.558 Y-2.929 Z9.358 A318.3170 B0.6778 
N684 X-202.544 Y-2.561 Z9.202 A318.4418 B0.6775 
N685 X-202.530 Y-2.197 Z9.040 A318.6747 B0.6771 
N686 X-202.515 Y-1.836 Z8.874 A319.0197 B0.6764 
N687 X-202.501 Y-1.481 Z8.704 A319.4794 B0.6754 
N688 X-202.487 Y-1.131 Z8.532 A320.0539 B0.6740 
N689 X-202.473 Y-0.788 Z8.359 A320.7400 B0.6723 
N690 X-202.459 Y-0.452 Z8.186 A321.5313 B0.6702 
N691 X-202.446 Y-0.121 Z8.015 A322.4193 B0.6677 
N692 X-202.432 Y0.204 Z7.845 A323.3945 B0.6648 
N693 X-202.419 Y0.523 Z7.678 A324.4479 B0.6614 
N694 X-202.406 Y0.838 Z7.515 A325.5707 B0.6575 
N695 X-202.392 Y1.148 Z7.356 A326.7550 B0.6531 
N696 X-202.380 Y1.455 Z7.201 A327.9923 B0.6482 
N697 X-202.367 Y1.759 Z7.052 A329.2737 B0.6428 
N698 X-202.354 Y2.062 Z6.908 A330.5895 B0.6370 
N699 X-202.342 Y2.363 Z6.770 A331.9298 B0.6307 
N700 X-202.329 Y2.664 Z6.639 A333.2840 B0.6242 
N701 X-202.317 Y2.964 Z6.516 A334.6407 B0.6175 
N702 X-202.305 Y3.265 Z6.401 A335.9871 B0.6110 
N703 X-202.293 Y3.566 Z6.295 A337.3090 B0.6048 
N704 X-202.281 Y3.868 Z6.199 A338.5920 B0.5993 
N705 X-202.269 Y4.170 Z6.113 A339.8248 B0.5947 
N706 X-202.258 Y4.472 Z6.039 A341.0033 B0.5909 
N707 X-202.246 Y4.776 Z5.975 A342.1338 B0.5876 
N708 X-202.235 Y5.081 Z5.920 A343.2337 B0.5843 
N709 X-202.224 Y5.389 Z5.872 A344.3273 B0.5803 
N710 X-202.212 Y5.702 Z5.831 A345.4389 B0.5749 
N711 X-202.201 Y6.020 Z5.795 A346.5869 B0.5677 
N712 X-202.190 Y6.344 Z5.764 A347.7797 B0.5586 
N713 X-202.179 Y6.674 Z5.737 A349.0163 B0.5476 
N714 X-202.168 Y7.011 Z5.717 A350.2887 B0.5351 
N715 X-202.157 Y7.354 Z5.703 A351.5861 B0.5213 
N716 X-202.146 Y7.703 Z5.696 A352.8961 B0.5067 
N717 X-202.135 Y8.057 Z5.698 A354.2017 B0.4917 
N718 X-202.125 Y8.415 Z5.710 A355.4803 B0.4768 
N719 X-202.114 Y8.774 Z5.733 A356.7067 B0.4625 
N720 X-202.104 Y9.135 Z5.767 A357.8597 B0.4494 
N721 X-202.094 Y9.494 Z5.814 A358.9282 B0.4377 
N722 X-202.084 Y9.852 Z5.872 A359.9116 B0.4272 
N723 X-202.074 Y10.207 Z5.940 A0.8170 B0.4179 
N724 X-202.065 Y10.558 Z6.017 A1.6547 B0.4094 
N725 X-202.056 Y10.906 Z6.102 A2.4344 B0.4016 
N726 X-202.047 Y11.247 Z6.193 A3.1634 B0.3943 
N727 X-202.039 Y11.582 Z6.290 A3.8448 B0.3874 
N728 X-202.030 Y11.909 Z6.390 A4.4775 B0.3811 
N729 X-202.023 Y12.224 Z6.494 A5.0574 B0.3750 
N730 X-202.015 Y12.527 Z6.599 A5.5811 B0.3698 
N731 X-202.008 Y12.816 Z6.705 A6.0473 B0.3650 
N732 X-202.002 Y13.089 Z6.809 A6.4588 B0.3609 
N733 X-201.996 Y13.344 Z6.910 A6.8212 B0.3575 
N734 X-201.991 Y13.580 Z7.007 A7.1412 B0.3542 
N735 X-201.986 Y13.797 Z7.098 A7.4251 B0.3514 
N736 X-201.982 Y13.993 Z7.181 A7.6770 B0.3490 
N737 X-201.978 Y14.169 Z7.257 A7.8990 B0.3464 
N738 X-201.974 Y14.324 Z7.325 A8.0902 B0.3446 
N739 X-201.971 Y14.459 Z7.386 A8.2461 B0.3425 
N740 X-201.969 Y14.576 Z7.441 A8.3555 B0.3410 
N741 X-201.966 Y14.675 Z7.492 A8.3940 B0.3395 
N742 X-201.964 Y14.756 Z7.543 A8.3136 B0.3383 
N743 X-201.963 Y14.821 Z7.600 A8.0296 B0.3385 
N744 X-201.962 Y14.871 Z7.675 A7.4064 B0.3409 
N745 X-201.963 Y14.905 Z7.780 A6.2604 B0.3500 
N746 X-201.967 Y14.922 Z7.973 A3.7707 B0.3741 
N747 X-201.977 Y14.934 Z8.378 A358.2188 B0.4291 
N748 X-201.992 Y15.010 Z9.018 A349.2328 B0.5177 
N749 X-202.008 Y15.205 Z9.714 A339.0876 B0.6101 
N750 X-202.019 Y15.505 Z10.345 A329.2595 B0.6657 
N751 X-202.024 Y15.864 Z10.865 A320.3501 B0.6904 
N752 X-202.025 Y16.205 Z11.235 A313.2724 B0.7001 
N753 X-202.025 Y16.538 Z11.520 A307.1014 B0.6986 
N754 X-202.023 Y16.855 Z11.741 A301.6736 B0.6914 
N755 X-202.021 Y17.156 Z11.913 A296.7941 B0.6807 
N756 X-202.018 Y17.446 Z12.048 A292.2948 B0.6675 
N757 X-202.015 Y17.731 Z12.154 A288.0245 B0.6519 
N758 X-202.011 Y18.015 Z12.238 A283.8583 B0.6337 
N759 X-202.007 Y18.306 Z12.300 A279.6775 B0.6129 
N760 X-202.002 Y18.610 Z12.343 A275.3628 B0.5889 
N761 X-201.996 Y18.936 Z12.363 A270.7814 B0.5606 
N762 X-201.989 Y19.291 Z12.355 A265.7874 B0.5265 
N763 X-201.980 Y19.686 Z12.310 A260.2077 B0.4836 
N764 X-201.969 Y20.125 Z12.213 A253.8847 B0.4267 
N765 X-201.953 Y20.657 Z12.026 A245.9591 B0.3500 
N766 X-201.932 Y21.267 Z11.698 A236.2192 B0.2432 
N767 X-201.904 Y21.855 Z11.228 A225.6286 B0.0979 
N768 X-201.877 Y22.374 Z10.614 A214.3439 B-0.0478 
N769 X-201.858 Y22.664 Z10.096 A206.0644 B-0.1448 
N770 X-201.849 Y22.761 Z9.813 A202.0311 B-0.1915 
N771 X-201.846 Y22.770 Z9.676 A200.4078 B-0.2103 
N772 X-201.845 Y22.739 Z9.600 A199.8275 B-0.2165 
N773 X-201.846 Y22.687 Z9.541 A199.6508 B-0.2190 
N774 X-201.847 Y22.620 Z9.480 A199.5775 B-0.2191 
N775 X-201.848 Y22.539 Z9.408 A199.5285 B-0.2191 
N776 X-201.849 Y22.441 Z9.324 A199.4930 B-0.2186 
N777 X-201.851 Y22.326 Z9.227 A199.4622 B-0.2180 
N778 X-201.853 Y22.193 Z9.115 A199.4310 B-0.2172 
N779 X-201.856 Y22.040 Z8.986 A199.3966 B-0.2162 
N780 X-201.858 Y21.867 Z8.841 A199.3573 B-0.2150 
N781 X-201.862 Y21.674 Z8.678 A199.3116 B-0.2131 
N782 X-201.865 Y21.461 Z8.500 A199.2580 B-0.2109 
N783 X-201.869 Y21.229 Z8.304 A199.1945 B-0.2077 
N784 X-201.873 Y20.979 Z8.094 A199.1186 B-0.2037 
N785 X-201.878 Y20.711 Z7.869 A199.0278 B-0.1983 
N786 X-201.883 Y20.429 Z7.630 A198.9196 B-0.1910 
N787 X-201.888 Y20.133 Z7.380 A198.7921 B-0.1815 
N788 X-201.894 Y19.825 Z7.120 A198.6442 B-0.1688 
N789 X-201.901 Y19.507 Z6.852 A198.4753 B-0.1524 
N790 X-201.908 Y19.181 Z6.577 A198.2852 B-0.1312 
N791 X-201.916 Y18.848 Z6.297 A198.0736 B-0.1043 
N792 X-201.925 Y18.510 Z6.013 A197.8404 B-0.0707 
N793 X-201.934 Y18.169 Z5.727 A197.5852 B-0.0295 
N794 X-201.944 Y17.825 Z5.439 A197.3071 B0.0198 
N795 X-201.954 Y17.479 Z5.152 A197.0047 B0.0774 
N796 X-201.964 Y17.133 Z4.864 A196.6757 B0.1425 
N797 X-201.974 Y16.787 Z4.577 A196.3181 B0.2139 
N798 X-201.983 Y16.441 Z4.292 A195.9301 B0.2889 
N799 X-201.991 Y16.096 Z4.009 A195.5111 B0.3650 
N800 X-201.996 Y15.753 Z3.728 A195.0607 B0.4380 
N801 X-201.999 Y15.410 Z3.450 A194.5786 B0.5043 
N802 X-201.998 Y15.069 Z3.174 A194.0640 B0.5606 
N803 X-201.994 Y14.730 Z2.902 A193.5162 B0.6037 
N804 X-201.987 Y14.393 Z2.634 A192.9340 B0.6326 
N805 X-201.976 Y14.057 Z2.369 A192.3161 B0.6465 
N806 X-201.963 Y13.723 Z2.108 A191.6613 B0.6465 
N807 X-201.947 Y13.392 Z1.852 A190.9682 B0.6338 
N808 X-201.930 Y13.062 Z1.599 A190.2354 B0.6113 
N809 X-201.912 Y12.734 Z1.350 A189.4612 B0.5807 
N810 X-201.894 Y12.409 Z1.106 A188.6435 B0.5451 
N811 X-201.876 Y12.085 Z0.866 A187.7798 B0.5060 
N812 X-201.859 Y11.764 Z0.631 A186.8671 B0.4654 
N813 X-201.843 Y11.445 Z0.399 A185.9021 B0.4244 
N814 X-201.827 Y11.128 Z0.172 A184.8825 B0.3842 
N815 X-201.813 Y10.813 Z-0.050 A183.8072 B0.3452 
N816 X-201.800 Y10.499 Z-0.268 A182.6770 B0.3079 
N817 X-201.788 Y10.188 Z-0.481 A181.4934 B0.2726 
N818 X-201.777 Y9.878 Z-0.689 A180.2581 B0.2392 
N819 X-201.767 Y9.569 Z-0.891 A178.9720 B0.2079 
N820 X-201.758 Y9.262 Z-1.088 A177.6352 B0.1784 
N821 X-201.750 Y8.956 Z-1.279 A176.2468 B0.1507 
N822 X-201.743 Y8.651 Z-1.465 A174.8055 B0.1245 
N823 X-201.736 Y8.348 Z-1.645 A173.3101 B0.0998 
N824 X-201.730 Y8.044 Z-1.820 A171.7598 B0.0763 
N825 X-201.725 Y7.742 Z-1.989 A170.1541 B0.0540 
N826 X-201.720 Y7.439 Z-2.152 A168.4930 B0.0328 
N827 X-201.716 Y7.136 Z-2.309 A166.7773 B0.0125 
N828 X-201.712 Y6.833 Z-2.461 A165.0080 B-0.0068 
N829 X-201.708 Y6.529 Z-2.605 A163.1869 B-0.0252 
N830 X-201.705 Y6.224 Z-2.744 A161.3162 B-0.0428 
N831 X-201.702 Y5.918 Z-2.875 A159.3983 B-0.0624 
N832 X-201.699 Y5.611 Z-2.998 A157.4363 B-0.0852 
N833 X-201.695 Y5.301 Z-3.114 A155.4337 B-0.1096 
N834 X-201.693 Y4.990 Z-3.222 A153.3945 B-0.1291 
N835 X-201.692 Y4.678 Z-3.320 A151.3231 B-0.1428 
N836 X-201.692 Y4.363 Z-3.409 A149.2244 B-0.1525 
N837 X-201.692 Y4.046 Z-3.489 A147.1034 B-0.1613 
N838 X-201.693 Y3.727 Z-3.557 A144.9652 B-0.1692 
N839 X-201.694 Y3.407 Z-3.615 A142.8148 B-0.1763 
N840 X-201.695 Y3.085 Z-3.661 A140.6576 B-0.1823 
N841 X-201.696 Y2.762 Z-3.695 A138.4990 B-0.1875 
N842 X-201.697 Y2.437 Z-3.717 A136.3448 B-0.1916 
N843 X-201.699 Y2.113 Z-3.726 A134.2005 B-0.1947 
N844 X-201.701 Y1.787 Z-3.721 A132.0714 B-0.1969 
N845 X-201.703 Y1.463 Z-3.703 A129.9624 B-0.1980 
N846 X-201.706 Y1.139 Z-3.670 A127.8780 B-0.1983 
N847 X-201.709 Y0.816 Z-3.624 A125.8226 B-0.1976 
N848 X-201.711 Y0.495 Z-3.563 A123.8003 B-0.1960 
N849 X-201.714 Y0.176 Z-3.488 A121.8149 B-0.1936 
N850 X-201.717 Y-0.140 Z-3.399 A119.8696 B-0.1905 
N851 X-201.721 Y-0.452 Z-3.295 A117.9672 B-0.1867 
N852 X-201.724 Y-0.761 Z-3.177 A116.1101 B-0.1822 
N853 X-201.727 Y-1.065 Z-3.046 A114.2999 B-0.1771 
N854 X-201.731 Y-1.364 Z-2.901 A112.5378 B-0.1716 
N855 X-201.734 Y-1.658 Z-2.743 A110.8247 B-0.1656 
N856 X-201.738 Y-1.946 Z-2.573 A109.1612 B-0.1592 
N857 X-201.742 Y-2.227 Z-2.390 A107.5472 B-0.1525 
N858 X-201.745 Y-2.503 Z-2.196 A105.9818 B-0.1455 
N859 X-201.749 Y-2.771 Z-1.991 A104.4630 B-0.1383 
N860 X-201.752 Y-3.033 Z-1.777 A102.9870 B-0.1309 
N861 X-201.755 Y-3.288 Z-1.553 A101.5486 B-0.1233 
N862 X-201.759 Y-3.536 Z-1.322 A100.1416 B-0.1155 
N863 X-201.762 Y-3.777 Z-1.083 A98.7600 B-0.1075 
N864 X-201.765 Y-4.011 Z-0.838 A97.4006 B-0.0992 
N865 X-201.768 Y-4.237 Z-0.587 A96.0637 B-0.0907 
N866 X-201.771 Y-4.455 Z-0.333 A94.7516 B-0.0820 
N867 X-201.774 Y-4.665 Z-0.075 A93.4660 B-0.0733 
N868 X-201.777 Y-4.865 Z0.184 A92.2054 B-0.0646 
N869 X-201.779 Y-5.057 Z0.443 A90.9622 B-0.0558 
N870 X-201.782 Y-5.242 Z0.701 A89.7245 B-0.0468 
N871 X-201.784 Y-5.419 Z0.957 A88.4787 B-0.0376 
N872 X-201.787 Y-5.589 Z1.208 A87.2132 B-0.0278 
N873 X-201.789 Y-5.754 Z1.455 A85.9202 B-0.0176 
N874 X-201.791 Y-5.912 Z1.696 A84.5941 B-0.0068 
N875 X-201.793 Y-6.065 Z1.930 A83.2290 B0.0045 
N876 X-201.796 Y-6.213 Z2.157 A81.8156 B0.0164 
N877 X-201.798 Y-6.357 Z2.375 A80.3436 B0.0293 
N878 X-201.800 Y-6.497 Z2.585 A78.8108 B0.0431 
N879 X-201.803 Y-6.634 Z2.786 A77.2174 B0.0574 
N880 X-201.805 Y-6.769 Z2.979 A75.5474 B0.0723 
N881 X-201.808 Y-6.905 Z3.164 A73.7623 B0.0884 
N882 X-201.810 Y-7.046 Z3.344 A71.8158 B0.1064 
N883 X-201.814 Y-7.194 Z3.521 A69.6580 B0.1267 
N884 X-201.817 Y-7.354 Z3.698 A67.2281 B0.1498 
N885 X-201.822 Y-7.529 Z3.880 A64.4545 B0.1770 
N886 X-201.827 Y-7.722 Z4.074 A61.2635 B0.2100 
N887 X-201.834 Y-7.935 Z4.287 A57.5934 B0.2496 
N888 X-201.843 Y-8.164 Z4.525 A53.4144 B0.2980 
N889 X-201.852 Y-8.404 Z4.794 A48.7532 B0.3545 
N890 X-201.863 Y-8.643 Z5.097 A43.6922 B0.4176 
N891 X-201.875 Y-8.869 Z5.430 A38.3497 B0.4855 
N892 X-201.887 Y-9.070 Z5.789 A32.8539 B0.5555 
N893 X-201.898 Y-9.238 Z6.167 A27.3159 B0.6233 
N894 X-201.909 Y-9.368 Z6.556 A21.8136 B0.6896 
N895 X-201.919 Y-9.459 Z6.951 A16.3965 B0.7529 
N896 X-201.928 Y-9.508 Z7.345 A11.1009 B0.8119 
N897 X-201.936 Y-9.516 Z7.731 A5.9662 B0.8671 
N898 X-201.943 Y-9.485 Z8.104 A1.0464 B0.9169 
N899 X-201.948 Y-9.418 Z8.454 A356.4097 B0.9607 
N900 X-201.951 Y-9.319 Z8.774 A352.1249 B0.9982 
N901 X-201.953 Y-9.194 Z9.059 A348.2417 B1.0286 
N902 X-201.952 Y-9.047 Z9.308 A344.7709 B1.0532 
N903 X-201.950 Y-8.883 Z9.523 A341.6834 B1.0725 
N904 X-201.947 Y-8.703 Z9.707 A338.9301 B1.0892 
N905 X-201.942 Y-8.509 Z9.864 A336.4597 B1.1026 
N906 X-201.936 Y-8.301 Z9.995 A334.2307 B1.1137 
N907 X-201.929 Y-8.080 Z10.104 A332.2090 B1.1231 
N908 X-201.920 Y-7.843 Z10.192 A330.3579 B1.1307 
N909 X-201.910 Y-7.592 Z10.261 A328.6417 B1.1381 
N910 X-201.899 Y-7.326 Z10.312 A327.0484 B1.1447 
N911 X-201.886 Y-7.046 Z10.343 A325.5885 B1.1496 
N912 X-201.872 Y-6.753 Z10.354 A324.2705 B1.1544 
N913 X-201.857 Y-6.447 Z10.345 A323.0921 B1.1572 
N914 X-201.841 Y-6.131 Z10.317 A322.0511 B1.1608 
N915 X-201.823 Y-5.804 Z10.270 A321.1479 B1.1625 
N916 X-201.804 Y-5.467 Z10.204 A320.3836 B1.1648 
N917 X-201.784 Y-5.123 Z10.122 A319.7550 B1.1657 
N918 X-201.764 Y-4.772 Z10.025 A319.2532 B1.1672 
N919 X-201.742 Y-4.415 Z9.914 A318.8670 B1.1677 
N920 X-201.720 Y-4.052 Z9.791 A318.5861 B1.1685 
N921 X-201.697 Y-3.687 Z9.658 A318.4041 B1.1688 
N922 X-201.673 Y-3.319 Z9.517 A318.3192 B1.1690 
N923 X-201.649 Y-2.950 Z9.367 A318.3335 B1.1690 
N924 X-201.625 Y-2.583 Z9.211 A318.4509 B1.1688 
N925 X-201.601 Y-2.218 Z9.050 A318.6761 B1.1684 
N926 X-201.577 Y-1.857 Z8.884 A319.0130 B1.1677 
N927 X-201.553 Y-1.501 Z8.714 A319.4644 B1.1668 
N928 X-201.529 Y-1.152 Z8.543 A320.0307 B1.1655 
N929 X-201.505 Y-0.808 Z8.370 A320.7089 B1.1639 
N930 X-201.481 Y-0.471 Z8.197 A321.4929 B1.1619 
N931 X-201.458 Y-0.140 Z8.025 A322.3741 B1.1595 
N932 X-201.434 Y0.185 Z7.856 A323.3432 B1.1566 
N933 X-201.412 Y0.505 Z7.689 A324.3911 B1.1533 
N934 X-201.389 Y0.819 Z7.525 A325.5091 B1.1496 
N935 X-201.367 Y1.130 Z7.366 A326.6890 B1.1453 
N936 X-201.345 Y1.437 Z7.211 A327.9227 B1.1405 
N937 X-201.323 Y1.742 Z7.061 A329.2010 B1.1353 
N938 X-201.301 Y2.044 Z6.917 A330.5145 B1.1296 
N939 X-201.280 Y2.346 Z6.779 A331.8531 B1.1236 
N940 X-201.259 Y2.646 Z6.648 A333.2063 B1.1174 
N941 X-201.238 Y2.947 Z6.524 A334.5629 B1.1113 
N942 X-201.218 Y3.248 Z6.408 A335.9105 B1.1057 
N943 X-201.197 Y3.549 Z6.302 A337.2359 B1.1011 
N944 X-201.177 Y3.850 Z6.205 A338.5268 B1.0977 
N945 X-201.157 Y4.153 Z6.118 A339.7743 B1.0960 
N946 X-201.137 Y4.456 Z6.041 A340.9768 B1.0958 
N947 X-201.117 Y4.760 Z5.975 A342.1420 B1.0964 
N948 X-201.097 Y5.067 Z5.916 A343.2860 B1.0969 
N949 X-201.077 Y5.377 Z5.865 A344.4288 B1.0962 
N950 X-201.057 Y5.691 Z5.821 A345.5872 B1.0934 
N951 X-201.038 Y6.010 Z5.782 A346.7696 B1.0880 
N952 X-201.018 Y6.335 Z5.750 A347.9761 B1.0800 
N953 X-200.998 Y6.665 Z5.724 A349.2029 B1.0695 
N954 X-200.978 Y7.000 Z5.705 A350.4475 B1.0568 
N955 X-200.958 Y7.342 Z5.693 A351.7083 B1.0417 
N956 X-200.938 Y7.689 Z5.688 A352.9805 B1.0247 
N957 X-200.918 Y8.041 Z5.692 A354.2510 B1.0063 
N958 X-200.898 Y8.397 Z5.705 A355.4990 B0.9874 
N959 X-200.878 Y8.756 Z5.729 A356.7007 B0.9692 
N960 X-200.858 Y9.115 Z5.764 A357.8365 B0.9526 
N961 X-200.839 Y9.474 Z5.810 A358.8948 B0.9380 
N962 X-200.819 Y9.831 Z5.868 A359.8737 B0.9255 
N963 X-200.800 Y10.186 Z5.936 A0.7782 B0.9148 
N964 X-200.782 Y10.537 Z6.012 A1.6170 B0.9055 
N965 X-200.763 Y10.885 Z6.097 A2.3988 B0.8974 
N966 X-200.745 Y11.227 Z6.188 A3.1303 B0.8899 
N967 X-200.727 Y11.562 Z6.284 A3.8146 B0.8829 
N968 X-200.710 Y11.889 Z6.384 A4.4505 B0.8768 
N969 X-200.694 Y12.206 Z6.488 A5.0341 B0.8704 
N970 X-200.678 Y12.510 Z6.593 A5.5616 B0.8656 
N971 X-200.663 Y12.799 Z6.699 A6.0316 B0.8606 
N972 X-200.649 Y13.073 Z6.803 A6.4467 B0.8563 
N973 X-200.636 Y13.330 Z6.905 A6.8122 B0.8532 
N974 X-200.624 Y13.567 Z7.002 A7.1349 B0.8498 
N975 X-200.613 Y13.785 Z7.093 A7.4211 B0.8470 
N976 X-200.603 Y13.983 Z7.177 A7.6751 B0.8450 
N977 X-200.594 Y14.160 Z7.254 A7.8992 B0.8420 
N978 X-200.586 Y14.316 Z7.322 A8.0929 B0.8406 
N979 X-200.579 Y14.453 Z7.384 A8.2518 B0.8381 
N980 X-200.573 Y14.571 Z7.439 A8.3658 B0.8370 
N981 X-200.568 Y14.671 Z7.490 A8.4119 B0.8354 
N982 X-200.564 Y14.754 Z7.540 A8.3448 B0.8339 
N983 X-200.560 Y14.820 Z7.597 A8.0839 B0.8344 
N984 X-200.558 Y14.871 Z7.669 A7.5000 B0.8360 
N985 X-200.557 Y14.906 Z7.769 A6.4168 B0.8449 
N986 X-200.560 Y14.924 Z7.956 A4.0410 B0.8676 
N987 X-200.568 Y14.936 Z8.348 A358.6679 B0.9201 
N988 X-200.582 Y15.006 Z8.979 A349.8122 B1.0069 
N989 X-200.598 Y15.195 Z9.676 A339.6761 B1.1008 
N990 X-200.608 Y15.491 Z10.313 A329.7906 B1.1562 
N991 X-200.613 Y15.850 Z10.840 A320.7977 B1.1822 
N992 X-200.614 Y16.192 Z11.215 A313.6411 B1.1925 
N993 X-200.613 Y16.526 Z11.506 A307.4047 B1.1906 
N994 X-200.612 Y16.844 Z11.729 A301.9266 B1.1831 
N995 X-200.609 Y17.147 Z11.903 A297.0078 B1.1722 
N996 X-200.606 Y17.439 Z12.040 A292.4795 B1.1588 
N997 X-200.603 Y17.724 Z12.148 A288.1870 B1.1430 
N998 X-200.599 Y18.009 Z12.232 A284.0041 B1.1247 
N999 X-200.594 Y18.300 Z12.295 A279.8102 B1.1036 
N1000 X-200.589 Y18.605 Z12.339 A275.4854 B1.0794 
N1001 X-200.583 Y18.930 Z12.359 A270.8957 B1.0508 
N1002 X-200.575 Y19.286 Z12.352 A265.8946 B1.0166 
N1003 X-200.566 Y19.681 Z12.308 A260.3084 B0.9736 
N1004 X-200.555 Y20.120 Z12.212 A253.9788 B0.9169 
N1005 X-200.539 Y20.652 Z12.025 A246.0449 B0.8391 
N1006 X-200.517 Y21.262 Z11.698 A236.2919 B0.7328 
N1007 X-200.489 Y21.852 Z11.228 A225.6835 B0.5874 
N1008 X-200.460 Y22.372 Z10.615 A214.3727 B0.4410 
N1009 X-200.441 Y22.664 Z10.096 A206.0726 B0.3439 
N1010 X-200.431 Y22.761 Z9.813 A202.0323 B0.2970 
N1011 X-200.427 Y22.769 Z9.676 A200.4091 B0.2784 
N1012 X-200.424 Y22.739 Z9.600 A199.8284 B0.2713 
N1013 X-200.423 Y22.687 Z9.541 A199.6516 B0.2693 
N1014 X-200.422 Y22.620 Z9.480 A199.5782 B0.2682 
N1015 X-200.420 Y22.539 Z9.408 A199.5291 B0.2681 
N1016 X-200.418 Y22.441 Z9.324 A199.4936 B0.2678 
N1017 X-200.416 Y22.326 Z9.227 A199.4628 B0.2676 
N1018 X-200.414 Y22.192 Z9.114 A199.4316 B0.2672 
N1019 X-200.411 Y22.039 Z8.986 A199.3971 B0.2668 
N1020 X-200.408 Y21.866 Z8.840 A199.3577 B0.2665 
N1021 X-200.404 Y21.673 Z8.678 A199.3119 B0.2658 
N1022 X-200.400 Y21.460 Z8.499 A199.2582 B0.2654 
N1023 X-200.396 Y21.228 Z8.303 A199.1945 B0.2645 
N1024 X-200.392 Y20.977 Z8.092 A199.1184 B0.2638 
N1025 X-200.387 Y20.709 Z7.866 A199.0272 B0.2628 
N1026 X-200.382 Y20.425 Z7.627 A198.9185 B0.2615 
N1027 X-200.376 Y20.128 Z7.376 A198.7904 B0.2601 
N1028 X-200.371 Y19.819 Z7.115 A198.6417 B0.2583 
N1029 X-200.365 Y19.499 Z6.846 A198.4717 B0.2564 
N1030 X-200.359 Y19.172 Z6.569 A198.2804 B0.2542 
N1031 X-200.353 Y18.837 Z6.288 A198.0673 B0.2517 
N1032 X-200.347 Y18.498 Z6.003 A197.8323 B0.2490 
N1033 X-200.340 Y18.154 Z5.715 A197.5748 B0.2461 
N1034 X-200.334 Y17.808 Z5.426 A197.2940 B0.2429 
N1035 X-200.328 Y17.461 Z5.136 A196.9882 B0.2395 
N1036 X-200.322 Y17.112 Z4.847 A196.6552 B0.2358 
N1037 X-200.316 Y16.764 Z4.559 A196.2927 B0.2317 
N1038 X-200.310 Y16.417 Z4.272 A195.8992 B0.2273 
N1039 X-200.304 Y16.070 Z3.987 A195.4738 B0.2226 
N1040 X-200.298 Y15.724 Z3.704 A195.0166 B0.2175 
N1041 X-200.292 Y15.380 Z3.425 A194.5271 B0.2121 
N1042 X-200.287 Y15.038 Z3.148 A194.0050 B0.2063 
N1043 X-200.281 Y14.697 Z2.875 A193.4496 B0.2002 
N1044 X-200.275 Y14.358 Z2.606 A192.8598 B0.1938 
N1045 X-200.270 Y14.021 Z2.341 A192.2345 B0.1870 
N1046 X-200.265 Y13.686 Z2.079 A191.5726 B0.1799 
N1047 X-200.260 Y13.353 Z1.822 A190.8726 B0.1724 
N1048 X-200.255 Y13.023 Z1.569 A190.1329 B0.1646 
N1049 X-200.250 Y12.694 Z1.320 A189.3518 B0.1564 
N1050 X-200.245 Y12.368 Z1.075 A188.5272 B0.1478 
N1051 X-200.241 Y12.044 Z0.835 A187.6562 B0.1388 
N1052 X-200.236 Y11.722 Z0.600 A186.7358 B0.1294 
N1053 X-200.232 Y11.402 Z0.368 A185.7628 B0.1195 
N1054 X-200.228 Y11.085 Z0.142 A184.7349 B0.1092 
N1055 X-200.224 Y10.770 Z-0.081 A183.6514 B0.0984 
N1056 X-200.220 Y10.456 Z-0.298 A182.5131 B0.0872 
N1057 X-200.216 Y10.144 Z-0.510 A181.3217 B0.0757 
N1058 X-200.213 Y9.834 Z-0.718 A180.0788 B0.0639 
N1059 X-200.210 Y9.526 Z-0.919 A178.7853 B0.0518 
N1060 X-200.206 Y9.219 Z-1.115 A177.4410 B0.0395 
N1061 X-200.203 Y8.913 Z-1.306 A176.0450 B0.0271 
N1062 X-200.201 Y8.608 Z-1.491 A174.5960 B0.0144 
N1063 X-200.198 Y8.304 Z-1.670 A173.0929 B0.0016 
N1064 X-200.196 Y8.001 Z-1.844 A171.5348 B-0.0113 
N1065 X-200.193 Y7.699 Z-2.012 A169.9215 B-0.0242 
N1066 X-200.191 Y7.396 Z-2.175 A168.2530 B-0.0372 
N1067 X-200.189 Y7.093 Z-2.331 A166.5300 B-0.0502 
N1068 X-200.187 Y6.790 Z-2.481 A164.7539 B-0.0630 
N1069 X-200.186 Y6.486 Z-2.625 A162.9263 B-0.0756 
N1070 X-200.185 Y6.181 Z-2.762 A161.0496 B-0.0881 
N1071 X-200.184 Y5.875 Z-2.892 A159.1262 B-0.1001 
N1072 X-200.183 Y5.568 Z-3.015 A157.1593 B-0.1117 
N1073 X-200.182 Y5.258 Z-3.130 A155.1524 B-0.1229 
N1074 X-200.182 Y4.947 Z-3.236 A153.1095 B-0.1334 
N1075 X-200.181 Y4.634 Z-3.333 A151.0353 B-0.1433 
N1076 X-200.182 Y4.319 Z-3.421 A148.9345 B-0.1525 
N1077 X-200.182 Y4.003 Z-3.499 A146.8122 B-0.1608 
N1078 X-200.182 Y3.684 Z-3.566 A144.6734 B-0.1684 
N1079 X-200.183 Y3.363 Z-3.622 A142.5232 B-0.1751 
N1080 X-200.184 Y3.042 Z-3.667 A140.3670 B-0.1808 
N1081 X-200.186 Y2.718 Z-3.699 A138.2102 B-0.1856 
N1082 X-200.187 Y2.394 Z-3.719 A136.0585 B-0.1894 
N1083 X-200.189 Y2.069 Z-3.726 A133.9174 B-0.1922 
N1084 X-200.191 Y1.745 Z-3.719 A131.7922 B-0.1941 
N1085 X-200.194 Y1.420 Z-3.699 A129.6876 B-0.1950 
N1086 X-200.196 Y1.096 Z-3.665 A127.6083 B-0.1950 
N1087 X-200.199 Y0.774 Z-3.617 A125.5584 B-0.1941 
N1088 X-200.202 Y0.454 Z-3.554 A123.5420 B-0.1924 
N1089 X-200.205 Y0.135 Z-3.477 A121.5629 B-0.1899 
N1090 X-200.208 Y-0.180 Z-3.386 A119.6242 B-0.1866 
N1091 X-200.211 Y-0.491 Z-3.281 A117.7287 B-0.1828 
N1092 X-200.215 Y-0.799 Z-3.162 A115.8786 B-0.1782 
N1093 X-200.218 Y-1.102 Z-3.028 A114.0755 B-0.1731 
N1094 X-200.221 Y-1.401 Z-2.882 A112.3206 B-0.1675 
N1095 X-200.225 Y-1.694 Z-2.723 A110.6147 B-0.1615 
N1096 X-200.229 Y-1.981 Z-2.551 A108.9583 B-0.1551 
N1097 X-200.232 Y-2.262 Z-2.367 A107.3513 B-0.1484 
N1098 X-200.236 Y-2.536 Z-2.171 A105.7926 B-0.1414 
N1099 X-200.239 Y-2.804 Z-1.966 A104.2801 B-0.1342 
N1100 X-200.243 Y-3.065 Z-1.750 A102.8097 B-0.1268 
N1101 X-200.246 Y-3.319 Z-1.526 A101.3762 B-0.1192 
N1102 X-200.249 Y-3.566 Z-1.293 A99.9733 B-0.1114 
N1103 X-200.252 Y-3.806 Z-1.053 A98.5951 B-0.1033 
N1104 X-200.256 Y-4.038 Z-0.808 A97.2390 B-0.0949 
N1105 X-200.259 Y-4.264 Z-0.557 A95.9055 B-0.0864 
N1106 X-200.262 Y-4.481 Z-0.302 A94.5971 B-0.0777 
N1107 X-200.264 Y-4.689 Z-0.045 A93.3153 B-0.0690 
N1108 X-200.267 Y-4.888 Z0.214 A92.0577 B-0.0602 
N1109 X-200.270 Y-5.079 Z0.474 A90.8164 B-0.0513 
N1110 X-200.272 Y-5.263 Z0.731 A89.5790 B-0.0423 
N1111 X-200.275 Y-5.439 Z0.986 A88.3319 B-0.0329 
N1112 X-200.277 Y-5.609 Z1.237 A87.0641 B-0.0230 
N1113 X-200.279 Y-5.772 Z1.483 A85.7680 B-0.0126 
N1114 X-200.281 Y-5.930 Z1.724 A84.4383 B-0.0016 
N1115 X-200.284 Y-6.082 Z1.957 A83.0688 B0.0099 
N1116 X-200.286 Y-6.229 Z2.182 A81.6497 B0.0221 
N1117 X-200.288 Y-6.373 Z2.400 A80.1715 B0.0353 
N1118 X-200.290 Y-6.513 Z2.608 A78.6326 B0.0494 
N1119 X-200.293 Y-6.649 Z2.808 A77.0327 B0.0640 
N1120 X-200.295 Y-6.784 Z3.000 A75.3529 B0.0793 
N1121 X-200.298 Y-6.920 Z3.185 A73.5531 B0.0961 
N1122 X-200.301 Y-7.062 Z3.364 A71.5870 B0.1148 
N1123 X-200.304 Y-7.211 Z3.540 A69.4041 B0.1361 
N1124 X-200.308 Y-7.372 Z3.717 A66.9422 B0.1606 
N1125 X-200.312 Y-7.549 Z3.901 A64.1293 B0.1893 
N1126 X-200.318 Y-7.744 Z4.096 A60.8928 B0.2241 
N1127 X-200.325 Y-7.958 Z4.311 A57.1735 B0.2653 
N1128 X-200.333 Y-8.189 Z4.552 A52.9470 B0.3152 
N1129 X-200.343 Y-8.429 Z4.824 A48.2466 B0.3726 
N1130 X-200.354 Y-8.667 Z5.129 A43.1594 B0.4355 
N1131 X-200.366 Y-8.890 Z5.465 A37.8053 B0.5025 
N1132 X-200.378 Y-9.088 Z5.826 A32.3115 B0.5704 
N1133 X-200.389 Y-9.252 Z6.204 A26.7851 B0.6358 
N1134 X-200.400 Y-9.379 Z6.593 A21.3004 B0.6997 
N1135 X-200.410 Y-9.465 Z6.987 A15.9041 B0.7603 
N1136 X-200.419 Y-9.510 Z7.380 A10.6317 B0.8168 
N1137 X-200.427 Y-9.515 Z7.765 A5.5231 B0.8699 
N1138 X-200.433 Y-9.481 Z8.135 A0.6336 B0.9181 
N1139 X-200.438 Y-9.411 Z8.482 A356.0316 B0.9607 
N1140 X-200.441 Y-9.310 Z8.799 A351.7850 B0.9974 
N1141 X-200.442 Y-9.183 Z9.081 A347.9411 B1.0273 
N1142 X-200.442 Y-9.035 Z9.327 A344.5070 B1.0521 
N1143 X-200.440 Y-8.869 Z9.539 A341.4514 B1.0715 
N1144 X-200.436 Y-8.688 Z9.721 A338.7249 B1.0883 
N1145 X-200.431 Y-8.493 Z9.875 A336.2769 B1.1022 
N1146 X-200.425 Y-8.285 Z10.004 A334.0668 B1.1135 
N1147 X-200.418 Y-8.062 Z10.111 A332.0610 B1.1231 
N1148 X-200.409 Y-7.825 Z10.198 A330.2223 B1.1309 
N1149 X-200.399 Y-7.573 Z10.266 A328.5164 B1.1383 
N1150 X-200.387 Y-7.305 Z10.315 A326.9333 B1.1451 
N1151 X-200.374 Y-7.024 Z10.344 A325.4846 B1.1500 
N1152 X-200.360 Y-6.730 Z10.354 A324.1778 B1.1549 
N1153 X-200.345 Y-6.424 Z10.343 A323.0101 B1.1580 
N1154 X-200.328 Y-6.107 Z10.314 A321.9796 B1.1614 
N1155 X-200.311 Y-5.779 Z10.265 A321.0869 B1.1634 
N1156 X-200.292 Y-5.442 Z10.199 A320.3330 B1.1657 
N1157 X-200.272 Y-5.098 Z10.116 A319.7142 B1.1666 
N1158 X-200.251 Y-4.746 Z10.017 A319.2214 B1.1682 
N1159 X-200.229 Y-4.388 Z9.905 A318.8433 B1.1687 
N1160 X-200.207 Y-4.026 Z9.782 A318.5698 B1.1696 
N1161 X-200.184 Y-3.660 Z9.648 A318.3949 B1.1699 
N1162 X-200.160 Y-3.292 Z9.506 A318.3171 B1.1701 
N1163 X-200.137 Y-2.923 Z9.356 A318.3387 B1.1700 
N1164 X-200.113 Y-2.556 Z9.200 A318.4638 B1.1698 
N1165 X-200.088 Y-2.192 Z9.038 A318.6968 B1.1693 
N1166 X-200.064 Y-1.831 Z8.872 A319.0418 B1.1686 
N1167 X-200.040 Y-1.476 Z8.702 A319.5013 B1.1676 
N1168 X-200.016 Y-1.127 Z8.530 A320.0756 B1.1663 
N1169 X-199.992 Y-0.784 Z8.358 A320.7613 B1.1646 
N1170 X-199.968 Y-0.447 Z8.185 A321.5522 B1.1625 
N1171 X-199.945 Y-0.117 Z8.013 A322.4397 B1.1600 
N1172 X-199.922 Y0.208 Z7.844 A323.4143 B1.1571 
N1173 X-199.899 Y0.527 Z7.677 A324.4669 B1.1537 
N1174 X-199.876 Y0.841 Z7.514 A325.5891 B1.1499 
N1175 X-199.854 Y1.151 Z7.355 A326.7726 B1.1456 
N1176 X-199.832 Y1.458 Z7.201 A328.0091 B1.1408 
N1177 X-199.810 Y1.763 Z7.051 A329.2896 B1.1356 
N1178 X-199.789 Y2.065 Z6.908 A330.6047 B1.1299 
N1179 X-199.767 Y2.366 Z6.770 A331.9443 B1.1239 
N1180 X-199.746 Y2.666 Z6.639 A333.2980 B1.1178 
N1181 X-199.725 Y2.967 Z6.516 A334.6546 B1.1118 
N1182 X-199.705 Y3.268 Z6.401 A336.0019 B1.1063 
N1183 X-199.684 Y3.569 Z6.295 A337.3268 B1.1017 
N1184 X-199.664 Y3.870 Z6.198 A338.6168 B1.0985 
N1185 X-199.644 Y4.173 Z6.112 A339.8632 B1.0969 
N1186 X-199.624 Y4.476 Z6.036 A341.0644 B1.0967 
N1187 X-199.604 Y4.780 Z5.970 A342.2281 B1.0975 
N1188 X-199.584 Y5.087 Z5.912 A343.3705 B1.0982 
N1189 X-199.564 Y5.397 Z5.862 A344.5115 B1.0976 
N1190 X-199.544 Y5.711 Z5.818 A345.6678 B1.0949 
N1191 X-199.525 Y6.030 Z5.780 A346.8481 B1.0897 
N1192 X-199.505 Y6.355 Z5.748 A348.0523 B1.0818 
N1193 X-199.485 Y6.685 Z5.723 A349.2767 B1.0714 
N1194 X-199.465 Y7.021 Z5.704 A350.5187 B1.0588 
N1195 X-199.445 Y7.362 Z5.693 A351.7769 B1.0439 
N1196 X-199.425 Y7.709 Z5.689 A353.0464 B1.0269 
N1197 X-199.405 Y8.062 Z5.693 A354.3141 B1.0086 
N1198 X-199.385 Y8.418 Z5.707 A355.5594 B0.9898 
N1199 X-199.365 Y8.776 Z5.731 A356.7584 B0.9717 
N1200 X-199.345 Y9.135 Z5.766 A357.8914 B0.9551 
N1201 X-199.325 Y9.494 Z5.814 A358.9471 B0.9406 
N1202 X-199.306 Y9.851 Z5.872 A359.9234 B0.9282 
N1203 X-199.287 Y10.206 Z5.940 A0.8253 B0.9175 
N1204 X-199.268 Y10.557 Z6.017 A1.6616 B0.9084 
N1205 X-199.250 Y10.904 Z6.102 A2.4409 B0.9003 
N1206 X-199.231 Y11.246 Z6.193 A3.1699 B0.8929 
N1207 X-199.214 Y11.581 Z6.290 A3.8515 B0.8860 
N1208 X-199.197 Y11.907 Z6.390 A4.4845 B0.8799 
N1209 X-199.180 Y12.223 Z6.494 A5.0649 B0.8735 
N1210 X-199.164 Y12.526 Z6.599 A5.5892 B0.8688 
N1211 X-199.149 Y12.815 Z6.705 A6.0560 B0.8639 
N1212 X-199.135 Y13.088 Z6.809 A6.4680 B0.8597 
N1213 X-199.122 Y13.343 Z6.910 A6.8310 B0.8566 
N1214 X-199.110 Y13.580 Z7.007 A7.1514 B0.8532 
N1215 X-199.099 Y13.796 Z7.098 A7.4357 B0.8505 
N1216 X-199.089 Y13.993 Z7.181 A7.6880 B0.8485 
N1217 X-199.080 Y14.169 Z7.257 A7.9103 B0.8455 
N1218 X-199.073 Y14.324 Z7.326 A8.1020 B0.8441 
N1219 X-199.066 Y14.460 Z7.387 A8.2585 B0.8416 
N1220 X-199.060 Y14.577 Z7.442 A8.3689 B0.8405 
N1221 X-199.055 Y14.676 Z7.493 A8.4090 B0.8388 
N1222 X-199.050 Y14.758 Z7.543 A8.3315 B0.8373 
N1223 X-199.047 Y14.823 Z7.601 A8.0525 B0.8375 
N1224 X-199.045 Y14.873 Z7.674 A7.4379 B0.8391 
N1225 X-199.044 Y14.907 Z7.778 A6.3056 B0.8474 
N1226 X-199.047 Y14.925 Z7.970 A3.8405 B0.8693 
N1227 X-199.055 Y14.937 Z8.373 A358.3268 B0.9176 
N1228 X-199.070 Y15.012 Z9.010 A349.3681 B0.9915 
N1229 X-199.086 Y15.206 Z9.706 A339.2248 B1.0698 
N1230 X-199.095 Y15.505 Z10.337 A329.3844 B1.1192 
N1231 X-199.100 Y15.865 Z10.859 A320.4573 B1.1510 
N1232 X-199.101 Y16.206 Z11.229 A313.3629 B1.1609 
N1233 X-199.100 Y16.539 Z11.515 A307.1779 B1.1618 
N1234 X-199.098 Y16.856 Z11.736 A301.7393 B1.1577 
N1235 X-199.095 Y17.157 Z11.908 A296.8509 B1.1498 
N1236 X-199.092 Y17.447 Z12.044 A292.3450 B1.1385 
N1237 X-199.089 Y17.732 Z12.150 A288.0694 B1.1239 
N1238 X-199.085 Y18.016 Z12.234 A283.8992 B1.1059 
N1239 X-199.080 Y18.307 Z12.297 A279.7152 B1.0844 
N1240 X-199.075 Y18.611 Z12.339 A275.3981 B1.0591 
N1241 X-199.069 Y18.936 Z12.359 A270.8148 B1.0288 
N1242 X-199.061 Y19.291 Z12.352 A265.8193 B0.9926 
N1243 X-199.052 Y19.685 Z12.307 A260.2383 B0.9483 
N1244 X-199.040 Y20.125 Z12.210 A253.9140 B0.8924 
N1245 X-199.024 Y20.656 Z12.023 A245.9868 B0.8124 
N1246 X-199.003 Y21.265 Z11.696 A236.2438 B0.7053 
N1247 X-198.974 Y21.854 Z11.227 A225.6482 B0.5716 
N1248 X-198.946 Y22.373 Z10.614 A214.3555 B0.4356 
N1249 X-198.926 Y22.664 Z10.096 A206.0686 B0.3399 
N1250 X-198.916 Y22.761 Z9.813 A202.0322 B0.2930 
N1251 X-198.912 Y22.769 Z9.676 A200.4090 B0.2744 
N1252 X-198.910 Y22.739 Z9.600 A199.8284 B0.2674 
N1253 X-198.908 Y22.687 Z9.541 A199.6515 B0.2654 
N1254 X-198.907 Y22.620 Z9.480 A199.5782 B0.2643 
N1255 X-198.905 Y22.539 Z9.408 A199.5291 B0.2642 
N1256 X-198.904 Y22.441 Z9.324 A199.4935 B0.2638 
N1257 X-198.902 Y22.326 Z9.227 A199.4627 B0.2636 
N1258 X-198.899 Y22.192 Z9.114 A199.4315 B0.2633 
N1259 X-198.896 Y22.039 Z8.986 A199.3971 B0.2629 
N1260 X-198.893 Y21.866 Z8.840 A199.3577 B0.2625 
N1261 X-198.890 Y21.673 Z8.678 A199.3119 B0.2619 
N1262 X-198.886 Y21.460 Z8.499 A199.2581 B0.2615 
N1263 X-198.882 Y21.228 Z8.303 A199.1944 B0.2606 
N1264 X-198.877 Y20.977 Z8.092 A199.1184 B0.2598 
N1265 X-198.873 Y20.709 Z7.866 A199.0272 B0.2589 
N1266 X-198.868 Y20.425 Z7.627 A198.9185 B0.2576 
N1267 X-198.862 Y20.128 Z7.376 A198.7903 B0.2562 
N1268 X-198.857 Y19.819 Z7.115 A198.6416 B0.2544 
N1269 X-198.851 Y19.499 Z6.846 A198.4717 B0.2525 
N1270 X-198.845 Y19.172 Z6.569 A198.2803 B0.2503 
N1271 X-198.839 Y18.837 Z6.288 A198.0672 B0.2478 
N1272 X-198.833 Y18.498 Z6.003 A197.8322 B0.2451 
N1273 X-198.827 Y18.154 Z5.715 A197.5748 B0.2422 
N1274 X-198.821 Y17.808 Z5.426 A197.2940 B0.2390 
N1275 X-198.815 Y17.461 Z5.136 A196.9882 B0.2356 
N1276 X-198.809 Y17.112 Z4.847 A196.6551 B0.2319 
N1277 X-198.803 Y16.764 Z4.559 A196.2926 B0.2279 
N1278 X-198.797 Y16.416 Z4.272 A195.8991 B0.2235 
N1279 X-198.791 Y16.070 Z3.987 A195.4738 B0.2187 
N1280 X-198.785 Y15.724 Z3.704 A195.0165 B0.2136 
N1281 X-198.779 Y15.380 Z3.425 A194.5270 B0.2082 
N1282 X-198.774 Y15.037 Z3.148 A194.0049 B0.2025 
N1283 X-198.768 Y14.697 Z2.875 A193.4495 B0.1964 
N1284 X-198.763 Y14.358 Z2.606 A192.8597 B0.1900 
N1285 X-198.758 Y14.021 Z2.341 A192.2345 B0.1832 
N1286 X-198.753 Y13.686 Z2.079 A191.5725 B0.1761 
N1287 X-198.747 Y13.353 Z1.822 A190.8725 B0.1687 
N1288 X-198.743 Y13.023 Z1.569 A190.1328 B0.1608 
N1289 X-198.738 Y12.694 Z1.320 A189.3517 B0.1526 
N1290 X-198.733 Y12.368 Z1.075 A188.5271 B0.1441 
N1291 X-198.729 Y12.044 Z0.835 A187.6561 B0.1351 
N1292 X-198.724 Y11.722 Z0.600 A186.7357 B0.1257 
N1293 X-198.720 Y11.402 Z0.368 A185.7627 B0.1159 
N1294 X-198.716 Y11.085 Z0.142 A184.7348 B0.1056 
N1295 X-198.712 Y10.769 Z-0.081 A183.6513 B0.0949 
N1296 X-198.709 Y10.456 Z-0.298 A182.5130 B0.0837 
N1297 X-198.705 Y10.144 Z-0.510 A181.3216 B0.0722 
N1298 X-198.701 Y9.834 Z-0.718 A180.0787 B0.0604 
N1299 X-198.698 Y9.526 Z-0.919 A178.7851 B0.0484 
N1300 X-198.695 Y9.219 Z-1.115 A177.4409 B0.0362 
N1301 X-198.692 Y8.913 Z-1.306 A176.0449 B0.0238 
N1302 X-198.689 Y8.608 Z-1.491 A174.5959 B0.0112 
N1303 X-198.687 Y8.304 Z-1.670 A173.0927 B-0.0015 
N1304 X-198.684 Y8.001 Z-1.844 A171.5346 B-0.0143 
N1305 X-198.682 Y7.699 Z-2.012 A169.9213 B-0.0272 
N1306 X-198.680 Y7.396 Z-2.175 A168.2528 B-0.0401 
N1307 X-198.678 Y7.093 Z-2.331 A166.5298 B-0.0530 
N1308 X-198.677 Y6.790 Z-2.481 A164.7537 B-0.0658 
N1309 X-198.675 Y6.486 Z-2.625 A162.9261 B-0.0783 
N1310 X-198.674 Y6.181 Z-2.762 A161.0494 B-0.0906 
N1311 X-198.673 Y5.875 Z-2.892 A159.1260 B-0.1025 
N1312 X-198.672 Y5.567 Z-3.015 A157.1591 B-0.1140 
N1313 X-198.671 Y5.258 Z-3.130 A155.1521 B-0.1251 
N1314 X-198.671 Y4.947 Z-3.236 A153.1093 B-0.1355 
N1315 X-198.671 Y4.634 Z-3.333 A151.0351 B-0.1453 
N1316 X-198.671 Y4.319 Z-3.421 A148.9343 B-0.1543 
N1317 X-198.671 Y4.003 Z-3.499 A146.8120 B-0.1626 
N1318 X-198.672 Y3.684 Z-3.566 A144.6731 B-0.1700 
N1319 X-198.673 Y3.363 Z-3.622 A142.5230 B-0.1765 
N1320 X-198.674 Y3.041 Z-3.667 A140.3667 B-0.1821 
N1321 X-198.676 Y2.718 Z-3.699 A138.2099 B-0.1867 
N1322 X-198.677 Y2.394 Z-3.719 A136.0582 B-0.1904 
N1323 X-198.679 Y2.069 Z-3.726 A133.9171 B-0.1931 
N1324 X-198.681 Y1.745 Z-3.719 A131.7919 B-0.1948 
N1325 X-198.684 Y1.420 Z-3.699 A129.6874 B-0.1956 
N1326 X-198.686 Y1.096 Z-3.665 A127.6080 B-0.1954 
N1327 X-198.689 Y0.774 Z-3.617 A125.5581 B-0.1944 
N1328 X-198.692 Y0.453 Z-3.554 A123.5418 B-0.1926 
N1329 X-198.695 Y0.135 Z-3.477 A121.5626 B-0.1899 
N1330 X-198.698 Y-0.180 Z-3.386 A119.6239 B-0.1865 
N1331 X-198.701 Y-0.492 Z-3.281 A117.7285 B-0.1825 
N1332 X-198.705 Y-0.799 Z-3.162 A115.8784 B-0.1778 
N1333 X-198.708 Y-1.103 Z-3.028 A114.0753 B-0.1726 
N1334 X-198.712 Y-1.401 Z-2.882 A112.3204 B-0.1669 
N1335 X-198.715 Y-1.694 Z-2.723 A110.6145 B-0.1607 
N1336 X-198.719 Y-1.981 Z-2.551 A108.9581 B-0.1542 
N1337 X-198.722 Y-2.262 Z-2.367 A107.3511 B-0.1474 
N1338 X-198.726 Y-2.536 Z-2.171 A105.7924 B-0.1403 
N1339 X-198.729 Y-2.804 Z-1.966 A104.2799 B-0.1330 
N1340 X-198.733 Y-3.065 Z-1.750 A102.8095 B-0.1255 
N1341 X-198.736 Y-3.319 Z-1.525 A101.3760 B-0.1178 
N1342 X-198.739 Y-3.566 Z-1.293 A99.9731 B-0.1099 
N1343 X-198.743 Y-3.806 Z-1.053 A98.5949 B-0.1017 
N1344 X-198.746 Y-4.039 Z-0.808 A97.2388 B-0.0933 
N1345 X-198.749 Y-4.264 Z-0.557 A95.9053 B-0.0846 
N1346 X-198.752 Y-4.481 Z-0.302 A94.5969 B-0.0759 
N1347 X-198.755 Y-4.689 Z-0.045 A93.3151 B-0.0670 
N1348 X-198.757 Y-4.888 Z0.215 A92.0575 B-0.0582 
N1349 X-198.760 Y-5.079 Z0.474 A90.8162 B-0.0493 
N1350 X-198.762 Y-5.263 Z0.731 A89.5788 B-0.0402 
N1351 X-198.765 Y-5.439 Z0.986 A88.3318 B-0.0307 
N1352 X-198.767 Y-5.609 Z1.237 A87.0639 B-0.0207 
N1353 X-198.769 Y-5.772 Z1.484 A85.7678 B-0.0103 
N1354 X-198.771 Y-5.930 Z1.724 A84.4382 B0.0008 
N1355 X-198.774 Y-6.082 Z1.957 A83.0687 B0.0124 
N1356 X-198.776 Y-6.229 Z2.182 A81.6496 B0.0247 
N1357 X-198.778 Y-6.373 Z2.400 A80.1713 B0.0379 
N1358 X-198.780 Y-6.513 Z2.608 A78.6325 B0.0521 
N1359 X-198.783 Y-6.649 Z2.808 A77.0325 B0.0669 
N1360 X-198.785 Y-6.784 Z3.000 A75.3527 B0.0822 
N1361 X-198.788 Y-6.920 Z3.185 A73.5529 B0.0990 
N1362 X-198.790 Y-7.062 Z3.364 A71.5868 B0.1179 
N1363 X-198.794 Y-7.211 Z3.540 A69.4038 B0.1393 
N1364 X-198.798 Y-7.372 Z3.717 A66.9419 B0.1638 
N1365 X-198.802 Y-7.549 Z3.901 A64.1290 B0.1926 
N1366 X-198.808 Y-7.744 Z4.096 A60.8924 B0.2275 
N1367 X-198.815 Y-7.958 Z4.311 A57.1731 B0.2689 
N1368 X-198.823 Y-8.189 Z4.552 A52.9466 B0.3189 
N1369 X-198.833 Y-8.429 Z4.824 A48.2461 B0.3764 
N1370 X-198.844 Y-8.667 Z5.129 A43.1588 B0.4394 
N1371 X-198.856 Y-8.890 Z5.465 A37.8047 B0.5065 
N1372 X-198.868 Y-9.088 Z5.826 A32.3108 B0.5744 
N1373 X-198.879 Y-9.252 Z6.204 A26.7845 B0.6398 
N1374 X-198.890 Y-9.379 Z6.593 A21.2997 B0.7036 
N1375 X-198.900 Y-9.465 Z6.987 A15.9035 B0.7641 
N1376 X-198.909 Y-9.510 Z7.380 A10.6311 B0.8206 
N1377 X-198.917 Y-9.515 Z7.765 A5.5225 B0.8736 
N1378 X-198.923 Y-9.481 Z8.135 A0.6330 B0.9216 
N1379 X-198.928 Y-9.411 Z8.482 A356.0310 B0.9640 
N1380 X-198.931 Y-9.310 Z8.799 A351.7845 B1.0005 
N1381 X-198.932 Y-9.183 Z9.081 A347.9406 B1.0302 
N1382 X-198.932 Y-9.035 Z9.327 A344.5065 B1.0548 
N1383 X-198.929 Y-8.869 Z9.539 A341.4510 B1.0741 
N1384 X-198.926 Y-8.688 Z9.721 A338.7246 B1.0907 
N1385 X-198.921 Y-8.493 Z9.875 A336.2766 B1.1044 
N1386 X-198.914 Y-8.285 Z10.004 A334.0665 B1.1156 
N1387 X-198.907 Y-8.062 Z10.111 A332.0607 B1.1251 
N1388 X-198.898 Y-7.825 Z10.198 A330.2221 B1.1328 
N1389 X-198.888 Y-7.572 Z10.266 A328.5162 B1.1401 
N1390 X-198.876 Y-7.305 Z10.315 A326.9331 B1.1468 
N1391 X-198.864 Y-7.024 Z10.344 A325.4844 B1.1516 
N1392 X-198.850 Y-6.730 Z10.354 A324.1776 B1.1564 
N1393 X-198.834 Y-6.424 Z10.343 A323.0099 B1.1594 
N1394 X-198.818 Y-6.107 Z10.314 A321.9794 B1.1628 
N1395 X-198.800 Y-5.779 Z10.265 A321.0868 B1.1647 
N1396 X-198.781 Y-5.442 Z10.199 A320.3330 B1.1669 
N1397 X-198.761 Y-5.097 Z10.116 A319.7142 B1.1678 
N1398 X-198.740 Y-4.746 Z10.017 A319.2214 B1.1694 
N1399 X-198.718 Y-4.388 Z9.905 A318.8433 B1.1698 
N1400 X-198.696 Y-4.026 Z9.782 A318.5698 B1.1707 
N1401 X-198.673 Y-3.660 Z9.648 A318.3949 B1.1710 
N1402 X-198.649 Y-3.292 Z9.506 A318.3172 B1.1712 
N1403 X-198.625 Y-2.923 Z9.356 A318.3388 B1.1711 
N1404 X-198.601 Y-2.556 Z9.200 A318.4639 B1.1709 
N1405 X-198.577 Y-2.192 Z9.038 A318.6969 B1.1705 
N1406 X-198.553 Y-1.831 Z8.872 A319.0419 B1.1698 
N1407 X-198.529 Y-1.476 Z8.702 A319.5015 B1.1688 
N1408 X-198.505 Y-1.127 Z8.530 A320.0758 B1.1675 
N1409 X-198.481 Y-0.784 Z8.358 A320.7615 B1.1659 
N1410 X-198.457 Y-0.447 Z8.185 A321.5525 B1.1638 
N1411 X-198.433 Y-0.117 Z8.013 A322.4399 B1.1614 
N1412 X-198.410 Y0.208 Z7.844 A323.4146 B1.1585 
N1413 X-198.387 Y0.527 Z7.677 A324.4672 B1.1552 
N1414 X-198.365 Y0.841 Z7.514 A325.5894 B1.1515 
N1415 X-198.342 Y1.152 Z7.355 A326.7729 B1.1473 
N1416 X-198.320 Y1.458 Z7.201 A328.0094 B1.1426 
N1417 X-198.299 Y1.763 Z7.051 A329.2900 B1.1374 
N1418 X-198.277 Y2.065 Z6.908 A330.6051 B1.1318 
N1419 X-198.256 Y2.366 Z6.770 A331.9447 B1.1260 
N1420 X-198.235 Y2.666 Z6.639 A333.2984 B1.1199 
N1421 X-198.214 Y2.967 Z6.516 A334.6550 B1.1140 
N1422 X-198.193 Y3.268 Z6.401 A336.0023 B1.1085 
N1423 X-198.173 Y3.569 Z6.295 A337.3271 B1.1040 
N1424 X-198.152 Y3.870 Z6.198 A338.6172 B1.1009 
N1425 X-198.132 Y4.173 Z6.112 A339.8636 B1.0994 
N1426 X-198.112 Y4.476 Z6.036 A341.0648 B1.0994 
N1427 X-198.092 Y4.780 Z5.970 A342.2285 B1.1002 
N1428 X-198.072 Y5.087 Z5.912 A343.3709 B1.1010 
N1429 X-198.053 Y5.397 Z5.862 A344.5118 B1.1006 
N1430 X-198.033 Y5.711 Z5.818 A345.6682 B1.0979 
N1431 X-198.013 Y6.031 Z5.780 A346.8485 B1.0928 
N1432 X-197.993 Y6.355 Z5.748 A348.0527 B1.0849 
N1433 X-197.973 Y6.685 Z5.723 A349.2771 B1.0747 
N1434 X-197.953 Y7.021 Z5.704 A350.5191 B1.0621 
N1435 X-197.933 Y7.362 Z5.693 A351.7773 B1.0472 
N1436 X-197.913 Y7.709 Z5.689 A353.0467 B1.0303 
N1437 X-197.893 Y8.062 Z5.693 A354.3145 B1.0120 
N1438 X-197.873 Y8.418 Z5.707 A355.5597 B0.9932 
N1439 X-197.853 Y8.776 Z5.731 A356.7587 B0.9751 
N1440 X-197.833 Y9.135 Z5.766 A357.8917 B0.9585 
N1441 X-197.813 Y9.494 Z5.814 A358.9474 B0.9440 
N1442 X-197.794 Y9.851 Z5.872 A359.9237 B0.9316 
N1443 X-197.775 Y10.206 Z5.940 A0.8256 B0.9210 
N1444 X-197.756 Y10.557 Z6.017 A1.6619 B0.9119 
N1445 X-197.737 Y10.904 Z6.102 A2.4411 B0.9038 
N1446 X-197.719 Y11.246 Z6.193 A3.1701 B0.8964 
N1447 X-197.701 Y11.581 Z6.290 A3.8517 B0.8895 
N1448 X-197.684 Y11.907 Z6.390 A4.4847 B0.8835 
N1449 X-197.667 Y12.223 Z6.494 A5.0652 B0.8771 
N1450 X-197.652 Y12.526 Z6.599 A5.5894 B0.8724 
N1451 X-197.637 Y12.815 Z6.705 A6.0562 B0.8675 
N1452 X-197.622 Y13.088 Z6.809 A6.4682 B0.8633 
N1453 X-197.610 Y13.343 Z6.910 A6.8312 B0.8603 
N1454 X-197.597 Y13.580 Z7.007 A7.1516 B0.8569 
N1455 X-197.586 Y13.797 Z7.098 A7.4358 B0.8542 
N1456 X-197.576 Y13.993 Z7.181 A7.6882 B0.8521 
N1457 X-197.567 Y14.169 Z7.258 A7.9105 B0.8492 
N1458 X-197.560 Y14.324 Z7.326 A8.1022 B0.8478 
N1459 X-197.552 Y14.460 Z7.387 A8.2587 B0.8453 
N1460 X-197.547 Y14.577 Z7.442 A8.3691 B0.8442 
N1461 X-197.541 Y14.676 Z7.493 A8.4092 B0.8425 
N1462 X-197.537 Y14.758 Z7.543 A8.3316 B0.8410 
N1463 X-197.534 Y14.823 Z7.601 A8.0526 B0.8412 
N1464 X-197.531 Y14.873 Z7.674 A7.4378 B0.8428 
N1465 X-197.531 Y14.907 Z7.778 A6.3054 B0.8511 
N1466 X-197.533 Y14.925 Z7.971 A3.8401 B0.8729 
N1467 X-197.542 Y14.937 Z8.373 A358.3260 B0.9211 
N1468 X-197.557 Y15.012 Z9.010 A349.3670 B0.9947 
N1469 X-197.573 Y15.206 Z9.706 A339.2236 B1.0725 
N1470 X-197.582 Y15.505 Z10.338 A329.3833 B1.1212 
N1471 X-197.586 Y15.865 Z10.859 A320.4563 B1.1524 
N1472 X-197.587 Y16.206 Z11.229 A313.3620 B1.1619 
N1473 X-197.586 Y16.539 Z11.515 A307.1770 B1.1623 
N1474 X-197.584 Y16.856 Z11.736 A301.7385 B1.1578 
N1475 X-197.581 Y17.157 Z11.908 A296.8501 B1.1495 
N1476 X-197.578 Y17.447 Z12.044 A292.3443 B1.1379 
N1477 X-197.575 Y17.732 Z12.150 A288.0688 B1.1230 
N1478 X-197.571 Y18.016 Z12.234 A283.8986 B1.1048 
N1479 X-197.566 Y18.307 Z12.297 A279.7146 B1.0831 
N1480 X-197.560 Y18.611 Z12.339 A275.3975 B1.0574 
N1481 X-197.554 Y18.936 Z12.359 A270.8143 B1.0269 
N1482 X-197.547 Y19.291 Z12.352 A265.8187 B0.9905 
N1483 X-197.538 Y19.685 Z12.307 A260.2377 B0.9459 
N1484 X-197.526 Y20.125 Z12.210 A253.9135 B0.8896 
N1485 X-197.510 Y20.656 Z12.023 A245.9863 B0.8094 
N1486 X-197.488 Y21.265 Z11.696 A236.2433 B0.7018 
N1487 X-197.460 Y21.854 Z11.227 A225.6479 B0.5678 
N1488 X-197.431 Y22.373 Z10.614 A214.3553 B0.4316 
N1489 X-197.411 Y22.664 Z10.096 A206.0685 B0.3359 
N1490 X-197.402 Y22.761 Z9.813 A202.0322 B0.2890 
N1491 X-197.397 Y22.769 Z9.676 A200.4090 B0.2705 
N1492 X-197.395 Y22.739 Z9.600 A199.8283 B0.2634 
N1493 X-197.394 Y22.687 Z9.541 A199.6515 B0.2614 
N1494 X-197.392 Y22.620 Z9.480 A199.5781 B0.2604 
N1495 X-197.391 Y22.539 Z9.408 A199.5291 B0.2603 
N1496 X-197.389 Y22.441 Z9.324 A199.4935 B0.2599 
N1497 X-197.387 Y22.326 Z9.227 A199.4627 B0.2597 
N1498 X-197.385 Y22.192 Z9.114 A199.4315 B0.2594 
N1499 X-197.382 Y22.039 Z8.986 A199.3970 B0.2590 
N1500 X-197.379 Y21.866 Z8.840 A199.3576 B0.2586 
N1501 X-197.375 Y21.673 Z8.678 A199.3118 B0.2580 
N1502 X-197.372 Y21.460 Z8.499 A199.2581 B0.2575 
N1503 X-197.368 Y21.228 Z8.303 A199.1944 B0.2567 
N1504 X-197.363 Y20.977 Z8.092 A199.1183 B0.2559 
N1505 X-197.358 Y20.709 Z7.866 A199.0271 B0.2550 
N1506 X-197.353 Y20.425 Z7.627 A198.9184 B0.2537 
N1507 X-197.348 Y20.128 Z7.376 A198.7903 B0.2523 
N1508 X-197.343 Y19.819 Z7.115 A198.6416 B0.2505 
N1509 X-197.337 Y19.499 Z6.846 A198.4716 B0.2486 
N1510 X-197.331 Y19.172 Z6.569 A198.2803 B0.2463 
N1511 X-197.325 Y18.837 Z6.288 A198.0672 B0.2439 
N1512 X-197.319 Y18.498 Z6.003 A197.8322 B0.2412 
N1513 X-197.313 Y18.154 Z5.715 A197.5747 B0.2383 
N1514 X-197.307 Y17.808 Z5.426 A197.2939 B0.2352 
N1515 X-197.301 Y17.461 Z5.136 A196.9881 B0.2317 
N1516 X-197.295 Y17.112 Z4.847 A196.6551 B0.2280 
N1517 X-197.290 Y16.764 Z4.559 A196.2926 B0.2240 
N1518 X-197.284 Y16.416 Z4.272 A195.8990 B0.2196 
N1519 X-197.278 Y16.070 Z3.987 A195.4737 B0.2149 
N1520 X-197.272 Y15.724 Z3.704 A195.0164 B0.2098 
N1521 X-197.267 Y15.380 Z3.425 A194.5270 B0.2044 
N1522 X-197.261 Y15.037 Z3.148 A194.0049 B0.1986 
N1523 X-197.256 Y14.697 Z2.875 A193.4494 B0.1926 
N1524 X-197.250 Y14.358 Z2.606 A192.8596 B0.1862 
N1525 X-197.245 Y14.021 Z2.341 A192.2344 B0.1794 
N1526 X-197.240 Y13.686 Z2.079 A191.5724 B0.1723 
N1527 X-197.235 Y13.353 Z1.822 A190.8724 B0.1649 
N1528 X-197.230 Y13.022 Z1.569 A190.1327 B0.1571 
N1529 X-197.226 Y12.694 Z1.320 A189.3517 B0.1489 
N1530 X-197.221 Y12.368 Z1.075 A188.5270 B0.1404 
N1531 X-197.217 Y12.044 Z0.835 A187.6560 B0.1314 
N1532 X-197.213 Y11.722 Z0.600 A186.7356 B0.1221 
N1533 X-197.208 Y11.402 Z0.368 A185.7626 B0.1123 
N1534 X-197.204 Y11.085 Z0.142 A184.7347 B0.1020 
N1535 X-197.201 Y10.769 Z-0.081 A183.6512 B0.0913 
N1536 X-197.197 Y10.456 Z-0.298 A182.5129 B0.0802 
N1537 X-197.193 Y10.144 Z-0.511 A181.3214 B0.0687 
N1538 X-197.190 Y9.834 Z-0.718 A180.0785 B0.0570 
N1539 X-197.187 Y9.526 Z-0.919 A178.7850 B0.0451 
N1540 X-197.184 Y9.219 Z-1.115 A177.4407 B0.0329 
N1541 X-197.181 Y8.913 Z-1.306 A176.0447 B0.0205 
N1542 X-197.178 Y8.608 Z-1.491 A174.5957 B0.0080 
N1543 X-197.176 Y8.304 Z-1.670 A173.0925 B-0.0046 
N1544 X-197.173 Y8.001 Z-1.844 A171.5345 B-0.0174 
N1545 X-197.171 Y7.698 Z-2.012 A169.9211 B-0.0302 
N1546 X-197.169 Y7.396 Z-2.175 A168.2526 B-0.0431 
N1547 X-197.167 Y7.093 Z-2.331 A166.5296 B-0.0559 
N1548 X-197.166 Y6.790 Z-2.481 A164.7535 B-0.0685 
N1549 X-197.164 Y6.486 Z-2.625 A162.9259 B-0.0810 
N1550 X-197.163 Y6.181 Z-2.762 A161.0492 B-0.0932 
N1551 X-197.162 Y5.875 Z-2.892 A159.1258 B-0.1050 
N1552 X-197.161 Y5.567 Z-3.015 A157.1588 B-0.1164 
N1553 X-197.161 Y5.258 Z-3.130 A155.1519 B-0.1273 
N1554 X-197.160 Y4.947 Z-3.236 A153.1090 B-0.1376 
N1555 X-197.160 Y4.634 Z-3.333 A151.0348 B-0.1473 
N1556 X-197.161 Y4.319 Z-3.421 A148.9340 B-0.1562 
N1557 X-197.161 Y4.002 Z-3.499 A146.8117 B-0.1643 
N1558 X-197.162 Y3.684 Z-3.566 A144.6729 B-0.1716 
N1559 X-197.163 Y3.363 Z-3.622 A142.5227 B-0.1779 
N1560 X-197.164 Y3.041 Z-3.667 A140.3665 B-0.1834 
N1561 X-197.165 Y2.718 Z-3.699 A138.2096 B-0.1879 
N1562 X-197.167 Y2.394 Z-3.719 A136.0579 B-0.1914 
N1563 X-197.169 Y2.069 Z-3.726 A133.9169 B-0.1939 
N1564 X-197.171 Y1.745 Z-3.719 A131.7917 B-0.1955 
N1565 X-197.173 Y1.420 Z-3.699 A129.6871 B-0.1961 
N1566 X-197.176 Y1.096 Z-3.665 A127.6078 B-0.1959 
N1567 X-197.179 Y0.774 Z-3.617 A125.5579 B-0.1947 
N1568 X-197.182 Y0.453 Z-3.554 A123.5415 B-0.1927 
N1569 X-197.185 Y0.135 Z-3.477 A121.5624 B-0.1899 
N1570 X-197.188 Y-0.180 Z-3.386 A119.6237 B-0.1864 
N1571 X-197.191 Y-0.492 Z-3.281 A117.7282 B-0.1822 
N1572 X-197.195 Y-0.799 Z-3.161 A115.8782 B-0.1774 
N1573 X-197.198 Y-1.103 Z-3.028 A114.0751 B-0.1720 
N1574 X-197.202 Y-1.401 Z-2.882 A112.3201 B-0.1662 
N1575 X-197.205 Y-1.694 Z-2.723 A110.6143 B-0.1599 
N1576 X-197.209 Y-1.981 Z-2.551 A108.9579 B-0.1533 
N1577 X-197.212 Y-2.262 Z-2.367 A107.3509 B-0.1464 
N1578 X-197.216 Y-2.536 Z-2.171 A105.7922 B-0.1392 
N1579 X-197.220 Y-2.804 Z-1.966 A104.2797 B-0.1318 
N1580 X-197.223 Y-3.065 Z-1.750 A102.8093 B-0.1242 
N1581 X-197.226 Y-3.319 Z-1.525 A101.3758 B-0.1164 
N1582 X-197.230 Y-3.566 Z-1.293 A99.9729 B-0.1084 
N1583 X-197.233 Y-3.806 Z-1.053 A98.5948 B-0.1001 
N1584 X-197.236 Y-4.039 Z-0.808 A97.2386 B-0.0916 
N1585 X-197.239 Y-4.264 Z-0.557 A95.9052 B-0.0829 
N1586 X-197.242 Y-4.481 Z-0.302 A94.5968 B-0.0740 
N1587 X-197.245 Y-4.689 Z-0.044 A93.3149 B-0.0651 
N1588 X-197.247 Y-4.888 Z0.215 A92.0574 B-0.0562 
N1589 X-197.250 Y-5.079 Z0.474 A90.8161 B-0.0472 
N1590 X-197.252 Y-5.263 Z0.731 A89.5787 B-0.0380 
N1591 X-197.255 Y-5.439 Z0.986 A88.3316 B-0.0285 
N1592 X-197.257 Y-5.609 Z1.237 A87.0638 B-0.0184 
N1593 X-197.259 Y-5.772 Z1.484 A85.7677 B-0.0079 
N1594 X-197.261 Y-5.930 Z1.724 A84.4380 B0.0032 
N1595 X-197.264 Y-6.082 Z1.957 A83.0685 B0.0149 
N1596 X-197.266 Y-6.229 Z2.182 A81.6494 B0.0273 
N1597 X-197.268 Y-6.373 Z2.400 A80.1711 B0.0406 
N1598 X-197.270 Y-6.513 Z2.608 A78.6323 B0.0549 
N1599 X-197.273 Y-6.649 Z2.809 A77.0323 B0.0697 
N1600 X-197.275 Y-6.784 Z3.000 A75.3525 B0.0851 
N1601 X-197.278 Y-6.920 Z3.185 A73.5527 B0.1020 
N1602 X-197.280 Y-7.062 Z3.364 A71.5866 B0.1210 
N1603 X-197.284 Y-7.211 Z3.540 A69.4036 B0.1424 
N1604 X-197.288 Y-7.372 Z3.717 A66.9417 B0.1670 
N1605 X-197.292 Y-7.549 Z3.901 A64.1287 B0.1959 
N1606 X-197.298 Y-7.744 Z4.096 A60.8921 B0.2309 
N1607 X-197.305 Y-7.958 Z4.311 A57.1727 B0.2724 
N1608 X-197.313 Y-8.189 Z4.552 A52.9461 B0.3226 
N1609 X-197.323 Y-8.429 Z4.824 A48.2456 B0.3802 
N1610 X-197.334 Y-8.667 Z5.129 A43.1583 B0.4433 
N1611 X-197.346 Y-8.890 Z5.465 A37.8041 B0.5104 
N1612 X-197.358 Y-9.088 Z5.826 A32.3102 B0.5784 
N1613 X-197.369 Y-9.252 Z6.204 A26.7839 B0.6437 
N1614 X-197.380 Y-9.379 Z6.593 A21.2991 B0.7076 
N1615 X-197.390 Y-9.465 Z6.987 A15.9029 B0.7680 
N1616 X-197.399 Y-9.510 Z7.380 A10.6305 B0.8244 
N1617 X-197.406 Y-9.515 Z7.765 A5.5219 B0.8772 
N1618 X-197.413 Y-9.481 Z8.135 A0.6324 B0.9251 
N1619 X-197.418 Y-9.411 Z8.482 A356.0304 B0.9673 
N1620 X-197.421 Y-9.310 Z8.799 A351.7840 B1.0035 
N1621 X-197.422 Y-9.183 Z9.081 A347.9402 B1.0331 
N1622 X-197.421 Y-9.034 Z9.327 A344.5061 B1.0575 
N1623 X-197.419 Y-8.869 Z9.539 A341.4506 B1.0766 
N1624 X-197.415 Y-8.688 Z9.721 A338.7242 B1.0931 
N1625 X-197.410 Y-8.493 Z9.875 A336.2762 B1.1067 
N1626 X-197.404 Y-8.285 Z10.004 A334.0662 B1.1177 
N1627 X-197.396 Y-8.062 Z10.111 A332.0605 B1.1271 
N1628 X-197.387 Y-7.825 Z10.198 A330.2219 B1.1347 
N1629 X-197.377 Y-7.572 Z10.266 A328.5160 B1.1419 
N1630 X-197.366 Y-7.305 Z10.315 A326.9329 B1.1484 
N1631 X-197.353 Y-7.024 Z10.344 A325.4842 B1.1532 
N1632 X-197.339 Y-6.730 Z10.354 A324.1775 B1.1579 
N1633 X-197.323 Y-6.424 Z10.343 A323.0098 B1.1608 
N1634 X-197.307 Y-6.107 Z10.314 A321.9793 B1.1641 
N1635 X-197.289 Y-5.779 Z10.265 A321.0867 B1.1660 
N1636 X-197.270 Y-5.442 Z10.199 A320.3329 B1.1682 
N1637 X-197.250 Y-5.097 Z10.116 A319.7141 B1.1690 
N1638 X-197.229 Y-4.746 Z10.017 A319.2213 B1.1706 
N1639 X-197.207 Y-4.388 Z9.905 A318.8433 B1.1710 
N1640 X-197.185 Y-4.026 Z9.782 A318.5699 B1.1719 
N1641 X-197.162 Y-3.660 Z9.648 A318.3949 B1.1721 
N1642 X-197.138 Y-3.292 Z9.506 A318.3172 B1.1723 
N1643 X-197.114 Y-2.923 Z9.356 A318.3389 B1.1723 
N1644 X-197.090 Y-2.556 Z9.200 A318.4640 B1.1720 
N1645 X-197.066 Y-2.192 Z9.038 A318.6970 B1.1716 
N1646 X-197.042 Y-1.831 Z8.872 A319.0421 B1.1709 
N1647 X-197.017 Y-1.476 Z8.702 A319.5017 B1.1700 
N1648 X-196.993 Y-1.127 Z8.530 A320.0759 B1.1687 
N1649 X-196.969 Y-0.784 Z8.358 A320.7618 B1.1671 
N1650 X-196.946 Y-0.447 Z8.185 A321.5527 B1.1652 
N1651 X-196.922 Y-0.117 Z8.013 A322.4402 B1.1628 
N1652 X-196.899 Y0.208 Z7.844 A323.4148 B1.1600 
N1653 X-196.876 Y0.527 Z7.677 A324.4675 B1.1568 
N1654 X-196.853 Y0.841 Z7.514 A325.5897 B1.1531 
N1655 X-196.831 Y1.152 Z7.355 A326.7732 B1.1490 
N1656 X-196.809 Y1.458 Z7.201 A328.0098 B1.1443 
N1657 X-196.787 Y1.763 Z7.051 A329.2903 B1.1393 
N1658 X-196.766 Y2.065 Z6.907 A330.6054 B1.1338 
N1659 X-196.744 Y2.366 Z6.770 A331.9450 B1.1280 
N1660 X-196.723 Y2.667 Z6.639 A333.2987 B1.1220 
N1661 X-196.702 Y2.967 Z6.516 A334.6554 B1.1161 
N1662 X-196.682 Y3.268 Z6.401 A336.0027 B1.1108 
N1663 X-196.661 Y3.569 Z6.295 A337.3275 B1.1064 
N1664 X-196.641 Y3.871 Z6.198 A338.6176 B1.1033 
N1665 X-196.621 Y4.173 Z6.112 A339.8640 B1.1019 
N1666 X-196.601 Y4.476 Z6.036 A341.0652 B1.1020 
N1667 X-196.581 Y4.780 Z5.970 A342.2289 B1.1030 
N1668 X-196.561 Y5.087 Z5.912 A343.3713 B1.1038 
N1669 X-196.541 Y5.397 Z5.862 A344.5122 B1.1035 
N1670 X-196.521 Y5.711 Z5.818 A345.6686 B1.1010 
N1671 X-196.501 Y6.031 Z5.780 A346.8489 B1.0958 
N1672 X-196.481 Y6.355 Z5.748 A348.0530 B1.0881 
N1673 X-196.461 Y6.685 Z5.723 A349.2774 B1.0779 
N1674 X-196.441 Y7.021 Z5.704 A350.5195 B1.0653 
N1675 X-196.421 Y7.362 Z5.693 A351.7776 B1.0505 
N1676 X-196.401 Y7.710 Z5.689 A353.0471 B1.0336 
N1677 X-196.381 Y8.062 Z5.693 A354.3148 B1.0153 
N1678 X-196.361 Y8.418 Z5.707 A355.5600 B0.9966 
N1679 X-196.341 Y8.776 Z5.731 A356.7591 B0.9785 
N1680 X-196.321 Y9.136 Z5.766 A357.8921 B0.9619 
N1681 X-196.301 Y9.494 Z5.814 A358.9477 B0.9474 
N1682 X-196.281 Y9.851 Z5.872 A359.9240 B0.9350 
N1683 X-196.262 Y10.206 Z5.940 A0.8259 B0.9245 
N1684 X-196.243 Y10.557 Z6.017 A1.6621 B0.9153 
N1685 X-196.225 Y10.904 Z6.102 A2.4414 B0.9073 
N1686 X-196.206 Y11.246 Z6.193 A3.1704 B0.9000 
N1687 X-196.189 Y11.581 Z6.290 A3.8520 B0.8931 
N1688 X-196.171 Y11.907 Z6.390 A4.4850 B0.8871 
N1689 X-196.155 Y12.223 Z6.494 A5.0654 B0.8807 
N1690 X-196.139 Y12.526 Z6.599 A5.5896 B0.8760 
N1691 X-196.124 Y12.815 Z6.705 A6.0564 B0.8711 
N1692 X-196.110 Y13.088 Z6.809 A6.4684 B0.8669 
N1693 X-196.097 Y13.343 Z6.911 A6.8314 B0.8639 
N1694 X-196.084 Y13.580 Z7.007 A7.1518 B0.8605 
N1695 X-196.073 Y13.797 Z7.098 A7.4360 B0.8578 
N1696 X-196.063 Y13.993 Z7.181 A7.6884 B0.8558 
N1697 X-196.054 Y14.169 Z7.258 A7.9107 B0.8529 
N1698 X-196.046 Y14.324 Z7.326 A8.1024 B0.8515 
N1699 X-196.039 Y14.460 Z7.387 A8.2588 B0.8490 
N1700 X-196.033 Y14.577 Z7.442 A8.3692 B0.8479 
N1701 X-196.028 Y14.676 Z7.493 A8.4093 B0.8462 
N1702 X-196.024 Y14.758 Z7.543 A8.3317 B0.8447 
N1703 X-196.021 Y14.823 Z7.601 A8.0526 B0.8449 
N1704 X-196.018 Y14.873 Z7.674 A7.4378 B0.8465 
N1705 X-196.018 Y14.907 Z7.778 A6.3053 B0.8548 
N1706 X-196.020 Y14.925 Z7.971 A3.8397 B0.8766 
N1707 X-196.029 Y14.937 Z8.373 A358.3252 B0.9246 
N1708 X-196.044 Y15.012 Z9.010 A349.3659 B0.9979 
N1709 X-196.059 Y15.206 Z9.706 A339.2224 B1.0752 
N1710 X-196.068 Y15.505 Z10.338 A329.3821 B1.1233 
N1711 X-196.072 Y15.865 Z10.859 A320.4552 B1.1538 
N1712 X-196.073 Y16.206 Z11.229 A313.3610 B1.1628 
N1713 X-196.072 Y16.539 Z11.515 A307.1762 B1.1628 
N1714 X-196.070 Y16.856 Z11.736 A301.7377 B1.1579 
N1715 X-196.067 Y17.157 Z11.908 A296.8494 B1.1493 
N1716 X-196.064 Y17.447 Z12.044 A292.3436 B1.1374 
N1717 X-196.060 Y17.732 Z12.150 A288.0681 B1.1222 
N1718 X-196.056 Y18.016 Z12.234 A283.8980 B1.1037 
N1719 X-196.052 Y18.307 Z12.297 A279.7140 B1.0817 
N1720 X-196.046 Y18.611 Z12.339 A275.3969 B1.0558 
N1721 X-196.040 Y18.936 Z12.359 A270.8137 B1.0250 
N1722 X-196.032 Y19.291 Z12.352 A265.8182 B0.9883 
N1723 X-196.023 Y19.685 Z12.307 A260.2372 B0.9435 
N1724 X-196.011 Y20.125 Z12.210 A253.9130 B0.8869 
N1725 X-195.995 Y20.656 Z12.023 A245.9858 B0.8063 
N1726 X-195.973 Y21.265 Z11.696 A236.2429 B0.6984 
N1727 X-195.945 Y21.854 Z11.227 A225.6475 B0.5640 
N1728 X-195.916 Y22.373 Z10.614 A214.3551 B0.4276 
N1729 X-195.897 Y22.664 Z10.096 A206.0684 B0.3319 
N1730 X-195.887 Y22.761 Z9.813 A202.0321 B0.2851 
N1731 X-195.882 Y22.769 Z9.676 A200.4089 B0.2665 
N1732 X-195.880 Y22.739 Z9.600 A199.8283 B0.2595 
N1733 X-195.879 Y22.687 Z9.541 A199.6514 B0.2575 
N1734 X-195.878 Y22.620 Z9.480 A199.5781 B0.2565 
N1735 X-195.876 Y22.539 Z9.408 A199.5290 B0.2563 
N1736 X-195.874 Y22.441 Z9.324 A199.4934 B0.2560 
N1737 X-195.872 Y22.326 Z9.227 A199.4626 B0.2558 
N1738 X-195.870 Y22.192 Z9.114 A199.4314 B0.2555 
N1739 X-195.867 Y22.039 Z8.986 A199.3970 B0.2551 
N1740 X-195.864 Y21.866 Z8.840 A199.3576 B0.2547 
N1741 X-195.861 Y21.673 Z8.678 A199.3118 B0.2540 
N1742 X-195.857 Y21.460 Z8.499 A199.2581 B0.2536 
N1743 X-195.853 Y21.228 Z8.303 A199.1944 B0.2528 
N1744 X-195.849 Y20.977 Z8.092 A199.1183 B0.2520 
N1745 X-195.844 Y20.709 Z7.866 A199.0271 B0.2510 
N1746 X-195.839 Y20.425 Z7.627 A198.9184 B0.2497 
N1747 X-195.834 Y20.128 Z7.376 A198.7902 B0.2484 
N1748 X-195.829 Y19.819 Z7.115 A198.6415 B0.2466 
N1749 X-195.823 Y19.499 Z6.846 A198.4716 B0.2446 
N1750 X-195.817 Y19.172 Z6.569 A198.2802 B0.2424 
N1751 X-195.812 Y18.837 Z6.288 A198.0671 B0.2400 
N1752 X-195.806 Y18.498 Z6.003 A197.8321 B0.2373 
N1753 X-195.800 Y18.154 Z5.715 A197.5747 B0.2344 
N1754 X-195.794 Y17.808 Z5.426 A197.2939 B0.2313 
N1755 X-195.788 Y17.461 Z5.136 A196.9881 B0.2278 
N1756 X-195.782 Y17.112 Z4.847 A196.6550 B0.2241 
N1757 X-195.776 Y16.764 Z4.559 A196.2925 B0.2201 
N1758 X-195.771 Y16.416 Z4.272 A195.8990 B0.2157 
N1759 X-195.765 Y16.070 Z3.987 A195.4737 B0.2110 
N1760 X-195.759 Y15.724 Z3.704 A195.0164 B0.2059 
N1761 X-195.754 Y15.380 Z3.425 A194.5269 B0.2005 
N1762 X-195.748 Y15.037 Z3.148 A194.0048 B0.1948 
N1763 X-195.743 Y14.697 Z2.875 A193.4493 B0.1888 
N1764 X-195.738 Y14.358 Z2.606 A192.8596 B0.1824 
N1765 X-195.733 Y14.021 Z2.341 A192.2343 B0.1757 
N1766 X-195.728 Y13.686 Z2.079 A191.5724 B0.1686 
N1767 X-195.723 Y13.353 Z1.822 A190.8723 B0.1611 
N1768 X-195.718 Y13.022 Z1.569 A190.1326 B0.1534 
N1769 X-195.714 Y12.694 Z1.320 A189.3516 B0.1452 
N1770 X-195.709 Y12.368 Z1.075 A188.5269 B0.1367 
N1771 X-195.705 Y12.044 Z0.835 A187.6559 B0.1278 
N1772 X-195.701 Y11.722 Z0.600 A186.7355 B0.1184 
N1773 X-195.697 Y11.402 Z0.368 A185.7625 B0.1087 
N1774 X-195.693 Y11.085 Z0.142 A184.7346 B0.0984 
N1775 X-195.689 Y10.769 Z-0.081 A183.6511 B0.0878 
N1776 X-195.685 Y10.456 Z-0.298 A182.5128 B0.0767 
N1777 X-195.682 Y10.144 Z-0.511 A181.3213 B0.0653 
N1778 X-195.678 Y9.834 Z-0.718 A180.0784 B0.0536 
N1779 X-195.675 Y9.526 Z-0.919 A178.7849 B0.0417 
N1780 X-195.672 Y9.219 Z-1.115 A177.4406 B0.0296 
N1781 X-195.670 Y8.913 Z-1.306 A176.0446 B0.0173 
N1782 X-195.667 Y8.608 Z-1.491 A174.5955 B0.0048 
N1783 X-195.664 Y8.304 Z-1.670 A173.0924 B-0.0078 
N1784 X-195.662 Y8.001 Z-1.844 A171.5343 B-0.0205 
N1785 X-195.660 Y7.698 Z-2.012 A169.9210 B-0.0333 
N1786 X-195.658 Y7.396 Z-2.175 A168.2524 B-0.0460 
N1787 X-195.656 Y7.093 Z-2.331 A166.5295 B-0.0587 
N1788 X-195.655 Y6.790 Z-2.481 A164.7533 B-0.0713 
N1789 X-195.653 Y6.486 Z-2.625 A162.9257 B-0.0836 
N1790 X-195.652 Y6.181 Z-2.762 A161.0489 B-0.0957 
N1791 X-195.651 Y5.875 Z-2.892 A159.1256 B-0.1074 
N1792 X-195.651 Y5.567 Z-3.015 A157.1586 B-0.1187 
N1793 X-195.650 Y5.258 Z-3.130 A155.1517 B-0.1295 
N1794 X-195.650 Y4.947 Z-3.236 A153.1088 B-0.1397 
N1795 X-195.650 Y4.634 Z-3.333 A151.0346 B-0.1492 
N1796 X-195.650 Y4.319 Z-3.421 A148.9338 B-0.1580 
N1797 X-195.651 Y4.002 Z-3.499 A146.8114 B-0.1660 
N1798 X-195.651 Y3.684 Z-3.566 A144.6726 B-0.1731 
N1799 X-195.652 Y3.363 Z-3.622 A142.5224 B-0.1794 
N1800 X-195.654 Y3.041 Z-3.667 A140.3662 B-0.1847 
N1801 X-195.655 Y2.718 Z-3.699 A138.2094 B-0.1890 
N1802 X-195.657 Y2.394 Z-3.719 A136.0577 B-0.1924 
N1803 X-195.659 Y2.069 Z-3.726 A133.9166 B-0.1948 
N1804 X-195.661 Y1.745 Z-3.719 A131.7914 B-0.1962 
N1805 X-195.663 Y1.420 Z-3.699 A129.6868 B-0.1967 
N1806 X-195.666 Y1.096 Z-3.665 A127.6075 B-0.1963 
N1807 X-195.669 Y0.774 Z-3.617 A125.5576 B-0.1949 
N1808 X-195.672 Y0.453 Z-3.554 A123.5413 B-0.1928 
N1809 X-195.675 Y0.135 Z-3.477 A121.5621 B-0.1899 
N1810 X-195.678 Y-0.180 Z-3.386 A119.6234 B-0.1862 
N1811 X-195.681 Y-0.492 Z-3.281 A117.7280 B-0.1819 
N1812 X-195.685 Y-0.799 Z-3.161 A115.8779 B-0.1770 
N1813 X-195.688 Y-1.103 Z-3.028 A114.0748 B-0.1715 
N1814 X-195.692 Y-1.401 Z-2.882 A112.3199 B-0.1656 
N1815 X-195.696 Y-1.694 Z-2.723 A110.6140 B-0.1592 
N1816 X-195.699 Y-1.981 Z-2.551 A108.9577 B-0.1524 
N1817 X-195.703 Y-2.262 Z-2.367 A107.3507 B-0.1454 
N1818 X-195.706 Y-2.536 Z-2.171 A105.7920 B-0.1381 
N1819 X-195.710 Y-2.804 Z-1.966 A104.2795 B-0.1306 
N1820 X-195.713 Y-3.065 Z-1.750 A102.8091 B-0.1228 
N1821 X-195.716 Y-3.319 Z-1.525 A101.3757 B-0.1149 
N1822 X-195.720 Y-3.566 Z-1.293 A99.9727 B-0.1069 
N1823 X-195.723 Y-3.806 Z-1.053 A98.5946 B-0.0985 
N1824 X-195.726 Y-4.039 Z-0.808 A97.2385 B-0.0899 
N1825 X-195.729 Y-4.264 Z-0.557 A95.9050 B-0.0811 
N1826 X-195.732 Y-4.481 Z-0.302 A94.5966 B-0.0722 
N1827 X-195.735 Y-4.689 Z-0.044 A93.3148 B-0.0632 
N1828 X-195.738 Y-4.888 Z0.215 A92.0572 B-0.0542 
N1829 X-195.740 Y-5.080 Z0.474 A90.8159 B-0.0451 
N1830 X-195.742 Y-5.263 Z0.731 A89.5785 B-0.0359 
N1831 X-195.745 Y-5.439 Z0.986 A88.3315 B-0.0263 
N1832 X-195.747 Y-5.609 Z1.237 A87.0636 B-0.0161 
N1833 X-195.749 Y-5.772 Z1.484 A85.7675 B-0.0055 
N1834 X-195.751 Y-5.930 Z1.724 A84.4378 B0.0057 
N1835 X-195.754 Y-6.082 Z1.957 A83.0683 B0.0174 
N1836 X-195.756 Y-6.229 Z2.182 A81.6492 B0.0299 
N1837 X-195.758 Y-6.373 Z2.400 A80.1710 B0.0432 
N1838 X-195.760 Y-6.513 Z2.608 A78.6321 B0.0576 
N1839 X-195.763 Y-6.649 Z2.809 A77.0321 B0.0725 
N1840 X-195.765 Y-6.784 Z3.000 A75.3523 B0.0880 
N1841 X-195.768 Y-6.920 Z3.185 A73.5525 B0.1050 
N1842 X-195.770 Y-7.062 Z3.364 A71.5864 B0.1240 
N1843 X-195.774 Y-7.211 Z3.540 A69.4033 B0.1455 
N1844 X-195.777 Y-7.372 Z3.718 A66.9414 B0.1702 
N1845 X-195.782 Y-7.549 Z3.901 A64.1284 B0.1993 
N1846 X-195.788 Y-7.744 Z4.096 A60.8917 B0.2344 
N1847 X-195.795 Y-7.958 Z4.311 A57.1723 B0.2760 
N1848 X-195.803 Y-8.189 Z4.552 A52.9456 B0.3262 
N1849 X-195.813 Y-8.429 Z4.824 A48.2450 B0.3840 
N1850 X-195.824 Y-8.667 Z5.129 A43.1577 B0.4472 
N1851 X-195.836 Y-8.890 Z5.465 A37.8036 B0.5144 
N1852 X-195.848 Y-9.088 Z5.826 A32.3096 B0.5824 
N1853 X-195.859 Y-9.252 Z6.204 A26.7833 B0.6477 
N1854 X-195.870 Y-9.379 Z6.594 A21.2985 B0.7115 
N1855 X-195.880 Y-9.465 Z6.987 A15.9023 B0.7719 
N1856 X-195.889 Y-9.510 Z7.380 A10.6299 B0.8281 
N1857 X-195.896 Y-9.515 Z7.765 A5.5213 B0.8808 
N1858 X-195.903 Y-9.481 Z8.135 A0.6318 B0.9285 
N1859 X-195.907 Y-9.411 Z8.482 A356.0299 B0.9705 
N1860 X-195.910 Y-9.310 Z8.799 A351.7835 B1.0066 
N1861 X-195.911 Y-9.183 Z9.081 A347.9397 B1.0360 
N1862 X-195.911 Y-9.034 Z9.327 A344.5057 B1.0602 
N1863 X-195.908 Y-8.869 Z9.539 A341.4503 B1.0792 
N1864 X-195.905 Y-8.688 Z9.721 A338.7239 B1.0955 
N1865 X-195.900 Y-8.493 Z9.875 A336.2759 B1.1089 
N1866 X-195.893 Y-8.284 Z10.004 A334.0659 B1.1198 
N1867 X-195.886 Y-8.062 Z10.111 A332.0602 B1.1291 
N1868 X-195.877 Y-7.825 Z10.198 A330.2216 B1.1366 
N1869 X-195.866 Y-7.572 Z10.266 A328.5157 B1.1436 
N1870 X-195.855 Y-7.305 Z10.315 A326.9327 B1.1501 
N1871 X-195.842 Y-7.024 Z10.344 A325.4841 B1.1548 
N1872 X-195.828 Y-6.730 Z10.354 A324.1773 B1.1594 
N1873 X-195.812 Y-6.424 Z10.343 A323.0097 B1.1622 
N1874 X-195.796 Y-6.107 Z10.314 A321.9792 B1.1655 
N1875 X-195.778 Y-5.779 Z10.265 A321.0866 B1.1673 
N1876 X-195.759 Y-5.442 Z10.199 A320.3328 B1.1694 
N1877 X-195.739 Y-5.097 Z10.116 A319.7141 B1.1702 
N1878 X-195.718 Y-4.746 Z10.017 A319.2213 B1.1717 
N1879 X-195.696 Y-4.388 Z9.905 A318.8433 B1.1721 
N1880 X-195.674 Y-4.026 Z9.782 A318.5699 B1.1730 
N1881 X-195.651 Y-3.660 Z9.648 A318.3950 B1.1732 
N1882 X-195.627 Y-3.292 Z9.506 A318.3173 B1.1734 
N1883 X-195.603 Y-2.923 Z9.356 A318.3389 B1.1734 
N1884 X-195.579 Y-2.556 Z9.200 A318.4641 B1.1731 
N1885 X-195.555 Y-2.191 Z9.038 A318.6971 B1.1727 
N1886 X-195.530 Y-1.831 Z8.872 A319.0422 B1.1721 
N1887 X-195.506 Y-1.476 Z8.702 A319.5018 B1.1712 
N1888 X-195.482 Y-1.127 Z8.530 A320.0761 B1.1700 
N1889 X-195.458 Y-0.784 Z8.358 A320.7620 B1.1684 
N1890 X-195.434 Y-0.447 Z8.185 A321.5529 B1.1665 
N1891 X-195.411 Y-0.117 Z8.013 A322.4405 B1.1642 
N1892 X-195.388 Y0.208 Z7.844 A323.4151 B1.1614 
N1893 X-195.365 Y0.527 Z7.677 A324.4678 B1.1583 
N1894 X-195.342 Y0.841 Z7.514 A325.5900 B1.1547 
N1895 X-195.320 Y1.152 Z7.355 A326.7736 B1.1506 
N1896 X-195.298 Y1.459 Z7.201 A328.0101 B1.1461 
N1897 X-195.276 Y1.763 Z7.051 A329.2907 B1.1411 
N1898 X-195.254 Y2.065 Z6.907 A330.6058 B1.1357 
N1899 X-195.233 Y2.366 Z6.770 A331.9454 B1.1300 
N1900 X-195.212 Y2.667 Z6.639 A333.2991 B1.1241 
N1901 X-195.191 Y2.967 Z6.516 A334.6558 B1.1183 
N1902 X-195.170 Y3.268 Z6.401 A336.0031 B1.1130 
N1903 X-195.150 Y3.569 Z6.295 A337.3279 B1.1087 
N1904 X-195.129 Y3.871 Z6.198 A338.6180 B1.1058 
N1905 X-195.109 Y4.173 Z6.112 A339.8644 B1.1045 
N1906 X-195.089 Y4.476 Z6.036 A341.0656 B1.1046 
N1907 X-195.069 Y4.780 Z5.970 A342.2293 B1.1057 
N1908 X-195.049 Y5.087 Z5.912 A343.3717 B1.1067 
N1909 X-195.029 Y5.397 Z5.862 A344.5126 B1.1064 
N1910 X-195.009 Y5.711 Z5.818 A345.6690 B1.1040 
N1911 X-194.989 Y6.031 Z5.780 A346.8493 B1.0989 
N1912 X-194.969 Y6.355 Z5.748 A348.0534 B1.0913 
N1913 X-194.949 Y6.685 Z5.723 A349.2778 B1.0811 
N1914 X-194.929 Y7.021 Z5.704 A350.5198 B1.0686 
N1915 X-194.909 Y7.362 Z5.693 A351.7780 B1.0538 
N1916 X-194.889 Y7.710 Z5.689 A353.0474 B1.0370 
N1917 X-194.869 Y8.062 Z5.693 A354.3152 B1.0187 
N1918 X-194.848 Y8.418 Z5.707 A355.5604 B1.0000 
N1919 X-194.828 Y8.776 Z5.731 A356.7594 B0.9819 
N1920 X-194.808 Y9.136 Z5.766 A357.8924 B0.9653 
N1921 X-194.789 Y9.494 Z5.814 A358.9480 B0.9508 
N1922 X-194.769 Y9.851 Z5.872 A359.9242 B0.9385 
N1923 X-194.750 Y10.206 Z5.940 A0.8262 B0.9279 
N1924 X-194.731 Y10.557 Z6.017 A1.6624 B0.9188 
N1925 X-194.712 Y10.905 Z6.102 A2.4417 B0.9108 
N1926 X-194.694 Y11.246 Z6.193 A3.1706 B0.9035 
N1927 X-194.676 Y11.581 Z6.290 A3.8522 B0.8966 
N1928 X-194.659 Y11.907 Z6.390 A4.4852 B0.8906 
N1929 X-194.642 Y12.223 Z6.494 A5.0656 B0.8843 
N1930 X-194.626 Y12.526 Z6.599 A5.5899 B0.8796 
N1931 X-194.611 Y12.815 Z6.705 A6.0566 B0.8747 
N1932 X-194.597 Y13.088 Z6.809 A6.4686 B0.8706 
N1933 X-194.584 Y13.343 Z6.911 A6.8316 B0.8676 
N1934 X-194.571 Y13.580 Z7.007 A7.1520 B0.8641 
N1935 X-194.560 Y13.797 Z7.098 A7.4362 B0.8615 
N1936 X-194.550 Y13.993 Z7.182 A7.6885 B0.8595 
N1937 X-194.541 Y14.169 Z7.258 A7.9109 B0.8565 
N1938 X-194.533 Y14.324 Z7.326 A8.1025 B0.8552 
N1939 X-194.526 Y14.460 Z7.387 A8.2590 B0.8526 
N1940 X-194.520 Y14.577 Z7.442 A8.3694 B0.8516 
N1941 X-194.515 Y14.676 Z7.493 A8.4095 B0.8499 
N1942 X-194.511 Y14.758 Z7.543 A8.3318 B0.8484 
N1943 X-194.507 Y14.823 Z7.601 A8.0527 B0.8486 
N1944 X-194.505 Y14.873 Z7.674 A7.4378 B0.8502 
N1945 X-194.504 Y14.907 Z7.779 A6.3051 B0.8585 
N1946 X-194.507 Y14.925 Z7.971 A3.8393 B0.8802 
N1947 X-194.515 Y14.937 Z8.373 A358.3244 B0.9281 
N1948 X-194.530 Y15.012 Z9.010 A349.3647 B1.0011 
N1949 X-194.546 Y15.206 Z9.706 A339.2212 B1.0779 
N1950 X-194.554 Y15.505 Z10.338 A329.3809 B1.1253 
N1951 X-194.558 Y15.865 Z10.859 A320.4541 B1.1552 
N1952 X-194.559 Y16.206 Z11.229 A313.3601 B1.1637 
N1953 X-194.558 Y16.539 Z11.515 A307.1753 B1.1632 
N1954 X-194.556 Y16.856 Z11.736 A301.7369 B1.1580 
N1955 X-194.553 Y17.157 Z11.908 A296.8487 B1.1490 
N1956 X-194.550 Y17.447 Z12.044 A292.3429 B1.1368 
N1957 X-194.546 Y17.732 Z12.150 A288.0675 B1.1214 
N1958 X-194.542 Y18.016 Z12.234 A283.8973 B1.1026 
N1959 X-194.537 Y18.307 Z12.297 A279.7134 B1.0803 
N1960 X-194.532 Y18.611 Z12.339 A275.3963 B1.0542 
N1961 X-194.525 Y18.936 Z12.359 A270.8131 B1.0232 
N1962 X-194.518 Y19.291 Z12.352 A265.8176 B0.9862 
N1963 X-194.509 Y19.686 Z12.307 A260.2367 B0.9411 
N1964 X-194.497 Y20.125 Z12.210 A253.9124 B0.8842 
N1965 X-194.480 Y20.656 Z12.023 A245.9853 B0.8032 
N1966 X-194.459 Y21.265 Z11.696 A236.2424 B0.6950 
N1967 X-194.430 Y21.854 Z11.227 A225.6471 B0.5602 
N1968 X-194.401 Y22.373 Z10.614 A214.3549 B0.4236 
N1969 X-194.382 Y22.664 Z10.096 A206.0683 B0.3279 
N1970 X-194.372 Y22.761 Z9.813 A202.0321 B0.2811 
N1971 X-194.368 Y22.769 Z9.676 A200.4089 B0.2626 
N1972 X-194.366 Y22.739 Z9.600 A199.8282 B0.2556 
N1973 X-194.364 Y22.687 Z9.541 A199.6514 B0.2536 
N1974 X-194.363 Y22.620 Z9.480 A199.5780 B0.2525 
N1975 X-194.361 Y22.539 Z9.408 A199.5290 B0.2524 
N1976 X-194.360 Y22.441 Z9.324 A199.4934 B0.2521 
N1977 X-194.358 Y22.326 Z9.227 A199.4626 B0.2519 
N1978 X-194.355 Y22.192 Z9.114 A199.4314 B0.2515 
N1979 X-194.353 Y22.039 Z8.986 A199.3969 B0.2511 
N1980 X-194.350 Y21.866 Z8.840 A199.3575 B0.2508 
N1981 X-194.347 Y21.673 Z8.678 A199.3117 B0.2501 
N1982 X-194.343 Y21.460 Z8.499 A199.2580 B0.2497 
N1983 X-194.339 Y21.228 Z8.303 A199.1943 B0.2488 
N1984 X-194.335 Y20.977 Z8.092 A199.1182 B0.2481 
N1985 X-194.330 Y20.709 Z7.866 A199.0270 B0.2471 
N1986 X-194.325 Y20.425 Z7.627 A198.9183 B0.2458 
N1987 X-194.320 Y20.128 Z7.376 A198.7902 B0.2444 
N1988 X-194.315 Y19.819 Z7.115 A198.6415 B0.2427 
N1989 X-194.309 Y19.499 Z6.846 A198.4716 B0.2407 
N1990 X-194.304 Y19.172 Z6.569 A198.2802 B0.2385 
N1991 X-194.298 Y18.837 Z6.288 A198.0671 B0.2361 
N1992 X-194.292 Y18.498 Z6.003 A197.8320 B0.2334 
N1993 X-194.286 Y18.154 Z5.715 A197.5746 B0.2305 
N1994 X-194.281 Y17.808 Z5.426 A197.2938 B0.2274 
N1995 X-194.275 Y17.461 Z5.136 A196.9880 B0.2240 
N1996 X-194.269 Y17.112 Z4.847 A196.6550 B0.2203 
N1997 X-194.263 Y16.764 Z4.559 A196.2925 B0.2162 
N1998 X-194.258 Y16.416 Z4.272 A195.8989 B0.2119 
N1999 X-194.252 Y16.070 Z3.987 A195.4736 B0.2071 
N2000 X-194.246 Y15.724 Z3.704 A195.0163 B0.2021 
N2001 X-194.241 Y15.380 Z3.425 A194.5268 B0.1967 
N2002 X-194.236 Y15.037 Z3.148 A194.0047 B0.1910 
N2003 X-194.230 Y14.697 Z2.875 A193.4493 B0.1849 
N2004 X-194.225 Y14.358 Z2.606 A192.8595 B0.1786 
N2005 X-194.220 Y14.021 Z2.341 A192.2342 B0.1719 
N2006 X-194.215 Y13.686 Z2.079 A191.5723 B0.1648 
N2007 X-194.211 Y13.353 Z1.822 A190.8722 B0.1574 
N2008 X-194.206 Y13.022 Z1.569 A190.1326 B0.1496 
N2009 X-194.201 Y12.694 Z1.320 A189.3515 B0.1415 
N2010 X-194.197 Y12.368 Z1.075 A188.5268 B0.1330 
N2011 X-194.193 Y12.044 Z0.835 A187.6558 B0.1241 
N2012 X-194.189 Y11.722 Z0.600 A186.7354 B0.1148 
N2013 X-194.185 Y11.402 Z0.368 A185.7623 B0.1051 
N2014 X-194.181 Y11.085 Z0.142 A184.7344 B0.0948 
N2015 X-194.177 Y10.769 Z-0.081 A183.6510 B0.0842 
N2016 X-194.174 Y10.456 Z-0.298 A182.5126 B0.0732 
N2017 X-194.170 Y10.144 Z-0.511 A181.3212 B0.0618 
N2018 X-194.167 Y9.834 Z-0.718 A180.0783 B0.0502 
N2019 X-194.164 Y9.526 Z-0.919 A178.7847 B0.0383 
N2020 X-194.161 Y9.219 Z-1.115 A177.4404 B0.0262 
N2021 X-194.158 Y8.913 Z-1.306 A176.0444 B0.0140 
N2022 X-194.156 Y8.608 Z-1.491 A174.5954 B0.0016 
N2023 X-194.153 Y8.304 Z-1.670 A173.0922 B-0.0109 
N2024 X-194.151 Y8.001 Z-1.844 A171.5341 B-0.0236 
N2025 X-194.149 Y7.698 Z-2.012 A169.9208 B-0.0363 
N2026 X-194.147 Y7.396 Z-2.175 A168.2523 B-0.0489 
N2027 X-194.145 Y7.093 Z-2.331 A166.5293 B-0.0615 
N2028 X-194.144 Y6.790 Z-2.481 A164.7531 B-0.0740 
N2029 X-194.143 Y6.486 Z-2.625 A162.9255 B-0.0863 
N2030 X-194.142 Y6.181 Z-2.762 A161.0487 B-0.0983 
N2031 X-194.141 Y5.875 Z-2.892 A159.1253 B-0.1099 
N2032 X-194.140 Y5.567 Z-3.015 A157.1584 B-0.1211 
