; PROGRAM NAME: D12345660
; ORDER       : D123456
; OPER. NAME  : Contact Milling:154
; OPER. DESCR.: Contact Milling/podciecie_pod_ceche
; OPER. TYPE  : contactMill
; GEO. OPTION : 1
; MACHINE     : HSTM_300HD_SIM840D_Py
;             : HSTM300/500 - HAMUEL: 5-axis milling machine-SIM840D Traori PP_Script
; CONTROL     : SINUMERIK 840D
; created:   2023-06-05 09:22:22.466841
;-------DODATKOWE DANE-------------------
; PROGRAMISTA : Mariusz Malec
; PARTID      : 301T002184P1010_-
;  ap         : 1.0
;  ae         : 5.0
;  lean_angle : 0.01
;  tilt_angle : 0.0
;  fin_offset : -0.15
;----------------------------------------
;RAPORT("TD123456","Contact Milling:154")
N10 TRAFOOF
N11 D0
N12 G90 G94
N13 G0 G53 D0 Z550
N14 STOPRE
M9 ; chlodziwo wyl
; --- Contact Milling:154 - Contact Milling/podciecie_pod_ceche ---
N16 ;ToolChange : concat=None ,current_tdmid=None, PP.tdmId=957453
N17 TRAFOOF
N18 G0 G53 D0 X-200 Y150 Z550 B0
N19 T="7757453"
;RAPORT("TD123456","ToolChangeStart 7757453")
N20 M6
;RAPORT("TD123456","ToolChangeEnd")
N21 STOPRE
N22 MSG(" TLID=957453 D=5.0 R=0.0 Ang=0.0 Len=109.0 ")
N23 ; (Preloading tool)
N24 T="7756910"
N25 S12095 M03
N26 STOPRE
N27 CYCLE832(0.01,1,1)
N28 G0 G53 A0.0000 B-0.0100
N29 TRAORI
N30 G54 D1
N31 D3 
N32 X-138.209 Y7.371 Z46.288 A0.0001 B-0.0100 
N33 M342 ; chlodziwo woda
N34 X-138.204 Y7.371 Z16.288 
N35 G01 X-138.203 Y7.371 Z10.288 F544 
N36 X-138.251 Y7.371 Z9.979 
N37 X-138.393 Y7.371 Z9.700 
N38 X-138.615 Y7.371 Z9.479 
N39 X-138.893 Y7.371 Z9.337 
N40 X-139.202 Y7.371 Z9.288 
N41 X-139.341 Y7.371 Z9.288 
N42 X-139.480 Y7.371 Z9.288 F543 
N43 X-139.619 Y7.371 Z9.288 F544 
N44 X-139.758 Y7.371 Z9.288 
N45 X-139.897 Y7.371 Z9.288 
N46 X-140.036 Y7.371 Z9.288 
N47 X-140.175 Y7.371 Z9.288 
N48 X-140.313 Y7.371 Z9.288 
N49 X-140.452 Y7.371 Z9.288 
N50 X-140.591 Y7.371 Z9.288 
N51 X-140.730 Y7.371 Z9.288 
N52 X-140.869 Y7.371 Z9.288 
N53 X-141.008 Y7.371 Z9.288 
N54 X-141.147 Y7.371 Z9.288 
N55 X-141.286 Y7.371 Z9.288 
N56 X-141.425 Y7.371 Z9.288 
N57 X-141.563 Y7.371 Z9.288 
N58 X-141.702 Y7.371 Z9.288 
N59 X-141.841 Y7.371 Z9.288 
N60 X-141.980 Y7.371 Z9.288 
N61 X-142.119 Y7.371 Z9.288 
N62 X-142.258 Y7.371 Z9.288 
N63 X-142.397 Y7.371 Z9.288 
N64 X-142.536 Y7.371 Z9.288 
N65 X-142.675 Y7.371 Z9.288 
N66 X-142.813 Y7.371 Z9.288 
N67 X-142.952 Y7.371 Z9.288 
N68 X-143.091 Y7.371 Z9.288 
N69 X-143.230 Y7.371 Z9.288 
N70 X-143.369 Y7.371 Z9.288 
N71 X-143.508 Y7.371 Z9.288 
N72 X-143.647 Y7.371 Z9.288 
N73 X-143.786 Y7.371 Z9.288 
N74 X-143.925 Y7.371 Z9.288 
N75 X-144.063 Y7.371 Z9.288 
N76 X-144.202 Y7.371 Z9.288 
N77 X-144.341 Y7.371 Z9.288 F543 
N78 X-144.480 Y7.371 Z9.288 F544 
N79 X-144.619 Y7.371 Z9.288 
N80 X-144.758 Y7.371 Z9.288 
N81 X-144.897 Y7.371 Z9.288 
N82 X-145.036 Y7.371 Z9.288 
N83 X-145.175 Y7.371 Z9.288 
N84 X-145.313 Y7.371 Z9.288 
N85 X-145.452 Y7.371 Z9.288 
N86 X-145.591 Y7.371 Z9.288 
N87 X-145.730 Y7.371 Z9.288 
N88 X-145.869 Y7.371 Z9.288 
N89 X-146.008 Y7.371 Z9.288 
N90 X-146.147 Y7.371 Z9.288 
N91 X-146.286 Y7.371 Z9.288 
N92 X-146.425 Y7.371 Z9.288 
N93 X-146.563 Y7.371 Z9.288 
N94 X-146.702 Y7.371 Z9.288 
N95 X-146.840 Y7.371 Z9.288 
N96 X-146.977 Y7.371 Z9.288 
N97 X-147.115 Y7.371 Z9.288 
N98 X-147.252 Y7.371 Z9.288 
N99 X-147.390 Y7.371 Z9.288 
N100 X-147.527 Y7.371 Z9.288 
N101 X-147.665 Y7.371 Z9.288 
N102 X-147.802 Y7.371 Z9.288 
N103 X-147.940 Y7.371 Z9.288 
N104 X-148.077 Y7.371 Z9.288 
N105 X-148.215 Y7.371 Z9.288 
N106 X-148.352 Y7.371 Z9.288 
N107 X-148.490 Y7.371 Z9.288 
N108 X-148.627 Y7.371 Z9.288 
N109 X-148.765 Y7.371 Z9.288 
N110 X-148.902 Y7.371 Z9.288 
N111 X-149.040 Y7.371 Z9.288 
N112 X-149.177 Y7.371 Z9.288 
N113 X-149.315 Y7.371 Z9.288 
N114 X-149.452 Y7.371 Z9.288 
N115 X-149.590 Y7.371 Z9.288 
N116 X-149.727 Y7.371 Z9.288 
N117 X-149.865 Y7.371 Z9.288 
N118 X-150.002 Y7.371 Z9.288 
N119 X-150.140 Y7.371 Z9.288 
N120 X-150.277 Y7.371 Z9.288 
N121 X-150.415 Y7.371 Z9.288 
N122 X-150.552 Y7.371 Z9.288 
N123 X-150.690 Y7.371 Z9.288 
N124 X-150.827 Y7.371 Z9.288 
N125 X-150.965 Y7.371 Z9.288 
N126 X-151.102 Y7.371 Z9.288 
N127 X-151.240 Y7.371 Z9.288 
N128 X-151.377 Y7.371 Z9.288 
N129 X-151.515 Y7.371 Z9.288 
N130 X-151.652 Y7.371 Z9.288 
N131 X-151.790 Y7.371 Z9.288 
N132 X-151.927 Y7.371 Z9.288 
N133 X-152.065 Y7.371 Z9.288 
N134 X-152.202 Y7.371 Z9.288 
N135 X-152.340 Y7.371 Z9.288 
N136 X-152.477 Y7.371 Z9.288 
N137 X-152.615 Y7.371 Z9.288 
N138 X-152.752 Y7.371 Z9.288 
N139 X-152.890 Y7.371 Z9.288 
N140 X-153.027 Y7.371 Z9.288 
N141 X-153.165 Y7.371 Z9.288 
N142 X-153.302 Y7.371 Z9.288 
N143 X-153.440 Y7.371 Z9.288 
N144 X-153.577 Y7.371 Z9.288 
N145 X-153.715 Y7.371 Z9.288 
N146 X-153.852 Y7.371 Z9.288 
N147 X-153.990 Y7.371 Z9.288 
N148 X-154.127 Y7.371 Z9.288 
N149 X-154.265 Y7.371 Z9.288 
N150 X-154.402 Y7.371 Z9.288 
N151 X-154.540 Y7.371 Z9.288 
N152 X-154.677 Y7.371 Z9.288 
N153 X-154.815 Y7.371 Z9.288 
N154 X-154.952 Y7.371 Z9.288 
N155 X-155.090 Y7.371 Z9.288 
N156 X-155.227 Y7.371 Z9.288 
N157 X-155.365 Y7.371 Z9.288 
N158 X-155.502 Y7.371 Z9.288 
N159 X-155.640 Y7.371 Z9.288 
N160 X-155.777 Y7.371 Z9.288 
N161 X-155.915 Y7.371 Z9.288 
N162 X-156.052 Y7.371 Z9.288 
N163 X-156.190 Y7.371 Z9.288 
N164 X-156.327 Y7.371 Z9.288 
N165 X-156.465 Y7.371 Z9.288 
N166 X-156.602 Y7.371 Z9.288 
N167 X-156.740 Y7.371 Z9.288 
N168 X-156.877 Y7.371 Z9.288 
N169 X-157.015 Y7.371 Z9.288 
N170 X-157.152 Y7.371 Z9.288 
N171 X-157.290 Y7.371 Z9.288 
N172 X-157.427 Y7.371 Z9.288 
N173 X-157.565 Y7.371 Z9.288 
N174 X-157.702 Y7.371 Z9.288 
N175 X-157.841 Y7.371 Z9.288 F543 
N176 X-157.980 Y7.371 Z9.288 F544 
N177 X-158.119 Y7.371 Z9.288 
N178 X-158.258 Y7.371 Z9.288 
N179 X-158.397 Y7.371 Z9.288 
N180 X-158.536 Y7.371 Z9.288 
N181 X-158.675 Y7.371 Z9.288 
N182 X-158.813 Y7.371 Z9.288 
N183 X-158.952 Y7.371 Z9.288 
N184 X-159.091 Y7.371 Z9.288 
N185 X-159.230 Y7.371 Z9.288 
N186 X-159.369 Y7.371 Z9.288 
N187 X-159.508 Y7.371 Z9.288 
N188 X-159.647 Y7.371 Z9.288 
N189 X-159.786 Y7.371 Z9.288 
N190 X-159.925 Y7.371 Z9.288 
N191 X-160.063 Y7.371 Z9.288 
N192 X-160.202 Y7.371 Z9.288 
N193 X-160.511 Y7.371 Z9.336 
N194 X-160.790 Y7.371 Z9.478 
N195 X-161.011 Y7.371 Z9.700 
N196 X-161.154 Y7.371 Z9.978 
N197 X-161.203 Y7.371 Z10.287 
N198 G00 X-161.211 Y7.371 Z60.287 
;RAPORT("TD123456","Contact Milling:154 End")
;trailer : concat=None
; points cnt = 163
N200 M9 ; chlodziwo wyl.
N201 MSG (" --- KONIEC PODPROGRAMU --- ")
N202 FGROUP()
N203 TRAFOOF
N204 STOPRE
N205 G0 G53 D0 Z550.0 M9 M5
N206 G0 G53 Y150 A0 B0
N207 M17
