; PROGRAM NAME: D12345638
; ORDER       : D123456
; OPER. NAME  : Side Milling:150
; OPER. DESCR.: Side Milling/czolo_nozki_po_luku_zgr
; OPER. TYPE  : sideMill
; GEO. OPTION : 1
; MACHINE     : HSTM_300HD_SIM840D_Py
;             : HSTM300/500 - HAMUEL: 5-axis milling machine-SIM840D Traori PP_Script
; CONTROL     : SINUMERIK 840D
; created:   2023-06-05 09:22:13.208703
;-------DODATKOWE DANE-------------------
; PROGRAMISTA : Mariusz Malec
; PARTID      : 301T002184P1010_-
;  ap         : 4.4
;  ae         : 1.0
;  lean_angle : 0.0
;  fin_offset : -3.5
;----------------------------------------
;RAPORT("TD123456","Side Milling:150")
N10 TRAFOOF
N11 D0
N12 G90 G94
N13 G0 G53 D0 Z550
N14 STOPRE
M9 ; chlodziwo wyl
; --- Side Milling:150 - Side Milling/czolo_nozki_po_luku_zgr ---
N16 ;ToolChange : concat=None ,current_tdmid=None, PP.tdmId=957774
N17 TRAFOOF
N18 G0 G53 D0 X-200 Y150 Z550 B0
N19 T="7757774"
;RAPORT("TD123456","ToolChangeStart 7757774")
N20 M6
;RAPORT("TD123456","ToolChangeEnd")
N21 STOPRE
N22 MSG(" TLID=957774 D=10.0 R=0.0 Ang=0.0 Len=129.0 ")
N23 ; (Preloading tool)
N24 T="7757453"
N25 S2864 M03
N26 STOPRE
N27 CYCLE832(0.1,1,1)
N28 G0 G53 A52.0000 B0.0000
N29 TRAORI
N30 G54 D1
;tol5=0.15
N31 D1 
STOPRE
E_ZDARZ=500001
;ACS_ROUGH_ROOT_FRONT=7757774
STOPRE
;UWAGA : ZMIENIONA TOLERANCJA OSI A i B, ruchy osi A i B beda usuniete : TOL5=0.15
N32 ; DELTA A > 40.1
N33 TRAFOOF
N34 D1
N35 STOPRE
N36 G00 G54 Z257.000
N37 G01 A52.0000 F10000
N38 TRAORI
N39 G54 D1
N40 STOPRE
N41 TRANS 
N42 G00 X-134.086 Y-32.378 Z51.957 A52.0000 
N43 M342 ; chlodziwo woda
N44 X-134.086 Y7.023 Z21.174 
N45 ;FSE_1
N46 G01 X-134.071 Y6.407 Z20.386 F458 
N47 X-134.069 Y6.315 Z20.268 
N48 X-134.066 Y6.223 Z20.150 
N49 X-134.064 Y6.130 Z20.032 
N50 X-134.062 Y6.038 Z19.913 
N51 X-134.059 Y5.946 Z19.795 
N52 X-134.057 Y5.853 Z19.677 
N53 X-134.055 Y5.761 Z19.559 
N54 X-134.053 Y5.669 Z19.441 
N55 X-134.050 Y5.576 Z19.322 
N56 X-134.048 Y5.484 Z19.204 
N57 X-134.046 Y5.392 Z19.086 
N58 X-134.043 Y5.299 Z18.968 
N59 X-134.041 Y5.207 Z18.850 
N60 X-134.039 Y5.115 Z18.731 
N61 X-134.036 Y5.022 Z18.613 
N62 X-134.034 Y4.930 Z18.495 
N63 X-134.032 Y4.838 Z18.377 
N64 X-134.030 Y4.745 Z18.259 
N65 X-134.027 Y4.653 Z18.141 
N66 X-134.025 Y4.561 Z18.022 
N67 X-134.023 Y4.467 Z17.903 
N68 X-134.020 Y4.374 Z17.784 
N69 X-134.018 Y4.281 Z17.664 
N70 X-134.016 Y4.187 Z17.545 
N71 X-134.013 Y4.094 Z17.425 
N72 X-134.011 Y4.001 Z17.306 
N73 X-134.009 Y3.908 Z17.187 
N74 X-134.006 Y3.814 Z17.067 
N75 X-134.004 Y3.721 Z16.948 
N76 X-134.002 Y3.628 Z16.829 
N77 X-133.999 Y3.535 Z16.709 
N78 X-133.997 Y3.441 Z16.590 
N79 X-133.995 Y3.348 Z16.470 
N80 X-133.992 Y3.255 Z16.351 
N81 X-133.990 Y3.161 Z16.232 
N82 X-133.988 Y3.068 Z16.112 
N83 X-133.985 Y2.975 Z15.993 
N84 X-133.983 Y2.882 Z15.873 
N85 X-133.981 Y2.788 Z15.754 
N86 X-133.978 Y2.695 Z15.635 
N87 X-133.976 Y2.602 Z15.515 
N88 X-133.974 Y2.509 Z15.396 
N89 X-133.971 Y2.415 Z15.277 
N90 X-133.969 Y2.322 Z15.157 
N91 X-133.967 Y2.229 Z15.038 
N92 X-133.964 Y2.135 Z14.918 
N93 X-133.962 Y2.042 Z14.799 
N94 X-133.960 Y1.949 Z14.680 
N95 X-133.957 Y1.856 Z14.560 
N96 X-133.955 Y1.762 Z14.441 
N97 X-133.953 Y1.669 Z14.322 
N98 X-133.950 Y1.576 Z14.202 
N99 X-133.948 Y1.483 Z14.083 
N100 X-133.946 Y1.388 Z13.962 
N101 X-133.943 Y1.294 Z13.842 
N102 X-133.941 Y1.200 Z13.721 
N103 X-133.939 Y1.106 Z13.601 
N104 X-133.936 Y1.012 Z13.480 
N105 X-133.934 Y0.918 Z13.359 
N106 X-133.932 Y0.823 Z13.239 
N107 X-133.929 Y0.729 Z13.118 
N108 X-133.927 Y0.635 Z12.998 
N109 X-133.925 Y0.541 Z12.877 
N110 X-133.922 Y0.447 Z12.757 
N111 X-133.920 Y0.352 Z12.636 
N112 X-133.918 Y0.258 Z12.516 
N113 X-133.915 Y0.164 Z12.395 
N114 X-133.913 Y0.070 Z12.275 
N115 X-133.911 Y-0.024 Z12.154 
N116 X-133.908 Y-0.118 Z12.033 
N117 X-133.906 Y-0.213 Z11.913 
N118 X-133.904 Y-0.307 Z11.792 
N119 X-133.901 Y-0.401 Z11.672 
N120 X-133.899 Y-0.495 Z11.551 
N121 X-133.896 Y-0.589 Z11.431 
N122 X-133.894 Y-0.684 Z11.310 
N123 X-133.892 Y-0.778 Z11.190 
N124 X-133.889 Y-0.872 Z11.069 
N125 X-133.887 Y-0.966 Z10.949 
N126 X-133.885 Y-1.060 Z10.828 
N127 X-133.882 Y-1.154 Z10.708 
N128 X-133.880 Y-1.249 Z10.587 
N129 X-133.878 Y-1.343 Z10.466 
N130 X-133.875 Y-1.437 Z10.346 
N131 X-133.873 Y-1.531 Z10.225 
N132 X-133.871 Y-1.625 Z10.105 
N133 X-133.868 Y-1.720 Z9.984 
N134 X-133.866 Y-1.814 Z9.864 
N135 X-133.864 Y-1.908 Z9.743 
N136 X-133.862 Y-2.002 Z9.623 
N137 X-133.862 Y-2.096 Z9.502 
N138 X-133.862 Y-2.190 Z9.381 
N139 X-133.862 Y-2.285 Z9.261 
N140 X-133.862 Y-2.379 Z9.140 
N141 X-133.862 Y-2.473 Z9.020 
N142 X-133.862 Y-2.567 Z8.899 
N143 X-133.862 Y-2.661 Z8.779 
N144 X-133.863 Y-2.756 Z8.658 
N145 X-133.863 Y-2.850 Z8.538 
N146 X-133.863 Y-2.944 Z8.417 
N147 X-133.863 Y-3.038 Z8.296 
N148 X-133.863 Y-3.132 Z8.176 
N149 X-133.863 Y-3.227 Z8.055 
N150 X-133.863 Y-3.321 Z7.935 
N151 X-133.863 Y-3.415 Z7.814 
N152 X-133.863 Y-3.509 Z7.694 
N153 X-133.863 Y-3.603 Z7.573 
N154 X-133.863 Y-3.697 Z7.453 
N155 X-133.863 Y-3.792 Z7.332 
N156 X-133.863 Y-3.886 Z7.211 
N157 X-133.863 Y-3.980 Z7.091 
N158 X-133.863 Y-4.074 Z6.970 
N159 X-133.864 Y-4.168 Z6.850 
N160 X-133.864 Y-4.263 Z6.729 
N161 X-133.864 Y-4.357 Z6.609 
N162 X-133.864 Y-4.451 Z6.488 
N163 X-133.864 Y-4.545 Z6.368 
N164 X-133.864 Y-4.639 Z6.247 
N165 X-133.864 Y-4.734 Z6.126 
N166 X-133.864 Y-4.828 Z6.006 
N167 X-133.864 Y-4.922 Z5.885 
N168 X-133.864 Y-5.016 Z5.765 
N169 X-133.864 Y-5.110 Z5.644 
N170 X-133.864 Y-5.205 Z5.524 
N171 X-133.864 Y-5.299 Z5.403 
N172 X-133.864 Y-5.393 Z5.282 
N173 X-133.864 Y-5.487 Z5.162 
N174 X-133.865 Y-5.581 Z5.041 
N175 X-133.865 Y-5.676 Z4.921 
N176 X-133.865 Y-5.770 Z4.800 
N177 X-133.865 Y-5.864 Z4.680 
N178 X-133.867 Y-5.958 Z4.559 
N179 X-133.869 Y-6.052 Z4.439 
N180 X-133.871 Y-6.146 Z4.318 
N181 X-133.874 Y-6.241 Z4.198 
N182 X-133.876 Y-6.335 Z4.077 
N183 X-133.879 Y-6.429 Z3.956 
N184 X-133.881 Y-6.523 Z3.836 
N185 X-133.884 Y-6.617 Z3.715 
N186 X-133.886 Y-6.711 Z3.595 
N187 X-133.889 Y-6.806 Z3.474 
N188 X-133.891 Y-6.900 Z3.354 
N189 X-133.894 Y-6.994 Z3.233 
N190 X-133.896 Y-7.088 Z3.113 
N191 X-133.899 Y-7.182 Z2.992 
N192 X-133.901 Y-7.277 Z2.872 
N193 X-133.904 Y-7.371 Z2.751 
N194 X-133.906 Y-7.465 Z2.630 
N195 X-133.908 Y-7.559 Z2.510 
N196 X-133.911 Y-7.653 Z2.389 
N197 X-133.913 Y-7.747 Z2.269 
N198 X-133.916 Y-7.842 Z2.148 
N199 X-133.918 Y-7.936 Z2.028 
N200 X-133.921 Y-8.030 Z1.907 
N201 X-133.923 Y-8.124 Z1.787 
N202 X-133.926 Y-8.218 Z1.666 
N203 X-133.928 Y-8.313 Z1.546 
N204 X-133.931 Y-8.407 Z1.425 
N205 X-133.933 Y-8.501 Z1.304 
N206 X-133.936 Y-8.595 Z1.184 
N207 X-133.938 Y-8.689 Z1.063 
N208 X-133.941 Y-8.783 Z0.943 
N209 X-133.943 Y-8.878 Z0.822 
N210 X-133.946 Y-8.972 Z0.702 
N211 X-133.948 Y-9.066 Z0.581 
N212 X-133.950 Y-9.160 Z0.461 
N213 X-133.953 Y-9.254 Z0.340 
N214 X-133.956 Y-9.348 Z0.220 
N215 X-133.961 Y-9.443 Z0.099 
N216 X-133.965 Y-9.537 Z-0.021 
N217 X-133.970 Y-9.631 Z-0.142 
N218 X-133.974 Y-9.725 Z-0.262 
N219 X-133.979 Y-9.819 Z-0.383 
N220 X-133.983 Y-9.913 Z-0.503 
N221 X-133.988 Y-10.008 Z-0.624 
N222 X-133.992 Y-10.102 Z-0.744 
N223 X-133.997 Y-10.196 Z-0.865 
N224 X-134.001 Y-10.290 Z-0.985 
N225 X-134.006 Y-10.384 Z-1.106 
N226 X-134.010 Y-10.478 Z-1.226 
N227 X-134.015 Y-10.572 Z-1.347 
N228 X-134.019 Y-10.667 Z-1.467 
N229 X-134.024 Y-10.761 Z-1.588 
N230 X-134.028 Y-10.855 Z-1.709 
N231 X-134.033 Y-10.949 Z-1.829 
N232 X-134.037 Y-11.043 Z-1.950 
N233 X-134.041 Y-11.137 Z-2.070 
N234 X-134.046 Y-11.231 Z-2.191 
N235 X-134.050 Y-11.326 Z-2.311 
N236 X-134.055 Y-11.420 Z-2.432 
N237 X-134.059 Y-11.514 Z-2.552 
N238 X-134.064 Y-11.608 Z-2.673 
N239 X-134.068 Y-11.702 Z-2.793 
N240 X-134.073 Y-11.796 Z-2.914 
N241 X-134.077 Y-11.891 Z-3.034 
N242 X-134.082 Y-11.985 Z-3.155 
N243 X-134.087 Y-12.079 Z-3.275 
N244 X-134.094 Y-12.173 Z-3.396 
N245 X-134.101 Y-12.267 Z-3.516 
N246 X-134.107 Y-12.361 Z-3.636 
N247 X-134.114 Y-12.455 Z-3.757 
N248 X-134.121 Y-12.549 Z-3.877 
N249 X-134.128 Y-12.643 Z-3.998 
N250 X-134.135 Y-12.738 Z-4.118 
N251 X-134.141 Y-12.832 Z-4.239 
N252 X-134.148 Y-12.926 Z-4.359 
N253 X-134.155 Y-13.020 Z-4.479 
N254 X-134.162 Y-13.114 Z-4.600 
N255 X-134.168 Y-13.208 Z-4.720 
N256 X-134.175 Y-13.302 Z-4.841 
N257 X-134.182 Y-13.396 Z-4.961 
N258 X-134.189 Y-13.490 Z-5.082 
N259 X-134.196 Y-13.584 Z-5.202 
N260 X-134.202 Y-13.679 Z-5.323 
N261 X-134.209 Y-13.773 Z-5.443 
N262 X-134.216 Y-13.867 Z-5.563 
N263 X-134.223 Y-13.961 Z-5.684 
N264 X-134.229 Y-14.055 Z-5.804 
N265 X-134.236 Y-14.149 Z-5.925 
N266 X-134.243 Y-14.243 Z-6.045 
N267 X-134.250 Y-14.337 Z-6.166 
N268 X-134.257 Y-14.431 Z-6.286 
N269 X-134.263 Y-14.525 Z-6.407 
N270 X-134.270 Y-14.619 Z-6.527 
N271 X-134.277 Y-14.714 Z-6.647 
N272 X-134.284 Y-14.808 Z-6.768 
N273 X-134.291 Y-14.902 Z-6.888 
N274 X-134.297 Y-14.996 Z-7.009 
N275 X-134.304 Y-15.090 Z-7.129 
N276 X-134.311 Y-15.184 Z-7.250 
N277 X-134.318 Y-15.278 Z-7.370 
N278 X-134.324 Y-15.372 Z-7.490 
N279 X-134.331 Y-15.466 Z-7.611 
N280 X-134.338 Y-15.560 Z-7.731 
N281 X-134.345 Y-15.655 Z-7.852 
N282 X-134.352 Y-15.749 Z-7.972 
N283 X-134.358 Y-15.843 Z-8.093 
N284 X-134.365 Y-15.937 Z-8.213 
N285 X-134.372 Y-16.031 Z-8.334 
N286 X-134.379 Y-16.125 Z-8.454 
N287 X-134.385 Y-16.219 Z-8.574 
N288 X-134.392 Y-16.313 Z-8.695 
N289 X-134.401 Y-16.407 Z-8.815 
N290 X-134.411 Y-16.501 Z-8.936 
N291 X-134.420 Y-16.595 Z-9.056 
N292 X-134.429 Y-16.689 Z-9.176 
N293 X-134.438 Y-16.783 Z-9.297 
N294 X-134.448 Y-16.877 Z-9.417 
N295 X-134.457 Y-16.971 Z-9.537 
N296 X-134.466 Y-17.065 Z-9.658 
N297 X-134.476 Y-17.159 Z-9.778 
N298 X-134.485 Y-17.253 Z-9.898 
N299 X-134.494 Y-17.347 Z-10.019 
N300 X-134.504 Y-17.441 Z-10.139 
N301 X-134.513 Y-17.535 Z-10.259 
N302 X-134.522 Y-17.629 Z-10.380 
N303 X-134.531 Y-17.724 Z-10.500 
N304 X-134.541 Y-17.818 Z-10.620 
N305 X-134.550 Y-17.912 Z-10.741 
N306 X-134.559 Y-18.006 Z-10.861 
N307 X-134.569 Y-18.100 Z-10.981 
N308 X-134.578 Y-18.194 Z-11.102 
N309 X-134.587 Y-18.288 Z-11.222 
N310 X-134.596 Y-18.382 Z-11.342 
N311 X-134.606 Y-18.476 Z-11.463 
N312 X-134.615 Y-18.570 Z-11.583 
N313 X-134.624 Y-18.664 Z-11.703 
N314 X-134.634 Y-18.758 Z-11.824 
N315 X-134.643 Y-18.852 Z-11.944 
N316 X-134.652 Y-18.946 Z-12.064 
N317 X-134.661 Y-19.040 Z-12.185 
N318 X-134.671 Y-19.134 Z-12.305 
N319 X-134.680 Y-19.228 Z-12.425 
N320 X-134.689 Y-19.322 Z-12.546 
N321 X-134.699 Y-19.416 Z-12.666 
N322 X-134.708 Y-19.510 Z-12.786 
N323 X-134.717 Y-19.604 Z-12.907 
N324 X-134.726 Y-19.698 Z-13.027 
N325 X-134.736 Y-19.791 Z-13.146 
N326 X-134.745 Y-19.884 Z-13.265 
N327 X-134.754 Y-19.977 Z-13.385 
N328 X-134.763 Y-20.070 Z-13.504 
N329 X-134.772 Y-20.163 Z-13.623 
N330 X-134.782 Y-20.257 Z-13.742 
N331 X-134.791 Y-20.350 Z-13.861 
N332 X-134.800 Y-20.443 Z-13.980 
N333 X-134.809 Y-20.536 Z-14.100 
N334 X-134.818 Y-20.629 Z-14.219 
N335 X-134.828 Y-20.722 Z-14.338 
N336 X-134.837 Y-20.815 Z-14.457 
N337 X-134.846 Y-20.908 Z-14.576 
N338 X-134.855 Y-21.001 Z-14.695 
N339 X-134.864 Y-21.095 Z-14.815 
N340 X-134.874 Y-21.188 Z-14.934 
N341 X-134.883 Y-21.281 Z-15.053 
N342 X-134.892 Y-21.374 Z-15.172 
N343 X-134.901 Y-21.467 Z-15.291 
N344 X-134.910 Y-21.560 Z-15.411 
N345 X-134.920 Y-21.653 Z-15.530 
N346 X-134.929 Y-21.746 Z-15.649 
N347 X-134.938 Y-21.839 Z-15.768 
N348 X-134.947 Y-21.933 Z-15.887 
N349 X-134.956 Y-22.026 Z-16.006 
N350 X-134.966 Y-22.119 Z-16.126 
N351 X-134.975 Y-22.212 Z-16.245 
N352 X-134.984 Y-22.305 Z-16.364 
N353 X-134.993 Y-22.398 Z-16.483 
N354 X-135.002 Y-22.491 Z-16.602 
N355 X-135.012 Y-22.584 Z-16.721 
N356 X-135.021 Y-22.677 Z-16.841 
N357 X-135.030 Y-22.771 Z-16.960 
N358 G40 X-135.091 Y-23.385 Z-17.746 F458
N359 X-135.091 Y-23.385 Z-17.746 
N360 G00 X-135.091 Y-62.786 Z13.037 
;RAPORT("TD123456","Side Milling:150 End")
;trailer : concat=None
; points cnt = 313
N362 MSG (" --- GROUPED OF SUBPROGRAM --- ")
N363 FGROUP()
N364 TRAFOOF
; PROGRAM NAME: D12345638
; ORDER       : D123456
; OPER. NAME  : Side Milling:151
; OPER. DESCR.: rough face root outlet FSA
; OPER. TYPE  : sideMill
; GEO. OPTION : 1
; MACHINE     : HSTM_300HD_SIM840D_Py
;             : HSTM300/500 - HAMUEL: 5-axis milling machine-SIM840D Traori PP_Script
; CONTROL     : SINUMERIK 840D
; created:   2023-06-05 09:22:17.897365
;-------DODATKOWE DANE-------------------
; PROGRAMISTA : Mariusz Malec
; PARTID      : 301T002184P1010_-
;  ap         : 4.4
;  ae         : 1.0
;  lean_angle : 0.0
;  fin_offset : -3.5
;----------------------------------------
;RAPORT("TD123456","Side Milling:151")
N10 TRAFOOF
N11 D0
N12 G90 G94
N13 G0 G53 D0 Z550
N14 STOPRE
M9 ; chlodziwo wyl
; --- Side Milling:151 - rough face root outlet FSA ---
N16 ;ToolChange : concat=None ,current_tdmid=None, PP.tdmId=957774
N17 TRAFOOF
N18 G0 G53 D0 Z550 B0
N19 STOPRE
N20 MSG(" TLID=957774 D=10.0 R=0.0 Ang=0.0 Len=129.0 ")
N21 S2864 M03
N22 STOPRE
N23 CYCLE832(0.1,1,1)
N24 G0 G53 A232.0000 B-0.0000
N25 TRAORI
N26 G54 D2
;tol5=0.15
N27 D2 
STOPRE
E_ZDARZ=500001
;ACS_ROUGH_ROOT_FRONT=7757774
STOPRE
;UWAGA : ZMIENIONA TOLERANCJA OSI A i B, ruchy osi A i B beda usuniete : TOL5=0.15
N28 ; DELTA A > 40.1
N29 TRAFOOF
N30 D2
N31 STOPRE
N32 G00 G54 Z257.000
N33 G01 A232.0000 F10000
N34 TRAORI
N35 G54 D2
N36 STOPRE
N37 TRANS 
N38 G00 X-134.450 Y32.316 Z-52.030 A232.0000 
N39 M342 ; chlodziwo woda
N40 X-134.450 Y-7.084 Z-21.247 
N41 ;FSA_1
N42 G01 G41 X-134.418 Y-6.469 Z-20.459 F458 
N43 X-134.414 Y-6.377 Z-20.341 
N44 X-134.409 Y-6.284 Z-20.223 
N45 X-134.404 Y-6.192 Z-20.105 
N46 X-134.400 Y-6.100 Z-19.986 
N47 X-134.395 Y-6.008 Z-19.868 
N48 X-134.390 Y-5.915 Z-19.750 
N49 X-134.385 Y-5.823 Z-19.632 
N50 X-134.381 Y-5.731 Z-19.514 
N51 X-134.376 Y-5.638 Z-19.396 
N52 X-134.371 Y-5.546 Z-19.278 
N53 X-134.366 Y-5.454 Z-19.159 
N54 X-134.362 Y-5.361 Z-19.041 
N55 X-134.357 Y-5.269 Z-18.923 
N56 X-134.352 Y-5.177 Z-18.805 
N57 X-134.348 Y-5.085 Z-18.687 
N58 X-134.343 Y-4.992 Z-18.569 
N59 X-134.338 Y-4.900 Z-18.451 
N60 X-134.333 Y-4.808 Z-18.332 
N61 X-134.329 Y-4.715 Z-18.214 
N62 X-134.324 Y-4.623 Z-18.096 
N63 X-134.319 Y-4.530 Z-17.977 
N64 X-134.314 Y-4.437 Z-17.857 
N65 X-134.310 Y-4.343 Z-17.738 
N66 X-134.305 Y-4.250 Z-17.619 
N67 X-134.300 Y-4.157 Z-17.499 
N68 X-134.295 Y-4.064 Z-17.380 
N69 X-134.290 Y-3.970 Z-17.261 
N70 X-134.286 Y-3.877 Z-17.141 
N71 X-134.281 Y-3.784 Z-17.022 
N72 X-134.276 Y-3.691 Z-16.903 
N73 X-134.271 Y-3.597 Z-16.783 
N74 X-134.267 Y-3.504 Z-16.664 
N75 X-134.262 Y-3.411 Z-16.545 
N76 X-134.257 Y-3.318 Z-16.425 
N77 X-134.252 Y-3.224 Z-16.306 
N78 X-134.247 Y-3.131 Z-16.187 
N79 X-134.243 Y-3.038 Z-16.067 
N80 X-134.238 Y-2.945 Z-15.948 
N81 X-134.233 Y-2.852 Z-15.829 
N82 X-134.228 Y-2.758 Z-15.709 
N83 X-134.224 Y-2.665 Z-15.590 
N84 X-134.219 Y-2.572 Z-15.471 
N85 X-134.214 Y-2.479 Z-15.351 
N86 X-134.209 Y-2.385 Z-15.232 
N87 X-134.204 Y-2.292 Z-15.113 
N88 X-134.200 Y-2.199 Z-14.993 
N89 X-134.195 Y-2.106 Z-14.874 
N90 X-134.190 Y-2.012 Z-14.755 
N91 X-134.185 Y-1.919 Z-14.635 
N92 X-134.181 Y-1.826 Z-14.516 
N93 X-134.176 Y-1.733 Z-14.397 
N94 X-134.171 Y-1.639 Z-14.277 
N95 X-134.166 Y-1.546 Z-14.158 
N96 X-134.161 Y-1.452 Z-14.038 
N97 X-134.157 Y-1.358 Z-13.917 
N98 X-134.152 Y-1.264 Z-13.797 
N99 X-134.147 Y-1.170 Z-13.676 
N100 X-134.142 Y-1.076 Z-13.556 
N101 X-134.137 Y-0.981 Z-13.435 
N102 X-134.133 Y-0.887 Z-13.315 
N103 X-134.128 Y-0.793 Z-13.194 
N104 X-134.123 Y-0.699 Z-13.073 
N105 X-134.118 Y-0.605 Z-12.953 
N106 X-134.113 Y-0.511 Z-12.832 
N107 X-134.108 Y-0.416 Z-12.712 
N108 X-134.104 Y-0.322 Z-12.591 
N109 X-134.099 Y-0.228 Z-12.471 
N110 X-134.094 Y-0.134 Z-12.350 
N111 X-134.089 Y-0.040 Z-12.230 
N112 X-134.084 Y0.054 Z-12.109 
N113 X-134.080 Y0.148 Z-11.989 
N114 X-134.075 Y0.243 Z-11.868 
N115 X-134.070 Y0.337 Z-11.748 
N116 X-134.065 Y0.431 Z-11.627 
N117 X-134.060 Y0.525 Z-11.507 
N118 X-134.055 Y0.619 Z-11.386 
N119 X-134.051 Y0.713 Z-11.266 
N120 X-134.046 Y0.807 Z-11.145 
N121 X-134.041 Y0.902 Z-11.025 
N122 X-134.036 Y0.996 Z-10.904 
N123 X-134.031 Y1.090 Z-10.784 
N124 X-134.026 Y1.184 Z-10.663 
N125 X-134.022 Y1.278 Z-10.543 
N126 X-134.017 Y1.372 Z-10.422 
N127 X-134.012 Y1.466 Z-10.302 
N128 X-134.007 Y1.561 Z-10.181 
N129 X-134.002 Y1.655 Z-10.061 
N130 X-133.998 Y1.749 Z-9.940 
N131 X-133.993 Y1.843 Z-9.820 
N132 X-133.988 Y1.937 Z-9.699 
N133 X-133.983 Y2.031 Z-9.579 
N134 X-133.978 Y2.125 Z-9.458 
N135 X-133.973 Y2.220 Z-9.338 
N136 X-133.969 Y2.314 Z-9.217 
N137 X-133.964 Y2.408 Z-9.097 
N138 X-133.959 Y2.502 Z-8.976 
N139 X-133.954 Y2.596 Z-8.856 
N140 X-133.949 Y2.690 Z-8.735 
N141 X-133.945 Y2.784 Z-8.615 
N142 X-133.942 Y2.879 Z-8.494 
N143 X-133.939 Y2.973 Z-8.374 
N144 X-133.937 Y3.067 Z-8.253 
N145 X-133.935 Y3.161 Z-8.133 
N146 X-133.933 Y3.255 Z-8.012 
N147 X-133.931 Y3.350 Z-7.892 
N148 X-133.928 Y3.444 Z-7.771 
N149 X-133.926 Y3.538 Z-7.651 
N150 X-133.924 Y3.632 Z-7.530 
N151 X-133.922 Y3.726 Z-7.410 
N152 X-133.919 Y3.820 Z-7.289 
N153 X-133.917 Y3.915 Z-7.168 
N154 X-133.915 Y4.009 Z-7.048 
N155 X-133.913 Y4.103 Z-6.927 
N156 X-133.910 Y4.197 Z-6.807 
N157 X-133.908 Y4.291 Z-6.686 
N158 X-133.906 Y4.386 Z-6.566 
N159 X-133.904 Y4.480 Z-6.445 
N160 X-133.901 Y4.574 Z-6.325 
N161 X-133.899 Y4.668 Z-6.204 
N162 X-133.897 Y4.762 Z-6.083 
N163 X-133.895 Y4.856 Z-5.963 
N164 X-133.892 Y4.951 Z-5.842 
N165 X-133.890 Y5.045 Z-5.722 
N166 X-133.888 Y5.139 Z-5.601 
N167 X-133.886 Y5.233 Z-5.481 
N168 X-133.884 Y5.327 Z-5.360 
N169 X-133.881 Y5.422 Z-5.240 
N170 X-133.879 Y5.516 Z-5.119 
N171 X-133.877 Y5.610 Z-4.999 
N172 X-133.875 Y5.704 Z-4.878 
N173 X-133.872 Y5.798 Z-4.757 
N174 X-133.870 Y5.892 Z-4.637 
N175 X-133.868 Y5.987 Z-4.516 
N176 X-133.866 Y6.081 Z-4.396 
N177 X-133.863 Y6.175 Z-4.275 
N178 X-133.861 Y6.269 Z-4.155 
N179 X-133.860 Y6.363 Z-4.034 
N180 X-133.860 Y6.458 Z-3.914 
N181 X-133.860 Y6.552 Z-3.793 
N182 X-133.861 Y6.646 Z-3.672 
N183 X-133.861 Y6.740 Z-3.552 
N184 X-133.862 Y6.834 Z-3.431 
N185 X-133.862 Y6.929 Z-3.311 
N186 X-133.863 Y7.023 Z-3.190 
N187 X-133.863 Y7.117 Z-3.070 
N188 X-133.863 Y7.211 Z-2.949 
N189 X-133.864 Y7.305 Z-2.829 
N190 X-133.864 Y7.399 Z-2.708 
N191 X-133.865 Y7.494 Z-2.587 
N192 X-133.865 Y7.588 Z-2.467 
N193 X-133.866 Y7.682 Z-2.346 
N194 X-133.866 Y7.776 Z-2.226 
N195 X-133.866 Y7.870 Z-2.105 
N196 X-133.867 Y7.965 Z-1.985 
N197 X-133.867 Y8.059 Z-1.864 
N198 X-133.868 Y8.153 Z-1.744 
N199 X-133.868 Y8.247 Z-1.623 
N200 X-133.869 Y8.341 Z-1.502 
N201 X-133.869 Y8.436 Z-1.382 
N202 X-133.869 Y8.530 Z-1.261 
N203 X-133.870 Y8.624 Z-1.141 
N204 X-133.870 Y8.718 Z-1.020 
N205 X-133.871 Y8.812 Z-0.900 
N206 X-133.871 Y8.907 Z-0.779 
N207 X-133.872 Y9.001 Z-0.658 
N208 X-133.872 Y9.095 Z-0.538 
N209 X-133.872 Y9.189 Z-0.417 
N210 X-133.873 Y9.283 Z-0.297 
N211 X-133.873 Y9.378 Z-0.176 
N212 X-133.874 Y9.472 Z-0.056 
N213 X-133.874 Y9.566 Z0.065 
N214 X-133.875 Y9.660 Z0.185 
N215 X-133.875 Y9.754 Z0.306 
N216 X-133.875 Y9.848 Z0.427 
N217 X-133.876 Y9.943 Z0.547 
N218 X-133.876 Y10.037 Z0.668 
N219 X-133.877 Y10.131 Z0.788 
N220 X-133.877 Y10.225 Z0.909 
N221 X-133.878 Y10.319 Z1.029 
N222 X-133.878 Y10.414 Z1.150 
N223 X-133.878 Y10.508 Z1.270 
N224 X-133.879 Y10.602 Z1.391 
N225 X-133.879 Y10.696 Z1.512 
N226 X-133.880 Y10.790 Z1.632 
N227 X-133.880 Y10.885 Z1.753 
N228 X-133.881 Y10.979 Z1.873 
N229 X-133.884 Y11.073 Z1.994 
N230 X-133.887 Y11.167 Z2.114 
N231 X-133.890 Y11.261 Z2.235 
N232 X-133.893 Y11.355 Z2.355 
N233 X-133.896 Y11.450 Z2.476 
N234 X-133.899 Y11.544 Z2.596 
N235 X-133.902 Y11.638 Z2.717 
N236 X-133.905 Y11.732 Z2.838 
N237 X-133.908 Y11.826 Z2.958 
N238 X-133.911 Y11.921 Z3.079 
N239 X-133.914 Y12.015 Z3.199 
N240 X-133.917 Y12.109 Z3.320 
N241 X-133.920 Y12.203 Z3.440 
N242 X-133.923 Y12.297 Z3.561 
N243 X-133.926 Y12.391 Z3.681 
N244 X-133.928 Y12.486 Z3.802 
N245 X-133.931 Y12.580 Z3.922 
N246 X-133.934 Y12.674 Z4.043 
N247 X-133.937 Y12.768 Z4.163 
N248 X-133.940 Y12.862 Z4.284 
N249 X-133.943 Y12.956 Z4.405 
N250 X-133.946 Y13.051 Z4.525 
N251 X-133.949 Y13.145 Z4.646 
N252 X-133.952 Y13.239 Z4.766 
N253 X-133.955 Y13.333 Z4.887 
N254 X-133.958 Y13.427 Z5.007 
N255 X-133.961 Y13.521 Z5.128 
N256 X-133.964 Y13.616 Z5.248 
N257 X-133.967 Y13.710 Z5.369 
N258 X-133.970 Y13.804 Z5.489 
N259 X-133.973 Y13.898 Z5.610 
N260 X-133.976 Y13.992 Z5.730 
N261 X-133.980 Y14.087 Z5.851 
N262 X-133.984 Y14.181 Z5.972 
N263 X-133.989 Y14.275 Z6.092 
N264 X-133.994 Y14.369 Z6.213 
N265 X-133.999 Y14.463 Z6.333 
N266 X-134.003 Y14.557 Z6.454 
N267 X-134.008 Y14.651 Z6.574 
N268 X-134.013 Y14.746 Z6.695 
N269 X-134.017 Y14.840 Z6.815 
N270 X-134.022 Y14.934 Z6.936 
N271 X-134.027 Y15.028 Z7.056 
N272 X-134.031 Y15.122 Z7.177 
N273 X-134.036 Y15.216 Z7.297 
N274 X-134.041 Y15.310 Z7.418 
N275 X-134.045 Y15.405 Z7.538 
N276 X-134.050 Y15.499 Z7.659 
N277 X-134.055 Y15.593 Z7.779 
N278 X-134.059 Y15.687 Z7.900 
N279 X-134.064 Y15.781 Z8.020 
N280 X-134.069 Y15.875 Z8.141 
N281 X-134.073 Y15.969 Z8.261 
N282 X-134.078 Y16.064 Z8.382 
N283 X-134.083 Y16.158 Z8.502 
N284 X-134.087 Y16.252 Z8.623 
N285 X-134.094 Y16.346 Z8.743 
N286 X-134.101 Y16.440 Z8.864 
N287 X-134.107 Y16.534 Z8.984 
N288 X-134.114 Y16.628 Z9.104 
N289 X-134.120 Y16.722 Z9.225 
N290 X-134.127 Y16.817 Z9.345 
N291 X-134.133 Y16.911 Z9.466 
N292 X-134.140 Y17.005 Z9.586 
N293 X-134.146 Y17.099 Z9.707 
N294 X-134.153 Y17.193 Z9.827 
N295 X-134.159 Y17.287 Z9.948 
N296 X-134.166 Y17.381 Z10.068 
N297 X-134.172 Y17.475 Z10.188 
N298 X-134.179 Y17.569 Z10.309 
N299 X-134.185 Y17.664 Z10.429 
N300 X-134.192 Y17.758 Z10.550 
N301 X-134.198 Y17.852 Z10.670 
N302 X-134.205 Y17.946 Z10.791 
N303 X-134.211 Y18.040 Z10.911 
N304 X-134.218 Y18.134 Z11.032 
N305 X-134.224 Y18.228 Z11.152 
N306 X-134.231 Y18.322 Z11.273 
N307 X-134.237 Y18.416 Z11.393 
N308 X-134.244 Y18.510 Z11.513 
N309 X-134.250 Y18.605 Z11.634 
N310 X-134.257 Y18.699 Z11.754 
N311 X-134.264 Y18.793 Z11.875 
N312 X-134.270 Y18.887 Z11.995 
N313 X-134.277 Y18.981 Z12.116 
N314 X-134.283 Y19.075 Z12.236 
N315 X-134.290 Y19.169 Z12.357 
N316 X-134.296 Y19.263 Z12.477 
N317 X-134.303 Y19.357 Z12.597 
N318 X-134.309 Y19.452 Z12.718 
N319 X-134.316 Y19.546 Z12.838 
N320 X-134.322 Y19.640 Z12.959 
N321 X-134.329 Y19.733 Z13.078 
N322 X-134.335 Y19.826 Z13.197 
N323 X-134.342 Y19.919 Z13.317 
N324 X-134.348 Y20.013 Z13.436 
N325 X-134.354 Y20.106 Z13.555 
N326 X-134.361 Y20.199 Z13.675 
N327 X-134.367 Y20.292 Z13.794 
N328 X-134.374 Y20.385 Z13.913 
N329 X-134.380 Y20.479 Z14.032 
N330 X-134.387 Y20.572 Z14.152 
N331 X-134.393 Y20.665 Z14.271 
N332 X-134.400 Y20.758 Z14.390 
N333 X-134.406 Y20.851 Z14.510 
N334 X-134.413 Y20.945 Z14.629 
N335 X-134.419 Y21.038 Z14.748 
N336 X-134.425 Y21.131 Z14.867 
N337 X-134.432 Y21.224 Z14.987 
N338 X-134.438 Y21.317 Z15.106 
N339 X-134.445 Y21.411 Z15.225 
N340 X-134.451 Y21.504 Z15.345 
N341 X-134.458 Y21.597 Z15.464 
N342 X-134.464 Y21.690 Z15.583 
N343 X-134.471 Y21.783 Z15.702 
N344 X-134.477 Y21.877 Z15.822 
N345 X-134.484 Y21.970 Z15.941 
N346 X-134.490 Y22.063 Z16.060 
N347 X-134.497 Y22.156 Z16.180 
N348 X-134.503 Y22.249 Z16.299 
N349 X-134.509 Y22.342 Z16.418 
N350 X-134.516 Y22.436 Z16.537 
N351 X-134.522 Y22.529 Z16.657 
N352 X-134.529 Y22.622 Z16.776 
N353 X-134.535 Y22.715 Z16.895 
N354 G40 X-134.578 Y23.330 Z17.683 F458
N355 X-134.578 Y23.330 Z17.683 
N356 G00 X-134.578 Y62.731 Z-13.100 
;RAPORT("TD123456","Side Milling:151 End")
;trailer : concat=None
; points cnt = 313
N358 M9 ; chlodziwo wyl.
N359 MSG (" --- KONIEC PODPROGRAMU --- ")
N360 FGROUP()
N361 TRAFOOF
N362 STOPRE
N363 G0 G53 D0 Z550.0 M9 M5
N364 G0 G53 Y150 A0 B0
N365 M17
