; PROGRAM NAME: D12345685
; ORDER       : D123456
; OPER. NAME  : Side Milling:101
; OPER. DESCR.: FEEEND : POMA D1
; OPER. TYPE  : sideMill
; GEO. OPTION : 1
; MACHINE     : HSTM_300HD_SIM840D_Py
;             : HSTM300/500 - HAMUEL: 5-axis milling machine-SIM840D Traori PP_Script
; CONTROL     : SINUMERIK 840D
; created:   2023-06-05 09:17:01.801645
;-------DODATKOWE DANE-------------------
; PROGRAMISTA : Mariusz Malec
; PARTID      : 301T002184P1010_-
;  ap         : 5.0
;  ae         : 5.0
;  lean_angle : 0.0
;  fin_offset : 0.0
;----------------------------------------
;RAPORT("TD123456","Side Milling:101")
N10 TRAFOOF
N11 D0
N12 G90 G94
N13 G0 G53 D0 Z550
N14 STOPRE
M9 ; chlodziwo wyl
; --- Side Milling:101 - FEEEND : POMA D1 ---
N16 ;ToolChange : concat=None ,current_tdmid=None, PP.tdmId=940983
N17 TRAFOOF
N18 G0 G53 D0 X-200 Y150 Z550 B0
N19 T="7740983"
;RAPORT("TD123456","ToolChangeStart 7740983")
N20 M6
;RAPORT("TD123456","ToolChangeEnd")
N21 STOPRE
N22 MSG(" TLID=940983 D=10.0 R=0.0 Ang=0.0 Len=116.0 ")
N23 ; (Preloading tool)
N24 T="7740984"
N25 S5411 M03
N26 STOPRE
N27 CYCLE832(0.1,1,1)
N28 G0 G53 A142.0000 B-2.3524
N29 TRAORI
N30 G54 D1
N31 D1 
N32 TRANS  X=R20
N33 ; DELTA A > 40.1
N34 TRAFOOF
N35 D1
N36 STOPRE
N37 G00 G54 Z270.000
N38 G01 A142.0000 F10000
N39 TRAORI
N40 G54 D1
N41 STOPRE
N42 TRANS  X=R20
N43 G00 X-164.889 Y-97.033 Z-1.565 A142.0000 B-2.3524 
N44 M342 ; chlodziwo woda
N45 X-162.836 Y-66.275 Z37.802 
N46 D1 
N47 G01 G41 X-162.836 Y-58.395 Z31.646 F670 
N48 X-162.836 Y-58.001 Z31.338 
N49 X-162.836 Y-57.739 Z31.133 
N50 X-162.836 Y-57.476 Z30.927 
N51 X-162.836 Y-57.213 Z30.722 
N52 X-162.836 Y-56.951 Z30.517 
N53 X-162.836 Y-56.688 Z30.312 
N54 X-162.836 Y-56.425 Z30.107 
N55 X-162.836 Y-56.163 Z29.901 
N56 X-162.836 Y-55.900 Z29.696 
N57 X-162.836 Y-55.637 Z29.491 
N58 X-162.836 Y-55.375 Z29.286 
N59 X-162.836 Y-55.112 Z29.080 
N60 X-162.836 Y-54.849 Z28.875 
N61 X-162.836 Y-54.587 Z28.670 
N62 X-162.836 Y-54.324 Z28.465 
N63 X-162.836 Y-54.061 Z28.260 
N64 X-162.836 Y-53.797 Z28.053 
N65 X-162.836 Y-53.533 Z27.847 
N66 X-162.836 Y-53.269 Z27.640 
N67 X-162.836 Y-53.005 Z27.434 
N68 X-162.836 Y-52.740 Z27.228 
N69 X-162.836 Y-52.476 Z27.021 
N70 X-162.836 Y-52.212 Z26.815 
N71 X-162.836 Y-51.948 Z26.608 
N72 X-162.836 Y-51.684 Z26.402 
N73 X-162.836 Y-51.420 Z26.196 
N74 X-162.836 Y-51.155 Z25.989 
N75 X-162.836 Y-50.891 Z25.783 
N76 X-162.836 Y-50.627 Z25.576 
N77 X-162.836 Y-50.363 Z25.370 
N78 X-162.836 Y-50.099 Z25.164 
N79 X-162.836 Y-49.835 Z24.957 
N80 X-162.836 Y-49.570 Z24.751 
N81 X-162.836 Y-49.306 Z24.545 
N82 X-162.836 Y-49.042 Z24.338 
N83 X-162.836 Y-48.778 Z24.132 
N84 X-162.836 Y-48.514 Z23.925 
N85 X-162.836 Y-48.250 Z23.719 
N86 X-162.836 Y-47.985 Z23.513 
N87 X-162.836 Y-47.721 Z23.306 
N88 X-162.836 Y-47.457 Z23.100 
N89 X-162.836 Y-47.193 Z22.893 
N90 X-162.836 Y-46.929 Z22.687 
N91 X-162.836 Y-46.665 Z22.481 
N92 X-162.836 Y-46.400 Z22.274 
N93 X-162.836 Y-46.136 Z22.068 
N94 X-162.836 Y-45.872 Z21.861 
N95 X-162.836 Y-45.608 Z21.655 
N96 X-162.836 Y-45.344 Z21.449 
N97 X-162.836 Y-45.080 Z21.242 
N98 X-162.836 Y-44.815 Z21.036 
N99 X-162.836 Y-44.551 Z20.829 
N100 X-162.836 Y-44.287 Z20.623 
N101 X-162.836 Y-44.023 Z20.417 
N102 X-162.836 Y-43.759 Z20.210 
N103 X-162.836 Y-43.495 Z20.004 
N104 X-162.836 Y-43.230 Z19.798 
N105 X-162.836 Y-42.966 Z19.591 
N106 X-162.836 Y-42.702 Z19.385 
N107 X-162.836 Y-42.438 Z19.178 
N108 X-162.836 Y-42.174 Z18.972 
N109 X-162.836 Y-41.910 Z18.766 
N110 X-162.836 Y-41.645 Z18.559 
N111 X-162.836 Y-41.381 Z18.353 
N112 X-162.836 Y-41.117 Z18.146 
N113 X-162.836 Y-40.853 Z17.940 
N114 X-162.836 Y-40.589 Z17.734 
N115 X-162.836 Y-40.325 Z17.527 
N116 X-162.836 Y-40.060 Z17.321 
N117 X-162.836 Y-39.796 Z17.114 
N118 X-162.836 Y-39.532 Z16.908 
N119 X-162.836 Y-39.268 Z16.702 
N120 X-162.836 Y-39.004 Z16.495 
N121 X-162.836 Y-38.740 Z16.289 
N122 X-162.836 Y-38.475 Z16.083 
N123 X-162.836 Y-38.211 Z15.876 
N124 X-162.836 Y-37.947 Z15.670 
N125 X-162.836 Y-37.683 Z15.463 
N126 X-162.836 Y-37.419 Z15.257 
N127 X-162.836 Y-37.155 Z15.051 
N128 X-162.836 Y-36.890 Z14.844 
N129 X-162.836 Y-36.626 Z14.638 
N130 X-162.836 Y-36.362 Z14.431 
N131 X-162.836 Y-36.098 Z14.225 
N132 X-162.836 Y-35.834 Z14.019 
N133 X-162.836 Y-35.570 Z13.812 
N134 X-162.836 Y-35.305 Z13.606 
N135 X-162.836 Y-35.041 Z13.399 
N136 X-162.836 Y-34.777 Z13.193 
N137 X-162.836 Y-34.513 Z12.987 
N138 X-162.836 Y-34.249 Z12.780 
N139 X-162.836 Y-33.985 Z12.574 
N140 X-162.836 Y-33.720 Z12.367 
N141 X-162.836 Y-33.456 Z12.161 
N142 X-162.836 Y-33.192 Z11.955 
N143 X-162.836 Y-32.928 Z11.748 
N144 X-162.836 Y-32.664 Z11.542 
N145 X-162.836 Y-32.400 Z11.336 
N146 X-162.836 Y-32.135 Z11.129 
N147 X-162.836 Y-31.871 Z10.923 
N148 X-162.836 Y-31.607 Z10.716 
N149 X-162.836 Y-31.343 Z10.510 
N150 X-162.836 Y-31.079 Z10.304 
N151 X-162.836 Y-30.815 Z10.097 
N152 X-162.836 Y-30.550 Z9.891 
N153 X-162.836 Y-30.286 Z9.684 
N154 X-162.836 Y-30.022 Z9.478 
N155 X-162.836 Y-29.758 Z9.272 
N156 X-162.836 Y-29.494 Z9.065 
N157 X-162.836 Y-29.230 Z8.859 
N158 X-162.836 Y-28.965 Z8.652 
N159 X-162.836 Y-28.701 Z8.446 
N160 X-162.836 Y-28.437 Z8.240 
N161 X-162.836 Y-28.173 Z8.033 
N162 X-162.836 Y-27.909 Z7.827 
N163 X-162.836 Y-27.645 Z7.621 
N164 X-162.836 Y-27.380 Z7.414 
N165 X-162.836 Y-27.116 Z7.208 
N166 X-162.836 Y-26.852 Z7.001 
N167 X-162.836 Y-26.588 Z6.795 
N168 X-162.836 Y-26.324 Z6.589 
N169 X-162.836 Y-26.060 Z6.382 
N170 X-162.836 Y-25.795 Z6.176 
N171 X-162.836 Y-25.531 Z5.969 
N172 X-162.836 Y-25.267 Z5.763 
N173 X-162.836 Y-25.003 Z5.557 
N174 X-162.836 Y-24.739 Z5.350 
N175 X-162.836 Y-24.475 Z5.144 
N176 X-162.836 Y-24.210 Z4.937 
N177 X-162.836 Y-23.946 Z4.731 
N178 X-162.836 Y-23.682 Z4.525 
N179 X-162.836 Y-23.418 Z4.318 
N180 X-162.836 Y-23.154 Z4.112 
N181 X-162.836 Y-22.889 Z3.905 
N182 X-162.836 Y-22.625 Z3.699 
N183 X-162.836 Y-22.361 Z3.493 
N184 X-162.836 Y-22.097 Z3.286 
N185 X-162.817 Y-21.834 Z3.080 
N186 X-162.772 Y-21.573 Z2.874 
N187 X-162.701 Y-21.317 Z2.670 
N188 X-162.603 Y-21.067 Z2.469 
N189 X-162.480 Y-20.824 Z2.273 
N190 X-162.333 Y-20.591 Z2.083 
N191 X-162.163 Y-20.368 Z1.900 
N192 X-161.970 Y-20.157 Z1.725 
N193 X-161.755 Y-19.959 Z1.560 
N194 X-161.522 Y-19.776 Z1.405 
N195 X-161.269 Y-19.609 Z1.261 
N196 X-161.000 Y-19.459 Z1.129 
N197 X-160.716 Y-19.326 Z1.011 
N198 X-160.418 Y-19.213 Z0.907 
N199 X-160.110 Y-19.118 Z0.817 
N200 X-159.791 Y-19.044 Z0.742 
N201 X-159.466 Y-18.990 Z0.683 
N202 X-159.135 Y-18.956 Z0.640 
N203 X-158.802 Y-18.944 Z0.613 
N204 X-158.467 Y-18.950 Z0.600 
N205 X-158.132 Y-18.958 Z0.589 
N206 X-157.797 Y-18.967 Z0.578 
N207 X-157.462 Y-18.975 Z0.567 
N208 X-157.127 Y-18.984 Z0.556 
N209 X-156.792 Y-18.992 Z0.545 
N210 X-156.457 Y-19.001 Z0.535 
N211 X-156.122 Y-19.009 Z0.524 
N212 X-155.787 Y-19.018 Z0.513 
N213 X-155.452 Y-19.026 Z0.502 
N214 X-155.117 Y-19.035 Z0.491 
N215 X-154.782 Y-19.043 Z0.480 
N216 X-154.447 Y-19.052 Z0.470 
N217 X-154.112 Y-19.060 Z0.459 
N218 X-153.777 Y-19.068 Z0.448 
N219 X-153.442 Y-19.077 Z0.437 
N220 X-153.107 Y-19.085 Z0.426 
N221 X-152.773 Y-19.094 Z0.415 
N222 X-152.438 Y-19.102 Z0.405 
N223 X-152.103 Y-19.111 Z0.394 
N224 X-151.768 Y-19.119 Z0.383 
N225 X-151.433 Y-19.128 Z0.372 
N226 X-151.098 Y-19.136 Z0.361 
N227 X-150.763 Y-19.145 Z0.350 
N228 X-150.428 Y-19.153 Z0.339 
N229 X-150.093 Y-19.162 Z0.329 
N230 X-149.758 Y-19.170 Z0.318 
N231 X-149.423 Y-19.179 Z0.307 
N232 X-149.088 Y-19.187 Z0.296 
N233 X-148.753 Y-19.196 Z0.285 
N234 X-148.418 Y-19.204 Z0.274 
N235 X-148.083 Y-19.212 Z0.264 
N236 X-147.748 Y-19.221 Z0.253 
N237 X-147.413 Y-19.229 Z0.242 
N238 X-147.078 Y-19.238 Z0.231 
N239 X-146.743 Y-19.246 Z0.220 
N240 X-146.408 Y-19.255 Z0.209 
N241 X-146.073 Y-19.263 Z0.199 
N242 X-145.739 Y-19.272 Z0.188 
N243 X-145.404 Y-19.280 Z0.177 
N244 X-145.069 Y-19.289 Z0.166 
N245 X-144.734 Y-19.297 Z0.155 
N246 X-144.399 Y-19.306 Z0.144 
N247 X-144.064 Y-19.314 Z0.133 
N248 X-143.729 Y-19.323 Z0.123 
N249 X-143.394 Y-19.331 Z0.112 
N250 X-143.059 Y-19.340 Z0.101 
N251 X-142.724 Y-19.348 Z0.090 
N252 X-142.389 Y-19.356 Z0.079 
N253 X-142.054 Y-19.365 Z0.068 
N254 X-141.719 Y-19.373 Z0.058 
N255 X-141.384 Y-19.382 Z0.047 
N256 X-141.049 Y-19.390 Z0.036 
N257 X-140.714 Y-19.399 Z0.025 
N258 X-140.379 Y-19.407 Z0.014 
N259 X-140.044 Y-19.416 Z0.003 
N260 X-139.709 Y-19.424 Z-0.007 
N261 X-139.374 Y-19.433 Z-0.018 
N262 X-139.040 Y-19.441 Z-0.029 
N263 X-138.705 Y-19.450 Z-0.040 
N264 X-138.370 Y-19.458 Z-0.051 
N265 X-138.035 Y-19.474 Z-0.056 
N266 X-137.702 Y-19.511 Z-0.045 
N267 X-137.373 Y-19.568 Z-0.017 
N268 X-137.050 Y-19.646 Z0.027 
N269 X-136.735 Y-19.743 Z0.087 
N270 X-136.430 Y-19.860 Z0.162 
N271 X-136.137 Y-19.996 Z0.253 
N272 X-135.858 Y-20.149 Z0.358 
N273 X-135.595 Y-20.319 Z0.477 
N274 X-135.349 Y-20.504 Z0.609 
N275 X-135.122 Y-20.704 Z0.753 
N276 X-134.915 Y-20.917 Z0.909 
N277 X-134.730 Y-21.142 Z1.075 
N278 X-134.568 Y-21.377 Z1.250 
N279 X-134.429 Y-21.621 Z1.433 
N280 X-134.315 Y-21.872 Z1.624 
N281 X-134.227 Y-22.129 Z1.820 
N282 X-134.165 Y-22.390 Z2.021 
N283 X-134.129 Y-22.654 Z2.225 
N284 X-134.120 Y-22.918 Z2.431 
N285 X-134.120 Y-23.182 Z2.637 
N286 X-134.120 Y-23.446 Z2.843 
N287 X-134.120 Y-23.710 Z3.050 
N288 X-134.120 Y-23.974 Z3.256 
N289 X-134.120 Y-24.239 Z3.463 
N290 X-134.120 Y-24.503 Z3.669 
N291 X-134.120 Y-24.767 Z3.875 
N292 X-134.120 Y-25.031 Z4.082 
N293 X-134.120 Y-25.295 Z4.288 
N294 X-134.120 Y-25.559 Z4.495 
N295 X-134.120 Y-25.824 Z4.701 
N296 X-134.120 Y-26.088 Z4.907 
N297 X-134.120 Y-26.352 Z5.114 
N298 X-134.120 Y-26.616 Z5.320 
N299 X-134.120 Y-26.880 Z5.526 
N300 X-134.120 Y-27.145 Z5.733 
N301 X-134.120 Y-27.409 Z5.939 
N302 X-134.120 Y-27.673 Z6.146 
N303 X-134.120 Y-27.937 Z6.352 
N304 X-134.120 Y-28.201 Z6.558 
N305 X-134.120 Y-28.465 Z6.765 
N306 X-134.120 Y-28.730 Z6.971 
N307 X-134.120 Y-28.994 Z7.178 
N308 X-134.120 Y-29.258 Z7.384 
N309 X-134.120 Y-29.522 Z7.590 
N310 X-134.120 Y-29.786 Z7.797 
N311 X-134.120 Y-30.050 Z8.003 
N312 X-134.120 Y-30.315 Z8.210 
N313 X-134.120 Y-30.579 Z8.416 
N314 X-134.120 Y-30.843 Z8.622 
N315 X-134.120 Y-31.107 Z8.829 
N316 X-134.120 Y-31.371 Z9.035 
N317 X-134.120 Y-31.635 Z9.241 
N318 X-134.120 Y-31.900 Z9.448 
N319 X-134.120 Y-32.164 Z9.654 
N320 X-134.120 Y-32.428 Z9.861 
N321 X-134.120 Y-32.692 Z10.067 
N322 X-134.120 Y-32.956 Z10.273 
N323 X-134.120 Y-33.220 Z10.480 
N324 X-134.120 Y-33.485 Z10.686 
N325 X-134.120 Y-33.749 Z10.893 
N326 X-134.120 Y-34.013 Z11.099 
N327 X-134.120 Y-34.277 Z11.305 
N328 X-134.120 Y-34.541 Z11.512 
N329 X-134.120 Y-34.805 Z11.718 
N330 X-134.120 Y-35.070 Z11.925 
N331 X-134.120 Y-35.334 Z12.131 
N332 X-134.120 Y-35.598 Z12.337 
N333 X-134.120 Y-35.862 Z12.544 
N334 X-134.120 Y-36.126 Z12.750 
N335 X-134.120 Y-36.390 Z12.957 
N336 X-134.120 Y-36.655 Z13.163 
N337 X-134.120 Y-36.919 Z13.369 
N338 X-134.120 Y-37.183 Z13.576 
N339 X-134.120 Y-37.447 Z13.782 
N340 X-134.120 Y-37.711 Z13.988 
N341 X-134.120 Y-37.975 Z14.195 
N342 X-134.120 Y-38.240 Z14.401 
N343 X-134.120 Y-38.502 Z14.606 
N344 X-134.120 Y-38.765 Z14.812 
N345 X-134.120 Y-39.028 Z15.017 
N346 X-134.120 Y-39.290 Z15.222 
N347 X-134.120 Y-39.553 Z15.427 
N348 X-134.120 Y-39.816 Z15.633 
N349 X-134.120 Y-40.078 Z15.838 
N350 X-134.120 Y-40.341 Z16.043 
N351 X-134.120 Y-40.604 Z16.248 
N352 X-134.120 Y-40.866 Z16.453 
N353 X-134.120 Y-41.129 Z16.659 
N354 X-134.120 Y-41.392 Z16.864 
N355 X-134.120 Y-41.654 Z17.069 
N356 X-134.120 Y-41.917 Z17.274 
N357 X-134.120 Y-42.180 Z17.480 
N358 G40 X-134.120 Y-50.060 Z23.636 F670
N359 X-134.120 Y-50.060 Z23.636 
N360 G00 X-136.172 Y-80.817 Z-15.731 
;RAPORT("TD123456","Side Milling:101 End")
;trailer : concat=None
; points cnt = 312
N362 MSG (" --- GROUPED OF SUBPROGRAM --- ")
N363 FGROUP()
N364 TRAFOOF
; PROGRAM NAME: D12345685
; ORDER       : D123456
; OPER. NAME  : Side Milling:102
; OPER. DESCR.: FSSEND : POMA D2 zgr
; OPER. TYPE  : sideMill
; GEO. OPTION : 1
; MACHINE     : HSTM_300HD_SIM840D_Py
;             : HSTM300/500 - HAMUEL: 5-axis milling machine-SIM840D Traori PP_Script
; CONTROL     : SINUMERIK 840D
; created:   2023-06-05 09:17:03.546475
;-------DODATKOWE DANE-------------------
; PROGRAMISTA : Mariusz Malec
; PARTID      : 301T002184P1010_-
;  ap         : 4.0
;  ae         : 5.0
;  lean_angle : 0.0
;  fin_offset : 0.0
;----------------------------------------
;RAPORT("TD123456","Side Milling:102")
N10 TRAFOOF
N11 D0
N12 G90 G94
N13 G0 G53 D0 Z550
N14 STOPRE
M9 ; chlodziwo wyl
; --- Side Milling:102 - FSSEND : POMA D2 zgr ---
N16 ;ToolChange : concat=None ,current_tdmid=None, PP.tdmId=940983
N17 TRAFOOF
N18 G0 G53 D0 Z550 B0
N19 STOPRE
N20 MSG(" TLID=940983 D=10.0 R=0.0 Ang=0.0 Len=116.0 ")
N21 S5411 M03
N22 STOPRE
N23 CYCLE832(0.1,1,1)
N24 G0 G53 A142.0000 B-2.3524
N25 TRAORI
N26 G54 D1
N27 D2 
N28 ; DELTA A > 40.1
N29 TRAFOOF
N30 D2
N31 STOPRE
N32 G00 G54 Z270.000
N33 G01 A142.0000 F10000
N34 TRAORI
N35 G54 D2
N36 STOPRE
N37 TRANS 
N38 G00 X-136.871 Y-64.252 Z-28.637 A142.0000 B-2.3524 
N39 M342 ; chlodziwo woda
N40 X-134.819 Y-33.495 Z10.731 
N41 D2 
N42 G01 G41 X-134.819 Y-25.615 Z4.574 F670 
N43 X-134.819 Y-23.251 Z2.727 
N44 X-134.819 Y-19.311 Z-0.351 
N45 X-134.819 Y-8.214 Z-9.021 
N46 X-134.819 Y-4.274 Z-12.099 
N47 G40 X-134.819 Y3.606 Z-18.256 F670
N48 X-134.819 Y3.606 Z-18.256 
N49 G00 X-136.871 Y-27.151 Z-57.623 
;RAPORT("TD123456","Side Milling:102 End")
;trailer : concat=None
; points cnt = 6
N51 MSG (" --- GROUPED OF SUBPROGRAM --- ")
N52 FGROUP()
N53 TRAFOOF
; PROGRAM NAME: D12345685
; ORDER       : D123456
; OPER. NAME  : Side Milling:103
; OPER. DESCR.: FSSEND : POMA D2 wk
; OPER. TYPE  : sideMill
; GEO. OPTION : 1
; MACHINE     : HSTM_300HD_SIM840D_Py
;             : HSTM300/500 - HAMUEL: 5-axis milling machine-SIM840D Traori PP_Script
; CONTROL     : SINUMERIK 840D
; created:   2023-06-05 09:17:04.631160
;-------DODATKOWE DANE-------------------
; PROGRAMISTA : Mariusz Malec
; PARTID      : 301T002184P1010_-
;  ap         : 4.0
;  ae         : 5.0
;  lean_angle : 0.0
;  fin_offset : 0.0
;----------------------------------------
;RAPORT("TD123456","Side Milling:103")
N10 TRAFOOF
N11 D0
N12 G90 G94
N13 G0 G53 D0 Z550
N14 STOPRE
M9 ; chlodziwo wyl
; --- Side Milling:103 - FSSEND : POMA D2 wk ---
N16 ;ToolChange : concat=None ,current_tdmid=None, PP.tdmId=940983
N17 TRAFOOF
N18 G0 G53 D0 Z550 B0
N19 STOPRE
N20 MSG(" TLID=940983 D=10.0 R=0.0 Ang=0.0 Len=116.0 ")
N21 S5411 M03
N22 STOPRE
N23 CYCLE832(0.1,1,1)
N24 G0 G53 A142.0000 B-2.3524
N25 TRAORI
N26 G54 D1
N27 D2 
N28 ; DELTA A > 40.1
N29 TRAFOOF
N30 D2
N31 STOPRE
N32 G00 G54 Z270.000
N33 G01 A142.0000 F10000
N34 TRAORI
N35 G54 D2
N36 STOPRE
N37 TRANS 
N38 G00 X-137.071 Y-64.247 Z-28.630 A142.0000 B-2.3524 
N39 M342 ; chlodziwo woda
N40 X-135.019 Y-33.490 Z10.737 
N41 D2 
N42 G01 G41 X-135.019 Y-25.610 Z4.581 F670 
N43 X-135.019 Y-23.246 Z2.734 
N44 X-135.019 Y-19.306 Z-0.345 
N45 X-135.019 Y-8.209 Z-9.014 
N46 X-135.019 Y-4.269 Z-12.093 
N47 G40 X-135.019 Y3.611 Z-18.249 F670
N48 X-135.019 Y3.611 Z-18.249 
N49 G00 X-137.071 Y-27.146 Z-57.617 
;RAPORT("TD123456","Side Milling:103 End")
;trailer : concat=None
; points cnt = 6
N51 MSG (" --- GROUPED OF SUBPROGRAM --- ")
N52 FGROUP()
N53 TRAFOOF
; PROGRAM NAME: D12345685
; ORDER       : D123456
; OPER. NAME  : Side Milling:104
; OPER. DESCR.: DFAZEND 
; OPER. TYPE  : sideMill
; GEO. OPTION : 1
; MACHINE     : HSTM_300HD_SIM840D_Py
;             : HSTM300/500 - HAMUEL: 5-axis milling machine-SIM840D Traori PP_Script
; CONTROL     : SINUMERIK 840D
; created:   2023-06-05 09:17:05.723301
;-------DODATKOWE DANE-------------------
; PROGRAMISTA : Mariusz Malec
; PARTID      : 301T002184P1010_-
;  ap         : 5.0
;  ae         : 5.0
;  lean_angle : 0.0
;  fin_offset : 0.0
;----------------------------------------
;RAPORT("TD123456","Side Milling:104")
N10 TRAFOOF
N11 D0
N12 G90 G94
N13 G0 G53 D0 Z550
N14 STOPRE
M9 ; chlodziwo wyl
; --- Side Milling:104 - DFAZEND  ---
N16 ;ToolChange : concat=None ,current_tdmid=None, PP.tdmId=940984
N17 TRAFOOF
N18 G0 G53 D0 X-200 Y150 Z550 B0
N19 T="7740984"
;RAPORT("TD123456","ToolChangeStart 7740984")
N20 M6
;RAPORT("TD123456","ToolChangeEnd")
N21 STOPRE
N22 MSG(" TLID=940984 D=12.0 R=0.0 Ang=0.0 Len=120.0 ")
N23 ; (Preloading tool)
N24 T="7740664"
N25 S5305 M03
N26 STOPRE
N27 CYCLE832(0.1,1,1)
N28 G0 G53 A142.0000 B-2.3524
N29 TRAORI
N30 G54 D1
N31 D1 
N32 TRANS  X=R21
N33 ; DELTA A > 40.1
N34 TRAFOOF
N35 D1
N36 STOPRE
N37 G00 G54 Z266.000
N38 G01 A142.0000 F10000
N39 TRAORI
N40 G54 D1
N41 STOPRE
N42 TRANS  X=R21
N43 G00 X-141.368 Y-7.403 Z-72.817 A142.0000 B-2.3524 
N44 M342 ; chlodziwo woda
N45 X-139.315 Y23.354 Z-33.450 
N46 G01 X-139.315 Y15.474 Z-27.293 F795 
N47 X-139.315 Y14.292 Z-26.370 
N48 X-139.315 Y13.110 Z-25.446 
N49 X-139.315 Y12.164 Z-24.708 
N50 X-139.315 Y11.219 Z-23.969 
N51 X-139.315 Y10.273 Z-23.230 
N52 X-139.315 Y9.327 Z-22.491 
N53 X-139.315 Y8.382 Z-21.752 
N54 X-139.315 Y7.379 Z-20.969 
N55 X-139.315 Y6.376 Z-20.186 
N56 X-139.315 Y5.373 Z-19.402 
N57 X-139.315 Y4.371 Z-18.619 
N58 X-139.315 Y3.368 Z-17.835 
N59 X-139.315 Y2.365 Z-17.052 
N60 X-139.315 Y1.362 Z-16.268 
N61 X-139.315 Y0.360 Z-15.485 
N62 X-139.315 Y-0.643 Z-14.701 
N63 X-139.315 Y-1.646 Z-13.918 
N64 X-139.315 Y-2.649 Z-13.134 
N65 X-139.315 Y-3.594 Z-12.396 
N66 X-139.315 Y-4.540 Z-11.657 
N67 X-139.315 Y-5.486 Z-10.918 
N68 X-139.315 Y-6.431 Z-10.179 
N69 X-139.315 Y-7.377 Z-9.440 
N70 X-139.726 Y-13.528 Z-17.314 F1000 
N71 G00 X-141.368 Y-38.134 Z-48.808 
;RAPORT("TD123456","Side Milling:104 End")
;trailer : concat=None
; points cnt = 25
N73 MSG (" --- GROUPED OF SUBPROGRAM --- ")
N74 FGROUP()
N75 TRAFOOF
; PROGRAM NAME: D12345685
; ORDER       : D123456
; OPER. NAME  : Side Milling:105
; OPER. DESCR.: NNTEEND : Lejek D5
; OPER. TYPE  : sideMill
; GEO. OPTION : 1
; MACHINE     : HSTM_300HD_SIM840D_Py
;             : HSTM300/500 - HAMUEL: 5-axis milling machine-SIM840D Traori PP_Script
; CONTROL     : SINUMERIK 840D
; created:   2023-06-05 09:17:07.219211
;-------DODATKOWE DANE-------------------
; PROGRAMISTA : Mariusz Malec
; PARTID      : 301T002184P1010_-
;  ap         : 5.0
;  ae         : 5.0
;  lean_angle : 0.0
;  fin_offset : 0.0
;----------------------------------------
;RAPORT("TD123456","Side Milling:105")
N10 TRAFOOF
N11 D0
N12 G90 G94
N13 G0 G53 D0 Z550
N14 STOPRE
M9 ; chlodziwo wyl
; --- Side Milling:105 - NNTEEND : Lejek D5 ---
N16 ;ToolChange : concat=None ,current_tdmid=None, PP.tdmId=940664
N17 TRAFOOF
N18 G0 G53 D0 X-200 Y150 Z550 B0
N19 T="7740664"
;RAPORT("TD123456","ToolChangeStart 7740664")
N20 M6
;RAPORT("TD123456","ToolChangeEnd")
N21 STOPRE
N22 MSG(" TLID=940664 D=6.0 R=0.6 Ang=0.0 Len=100.0 ")
N23 ; (Preloading tool)
N24 T="7740983"
N25 S9018 M03
N26 STOPRE
N27 CYCLE832(0.1,1,1)
N28 G0 G53 A52.0000 B0.0000
N29 TRAORI
N30 G54 D1
N31 ; DELTA A > 40.1
N32 TRAFOOF
N33 D1
N34 STOPRE
N35 G00 G54 Z286.000
N36 G01 A52.0000 F10000
N37 TRAORI
N38 G54 D1
N39 STOPRE
N40 TRANS 
N41 G00 X-152.666 Y-67.127 Z6.668 A52.0000 
N42 M342 ; chlodziwo woda
N43 X-152.666 Y-27.726 Z-24.115 
N44 D5 
N45 G01 G42 X-150.941 Y-21.662 Z-16.353 F541 
N46 X-150.423 Y-19.843 Z-14.024 
N47 X-149.906 Y-18.023 Z-11.696 
N48 X-148.968 Y-14.726 Z-7.476 
N49 X-148.450 Y-12.907 Z-5.147 
N50 G40 X-148.450 Y-12.907 Z-5.147 F541
N51 
N52 G00 X-148.450 Y-52.308 Z25.636 
;RAPORT("TD123456","Side Milling:105 End")
;trailer : concat=None
; points cnt = 6
N54 MSG (" --- GROUPED OF SUBPROGRAM --- ")
N55 FGROUP()
N56 TRAFOOF
; PROGRAM NAME: D12345685
; ORDER       : D123456
; OPER. NAME  : Side Milling:106
; OPER. DESCR.: NNTEEND : Lejek D6
; OPER. TYPE  : sideMill
; GEO. OPTION : 1
; MACHINE     : HSTM_300HD_SIM840D_Py
;             : HSTM300/500 - HAMUEL: 5-axis milling machine-SIM840D Traori PP_Script
; CONTROL     : SINUMERIK 840D
; created:   2023-06-05 09:17:08.665749
;-------DODATKOWE DANE-------------------
; PROGRAMISTA : Mariusz Malec
; PARTID      : 301T002184P1010_-
;  ap         : 5.0
;  ae         : 5.0
;  lean_angle : 0.0
;  fin_offset : 0.0
;----------------------------------------
;RAPORT("TD123456","Side Milling:106")
N10 TRAFOOF
N11 D0
N12 G90 G94
N13 G0 G53 D0 Z550
N14 STOPRE
M9 ; chlodziwo wyl
; --- Side Milling:106 - NNTEEND : Lejek D6 ---
N16 ;ToolChange : concat=None ,current_tdmid=None, PP.tdmId=940664
N17 TRAFOOF
N18 G0 G53 D0 Z550 B0
N19 STOPRE
N20 MSG(" TLID=940664 D=6.0 R=0.6 Ang=0.0 Len=100.0 ")
N21 S9018 M03
N22 STOPRE
N23 CYCLE832(0.1,1,1)
N24 G0 G53 A52.0000 B0.0000
N25 TRAORI
N26 G54 D1
N27 ; DELTA A > 40.1
N28 TRAFOOF
N29 D1
N30 STOPRE
N31 G00 G54 Z286.000
N32 G01 A52.0000 F10000
N33 TRAORI
N34 G54 D1
N35 STOPRE
N36 TRANS 
N37 G00 X-145.935 Y-67.406 Z6.311 A52.0000 
N38 M342 ; chlodziwo woda
N39 X-145.935 Y-28.005 Z-24.472 
N40 D6 
N41 G01 G41 X-146.814 Y-21.872 Z-16.622 F541 
N42 X-146.902 Y-21.259 Z-15.837 
N43 X-146.990 Y-20.646 Z-15.052 
N44 X-147.078 Y-20.032 Z-14.267 
N45 X-147.166 Y-19.419 Z-13.482 
N46 X-147.254 Y-18.806 Z-12.697 
N47 X-147.342 Y-18.193 Z-11.913 
N48 X-147.424 Y-17.619 Z-11.178 
N49 X-147.506 Y-17.045 Z-10.444 
N50 X-147.588 Y-16.471 Z-9.709 
N51 X-147.671 Y-15.898 Z-8.975 
N52 X-147.753 Y-15.324 Z-8.241 
N53 X-147.835 Y-14.750 Z-7.506 
N54 X-147.923 Y-14.137 Z-6.721 
N55 X-148.011 Y-13.523 Z-5.936 
N56 X-148.099 Y-12.910 Z-5.151 
N57 G40 X-148.099 Y-12.910 Z-5.151 F541
N58 
N59 G00 X-148.099 Y-52.311 Z25.632 
;RAPORT("TD123456","Side Milling:106 End")
;trailer : concat=None
; points cnt = 17
N61 M9 ; chlodziwo wyl.
N62 MSG (" --- KONIEC PODPROGRAMU --- ")
N63 FGROUP()
N64 TRAFOOF
N65 STOPRE
N66 G0 G53 D0 Z550.0 M9 M5
N67 G0 G53 Y150 A0 B0
N68 M17
