; ORDER       : D123456
; OPER. NAME  : Flank Milling Transition:147
; OPER. DESCR.: finish flank root/promienie_przejsc_wk
; OPER. TYPE  : preFinFlank
; GEO. OPTION : 2
; MACHINE     : HSTM_300HD_SIM840D_Py
;             : HSTM300/500 - HAMUEL: 5-axis milling machine-SIM840D Traori PP_Script
; CONTROL     : SINUMERIK 840D
; created:   2023-06-05 09:21:35.731554
;-------DODATKOWE DANE-------------------
; PROGRAMISTA : Mariusz Malec
; PARTID      : 301T002184P1010_-
;  dec_value  : 0.7
;  lean_angle : 24.0
;  tilt_angle : 0.0
;  airf_offset: 0.05
;  firstoffset: 1.5
;----------------------------------------
;RAPORT("TD123456","Flank Milling Transition:147")
N10 TRAFOOF
N11 D0
N12 G90 G94
N13 G0 G53 D0 Z550
N14 STOPRE
M9 ; chlodziwo wyl
; --- Flank Milling Transition:147 - finish flank root/promienie_przejsc_wk ---
N16 ;ToolChange : concat=None ,current_tdmid=None, PP.tdmId=970356
N17 TRAFOOF
N18 G0 G53 D0 X-200 Y150 Z550 B0
N19 T="7770356"
;RAPORT("TD123456","ToolChangeStart 7770356")
N20 M6
;RAPORT("TD123456","ToolChangeEnd")
N21 STOPRE
N22 MSG(" TLID=970356 D=3.86 R=2.3 Ang=10.0 Len=170.0 ")
N23 ; (Preloading tool)
N24 T="7741084"
N25 S9978 M03
N26 STOPRE
N27 CYCLE832(0.001,1,1)
N28 G0 G53 A197.9442 B-7.0116
N29 TRAORI
N30 G54 D3
N31 D3 
N32 TRANS  X=R9 A=R25
STOPRE
E_ZDARZ=300017
;ACS_FINISH_UBG_PLATFORM_XLB_ROOT=7770356
STOPRE
N33 ; DELTA A > 40.1
N34 TRAFOOF
N35 D3
N36 STOPRE
N37 G00 G54 Z216.000
N38 G01 A197.9442 F10000
N39 
N40 G54 D3
N41 STOPRE
N42 TRANS  X=R9 A=R25
N43 G00 X-174.971 Y49.284 Z-39.402 A197.9442 B-7.0116 
N44 M340 ; chlodziwo centralne
N45 X-168.868 Y33.994 Z7.810 
N46 G01 X-168.907 Y31.563 Z9.779 F878 
N47 X-169.019 Y28.645 Z10.901 
N48 X-169.194 Y25.525 Z11.068 
N49 X-169.414 Y22.510 Z10.263 
N50 M340 ; chlodziwo centralne
N51 X-169.659 Y19.894 Z8.564 
N52 X-169.674 Y19.836 Z8.470 A360.0000 B-6.9997 
N53 X-169.691 Y19.696 Z8.348 A195.4567 B-7.0147 
N54 X-169.710 Y19.532 Z8.212 A195.4235 B-7.0350 
N55 X-169.728 Y19.354 Z8.064 A195.3963 B-7.0571 
N56 X-169.746 Y19.163 Z7.906 A195.3629 B-7.0809 
N57 X-169.763 Y18.957 Z7.736 A195.3243 B-7.1065 
N58 X-169.780 Y18.737 Z7.555 A195.2808 B-7.1339 
N59 X-169.795 Y18.503 Z7.363 A195.2312 B-7.1630 
N60 X-169.808 Y18.256 Z7.159 A195.1734 B-7.1938 
N61 X-169.821 Y17.997 Z6.946 A195.1045 B-7.2263 
N62 X-169.832 Y17.725 Z6.724 A195.0210 B-7.2603 
N63 X-169.840 Y17.443 Z6.493 A194.9205 B-7.2958 
N64 X-169.846 Y17.151 Z6.256 A194.8015 B-7.3326 
N65 X-169.848 Y16.851 Z6.012 A194.6637 B-7.3706 
N66 X-169.848 Y16.544 Z5.763 A194.5073 B-7.4098 
N67 X-169.844 Y16.230 Z5.511 A194.3325 B-7.4501 
N68 X-169.836 Y15.912 Z5.256 A194.1391 B-7.4914 
N69 X-169.827 Y15.588 Z4.999 A193.9271 B-7.5335 
N70 X-169.819 Y15.262 Z4.741 A193.6965 B-7.5772 
N71 X-169.811 Y14.933 Z4.483 A193.4471 B-7.6255 
N72 X-169.803 Y14.602 Z4.226 A193.1771 B-7.6748 
N73 X-169.797 Y14.270 Z3.970 A192.8841 B-7.7251 
N74 X-169.790 Y13.938 Z3.716 A192.5647 B-7.7764 
N75 X-169.784 Y13.606 Z3.465 A192.2169 B-7.8289 
N76 X-169.779 Y13.275 Z3.217 A191.8402 B-7.8825 
N77 X-169.774 Y12.944 Z2.972 A191.4352 B-7.9373 
N78 X-169.770 Y12.615 Z2.732 A191.0027 B-7.9935 
N79 X-169.767 Y12.287 Z2.496 A190.5428 B-8.0510 
N80 X-169.764 Y11.961 Z2.265 A190.0554 B-8.1099 
N81 X-169.761 Y11.637 Z2.039 A189.5397 B-8.1704 
N82 X-169.759 Y11.315 Z1.818 A188.9951 B-8.2326 
N83 X-169.758 Y10.995 Z1.602 A188.4209 B-8.2965 
N84 X-169.757 Y10.678 Z1.392 A187.8164 B-8.3624 
N85 X-169.756 Y10.363 Z1.188 A187.1808 B-8.4304 
N86 X-169.756 Y10.051 Z0.990 A186.5133 B-8.5006 
N87 X-169.756 Y9.741 Z0.798 A185.8133 B-8.5732 
N88 X-169.757 Y9.434 Z0.612 A185.0797 B-8.6485 
N89 X-169.758 Y9.131 Z0.432 A184.3110 B-8.7265 
N90 X-169.760 Y8.830 Z0.259 A183.5049 B-8.8076 
N91 X-169.761 Y8.533 Z0.093 A182.6586 B-8.8922 
N92 X-169.764 Y8.240 Z-0.067 A181.7695 B-8.9805 
N93 X-169.766 Y7.950 Z-0.220 A180.8365 B-9.0729 
N94 X-169.769 Y7.663 Z-0.366 A179.8602 B-9.1597 
N95 X-169.773 Y7.381 Z-0.505 A178.8425 B-9.2310 
N96 X-169.777 Y7.101 Z-0.638 A177.7871 B-9.3042 
N97 X-169.781 Y6.825 Z-0.763 A176.6966 B-9.3793 
N98 X-169.786 Y6.553 Z-0.881 A175.5723 B-9.4561 
N99 X-169.791 Y6.284 Z-0.993 A174.4147 B-9.5346 
N100 X-169.796 Y6.018 Z-1.098 A173.2234 B-9.6148 
N101 X-169.801 Y5.756 Z-1.196 A171.9975 B-9.6967 
N102 X-169.807 Y5.498 Z-1.288 A170.7364 B-9.7804 
N103 X-169.812 Y5.243 Z-1.373 A169.4400 B-9.8657 
N104 X-169.818 Y4.992 Z-1.452 A168.1086 B-9.9527 
N105 X-169.824 Y4.744 Z-1.524 A166.7427 B-10.0413 
N106 X-169.830 Y4.500 Z-1.590 A165.3427 B-10.1313 
N107 X-169.836 Y4.259 Z-1.650 A163.9097 B-10.2228 
N108 X-169.843 Y4.021 Z-1.704 A162.4448 B-10.3155 
N109 X-169.849 Y3.787 Z-1.751 A160.9495 B-10.4094 
N110 X-169.855 Y3.556 Z-1.793 A159.4255 B-10.5042 
N111 X-169.862 Y3.328 Z-1.828 A157.8743 B-10.5999 
N112 X-169.868 Y3.102 Z-1.858 A156.2975 B-10.6963 
N113 X-169.875 Y2.880 Z-1.882 A154.6968 B-10.7933 
N114 X-169.881 Y2.660 Z-1.901 A153.0738 B-10.8906 
N115 X-169.888 Y2.442 Z-1.913 A151.4306 B-10.9881 
N116 X-169.894 Y2.227 Z-1.920 A149.7692 B-11.0857 
N117 X-169.901 Y2.014 Z-1.921 A148.0917 B-11.1831 
N118 X-169.908 Y1.803 Z-1.917 A146.4002 B-11.2803 
N119 X-169.914 Y1.594 Z-1.907 A144.6969 B-11.3770 
N120 X-169.921 Y1.387 Z-1.891 A142.9839 B-11.4732 
N121 X-169.928 Y1.181 Z-1.869 A141.2629 B-11.5687 
N122 X-169.935 Y0.977 Z-1.841 A139.5357 B-11.6634 
N123 X-169.941 Y0.774 Z-1.808 A137.8044 B-11.7572 
N124 X-169.948 Y0.572 Z-1.768 A136.0710 B-11.8501 
N125 X-169.955 Y0.372 Z-1.722 A134.3383 B-11.9420 
N126 X-169.962 Y0.173 Z-1.670 A132.6113 B-12.0327 
N127 X-169.969 Y-0.026 Z-1.612 A130.9016 B-12.1220 
N128 X-169.975 Y-0.224 Z-1.545 A129.2369 B-12.2088 
N129 X-169.982 Y-0.423 Z-1.470 A127.6753 B-12.2912 
N130 X-169.989 Y-0.625 Z-1.381 A126.3139 B-12.3657 
N131 X-169.997 Y-0.832 Z-1.275 A125.2764 B-12.4279 
N132 X-170.005 Y-1.046 Z-1.148 A124.6713 B-12.4707 
N133 X-170.016 Y-1.267 Z-0.999 A124.5385 B-12.4517 
N134 X-170.028 Y-1.494 Z-0.829 A124.8230 B-12.3940 
N135 X-170.040 Y-1.723 Z-0.643 A125.3880 B-12.3235 
N136 X-170.053 Y-1.952 Z-0.446 A126.0572 B-12.2440 
N137 X-170.066 Y-2.174 Z-0.245 A126.6588 B-12.1469 
N138 X-170.080 Y-2.389 Z-0.044 A127.0530 B-12.0160 
N139 X-170.097 Y-2.591 Z0.154 A127.1464 B-11.8288 
N140 X-170.117 Y-2.781 Z0.348 A126.8943 B-11.5565 
N141 X-170.141 Y-2.957 Z0.537 A126.2949 B-11.1643 
N142 X-170.171 Y-3.122 Z0.722 A125.3777 B-10.6128 
N143 X-170.208 Y-3.279 Z0.909 A124.1412 B-9.8802 
N144 X-170.249 Y-3.436 Z1.104 A122.6134 B-8.9709 
N145 X-170.295 Y-3.585 Z1.300 A120.9793 B-7.8144 
N146 X-170.342 Y-3.730 Z1.499 A119.3036 B-6.4862 
N147 X-170.360 Y-3.873 Z1.699 A117.6049 B-5.7445 
N148 X-170.374 Y-4.014 Z1.902 A115.9197 B-4.9994 
N149 X-170.383 Y-4.151 Z2.110 A114.2643 B-4.2543 
N150 X-170.387 Y-4.285 Z2.322 A112.6439 B-3.5098 
N151 X-170.387 Y-4.415 Z2.539 A111.0562 B-2.7648 
N152 X-170.382 Y-4.542 Z2.759 A109.4966 B-2.0182 
N153 X-170.372 Y-4.665 Z2.982 A107.9630 B-1.2696 
N154 X-170.359 Y-4.785 Z3.209 A106.4559 B-0.5200 
N155 X-170.341 Y-4.900 Z3.438 A104.9776 B0.2289 
N156 X-170.319 Y-5.012 Z3.669 A103.5306 B0.9752 
N157 X-170.294 Y-5.119 Z3.903 A102.1160 B1.7172 
N158 X-170.265 Y-5.221 Z4.138 A100.7304 B2.4546 
N159 X-170.232 Y-5.319 Z4.373 A99.3644 B3.1885 
N160 X-170.198 Y-5.412 Z4.607 A98.0049 B3.9211 
N161 X-170.160 Y-5.499 Z4.840 A96.6375 B4.6545 
N162 X-170.122 Y-5.581 Z5.069 A95.2507 B5.3898 
N163 X-170.082 Y-5.656 Z5.293 A93.8383 B6.1263 
N164 X-170.041 Y-5.726 Z5.513 A92.3968 B6.8622 
N165 X-170.000 Y-5.789 Z5.726 A90.9229 B7.5955 
N166 X-169.959 Y-5.846 Z5.932 A89.4080 B8.3255 
N167 X-169.920 Y-5.896 Z6.129 A87.8301 B9.0543 
N168 X-169.881 Y-5.940 Z6.316 A86.1747 B9.7818 
N169 X-169.845 Y-5.979 Z6.493 A84.4532 B10.5006 
N170 X-169.811 Y-6.011 Z6.659 A82.6828 B11.2026 
N171 X-169.778 Y-6.039 Z6.814 A80.8402 B11.8892 
N172 X-169.749 Y-6.061 Z6.955 A78.8719 B12.5668 
N173 X-169.724 Y-6.080 Z7.080 A76.7504 B13.2337 
N174 X-169.703 Y-6.096 Z7.189 A74.4614 B13.8838 
N175 X-169.688 Y-6.111 Z7.282 A71.9992 B14.5918 
N176 X-169.683 Y-6.127 Z7.359 A69.3575 B15.4194 
N177 X-169.678 Y-6.145 Z7.419 A66.5034 B16.1166 
N178 X-169.672 Y-6.164 Z7.464 A63.4633 B16.6871 
N179 X-169.667 Y-6.187 Z7.495 A60.2701 B17.1327 
N180 X-169.660 Y-6.213 Z7.516 A56.9614 B17.4545 
N181 X-169.653 Y-6.244 Z7.528 A53.5768 B17.6539 
N182 X-169.644 Y-6.278 Z7.536 A50.1525 B17.7335 
N183 X-169.633 Y-6.316 Z7.539 A46.7226 B17.6980 
N184 X-169.620 Y-6.357 Z7.542 A43.3221 B17.5540 
N185 X-169.605 Y-6.400 Z7.545 A39.9854 B17.3107 
N186 X-169.589 Y-6.443 Z7.549 A36.7406 B16.9791 
N187 X-169.570 Y-6.486 Z7.557 A33.6012 B16.5702 
N188 X-169.550 Y-6.527 Z7.568 A30.5635 B16.0924 
N189 X-169.529 Y-6.567 Z7.582 A27.6110 B15.5509 
N190 X-169.506 Y-6.607 Z7.600 A24.7242 B14.9478 
N191 X-169.481 Y-6.645 Z7.621 A21.8877 B14.2841 
N192 X-169.455 Y-6.681 Z7.645 A19.0937 B13.5607 
N193 X-169.428 Y-6.715 Z7.673 A16.3399 B12.7790 
N194 X-169.401 Y-6.746 Z7.705 A13.6263 B11.9407 
N195 X-169.372 Y-6.775 Z7.742 A10.9514 B11.0466 
N196 X-169.340 Y-6.799 Z7.783 A8.3126 B10.0965 
N197 X-169.305 Y-6.818 Z7.828 A5.7083 B9.0898 
N198 X-169.267 Y-6.832 Z7.877 A3.1396 B8.0251 
N199 X-169.226 Y-6.839 Z7.930 A0.6085 B6.9003 
N200 X-169.183 Y-6.839 Z7.988 A358.1183 B5.7118 
N201 X-169.140 Y-6.832 Z8.048 A355.6663 B4.4753 
N202 X-169.098 Y-6.816 Z8.112 A353.2399 B3.2337 
N203 X-169.059 Y-6.790 Z8.179 A350.8426 B1.9963 
N204 X-169.025 Y-6.755 Z8.247 A348.4804 B0.7727 
N205 X-168.996 Y-6.708 Z8.317 A346.1618 B-0.4268 
N206 X-168.973 Y-6.649 Z8.386 A343.9011 B-1.5896 
N207 X-168.959 Y-6.576 Z8.453 A341.7168 B-2.7020 
N208 X-168.953 Y-6.489 Z8.516 A339.6227 B-3.7533 
N209 X-168.956 Y-6.386 Z8.575 A337.6283 B-4.7356 
N210 X-168.969 Y-6.269 Z8.627 A335.7385 B-5.6442 
N211 X-168.991 Y-6.138 Z8.672 A333.9494 B-6.4790 
N212 X-169.022 Y-5.992 Z8.709 A332.2555 B-7.2410 
N213 X-169.061 Y-5.832 Z8.736 A330.6672 B-7.9262 
N214 X-169.109 Y-5.659 Z8.753 A329.1847 B-8.5355 
N215 X-169.164 Y-5.473 Z8.761 A327.7847 B-9.0785 
N216 X-169.224 Y-5.277 Z8.759 A326.4298 B-9.5685 
N217 X-169.288 Y-5.071 Z8.748 A325.1141 B-10.0074 
N218 X-169.356 Y-4.854 Z8.728 A323.8662 B-10.3869 
N219 X-169.427 Y-4.627 Z8.697 A322.7069 B-10.7035 
N220 X-169.499 Y-4.389 Z8.655 A321.6306 B-10.9618 
N221 X-169.572 Y-4.142 Z8.604 A320.6260 B-11.1681 
N222 X-169.643 Y-3.886 Z8.543 A319.6926 B-11.3254 
N223 X-169.713 Y-3.621 Z8.472 A318.8340 B-11.4363 
N224 X-169.779 Y-3.347 Z8.393 A318.0568 B-11.5031 
N225 X-169.842 Y-3.064 Z8.305 A317.3655 B-11.5293 
N226 X-169.898 Y-2.773 Z8.208 A316.7557 B-11.5200 
N227 X-169.948 Y-2.474 Z8.104 A316.2198 B-11.4804 
N228 X-169.992 Y-2.169 Z7.993 A315.7497 B-11.4154 
N229 X-170.032 Y-1.856 Z7.877 A315.3377 B-11.3310 
N230 X-170.066 Y-1.537 Z7.755 A314.9794 B-11.2340 
N231 X-170.095 Y-1.212 Z7.629 A314.6752 B-11.1224 
N232 X-170.117 Y-0.881 Z7.500 A314.4295 B-10.9996 
N233 X-170.133 Y-0.544 Z7.366 A314.2484 B-10.8693 
N234 X-170.142 Y-0.203 Z7.230 A314.1392 B-10.7357 
N235 X-170.144 Y0.144 Z7.092 A314.1096 B-10.6039 
N236 X-170.136 Y0.486 Z6.954 A314.2660 B-10.5924 
N237 X-170.124 Y0.821 Z6.818 A314.6474 B-10.6369 
N238 X-170.112 Y1.161 Z6.682 A315.1379 B-10.6851 
N239 X-170.099 Y1.504 Z6.547 A315.7425 B-10.7372 
N240 X-170.087 Y1.851 Z6.412 A316.4623 B-10.7930 
N241 X-170.075 Y2.201 Z6.280 A317.2937 B-10.8525 
N242 X-170.064 Y2.554 Z6.152 A318.2302 B-10.9151 
N243 X-170.052 Y2.908 Z6.028 A319.2650 B-10.9806 
N244 X-170.040 Y3.264 Z5.910 A320.3921 B-11.0486 
N245 X-170.029 Y3.622 Z5.798 A321.6061 B-11.1188 
N246 X-170.018 Y3.981 Z5.692 A322.9005 B-11.1910 
N247 X-170.008 Y4.340 Z5.594 A324.2660 B-11.2646 
N248 X-169.998 Y4.700 Z5.504 A325.6903 B-11.3392 
N249 X-169.988 Y5.060 Z5.423 A327.1589 B-11.4142 
N250 X-169.978 Y5.421 Z5.351 A328.6582 B-11.4892 
N251 X-169.969 Y5.781 Z5.289 A330.1774 B-11.5636 
N252 X-169.961 Y6.141 Z5.236 A331.7078 B-11.6373 
N253 X-169.953 Y6.501 Z5.192 A333.2426 B-11.7099 
N254 X-169.945 Y6.860 Z5.158 A334.7758 B-11.7813 
N255 X-169.938 Y7.220 Z5.134 A336.3015 B-11.8513 
N256 X-169.931 Y7.581 Z5.119 A337.8138 B-11.9197 
N257 X-169.925 Y7.941 Z5.114 A339.3069 B-11.9864 
N258 X-169.919 Y8.302 Z5.118 A340.7759 B-12.0513 
N259 X-169.914 Y8.663 Z5.132 A342.2163 B-12.1143 
N260 X-169.909 Y9.024 Z5.156 A343.6244 B-12.1755 
N261 X-169.905 Y9.386 Z5.189 A344.9965 B-12.2347 
N262 X-169.901 Y9.748 Z5.231 A346.3293 B-12.2920 
N263 X-169.899 Y10.110 Z5.282 A347.6193 B-12.3473 
N264 X-169.895 Y10.473 Z5.343 A348.8632 B-12.4008 
N265 X-169.893 Y10.836 Z5.411 A350.0584 B-12.4524 
N266 X-169.891 Y11.198 Z5.489 A351.2033 B-12.5022 
N267 X-169.890 Y11.559 Z5.574 A352.2974 B-12.5502 
N268 X-169.890 Y11.919 Z5.667 A353.3415 B-12.5966 
N269 X-169.891 Y12.278 Z5.767 A354.3364 B-12.6414 
N270 X-169.891 Y12.635 Z5.873 A355.2830 B-12.6846 
N271 X-169.893 Y12.988 Z5.986 A356.1821 B-12.7263 
N272 X-169.894 Y13.338 Z6.104 A357.0346 B-12.7666 
N273 X-169.897 Y13.684 Z6.226 A357.8423 B-12.8054 
N274 X-169.900 Y14.024 Z6.353 A358.6081 B-12.8427 
N275 X-169.903 Y14.358 Z6.482 A359.3353 B-12.8786 
N276 X-169.907 Y14.684 Z6.613 A0.0244 B-12.9130 
N277 X-169.911 Y15.002 Z6.746 A0.6685 B-12.9459 
N278 X-169.915 Y15.310 Z6.879 A1.2588 B-12.9772 
N279 X-169.920 Y15.606 Z7.011 A1.7876 B-13.0070 
N280 X-169.924 Y15.890 Z7.142 A2.2533 B-13.0389 
N281 X-169.924 Y16.162 Z7.270 A2.6631 B-13.0719 
N282 X-169.916 Y16.421 Z7.394 A3.0280 B-13.1031 
N283 X-169.903 Y16.667 Z7.514 A3.3596 B-13.1326 
N284 X-169.883 Y16.900 Z7.630 A3.6682 B-13.1602 
N285 X-169.859 Y17.120 Z7.740 A3.9608 B-13.1862 
N286 X-169.831 Y17.327 Z7.846 A4.2408 B-13.2103 
N287 X-169.801 Y17.522 Z7.945 A4.5140 B-13.2327 
N288 X-169.767 Y17.704 Z8.040 A4.7837 B-13.2535 
N289 X-169.731 Y17.864 Z8.128 A4.7666 B-13.2742 
N290 X-169.693 Y17.946 Z8.207 A2.9043 B-13.3018 
N291 X-169.659 Y17.973 Z8.278 A359.7085 B-13.3274 
N292 X-169.629 Y17.988 Z8.345 A356.3131 B-13.3422 
N293 X-169.602 Y18.001 Z8.407 A352.9693 B-13.3455 
N294 X-169.581 Y18.015 Z8.466 A349.7301 B-13.3381 
N295 X-169.564 Y18.030 Z8.521 A346.6030 B-13.3210 
N296 X-169.553 Y18.047 Z8.574 A343.5818 B-13.2952 
N297 X-169.546 Y18.065 Z8.623 A340.6552 B-13.2613 
N298 X-169.544 Y18.085 Z8.670 A337.8100 B-13.2200 
N299 X-169.545 Y18.107 Z8.715 A335.0326 B-13.1717 
N300 X-169.550 Y18.130 Z8.757 A332.3102 B-13.1168 
N301 X-169.558 Y18.155 Z8.798 A329.6308 B-13.0555 
N302 X-169.569 Y18.181 Z8.837 A326.9842 B-12.9879 
N303 X-169.584 Y18.208 Z8.874 A324.3622 B-12.9140 
N304 X-169.600 Y18.238 Z8.909 A321.7586 B-12.8341 
N305 X-169.620 Y18.268 Z8.943 A319.1690 B-12.7482 
N306 X-169.642 Y18.300 Z8.975 A316.5903 B-12.6563 
N307 X-169.666 Y18.333 Z9.005 A314.0197 B-12.5588 
N308 X-169.692 Y18.367 Z9.033 A311.4552 B-12.4555 
N309 X-169.719 Y18.403 Z9.060 A308.8959 B-12.3469 
N310 X-169.747 Y18.439 Z9.085 A306.3415 B-12.2330 
N311 X-169.775 Y18.477 Z9.108 A303.7922 B-12.1142 
N312 X-169.804 Y18.515 Z9.129 A301.2489 B-11.9907 
N313 X-169.832 Y18.555 Z9.148 A298.7119 B-11.8628 
N314 X-169.860 Y18.594 Z9.165 A296.1817 B-11.7309 
N315 X-169.886 Y18.635 Z9.181 A293.6584 B-11.5952 
N316 X-169.911 Y18.675 Z9.194 A291.1422 B-11.4561 
N317 X-169.935 Y18.717 Z9.206 A288.6338 B-11.3140 
N318 X-169.956 Y18.758 Z9.216 A286.1337 B-11.1693 
N319 X-169.975 Y18.799 Z9.224 A283.6419 B-11.0223 
N320 X-169.993 Y18.840 Z9.229 A281.1573 B-10.8734 
N321 X-170.007 Y18.881 Z9.234 A278.6781 B-10.7227 
N322 X-170.017 Y18.923 Z9.236 A276.2029 B-10.5706 
N323 X-170.025 Y18.964 Z9.237 A273.7310 B-10.4175 
N324 X-170.028 Y19.005 Z9.237 A271.2620 B-10.2637 
N325 X-170.029 Y19.046 Z9.234 A268.7943 B-10.1094 
N326 X-170.028 Y19.086 Z9.230 A266.3254 B-9.9550 
N327 X-170.024 Y19.127 Z9.225 A263.8536 B-9.8007 
N328 X-170.017 Y19.167 Z9.218 A261.3778 B-9.6468 
N329 X-170.007 Y19.206 Z9.209 A258.8978 B-9.4938 
N330 X-169.994 Y19.246 Z9.199 A256.4135 B-9.3420 
N331 X-169.979 Y19.285 Z9.187 A253.9239 B-9.1917 
N332 X-169.961 Y19.323 Z9.174 A251.4280 B-9.0434 
N333 X-169.942 Y19.361 Z9.160 A248.9250 B-8.8974 
N334 X-169.920 Y19.398 Z9.144 A246.4144 B-8.7540 
N335 X-169.898 Y19.435 Z9.127 A243.8961 B-8.6137 
N336 X-169.874 Y19.471 Z9.108 A241.3696 B-8.4768 
N337 X-169.850 Y19.506 Z9.088 A238.8338 B-8.3436 
N338 X-169.825 Y19.541 Z9.067 A236.2861 B-8.2145 
N339 X-169.801 Y19.575 Z9.044 A233.7224 B-8.0895 
N340 X-169.776 Y19.608 Z9.020 A231.1371 B-7.9689 
N341 X-169.753 Y19.641 Z8.994 A228.5225 B-7.8529 
N342 X-169.731 Y19.673 Z8.966 A225.8686 B-7.7413 
N343 X-169.710 Y19.705 Z8.937 A223.1628 B-7.6345 
N344 X-169.691 Y19.736 Z8.905 A220.3890 B-7.5324 
N345 X-169.674 Y19.766 Z8.870 A217.5280 B-7.4352 
N346 X-169.660 Y19.795 Z8.832 A214.5584 B-7.3434 
N347 X-169.650 Y19.825 Z8.790 A211.4586 B-7.2577 
N348 X-169.644 Y19.851 Z8.744 A208.2120 B-7.1792 
N349 X-169.643 Y19.875 Z8.692 A204.8173 B-7.1099 
N350 X-169.647 Y19.893 Z8.633 A201.3171 B-7.0523 
N351 X-169.659 Y19.894 Z8.564 A197.9442 B-7.0116 
N352 X-170.879 Y22.952 Z-0.879 
N353 G00 X-173.931 Y30.597 Z-24.485 
N354 X-174.271 Y49.302 Z-39.385 
N355 X-168.168 Y34.012 Z7.827 
N356 G01 X-168.206 Y31.581 Z9.795 F878 
N357 X-168.319 Y28.663 Z10.918 
N358 X-168.494 Y25.544 Z11.085 
N359 X-168.714 Y22.528 Z10.279 
N360 M340 ; chlodziwo centralne
N361 X-168.958 Y19.913 Z8.580 
N362 X-168.974 Y19.854 Z8.485 A195.7934 B-6.9997 
N363 X-168.991 Y19.714 Z8.362 A195.4567 B-7.0147 
N364 X-169.010 Y19.549 Z8.226 A195.4235 B-7.0350 
N365 X-169.028 Y19.371 Z8.078 A195.3963 B-7.0571 
N366 X-169.045 Y19.179 Z7.919 A195.3629 B-7.0809 
N367 X-169.063 Y18.973 Z7.749 A195.3243 B-7.1065 
N368 X-169.079 Y18.753 Z7.568 A195.2808 B-7.1339 
N369 X-169.094 Y18.518 Z7.375 A195.2312 B-7.1630 
N370 X-169.108 Y18.271 Z7.171 A195.1734 B-7.1938 
N371 X-169.121 Y18.011 Z6.958 A195.1045 B-7.2263 
N372 X-169.131 Y17.739 Z6.735 A195.0210 B-7.2603 
N373 X-169.140 Y17.456 Z6.504 A194.9205 B-7.2958 
N374 X-169.145 Y17.164 Z6.266 A194.8015 B-7.3326 
N375 X-169.148 Y16.863 Z6.021 A194.6637 B-7.3706 
N376 X-169.147 Y16.555 Z5.772 A194.5073 B-7.4098 
N377 X-169.143 Y16.241 Z5.519 A194.3325 B-7.4501 
N378 X-169.136 Y15.921 Z5.263 A194.1391 B-7.4914 
N379 X-169.127 Y15.597 Z5.006 A193.9271 B-7.5335 
N380 X-169.118 Y15.270 Z4.747 A193.6965 B-7.5772 
N381 X-169.110 Y14.941 Z4.489 A193.4471 B-7.6255 
N382 X-169.103 Y14.609 Z4.231 A193.1771 B-7.6748 
N383 X-169.096 Y14.276 Z3.974 A192.8841 B-7.7251 
N384 X-169.090 Y13.943 Z3.720 A192.5647 B-7.7764 
N385 X-169.084 Y13.611 Z3.468 A192.2169 B-7.8289 
N386 X-169.079 Y13.279 Z3.219 A191.8402 B-7.8825 
N387 X-169.074 Y12.947 Z2.974 A191.4352 B-7.9373 
N388 X-169.070 Y12.617 Z2.734 A191.0027 B-7.9935 
N389 X-169.066 Y12.289 Z2.497 A190.5428 B-8.0510 
N390 X-169.064 Y11.962 Z2.265 A190.0554 B-8.1099 
N391 X-169.061 Y11.637 Z2.039 A189.5397 B-8.1704 
N392 X-169.058 Y11.314 Z1.817 A188.9951 B-8.2326 
N393 X-169.057 Y10.993 Z1.601 A188.4209 B-8.2965 
N394 X-169.056 Y10.675 Z1.390 A187.8164 B-8.3624 
N395 X-169.056 Y10.359 Z1.186 A187.1808 B-8.4304 
N396 X-169.056 Y10.046 Z0.987 A186.5133 B-8.5006 
N397 X-169.056 Y9.736 Z0.795 A185.8133 B-8.5732 
N398 X-169.057 Y9.428 Z0.608 A185.0797 B-8.6485 
N399 X-169.058 Y9.124 Z0.429 A184.3110 B-8.7265 
N400 X-169.059 Y8.822 Z0.255 A183.5049 B-8.8076 
N401 X-169.061 Y8.524 Z0.088 A182.6586 B-8.8922 
N402 X-169.063 Y8.230 Z-0.072 A181.7695 B-8.9805 
N403 X-169.066 Y7.939 Z-0.225 A180.8365 B-9.0729 
N404 X-169.069 Y7.651 Z-0.371 A179.8602 B-9.1597 
N405 X-169.072 Y7.368 Z-0.511 A178.8425 B-9.2310 
N406 X-169.077 Y7.088 Z-0.643 A177.7871 B-9.3042 
N407 X-169.081 Y6.811 Z-0.768 A176.6966 B-9.3793 
N408 X-169.086 Y6.537 Z-0.887 A175.5723 B-9.4561 
N409 X-169.091 Y6.267 Z-0.999 A174.4147 B-9.5346 
N410 X-169.096 Y6.001 Z-1.103 A173.2234 B-9.6148 
N411 X-169.101 Y5.738 Z-1.202 A171.9975 B-9.6967 
N412 X-169.107 Y5.479 Z-1.293 A170.7364 B-9.7804 
N413 X-169.113 Y5.223 Z-1.378 A169.4400 B-9.8657 
N414 X-169.118 Y4.971 Z-1.456 A168.1086 B-9.9527 
N415 X-169.124 Y4.723 Z-1.528 A166.7427 B-10.0413 
N416 X-169.130 Y4.478 Z-1.594 A165.3427 B-10.1313 
N417 X-169.137 Y4.236 Z-1.653 A163.9097 B-10.2228 
N418 X-169.143 Y3.998 Z-1.706 A162.4448 B-10.3155 
N419 X-169.149 Y3.763 Z-1.753 A160.9495 B-10.4094 
N420 X-169.156 Y3.531 Z-1.794 A159.4255 B-10.5042 
N421 X-169.162 Y3.302 Z-1.829 A157.8743 B-10.5999 
N422 X-169.168 Y3.077 Z-1.858 A156.2975 B-10.6963 
N423 X-169.175 Y2.854 Z-1.882 A154.6968 B-10.7933 
N424 X-169.182 Y2.633 Z-1.899 A153.0738 B-10.8906 
N425 X-169.188 Y2.416 Z-1.911 A151.4306 B-10.9881 
N426 X-169.195 Y2.200 Z-1.917 A149.7692 B-11.0857 
N427 X-169.202 Y1.987 Z-1.917 A148.0917 B-11.1831 
N428 X-169.208 Y1.776 Z-1.912 A146.4002 B-11.2803 
N429 X-169.215 Y1.567 Z-1.901 A144.6969 B-11.3770 
N430 X-169.222 Y1.360 Z-1.884 A142.9839 B-11.4732 
N431 X-169.228 Y1.154 Z-1.862 A141.2629 B-11.5687 
N432 X-169.235 Y0.950 Z-1.833 A139.5357 B-11.6634 
N433 X-169.242 Y0.748 Z-1.799 A137.8044 B-11.7572 
N434 X-169.249 Y0.547 Z-1.758 A136.0710 B-11.8501 
N435 X-169.255 Y0.347 Z-1.712 A134.3383 B-11.9420 
N436 X-169.262 Y0.148 Z-1.659 A132.6113 B-12.0327 
N437 X-169.269 Y-0.050 Z-1.600 A130.9016 B-12.1220 
N438 X-169.276 Y-0.247 Z-1.533 A129.2369 B-12.2088 
N439 X-169.283 Y-0.446 Z-1.457 A127.6753 B-12.2912 
N440 X-169.290 Y-0.647 Z-1.368 A126.3139 B-12.3657 
N441 X-169.297 Y-0.854 Z-1.261 A125.2764 B-12.4279 
N442 X-169.306 Y-1.067 Z-1.134 A124.6713 B-12.4707 
N443 X-169.316 Y-1.288 Z-0.984 A124.5385 B-12.4517 
N444 X-169.328 Y-1.514 Z-0.814 A124.8230 B-12.3940 
N445 X-169.340 Y-1.742 Z-0.627 A125.3880 B-12.3235 
N446 X-169.353 Y-1.970 Z-0.431 A126.0572 B-12.2440 
N447 X-169.366 Y-2.192 Z-0.230 A126.6588 B-12.1469 
N448 X-169.381 Y-2.405 Z-0.029 A127.0530 B-12.0160 
N449 X-169.397 Y-2.607 Z0.170 A127.1464 B-11.8288 
N450 X-169.417 Y-2.796 Z0.364 A126.8943 B-11.5565 
N451 X-169.441 Y-2.972 Z0.553 A126.2949 B-11.1643 
N452 X-169.471 Y-3.135 Z0.738 A125.3777 B-10.6128 
N453 X-169.508 Y-3.290 Z0.922 A124.1412 B-9.8802 
N454 X-169.549 Y-3.439 Z1.108 A122.6134 B-8.9709 
N455 X-169.595 Y-3.582 Z1.295 A120.9793 B-7.8144 
N456 X-169.642 Y-3.720 Z1.484 A119.3036 B-6.4862 
N457 X-169.661 Y-3.857 Z1.674 A117.6049 B-5.7445 
N458 X-169.675 Y-3.992 Z1.869 A115.9197 B-4.9994 
N459 X-169.685 Y-4.124 Z2.067 A114.2643 B-4.2543 
N460 X-169.690 Y-4.253 Z2.269 A112.6439 B-3.5098 
N461 X-169.690 Y-4.380 Z2.476 A111.0562 B-2.7648 
N462 X-169.686 Y-4.504 Z2.686 A109.4966 B-2.0182 
N463 X-169.678 Y-4.624 Z2.900 A107.9630 B-1.2696 
N464 X-169.665 Y-4.741 Z3.117 A106.4559 B-0.5200 
N465 X-169.648 Y-4.855 Z3.337 A104.9776 B0.2289 
N466 X-169.628 Y-4.965 Z3.559 A103.5306 B0.9752 
N467 X-169.603 Y-5.071 Z3.783 A102.1160 B1.7172 
N468 X-169.575 Y-5.173 Z4.010 A100.7304 B2.4546 
N469 X-169.543 Y-5.271 Z4.236 A99.3644 B3.1885 
N470 X-169.509 Y-5.364 Z4.462 A98.0049 B3.9211 
N471 X-169.473 Y-5.451 Z4.687 A96.6375 B4.6545 
N472 X-169.434 Y-5.534 Z4.909 A95.2507 B5.3898 
N473 X-169.394 Y-5.611 Z5.126 A93.8383 B6.1263 
N474 X-169.353 Y-5.683 Z5.339 A92.3968 B6.8622 
N475 X-169.312 Y-5.749 Z5.546 A90.9229 B7.5955 
N476 X-169.271 Y-5.810 Z5.747 A89.4080 B8.3255 
N477 X-169.230 Y-5.864 Z5.939 A87.8301 B9.0543 
N478 X-169.190 Y-5.913 Z6.122 A86.1747 B9.7818 
N479 X-169.152 Y-5.957 Z6.296 A84.4532 B10.5006 
N480 X-169.115 Y-5.995 Z6.460 A82.6828 B11.2026 
N481 X-169.080 Y-6.029 Z6.613 A80.8402 B11.8892 
N482 X-169.048 Y-6.058 Z6.754 A78.8719 B12.5668 
N483 X-169.018 Y-6.085 Z6.881 A76.7504 B13.2337 
N484 X-168.992 Y-6.108 Z6.993 A74.4614 B13.8838 
N485 X-168.972 Y-6.131 Z7.090 A71.9992 B14.5918 
N486 X-168.962 Y-6.155 Z7.174 A69.3575 B15.4194 
N487 X-168.950 Y-6.179 Z7.243 A66.5034 B16.1166 
N488 X-168.938 Y-6.204 Z7.297 A63.4633 B16.6871 
N489 X-168.925 Y-6.231 Z7.341 A60.2701 B17.1327 
N490 X-168.912 Y-6.260 Z7.375 A56.9614 B17.4545 
N491 X-168.898 Y-6.292 Z7.402 A53.5768 B17.6539 
N492 X-168.882 Y-6.326 Z7.424 A50.1525 B17.7335 
N493 X-168.866 Y-6.362 Z7.443 A46.7226 B17.6980 
N494 X-168.848 Y-6.399 Z7.462 A43.3221 B17.5540 
N495 X-168.829 Y-6.436 Z7.481 A39.9854 B17.3107 
N496 X-168.808 Y-6.473 Z7.502 A36.7406 B16.9791 
N497 X-168.787 Y-6.507 Z7.526 A33.6012 B16.5702 
N498 X-168.766 Y-6.539 Z7.552 A30.5635 B16.0924 
N499 X-168.744 Y-6.569 Z7.581 A27.6110 B15.5509 
N500 X-168.721 Y-6.596 Z7.612 A24.7242 B14.9478 
N501 X-168.698 Y-6.622 Z7.646 A21.8877 B14.2841 
N502 X-168.674 Y-6.646 Z7.682 A19.0937 B13.5607 
N503 X-168.650 Y-6.667 Z7.721 A16.3399 B12.7790 
N504 X-168.627 Y-6.684 Z7.762 A13.6263 B11.9407 
N505 X-168.602 Y-6.698 Z7.806 A10.9514 B11.0466 
N506 X-168.576 Y-6.708 Z7.853 A8.3126 B10.0965 
N507 X-168.547 Y-6.713 Z7.903 A5.7083 B9.0898 
N508 X-168.515 Y-6.713 Z7.956 A3.1396 B8.0251 
N509 X-168.481 Y-6.707 Z8.011 A0.6085 B6.9003 
N510 X-168.445 Y-6.694 Z8.068 A358.1183 B5.7118 
N511 X-168.409 Y-6.673 Z8.128 A355.6663 B4.4753 
N512 X-168.374 Y-6.646 Z8.189 A353.2399 B3.2337 
N513 X-168.342 Y-6.609 Z8.251 A350.8426 B1.9963 
N514 X-168.314 Y-6.564 Z8.313 A348.4804 B0.7727 
N515 X-168.292 Y-6.509 Z8.376 A346.1618 B-0.4268 
N516 X-168.275 Y-6.442 Z8.436 A343.9011 B-1.5896 
N517 X-168.265 Y-6.364 Z8.494 A341.7168 B-2.7020 
N518 X-168.264 Y-6.273 Z8.548 A339.6227 B-3.7533 
N519 X-168.271 Y-6.168 Z8.597 A337.6283 B-4.7356 
N520 X-168.287 Y-6.050 Z8.639 A335.7385 B-5.6442 
N521 X-168.311 Y-5.920 Z8.675 A333.9494 B-6.4790 
N522 X-168.343 Y-5.776 Z8.702 A332.2555 B-7.2410 
N523 X-168.384 Y-5.620 Z8.722 A330.6672 B-7.9262 
N524 X-168.432 Y-5.452 Z8.732 A329.1847 B-8.5355 
N525 X-168.486 Y-5.273 Z8.733 A327.7847 B-9.0785 
N526 X-168.546 Y-5.083 Z8.726 A326.4298 B-9.5685 
N527 X-168.609 Y-4.885 Z8.712 A325.1141 B-10.0074 
N528 X-168.676 Y-4.676 Z8.688 A323.8662 B-10.3869 
N529 X-168.745 Y-4.458 Z8.654 A322.7069 B-10.7035 
N530 X-168.816 Y-4.230 Z8.611 A321.6306 B-10.9618 
N531 X-168.887 Y-3.992 Z8.560 A320.6260 B-11.1681 
N532 X-168.957 Y-3.746 Z8.499 A319.6926 B-11.3254 
N533 X-169.025 Y-3.492 Z8.430 A318.8340 B-11.4363 
N534 X-169.090 Y-3.229 Z8.352 A318.0568 B-11.5031 
N535 X-169.150 Y-2.957 Z8.266 A317.3655 B-11.5293 
N536 X-169.205 Y-2.678 Z8.172 A316.7557 B-11.5200 
N537 X-169.254 Y-2.390 Z8.071 A316.2198 B-11.4804 
N538 X-169.297 Y-2.096 Z7.965 A315.7497 B-11.4154 
N539 X-169.335 Y-1.795 Z7.853 A315.3377 B-11.3310 
N540 X-169.368 Y-1.488 Z7.736 A314.9794 B-11.2340 
N541 X-169.396 Y-1.175 Z7.615 A314.6752 B-11.1224 
N542 X-169.418 Y-0.856 Z7.490 A314.4295 B-10.9996 
N543 X-169.433 Y-0.532 Z7.361 A314.2484 B-10.8693 
N544 X-169.442 Y-0.203 Z7.230 A314.1392 B-10.7357 
N545 X-169.444 Y0.131 Z7.097 A314.1096 B-10.6039 
N546 X-169.436 Y0.467 Z6.962 A314.2660 B-10.5924 
N547 X-169.424 Y0.802 Z6.826 A314.6474 B-10.6369 
N548 X-169.412 Y1.142 Z6.689 A315.1379 B-10.6851 
N549 X-169.400 Y1.485 Z6.553 A315.7425 B-10.7372 
N550 X-169.387 Y1.833 Z6.419 A316.4623 B-10.7930 
N551 X-169.375 Y2.183 Z6.286 A317.2937 B-10.8525 
N552 X-169.364 Y2.536 Z6.158 A318.2302 B-10.9151 
N553 X-169.352 Y2.890 Z6.033 A319.2650 B-10.9806 
N554 X-169.340 Y3.247 Z5.915 A320.3921 B-11.0486 
N555 X-169.329 Y3.605 Z5.802 A321.6061 B-11.1188 
N556 X-169.318 Y3.964 Z5.696 A322.9005 B-11.1910 
N557 X-169.308 Y4.324 Z5.597 A324.2660 B-11.2646 
N558 X-169.297 Y4.685 Z5.507 A325.6903 B-11.3392 
N559 X-169.288 Y5.045 Z5.426 A327.1589 B-11.4142 
N560 X-169.278 Y5.406 Z5.353 A328.6582 B-11.4892 
N561 X-169.269 Y5.767 Z5.290 A330.1774 B-11.5636 
N562 X-169.260 Y6.128 Z5.236 A331.7078 B-11.6373 
N563 X-169.252 Y6.489 Z5.192 A333.2426 B-11.7099 
N564 X-169.245 Y6.850 Z5.158 A334.7758 B-11.7813 
N565 X-169.237 Y7.211 Z5.134 A336.3015 B-11.8513 
N566 X-169.231 Y7.572 Z5.119 A337.8138 B-11.9197 
N567 X-169.224 Y7.933 Z5.113 A339.3069 B-11.9864 
N568 X-169.218 Y8.295 Z5.118 A340.7759 B-12.0513 
N569 X-169.213 Y8.657 Z5.132 A342.2163 B-12.1143 
N570 X-169.208 Y9.019 Z5.155 A343.6244 B-12.1755 
N571 X-169.204 Y9.382 Z5.188 A344.9965 B-12.2347 
N572 X-169.200 Y9.745 Z5.231 A346.3293 B-12.2920 
N573 X-169.198 Y10.109 Z5.282 A347.6193 B-12.3473 
N574 X-169.195 Y10.472 Z5.342 A348.8632 B-12.4008 
N575 X-169.193 Y10.836 Z5.411 A350.0584 B-12.4524 
N576 X-169.191 Y11.199 Z5.489 A351.2033 B-12.5022 
N577 X-169.189 Y11.561 Z5.574 A352.2974 B-12.5502 
N578 X-169.190 Y11.923 Z5.668 A353.3415 B-12.5966 
N579 X-169.190 Y12.282 Z5.768 A354.3364 B-12.6414 
N580 X-169.191 Y12.640 Z5.875 A355.2830 B-12.6846 
N581 X-169.192 Y12.994 Z5.988 A356.1821 B-12.7263 
N582 X-169.194 Y13.345 Z6.106 A357.0346 B-12.7666 
N583 X-169.196 Y13.692 Z6.229 A357.8423 B-12.8054 
N584 X-169.199 Y14.033 Z6.356 A358.6081 B-12.8427 
N585 X-169.202 Y14.367 Z6.486 A359.3353 B-12.8786 
N586 X-169.206 Y14.695 Z6.618 A0.0244 B-12.9130 
N587 X-169.210 Y15.013 Z6.751 A0.6685 B-12.9459 
N588 X-169.214 Y15.321 Z6.884 A1.2588 B-12.9772 
N589 X-169.219 Y15.618 Z7.017 A1.7876 B-13.0070 
N590 X-169.224 Y15.903 Z7.148 A2.2533 B-13.0389 
N591 X-169.223 Y16.176 Z7.276 A2.6631 B-13.0719 
N592 X-169.216 Y16.435 Z7.401 A3.0280 B-13.1031 
N593 X-169.202 Y16.682 Z7.522 A3.3596 B-13.1326 
N594 X-169.183 Y16.915 Z7.638 A3.6682 B-13.1602 
N595 X-169.159 Y17.136 Z7.749 A3.9608 B-13.1862 
N596 X-169.131 Y17.343 Z7.854 A4.2408 B-13.2103 
N597 X-169.100 Y17.538 Z7.954 A4.5140 B-13.2327 
N598 X-169.066 Y17.721 Z8.049 A4.7837 B-13.2535 
N599 X-169.030 Y17.881 Z8.138 A4.7666 B-13.2742 
N600 X-168.993 Y17.963 Z8.216 A2.9043 B-13.3018 
N601 X-168.958 Y17.988 Z8.285 A359.7085 B-13.3274 
N602 X-168.928 Y18.002 Z8.350 A356.3131 B-13.3422 
N603 X-168.901 Y18.013 Z8.411 A352.9693 B-13.3455 
N604 X-168.880 Y18.025 Z8.469 A349.7301 B-13.3381 
N605 X-168.863 Y18.039 Z8.523 A346.6030 B-13.3210 
N606 X-168.852 Y18.054 Z8.575 A343.5818 B-13.2952 
N607 X-168.845 Y18.070 Z8.624 A340.6552 B-13.2613 
N608 X-168.842 Y18.088 Z8.670 A337.8100 B-13.2200 
N609 X-168.844 Y18.108 Z8.715 A335.0326 B-13.1717 
N610 X-168.849 Y18.129 Z8.757 A332.3102 B-13.1168 
N611 X-168.857 Y18.152 Z8.798 A329.6308 B-13.0555 
N612 X-168.868 Y18.176 Z8.837 A326.9842 B-12.9879 
N613 X-168.882 Y18.202 Z8.875 A324.3622 B-12.9140 
N614 X-168.899 Y18.230 Z8.911 A321.7586 B-12.8341 
N615 X-168.919 Y18.258 Z8.945 A319.1690 B-12.7482 
N616 X-168.941 Y18.289 Z8.978 A316.5903 B-12.6563 
N617 X-168.965 Y18.320 Z9.010 A314.0197 B-12.5588 
N618 X-168.991 Y18.353 Z9.039 A311.4552 B-12.4555 
N619 X-169.018 Y18.388 Z9.067 A308.8959 B-12.3469 
N620 X-169.046 Y18.423 Z9.094 A306.3415 B-12.2330 
N621 X-169.075 Y18.460 Z9.118 A303.7922 B-12.1142 
N622 X-169.103 Y18.497 Z9.141 A301.2489 B-11.9907 
N623 X-169.132 Y18.536 Z9.162 A298.7119 B-11.8628 
N624 X-169.160 Y18.575 Z9.181 A296.1817 B-11.7309 
N625 X-169.186 Y18.615 Z9.199 A293.6584 B-11.5952 
N626 X-169.211 Y18.655 Z9.214 A291.1422 B-11.4561 
N627 X-169.235 Y18.696 Z9.228 A288.6338 B-11.3140 
N628 X-169.256 Y18.738 Z9.239 A286.1337 B-11.1693 
N629 X-169.276 Y18.779 Z9.249 A283.6419 B-11.0223 
N630 X-169.293 Y18.821 Z9.257 A281.1573 B-10.8734 
N631 X-169.307 Y18.863 Z9.263 A278.6781 B-10.7227 
N632 X-169.318 Y18.905 Z9.267 A276.2029 B-10.5706 
N633 X-169.325 Y18.948 Z9.270 A273.7310 B-10.4175 
N634 X-169.329 Y18.990 Z9.271 A271.2620 B-10.2637 
N635 X-169.330 Y19.032 Z9.270 A268.7943 B-10.1094 
N636 X-169.328 Y19.074 Z9.267 A266.3254 B-9.9550 
N637 X-169.324 Y19.116 Z9.263 A263.8536 B-9.8007 
N638 X-169.318 Y19.157 Z9.256 A261.3778 B-9.6468 
N639 X-169.308 Y19.199 Z9.249 A258.8978 B-9.4938 
N640 X-169.295 Y19.240 Z9.239 A256.4135 B-9.3420 
N641 X-169.280 Y19.280 Z9.228 A253.9239 B-9.1917 
N642 X-169.262 Y19.320 Z9.215 A251.4280 B-9.0434 
N643 X-169.243 Y19.360 Z9.201 A248.9250 B-8.8974 
N644 X-169.222 Y19.399 Z9.185 A246.4144 B-8.7540 
N645 X-169.199 Y19.437 Z9.168 A243.8961 B-8.6137 
N646 X-169.175 Y19.475 Z9.149 A241.3696 B-8.4768 
N647 X-169.151 Y19.512 Z9.129 A238.8338 B-8.3436 
N648 X-169.126 Y19.549 Z9.106 A236.2861 B-8.2145 
N649 X-169.102 Y19.585 Z9.083 A233.7224 B-8.0895 
N650 X-169.077 Y19.620 Z9.057 A231.1371 B-7.9689 
N651 X-169.054 Y19.654 Z9.030 A228.5225 B-7.8529 
N652 X-169.032 Y19.687 Z9.001 A225.8686 B-7.7413 
N653 X-169.011 Y19.720 Z8.970 A223.1628 B-7.6345 
N654 X-168.992 Y19.752 Z8.936 A220.3890 B-7.5324 
N655 X-168.975 Y19.783 Z8.900 A217.5280 B-7.4352 
N656 X-168.961 Y19.813 Z8.860 A214.5584 B-7.3434 
N657 X-168.951 Y19.843 Z8.816 A211.4586 B-7.2577 
N658 X-168.945 Y19.870 Z8.768 A208.2120 B-7.1792 
N659 X-168.943 Y19.894 Z8.714 A204.8173 B-7.1099 
N660 X-168.947 Y19.912 Z8.652 A201.3171 B-7.0523 
N661 X-168.958 Y19.913 Z8.580 A197.9442 B-7.0116 
N662 X-170.179 Y22.970 Z-0.862 
N663 G00 X-173.231 Y30.615 Z-24.468 
N664 X-173.571 Y49.320 Z-39.369 
N665 X-167.468 Y34.031 Z7.843 
N666 G01 X-167.506 Y31.599 Z9.812 F878 
N667 X-167.619 Y28.681 Z10.934 
N668 X-167.793 Y25.562 Z11.101 
N669 X-168.014 Y22.547 Z10.295 
N670 M340 ; chlodziwo centralne
VELOLIM[A]=100 ;PRZYWOLANIE VELOLIM
N671 X-168.258 Y19.931 Z8.596 
N671 X-168.258 Y19.931 Z8.596 
F200
N672 X-168.273 Y19.872 Z8.500 A195.7934 B-6.9997 F199 
N673 X-168.291 Y19.731 Z8.376 A195.4567 B-7.0147 
N674 X-168.310 Y19.566 Z8.240 A195.4235 B-7.0350 
N675 X-168.327 Y19.388 Z8.092 A195.3963 B-7.0571 
N676 X-168.345 Y19.195 Z7.933 A195.3629 B-7.0809 
N677 X-168.362 Y18.989 Z7.762 A195.3243 B-7.1065 
N678 X-168.379 Y18.768 Z7.580 A195.2808 B-7.1339 
N679 X-168.394 Y18.533 Z7.387 A195.2312 B-7.1630 
N680 X-168.408 Y18.285 Z7.183 A195.1734 B-7.1938 
N681 X-168.420 Y18.025 Z6.969 A195.1045 B-7.2263 
N682 X-168.431 Y17.752 Z6.746 A195.0210 B-7.2603 
N683 X-168.439 Y17.469 Z6.514 A194.9205 B-7.2958 
N684 X-168.445 Y17.176 Z6.275 A194.8015 B-7.3326 
N685 X-168.448 Y16.875 Z6.031 A194.6637 B-7.3706 
N686 X-168.447 Y16.566 Z5.781 A194.5073 B-7.4098 
N687 X-168.443 Y16.251 Z5.527 A194.3325 B-7.4501 
N688 X-168.435 Y15.931 Z5.271 A194.1391 B-7.4914 
N689 X-168.426 Y15.606 Z5.013 A193.9271 B-7.5335 
N690 X-168.418 Y15.279 Z4.754 A193.6965 B-7.5772 
N691 X-168.410 Y14.948 Z4.495 A193.4471 B-7.6255 
N692 X-168.403 Y14.616 Z4.236 A193.1771 B-7.6748 
N693 X-168.396 Y14.282 Z3.979 A192.8841 B-7.7251 
N694 X-168.389 Y13.949 Z3.724 A192.5647 B-7.7764 
N695 X-168.383 Y13.615 Z3.471 A192.2169 B-7.8289 
N696 X-168.378 Y13.282 Z3.222 A191.8402 B-7.8825 
N697 X-168.373 Y12.950 Z2.977 A191.4352 B-7.9373 
N698 X-168.369 Y12.619 Z2.735 A191.0027 B-7.9935 
N699 X-168.366 Y12.290 Z2.498 A190.5428 B-8.0510 
N700 X-168.363 Y11.962 Z2.266 A190.0554 B-8.1099 
N701 X-168.360 Y11.637 Z2.038 A189.5397 B-8.1704 
N702 X-168.358 Y11.313 Z1.816 A188.9951 B-8.2326 
N703 X-168.357 Y10.991 Z1.600 A188.4209 B-8.2965 
N704 X-168.356 Y10.672 Z1.389 A187.8164 B-8.3624 
N705 X-168.355 Y10.355 Z1.184 A187.1808 B-8.4304 
N706 X-168.355 Y10.041 Z0.984 A186.5133 B-8.5006 
N707 X-168.356 Y9.730 Z0.792 A185.8133 B-8.5732 
N708 X-168.356 Y9.422 Z0.605 A185.0797 B-8.6485 
N709 X-168.358 Y9.116 Z0.425 A184.3110 B-8.7265 
N710 X-168.359 Y8.814 Z0.251 A183.5049 B-8.8076 
N711 X-168.361 Y8.515 Z0.084 A182.6586 B-8.8922 
N712 X-168.363 Y8.220 Z-0.076 A181.7695 B-8.9805 
N713 X-168.365 Y7.928 Z-0.230 A180.8365 B-9.0729 
N714 X-168.368 Y7.640 Z-0.376 A179.8602 B-9.1597 
N715 X-168.372 Y7.355 Z-0.516 A178.8425 B-9.2310 
N716 X-168.377 Y7.074 Z-0.648 A177.7871 B-9.3042 
N717 X-168.381 Y6.796 Z-0.774 A176.6966 B-9.3793 
N718 X-168.386 Y6.522 Z-0.892 A175.5723 B-9.4561 
N719 X-168.391 Y6.251 Z-1.004 A174.4147 B-9.5346 
N720 X-168.396 Y5.984 Z-1.109 A173.2234 B-9.6148 
N721 X-168.401 Y5.720 Z-1.207 A171.9975 B-9.6967 
N722 X-168.407 Y5.460 Z-1.298 A170.7364 B-9.7804 
N723 X-168.413 Y5.203 Z-1.383 A169.4400 B-9.8657 
N724 X-168.419 Y4.950 Z-1.461 A168.1086 B-9.9527 
N725 X-168.425 Y4.701 Z-1.532 A166.7427 B-10.0413 
N726 X-168.431 Y4.455 Z-1.597 A165.3427 B-10.1313 
N727 X-168.437 Y4.213 Z-1.656 A163.9097 B-10.2228 
N728 X-168.443 Y3.974 Z-1.709 A162.4448 B-10.3155 
N729 X-168.450 Y3.739 Z-1.755 A160.9495 B-10.4094 
N730 X-168.456 Y3.506 Z-1.795 A159.4255 B-10.5042 
N731 X-168.462 Y3.277 Z-1.830 A157.8743 B-10.5999 
N732 X-168.469 Y3.051 Z-1.858 A156.2975 B-10.6963 
N733 X-168.475 Y2.828 Z-1.881 A154.6968 B-10.7933 
N734 X-168.482 Y2.607 Z-1.898 A153.0738 B-10.8906 
N735 X-168.489 Y2.389 Z-1.909 A151.4306 B-10.9881 
N736 X-168.495 Y2.174 Z-1.914 A149.7692 B-11.0857 
N737 X-168.502 Y1.960 Z-1.913 A148.0917 B-11.1831 
N738 X-168.509 Y1.749 Z-1.907 A146.4002 B-11.2803 
N739 X-168.515 Y1.540 Z-1.895 A144.6969 B-11.3770 
N740 X-168.522 Y1.333 Z-1.878 A142.9839 B-11.4732 
N741 X-168.529 Y1.128 Z-1.854 A141.2629 B-11.5687 
N742 X-168.536 Y0.924 Z-1.825 A139.5357 B-11.6634 
N743 X-168.542 Y0.722 Z-1.790 A137.8044 B-11.7572 
N744 X-168.549 Y0.521 Z-1.749 A136.0710 B-11.8501 
N745 X-168.556 Y0.322 Z-1.702 A134.3383 B-11.9420 
N746 X-168.563 Y0.123 Z-1.649 A132.6113 B-12.0327 
N747 X-168.569 Y-0.074 Z-1.589 A130.9016 B-12.1220 
N748 X-168.576 Y-0.271 Z-1.521 A129.2369 B-12.2088 
N749 X-168.583 Y-0.469 Z-1.444 A127.6753 B-12.2912 
N750 X-168.590 Y-0.670 Z-1.354 A126.3139 B-12.3657 
N751 X-168.598 Y-0.876 Z-1.248 A125.2764 B-12.4279 
N752 X-168.606 Y-1.088 Z-1.120 A124.6713 B-12.4707 
N753 X-168.616 Y-1.308 Z-0.970 A124.5385 B-12.4517 
N754 X-168.628 Y-1.533 Z-0.799 A124.8230 B-12.3940 
N755 X-168.641 Y-1.761 Z-0.612 A125.3880 B-12.3235 
N756 X-168.653 Y-1.988 Z-0.415 A126.0572 B-12.2440 
N757 X-168.666 Y-2.209 Z-0.214 A126.6588 B-12.1469 
N758 X-168.681 Y-2.422 Z-0.013 A127.0530 B-12.0160 
N759 X-168.697 Y-2.623 Z0.186 A127.1464 B-11.8288 
N760 X-168.717 Y-2.811 Z0.380 A126.8943 B-11.5565 
N761 X-168.741 Y-2.986 Z0.569 A126.2949 B-11.1643 
N762 X-168.772 Y-3.149 Z0.754 A125.3777 B-10.6128 
N763 X-168.808 Y-3.301 Z0.935 A124.1412 B-9.8802 
N764 X-168.849 Y-3.442 Z1.112 A122.6134 B-8.9709 
N765 X-168.895 Y-3.578 Z1.290 A120.9793 B-7.8144 
N766 X-168.942 Y-3.709 Z1.469 A119.3036 B-6.4862 
N767 X-168.962 Y-3.841 Z1.650 A117.6049 B-5.7445 
N768 X-168.977 Y-3.970 Z1.835 A115.9197 B-4.9994 
N769 X-168.987 Y-4.097 Z2.023 A114.2643 B-4.2543 
N770 X-168.993 Y-4.222 Z2.216 A112.6439 B-3.5098 
N771 X-168.994 Y-4.344 Z2.413 A111.0562 B-2.7648 
N772 X-168.991 Y-4.464 Z2.614 A109.4966 B-2.0182 
N773 X-168.983 Y-4.582 Z2.818 A107.9630 B-1.2696 
N774 X-168.972 Y-4.697 Z3.026 A106.4559 B-0.5200 
N775 X-168.956 Y-4.808 Z3.236 A104.9776 B0.2289 
N776 X-168.936 Y-4.916 Z3.449 A103.5306 B0.9752 
N777 X-168.912 Y-5.021 Z3.665 A102.1160 B1.7172 
N778 X-168.885 Y-5.123 Z3.882 A100.7304 B2.4546 
N779 X-168.854 Y-5.220 Z4.101 A99.3644 B3.1885 
N780 X-168.821 Y-5.313 Z4.319 A98.0049 B3.9211 
N781 X-168.785 Y-5.402 Z4.535 A96.6375 B4.6545 
N782 X-168.747 Y-5.485 Z4.749 A95.2507 B5.3898 
N783 X-168.707 Y-5.564 Z4.960 A93.8383 B6.1263 
N784 X-168.666 Y-5.638 Z5.166 A92.3968 B6.8622 
N785 X-168.624 Y-5.707 Z5.367 A90.9229 B7.5955 
N786 X-168.582 Y-5.770 Z5.562 A89.4080 B8.3255 
N787 X-168.540 Y-5.829 Z5.750 A87.8301 B9.0543 
N788 X-168.499 Y-5.882 Z5.928 A86.1747 B9.7818 
N789 X-168.458 Y-5.930 Z6.099 A84.4532 B10.5006 
N790 X-168.419 Y-5.974 Z6.260 A82.6828 B11.2026 
N791 X-168.381 Y-6.013 Z6.413 A80.8402 B11.8892 
N792 X-168.346 Y-6.049 Z6.553 A78.8719 B12.5668 
N793 X-168.313 Y-6.082 Z6.681 A76.7504 B13.2337 
N794 X-168.282 Y-6.113 Z6.795 A74.4614 B13.8838 
N795 X-168.257 Y-6.143 Z6.897 A71.9992 B14.5918 
N796 X-168.240 Y-6.174 Z6.987 A69.3575 B15.4194 
N797 X-168.222 Y-6.205 Z7.064 A66.5034 B16.1166 
N798 X-168.204 Y-6.236 Z7.129 A63.4633 B16.6871 
N799 X-168.184 Y-6.268 Z7.184 A60.2701 B17.1327 
N800 X-168.164 Y-6.301 Z7.231 A56.9614 B17.4545 
N801 X-168.143 Y-6.335 Z7.272 A53.5768 B17.6539 
N802 X-168.121 Y-6.370 Z7.310 A50.1525 B17.7335 
N803 X-168.098 Y-6.405 Z7.346 A46.7226 B17.6980 
N804 X-168.075 Y-6.439 Z7.381 A43.3221 B17.5540 
N805 X-168.052 Y-6.471 Z7.416 A39.9854 B17.3107 
N806 X-168.028 Y-6.501 Z7.454 A36.7406 B16.9791 
N807 X-168.004 Y-6.528 Z7.493 A33.6012 B16.5702 
N808 X-167.981 Y-6.551 Z7.535 A30.5635 B16.0924 
N809 X-167.959 Y-6.570 Z7.579 A27.6110 B15.5509 
N810 X-167.936 Y-6.586 Z7.624 A24.7242 B14.9478 
N811 X-167.914 Y-6.599 Z7.670 A21.8877 B14.2841 
N812 X-167.893 Y-6.609 Z7.718 A19.0937 B13.5607 
N813 X-167.872 Y-6.616 Z7.767 A16.3399 B12.7790 
N814 X-167.853 Y-6.620 Z7.817 A13.6263 B11.9407 
N815 X-167.833 Y-6.619 Z7.868 A10.9514 B11.0466 
N816 X-167.812 Y-6.614 Z7.921 A8.3126 B10.0965 
N817 X-167.789 Y-6.605 Z7.975 A5.7083 B9.0898 
N818 X-167.763 Y-6.590 Z8.030 A3.1396 B8.0251 
N819 X-167.736 Y-6.570 Z8.085 A0.6085 B6.9003 
N820 X-167.707 Y-6.543 Z8.142 A358.1183 B5.7118 
N821 X-167.677 Y-6.510 Z8.199 A355.6663 B4.4753 
N822 X-167.649 Y-6.470 Z8.256 A353.2399 B3.2337 
N823 X-167.624 Y-6.423 Z8.312 A350.8426 B1.9963 
N824 X-167.604 Y-6.368 Z8.368 A348.4804 B0.7727 
N825 X-167.587 Y-6.304 Z8.423 A346.1618 B-0.4268 
N826 X-167.576 Y-6.231 Z8.475 A343.9011 B-1.5896 
N827 X-167.572 Y-6.148 Z8.523 A341.7168 B-2.7020 
N828 X-167.575 Y-6.054 Z8.568 A339.6227 B-3.7533 
N829 X-167.585 Y-5.947 Z8.607 A337.6283 B-4.7356 
N830 X-167.604 Y-5.830 Z8.641 A335.7385 B-5.6442 
N831 X-167.631 Y-5.701 Z8.668 A333.9494 B-6.4790 
N832 X-167.664 Y-5.560 Z8.688 A332.2555 B-7.2410 
N833 X-167.706 Y-5.409 Z8.700 A330.6672 B-7.9262 
N834 X-167.754 Y-5.246 Z8.704 A329.1847 B-8.5355 
N835 X-167.809 Y-5.072 Z8.700 A327.7847 B-9.0785 
N836 X-167.868 Y-4.890 Z8.690 A326.4298 B-9.5685 
N837 X-167.930 Y-4.699 Z8.671 A325.1141 B-10.0074 
N838 X-167.996 Y-4.499 Z8.645 A323.8662 B-10.3869 
N839 X-168.064 Y-4.290 Z8.610 A322.7069 B-10.7035 
N840 X-168.134 Y-4.071 Z8.566 A321.6306 B-10.9618 
N841 X-168.203 Y-3.844 Z8.514 A320.6260 B-11.1681 
N842 X-168.271 Y-3.608 Z8.454 A319.6926 B-11.3254 
N843 X-168.337 Y-3.364 Z8.386 A318.8340 B-11.4363 
N844 X-168.400 Y-3.111 Z8.310 A318.0568 B-11.5031 
N845 X-168.459 Y-2.851 Z8.226 A317.3655 B-11.5293 
N846 X-168.512 Y-2.582 Z8.136 A316.7557 B-11.5200 
N847 X-168.559 Y-2.306 Z8.039 A316.2198 B-11.4804 
N848 X-168.601 Y-2.023 Z7.936 A315.7497 B-11.4154 
N849 X-168.638 Y-1.734 Z7.828 A315.3377 B-11.3310 
N850 X-168.670 Y-1.439 Z7.716 A314.9794 B-11.2340 
N851 X-168.697 Y-1.138 Z7.600 A314.6752 B-11.1224 
N852 X-168.718 Y-0.831 Z7.480 A314.4295 B-10.9996 
N853 X-168.733 Y-0.519 Z7.356 A314.2484 B-10.8693 
N854 X-168.742 Y-0.203 Z7.230 A314.1392 B-10.7357 
N855 X-168.744 Y0.119 Z7.101 A314.1096 B-10.6039 
N856 X-168.736 Y0.447 Z6.969 A314.2660 B-10.5924 
N857 X-168.724 Y0.783 Z6.833 A314.6474 B-10.6369 
N858 X-168.712 Y1.123 Z6.697 A315.1379 B-10.6851 
N859 X-168.700 Y1.467 Z6.560 A315.7425 B-10.7372 
N860 X-168.688 Y1.814 Z6.425 A316.4623 B-10.7930 
N861 X-168.676 Y2.164 Z6.293 A317.2937 B-10.8525 
N862 X-168.664 Y2.517 Z6.163 A318.2302 B-10.9151 
N863 X-168.652 Y2.872 Z6.039 A319.2650 B-10.9806 
N864 X-168.640 Y3.229 Z5.919 A320.3921 B-11.0486 
N865 X-168.629 Y3.588 Z5.806 A321.6061 B-11.1188 
N866 X-168.618 Y3.947 Z5.700 A322.9005 B-11.1910 
N867 X-168.608 Y4.308 Z5.601 A324.2660 B-11.2646 
N868 X-168.597 Y4.669 Z5.510 A325.6903 B-11.3392 
N869 X-168.587 Y5.031 Z5.428 A327.1589 B-11.4142 
N870 X-168.578 Y5.392 Z5.355 A328.6582 B-11.4892 
N871 X-168.569 Y5.754 Z5.291 A330.1774 B-11.5636 
N872 X-168.560 Y6.115 Z5.237 A331.7078 B-11.6373 
N873 X-168.552 Y6.477 Z5.193 A333.2426 B-11.7099 
N874 X-168.544 Y6.839 Z5.158 A334.7758 B-11.7813 
N875 X-168.537 Y7.201 Z5.133 A336.3015 B-11.8513 
N876 X-168.530 Y7.563 Z5.118 A337.8138 B-11.9197 
N877 X-168.524 Y7.925 Z5.113 A339.3069 B-11.9864 
N878 X-168.518 Y8.288 Z5.117 A340.7759 B-12.0513 
N879 X-168.513 Y8.651 Z5.131 A342.2163 B-12.1143 
N880 X-168.508 Y9.014 Z5.155 A343.6244 B-12.1755 
N881 X-168.504 Y9.378 Z5.188 A344.9965 B-12.2347 
N882 X-168.500 Y9.742 Z5.230 A346.3293 B-12.2920 
N883 X-168.497 Y10.107 Z5.282 A347.6193 B-12.3473 
N884 X-168.494 Y10.472 Z5.342 A348.8632 B-12.4008 
N885 X-168.492 Y10.836 Z5.412 A350.0584 B-12.4524 
N886 X-168.490 Y11.200 Z5.489 A351.2033 B-12.5022 
N887 X-168.489 Y11.564 Z5.575 A352.2974 B-12.5502 
N888 X-168.489 Y11.926 Z5.669 A353.3415 B-12.5966 
N889 X-168.489 Y12.287 Z5.769 A354.3364 B-12.6414 
N890 X-168.490 Y12.645 Z5.877 A355.2830 B-12.6846 
N891 X-168.491 Y13.001 Z5.990 A356.1821 B-12.7263 
N892 X-168.493 Y13.352 Z6.109 A357.0346 B-12.7666 
N893 X-168.495 Y13.700 Z6.233 A357.8423 B-12.8054 
N894 X-168.498 Y14.042 Z6.360 A358.6081 B-12.8427 
N895 X-168.501 Y14.377 Z6.490 A359.3353 B-12.8786 
N896 X-168.505 Y14.705 Z6.623 A0.0244 B-12.9130 
N897 X-168.509 Y15.024 Z6.756 A0.6685 B-12.9459 
N898 X-168.514 Y15.333 Z6.890 A1.2588 B-12.9772 
N899 X-168.519 Y15.631 Z7.023 A1.7876 B-13.0070 
N900 X-168.523 Y15.916 Z7.154 A2.2533 B-13.0389 
N901 X-168.522 Y16.189 Z7.283 A2.6631 B-13.0719 
N902 X-168.515 Y16.449 Z7.408 A3.0280 B-13.1031 
N903 X-168.501 Y16.696 Z7.529 A3.3596 B-13.1326 
N904 X-168.482 Y16.930 Z7.646 A3.6682 B-13.1602 
N905 X-168.458 Y17.151 Z7.757 A3.9608 B-13.1862 
N906 X-168.430 Y17.359 Z7.863 A4.2408 B-13.2103 
N907 X-168.400 Y17.555 Z7.963 A4.5140 B-13.2327 
N908 X-168.366 Y17.738 Z8.058 A4.7837 B-13.2535 
N909 X-168.329 Y17.899 Z8.147 A4.7666 B-13.2742 
N910 X-168.292 Y17.980 Z8.224 A2.9043 B-13.3018 
N911 X-168.257 Y18.004 Z8.292 A359.7085 B-13.3274 
N912 X-168.227 Y18.016 Z8.355 A356.3131 B-13.3422 
N913 X-168.200 Y18.026 Z8.415 A352.9693 B-13.3455 
N914 X-168.179 Y18.036 Z8.471 A349.7301 B-13.3381 
N915 X-168.162 Y18.048 Z8.525 A346.6030 B-13.3210 
N916 X-168.150 Y18.061 Z8.576 A343.5818 B-13.2952 
N917 X-168.144 Y18.075 Z8.624 A340.6552 B-13.2613 
N918 X-168.141 Y18.091 Z8.670 A337.8100 B-13.2200 
N919 X-168.142 Y18.109 Z8.715 A335.0326 B-13.1717 
N920 X-168.147 Y18.129 Z8.758 A332.3102 B-13.1168 
N921 X-168.156 Y18.150 Z8.799 A329.6308 B-13.0555 
N922 X-168.167 Y18.172 Z8.838 A326.9842 B-12.9879 
N923 X-168.181 Y18.196 Z8.876 A324.3622 B-12.9140 
N924 X-168.198 Y18.222 Z8.913 A321.7586 B-12.8341 
N925 X-168.218 Y18.249 Z8.948 A319.1690 B-12.7482 
N926 X-168.240 Y18.278 Z8.982 A316.5903 B-12.6563 
N927 X-168.264 Y18.308 Z9.015 A314.0197 B-12.5588 
N928 X-168.290 Y18.339 Z9.046 A311.4552 B-12.4555 
N929 X-168.317 Y18.372 Z9.075 A308.8959 B-12.3469 
N930 X-168.345 Y18.407 Z9.103 A306.3415 B-12.2330 
N931 X-168.374 Y18.442 Z9.129 A303.7922 B-12.1142 
N932 X-168.403 Y18.479 Z9.154 A301.2489 B-11.9907 
N933 X-168.431 Y18.517 Z9.176 A298.7119 B-11.8628 
N934 X-168.459 Y18.555 Z9.197 A296.1817 B-11.7309 
N935 X-168.486 Y18.595 Z9.216 A293.6584 B-11.5952 
N936 X-168.511 Y18.635 Z9.234 A291.1422 B-11.4561 
N937 X-168.535 Y18.676 Z9.249 A288.6338 B-11.3140 
N938 X-168.556 Y18.718 Z9.262 A286.1337 B-11.1693 
N939 X-168.576 Y18.759 Z9.274 A283.6419 B-11.0223 
N940 X-168.593 Y18.802 Z9.284 A281.1573 B-10.8734 
N941 X-168.607 Y18.844 Z9.292 A278.6781 B-10.7227 
N942 X-168.618 Y18.887 Z9.298 A276.2029 B-10.5706 
N943 X-168.626 Y18.930 Z9.302 A273.7310 B-10.4175 
N944 X-168.630 Y18.974 Z9.304 A271.2620 B-10.2637 
N945 X-168.631 Y19.017 Z9.305 A268.7943 B-10.1094 
N946 X-168.629 Y19.060 Z9.303 A266.3254 B-9.9550 
N947 X-168.625 Y19.103 Z9.300 A263.8536 B-9.8007 
N948 X-168.619 Y19.146 Z9.295 A261.3778 B-9.6468 
N949 X-168.609 Y19.189 Z9.288 A258.8978 B-9.4938 
N950 X-168.596 Y19.232 Z9.279 A256.4135 B-9.3420 
N951 X-168.581 Y19.274 Z9.269 A253.9239 B-9.1917 
N952 X-168.563 Y19.316 Z9.256 A251.4280 B-9.0434 
N953 X-168.544 Y19.357 Z9.242 A248.9250 B-8.8974 
N954 X-168.523 Y19.398 Z9.227 A246.4144 B-8.7540 
N955 X-168.500 Y19.439 Z9.209 A243.8961 B-8.6137 
N956 X-168.477 Y19.478 Z9.190 A241.3696 B-8.4768 
N957 X-168.452 Y19.517 Z9.169 A238.8338 B-8.3436 
N958 X-168.427 Y19.555 Z9.146 A236.2861 B-8.2145 
N959 X-168.403 Y19.593 Z9.122 A233.7224 B-8.0895 
N960 X-168.378 Y19.629 Z9.095 A231.1371 B-7.9689 
N961 X-168.355 Y19.665 Z9.067 A228.5225 B-7.8529 
N962 X-168.333 Y19.700 Z9.037 A225.8686 B-7.7413 
N963 X-168.312 Y19.734 Z9.004 A223.1628 B-7.6345 
N964 X-168.292 Y19.767 Z8.969 A220.3890 B-7.5324 
N965 X-168.275 Y19.800 Z8.931 A217.5280 B-7.4352 
N966 X-168.261 Y19.831 Z8.889 A214.5584 B-7.3434 
N967 X-168.251 Y19.861 Z8.843 A211.4586 B-7.2577 
N968 X-168.245 Y19.888 Z8.792 A208.2120 B-7.1792 
N969 X-168.244 Y19.913 Z8.735 A204.8173 B-7.1099 
N970 X-168.247 Y19.930 Z8.671 A201.3171 B-7.0523 
N971 X-168.258 Y19.931 Z8.596 A197.9442 B-7.0116 
N972 X-169.479 Y22.989 Z-0.846 F878 
N973 G00 X-174.362 Y35.220 Z-38.616 
;RAPORT("TD123456","Flank Milling Transition:147 End")
;trailer : concat=None
; points cnt = 918
N975 MSG (" --- GROUPED OF SUBPROGRAM --- ")
VELOLIM[A]=100 ;ODWOLANIE VELOLIM
N976 FGROUP()
N977 TRAFOOF
; PROGRAM NAME: D12345633
; ORDER       : D123456
; OPER. NAME  : Flank Milling Transition:148
; OPER. DESCR.: finish flank shroud
; OPER. TYPE  : preFinFlank
; GEO. OPTION : 2
; MACHINE     : HSTM_300HD_SIM840D_Py
;             : HSTM300/500 - HAMUEL: 5-axis milling machine-SIM840D Traori PP_Script
; CONTROL     : SINUMERIK 840D
; created:   2023-06-05 09:21:51.059283
;-------DODATKOWE DANE-------------------
; PROGRAMISTA : Mariusz Malec
; PARTID      : 301T002184P1010_-
;  dec_value  : 0.7
;  lean_angle : 10.0
;  tilt_angle : 0.0
;  airf_offset: 0.05
;  firstoffset: 1.5
;----------------------------------------
;RAPORT("TD123456","Flank Milling Transition:148")
N10 TRAFOOF
N11 D0
N12 G90 G94
N13 G0 G53 D0 Z550
N14 STOPRE
M9 ; chlodziwo wyl
; --- Flank Milling Transition:148 - finish flank shroud ---
N16 ;ToolChange : concat=None ,current_tdmid=None, PP.tdmId=970356
N17 TRAFOOF
N18 G0 G53 D0 Z550 B0
N19 STOPRE
N20 MSG(" TLID=970356 D=3.86 R=2.3 Ang=10.0 Len=170.0 ")
N21 S9978 M03
N22 STOPRE
N23 CYCLE832(0.001,1,1)
N24 G0 G53 A232.6093 B11.9848
N25 TRAORI
N26 G54 D4
N27 D4 
N28 TRANS  X=R8 A=R25
STOPRE
E_ZDARZ=300018
;ACS_FINISH_UBG_PLATFORM_XLB_SHROUD=7770356
STOPRE
N29 ; DELTA A > 40.1
N30 TRAFOOF
N31 D4
N32 STOPRE
N33 G00 G54 Z216.000
N34 G01 A232.6093 F10000
N35 TRAORI
N36 G54 D4
N37 STOPRE
N38 TRANS  X=R8 A=R25
N39 G00 X-196.038 Y57.093 Z-35.925 A232.6093 B11.9848 
N40 M340 ; chlodziwo centralne
N41 X-206.420 Y18.234 Z-6.225 
N42 G01 X-206.488 Y16.525 Z-3.605 F878 
N43 X-206.685 Y15.703 Z-0.592 
N44 X-206.991 Y15.849 Z2.518 
N45 X-207.378 Y16.949 Z5.421 
N46 M340 ; chlodziwo centralne
N47 X-207.806 Y18.894 Z7.834 
N48 X-207.824 Y18.943 Z7.852 A236.1456 B11.8117 
N49 X-207.835 Y18.978 Z7.860 A239.8126 B11.6209 
N50 X-207.836 Y19.008 Z7.866 A243.3653 B11.4261 
N51 X-207.832 Y19.034 Z7.871 A246.7521 B11.2320 
N52 X-207.822 Y19.058 Z7.877 A249.9720 B11.0405 
N53 X-207.808 Y19.080 Z7.882 A253.0414 B10.8524 
N54 X-207.791 Y19.100 Z7.888 A255.9820 B10.6676 
N55 X-207.771 Y19.119 Z7.894 A258.8161 B10.4858 
N56 X-207.749 Y19.137 Z7.900 A261.5650 B10.3066 
N57 X-207.725 Y19.154 Z7.907 A264.2474 B10.1294 
N58 X-207.700 Y19.170 Z7.914 A266.8787 B9.9540 
N59 X-207.674 Y19.185 Z7.922 A269.4715 B9.7798 
N60 X-207.648 Y19.200 Z7.930 A272.0354 B9.6070 
N61 X-207.621 Y19.215 Z7.939 A274.5776 B9.4353 
N62 X-207.594 Y19.229 Z7.948 A277.1031 B9.2649 
N63 X-207.568 Y19.242 Z7.957 A279.6155 B9.0960 
N64 X-207.542 Y19.255 Z7.967 A282.1174 B8.9289 
N65 X-207.517 Y19.268 Z7.978 A284.6103 B8.7639 
N66 X-207.494 Y19.280 Z7.988 A287.0957 B8.6012 
N67 X-207.472 Y19.291 Z7.999 A289.5746 B8.4412 
N68 X-207.452 Y19.302 Z8.011 A292.0482 B8.2843 
N69 X-207.435 Y19.313 Z8.023 A294.5175 B8.1307 
N70 X-207.420 Y19.323 Z8.035 A296.9834 B7.9808 
N71 X-207.408 Y19.333 Z8.047 A299.4468 B7.8349 
N72 X-207.399 Y19.342 Z8.060 A301.9081 B7.6934 
N73 X-207.394 Y19.351 Z8.073 A304.3677 B7.5566 
N74 X-207.392 Y19.360 Z8.086 A306.8256 B7.4249 
N75 X-207.392 Y19.368 Z8.100 A309.2834 B7.2986 
N76 X-207.394 Y19.376 Z8.114 A311.7438 B7.1778 
N77 X-207.396 Y19.383 Z8.128 A314.2094 B7.0628 
N78 X-207.399 Y19.390 Z8.142 A316.6806 B6.9538 
N79 X-207.406 Y19.397 Z8.157 A319.1562 B6.8513 
N80 X-207.415 Y19.403 Z8.172 A321.6336 B6.7555 
N81 X-207.427 Y19.409 Z8.187 A324.1118 B6.6668 
N82 X-207.442 Y19.414 Z8.202 A326.5909 B6.5854 
N83 X-207.459 Y19.419 Z8.217 A329.0715 B6.5113 
N84 X-207.478 Y19.423 Z8.233 A331.5540 B6.4447 
N85 X-207.498 Y19.427 Z8.248 A334.0383 B6.3858 
N86 X-207.518 Y19.431 Z8.264 A336.5245 B6.3346 
N87 X-207.539 Y19.434 Z8.281 A339.0122 B6.2912 
N88 X-207.560 Y19.437 Z8.297 A341.5007 B6.2556 
N89 X-207.581 Y19.439 Z8.313 A343.9892 B6.2279 
N90 X-207.601 Y19.441 Z8.330 A346.4772 B6.2081 
N91 X-207.621 Y19.442 Z8.347 A348.9650 B6.1961 
N92 X-207.640 Y19.442 Z8.364 A351.4539 B6.1918 
N93 X-207.658 Y19.442 Z8.381 A353.9462 B6.1952 
N94 X-207.674 Y19.442 Z8.398 A356.4444 B6.2063 
N95 X-207.688 Y19.441 Z8.416 A358.9522 B6.2250 
N96 X-207.699 Y19.439 Z8.434 A1.4739 B6.2513 
N97 X-207.708 Y19.436 Z8.452 A4.0158 B6.2852 
N98 X-207.715 Y19.432 Z8.470 A6.5857 B6.3270 
N99 X-207.719 Y19.427 Z8.489 A9.1932 B6.3769 
N100 X-207.720 Y19.422 Z8.507 A11.8495 B6.4351 
N101 X-207.718 Y19.414 Z8.527 A14.5675 B6.5022 
N102 X-207.712 Y19.406 Z8.546 A17.3610 B6.5787 
N103 X-207.703 Y19.395 Z8.566 A20.2447 B6.6654 
N104 X-207.691 Y19.382 Z8.586 A23.2323 B6.7630 
N105 X-207.674 Y19.366 Z8.606 A26.3334 B6.8723 
N106 X-207.654 Y19.346 Z8.624 A29.5454 B6.9934 
N107 X-207.630 Y19.319 Z8.641 A32.8297 B7.1250 
N108 X-207.602 Y19.279 Z8.649 A36.0087 B7.2597 
N109 X-207.569 Y19.198 Z8.626 A38.1950 B7.3580 
N110 X-207.534 Y19.045 Z8.544 A38.4134 B7.3745 
N111 X-207.499 Y18.866 Z8.444 A38.1656 B7.3721 
N112 X-207.468 Y18.673 Z8.338 A37.9056 B7.3701 
N113 X-207.440 Y18.467 Z8.226 A37.6401 B7.3688 
N114 X-207.417 Y18.247 Z8.107 A37.3623 B7.3680 
N115 X-207.398 Y18.013 Z7.983 A37.0689 B7.3677 
N116 X-207.385 Y17.765 Z7.853 A36.7534 B7.3676 
N117 X-207.377 Y17.504 Z7.718 A36.4055 B7.3675 
N118 X-207.369 Y17.229 Z7.578 A36.0132 B7.3671 
N119 X-207.361 Y16.942 Z7.434 A35.5651 B7.3650 
N120 X-207.354 Y16.642 Z7.286 A35.0531 B7.3620 
N121 X-207.347 Y16.330 Z7.136 A34.4787 B7.3584 
N122 X-207.339 Y16.009 Z6.985 A33.8496 B7.3546 
N123 X-207.333 Y15.679 Z6.835 A33.1754 B7.3511 
N124 X-207.326 Y15.341 Z6.686 A32.4633 B7.3480 
N125 X-207.321 Y14.998 Z6.539 A31.7130 B7.3456 
N126 X-207.315 Y14.649 Z6.396 A30.9211 B7.3438 
N127 X-207.311 Y14.297 Z6.256 A30.0851 B7.3427 
N128 X-207.306 Y13.941 Z6.121 A29.2033 B7.3422 
N129 X-207.303 Y13.582 Z5.992 A28.2749 B7.3425 
N130 X-207.300 Y13.222 Z5.868 A27.2990 B7.3437 
N131 X-207.298 Y12.860 Z5.750 A26.2750 B7.3459 
N132 X-207.296 Y12.498 Z5.640 A25.2018 B7.3492 
N133 X-207.294 Y12.135 Z5.536 A24.0790 B7.3537 
N134 X-207.295 Y11.771 Z5.440 A22.9071 B7.3596 
N135 X-207.295 Y11.407 Z5.351 A21.6876 B7.3671 
N136 X-207.295 Y11.043 Z5.271 A20.4234 B7.3763 
N137 X-207.296 Y10.679 Z5.199 A19.1177 B7.3874 
N138 X-207.298 Y10.315 Z5.136 A17.7738 B7.4005 
N139 X-207.300 Y9.951 Z5.081 A16.3949 B7.4157 
N140 X-207.303 Y9.587 Z5.035 A14.9846 B7.4333 
N141 X-207.307 Y9.222 Z4.998 A13.5466 B7.4532 
N142 X-207.311 Y8.857 Z4.971 A12.0849 B7.4755 
N143 X-207.316 Y8.492 Z4.953 A10.6044 B7.5004 
N144 X-207.321 Y8.126 Z4.944 A9.1104 B7.5277 
N145 X-207.327 Y7.759 Z4.945 A7.6084 B7.5576 
N146 X-207.333 Y7.392 Z4.956 A6.1038 B7.5901 
N147 X-207.340 Y7.024 Z4.977 A4.6022 B7.6249 
N148 X-207.347 Y6.654 Z5.008 A3.1099 B7.6621 
N149 X-207.355 Y6.284 Z5.049 A1.6349 B7.7015 
N150 X-207.363 Y5.913 Z5.100 A0.1875 B7.7428 
N151 X-207.372 Y5.541 Z5.161 A358.7808 B7.7859 
N152 X-207.381 Y5.169 Z5.231 A357.4288 B7.8302 
N153 X-207.391 Y4.797 Z5.312 A356.1437 B7.8755 
N154 X-207.401 Y4.425 Z5.401 A354.9351 B7.9212 
N155 X-207.412 Y4.055 Z5.498 A353.8097 B7.9671 
N156 X-207.422 Y3.685 Z5.604 A352.7736 B8.0128 
N157 X-207.434 Y3.317 Z5.717 A351.8339 B8.0578 
N158 X-207.445 Y2.950 Z5.836 A350.9985 B8.1017 
N159 X-207.457 Y2.587 Z5.961 A350.2757 B8.1441 
N160 X-207.469 Y2.227 Z6.089 A349.6703 B8.1845 
N161 X-207.480 Y1.871 Z6.221 A349.1819 B8.2011 
N162 X-207.484 Y1.518 Z6.355 A348.8024 B8.0452 
N163 X-207.486 Y1.157 Z6.495 A348.6139 B7.7702 
N164 X-207.493 Y0.800 Z6.635 A348.5253 B7.4953 
N165 X-207.505 Y0.447 Z6.775 A348.5210 B7.2178 
N166 X-207.522 Y0.101 Z6.914 A348.5929 B6.9366 
N167 X-207.542 Y-0.239 Z7.050 A348.7335 B6.6508 
N168 X-207.567 Y-0.573 Z7.184 A348.9370 B6.3593 
N169 X-207.594 Y-0.900 Z7.313 A349.1983 B6.0395 
N170 X-207.624 Y-1.219 Z7.438 A349.5202 B5.6969 
N171 X-207.657 Y-1.529 Z7.557 A349.9131 B5.3442 
N172 X-207.695 Y-1.829 Z7.671 A350.3871 B4.9784 
N173 X-207.739 Y-2.119 Z7.776 A350.9516 B4.5964 
N174 X-207.787 Y-2.397 Z7.875 A351.6138 B4.1953 
N175 X-207.838 Y-2.663 Z7.966 A352.3708 B3.7739 
N176 X-207.892 Y-2.917 Z8.049 A353.2159 B3.3320 
N177 X-207.947 Y-3.159 Z8.124 A354.1450 B2.8697 
N178 X-208.002 Y-3.390 Z8.190 A355.1600 B2.3861 
N179 X-208.054 Y-3.608 Z8.248 A356.2752 B1.8780 
N180 X-208.105 Y-3.813 Z8.297 A357.4948 B1.3448 
N181 X-208.153 Y-4.005 Z8.339 A358.7970 B0.7913 
N182 X-208.197 Y-4.186 Z8.373 A0.1534 B0.2248 
N183 X-208.237 Y-4.356 Z8.401 A1.5748 B-0.3557 
N184 X-208.272 Y-4.512 Z8.421 A3.1015 B-0.9571 
N185 X-208.301 Y-4.654 Z8.435 A4.7549 B-1.5822 
N186 X-208.323 Y-4.782 Z8.444 A6.5310 B-2.2277 
N187 X-208.340 Y-4.897 Z8.448 A8.4252 B-2.8896 
N188 X-208.349 Y-4.998 Z8.449 A10.4387 B-3.5648 
N189 X-208.353 Y-5.086 Z8.446 A12.5726 B-4.2491 
N190 X-208.351 Y-5.162 Z8.442 A14.8204 B-4.9366 
N191 X-208.344 Y-5.226 Z8.436 A17.1696 B-5.6193 
N192 X-208.333 Y-5.280 Z8.431 A19.6032 B-6.2888 
N193 X-208.318 Y-5.325 Z8.426 A22.0998 B-6.9338 
N194 X-208.304 Y-5.364 Z8.421 A24.6472 B-7.5100 
N195 X-208.288 Y-5.395 Z8.417 A27.2327 B-8.0104 
N196 X-208.273 Y-5.422 Z8.415 A29.8443 B-8.4428 
N197 X-208.259 Y-5.445 Z8.414 A32.4739 B-8.8140 
N198 X-208.246 Y-5.464 Z8.414 A35.1164 B-9.1291 
N199 X-208.235 Y-5.481 Z8.415 A37.7689 B-9.3921 
N200 X-208.226 Y-5.496 Z8.418 A40.4297 B-9.6061 
N201 X-208.220 Y-5.509 Z8.422 A43.0975 B-9.7734 
N202 X-208.216 Y-5.521 Z8.428 A45.7716 B-9.8959 
N203 X-208.216 Y-5.532 Z8.434 A48.4520 B-9.9746 
N204 X-208.219 Y-5.544 Z8.442 A51.1398 B-10.0105 
N205 X-208.223 Y-5.555 Z8.451 A53.8363 B-10.0042 
N206 X-208.228 Y-5.567 Z8.461 A56.5435 B-9.9561 
N207 X-208.234 Y-5.579 Z8.471 A59.2601 B-9.8665 
N208 X-208.240 Y-5.593 Z8.481 A61.9860 B-9.7350 
N209 X-208.246 Y-5.608 Z8.491 A64.7215 B-9.5614 
N210 X-208.252 Y-5.626 Z8.500 A67.4665 B-9.3453 
N211 X-208.259 Y-5.645 Z8.508 A70.2207 B-9.0866 
N212 X-208.267 Y-5.665 Z8.514 A72.9826 B-8.7844 
N213 X-208.275 Y-5.689 Z8.517 A75.7491 B-8.4382 
N214 X-208.283 Y-5.715 Z8.516 A78.5157 B-8.0472 
N215 X-208.291 Y-5.743 Z8.510 A81.2750 B-7.6109 
N216 X-208.299 Y-5.774 Z8.498 A84.0138 B-7.1297 
N217 X-208.306 Y-5.807 Z8.477 A86.7099 B-6.6054 
N218 X-208.312 Y-5.841 Z8.446 A89.3292 B-6.0421 
N219 X-208.317 Y-5.876 Z8.402 A91.8271 B-5.4465 
N220 X-208.320 Y-5.910 Z8.341 A94.1589 B-4.8256 
N221 X-208.321 Y-5.943 Z8.262 A96.2876 B-4.1838 
N222 X-208.314 Y-5.971 Z8.165 A98.2231 B-3.6580 
N223 X-208.301 Y-5.995 Z8.049 A99.9528 B-3.1765 
N224 X-208.284 Y-6.012 Z7.914 A101.4984 B-2.7307 
N225 X-208.262 Y-6.022 Z7.763 A102.8874 B-2.3175 
N226 X-208.237 Y-6.025 Z7.597 A104.1389 B-1.9346 
N227 X-208.207 Y-6.021 Z7.416 A105.2843 B-1.5761 
N228 X-208.175 Y-6.009 Z7.225 A106.3762 B-1.2302 
N229 X-208.141 Y-5.989 Z7.023 A107.4332 B-0.8932 
N230 X-208.104 Y-5.962 Z6.810 A108.4391 B-0.5703 
N231 X-208.065 Y-5.927 Z6.589 A109.3968 B-0.2617 
N232 X-208.025 Y-5.884 Z6.360 A110.3544 B0.0433 
N233 X-207.985 Y-5.835 Z6.128 A111.3911 B0.3626 
N234 X-207.946 Y-5.781 Z5.897 A112.5956 B0.7150 
N235 X-207.908 Y-5.725 Z5.670 A114.0531 B1.1166 
N236 X-207.874 Y-5.667 Z5.451 A115.8130 B1.5723 
N237 X-207.842 Y-5.610 Z5.237 A117.8613 B2.0696 
N238 X-207.811 Y-5.553 Z5.028 A120.1191 B2.5778 
N239 X-207.781 Y-5.494 Z4.819 A122.4605 B3.0530 
N240 X-207.749 Y-5.430 Z4.605 A124.7445 B3.4481 
N241 X-207.738 Y-5.357 Z4.380 A126.7475 B4.3390 
N242 X-207.724 Y-5.273 Z4.146 A128.5112 B5.0669 
N243 X-207.705 Y-5.179 Z3.906 A130.0263 B5.6351 
N244 X-207.684 Y-5.073 Z3.661 A131.3356 B6.0863 
N245 X-207.662 Y-4.960 Z3.414 A132.5101 B6.4571 
N246 X-207.641 Y-4.839 Z3.169 A133.6176 B6.7732 
N247 X-207.620 Y-4.712 Z2.926 A134.7076 B7.0494 
N248 X-207.602 Y-4.580 Z2.688 A135.8101 B7.2928 
N249 X-207.585 Y-4.444 Z2.454 A136.9398 B7.5061 
N250 X-207.570 Y-4.305 Z2.226 A138.1031 B7.6897 
N251 X-207.557 Y-4.163 Z2.003 A139.3024 B7.8434 
N252 X-207.546 Y-4.017 Z1.786 A140.5381 B7.9667 
N253 X-207.537 Y-3.868 Z1.576 A141.8096 B8.0589 
N254 X-207.529 Y-3.717 Z1.373 A143.1047 B8.1267 
N255 X-207.523 Y-3.570 Z1.185 A144.3572 B8.1972 
N256 X-207.518 Y-3.420 Z1.003 A145.6383 B8.2693 
N257 X-207.512 Y-3.269 Z0.827 A146.9472 B8.3430 
N258 X-207.506 Y-3.115 Z0.657 A148.2831 B8.4183 
N259 X-207.500 Y-2.960 Z0.494 A149.6451 B8.4952 
N260 X-207.494 Y-2.802 Z0.336 A151.0321 B8.5737 
N261 X-207.487 Y-2.642 Z0.185 A152.4428 B8.6538 
N262 X-207.481 Y-2.481 Z0.040 A153.8757 B8.7353 
N263 X-207.475 Y-2.318 Z-0.100 A155.3290 B8.8182 
N264 X-207.469 Y-2.152 Z-0.233 A156.8008 B8.9024 
N265 X-207.462 Y-1.985 Z-0.360 A158.2893 B8.9879 
N266 X-207.456 Y-1.816 Z-0.481 A159.7926 B9.0743 
N267 X-207.449 Y-1.645 Z-0.597 A161.3089 B9.1618 
N268 X-207.443 Y-1.472 Z-0.706 A162.8365 B9.2500 
N269 X-207.436 Y-1.297 Z-0.810 A164.3742 B9.3390 
N270 X-207.430 Y-1.119 Z-0.908 A165.9215 B9.4287 
N271 X-207.423 Y-0.940 Z-1.001 A167.4793 B9.5189 
N272 X-207.416 Y-0.758 Z-1.088 A169.0507 B9.6098 
N273 X-207.409 Y-0.575 Z-1.169 A170.6402 B9.7016 
N274 X-207.402 Y-0.390 Z-1.244 A172.2523 B9.7942 
N275 X-207.396 Y-0.203 Z-1.314 A173.8886 B9.8877 
N276 X-207.389 Y-0.014 Z-1.378 A175.5459 B9.9819 
N277 X-207.382 Y0.177 Z-1.437 A177.2172 B10.0762 
N278 X-207.375 Y0.370 Z-1.490 A178.8939 B10.1701 
N279 X-207.368 Y0.567 Z-1.538 A180.5683 B10.2633 
N280 X-207.361 Y0.767 Z-1.580 A182.2345 B10.3554 
N281 X-207.353 Y0.970 Z-1.617 A183.8885 B10.4460 
N282 X-207.346 Y1.177 Z-1.648 A185.5276 B10.5350 
N283 X-207.339 Y1.388 Z-1.673 A187.1494 B10.6222 
N284 X-207.332 Y1.602 Z-1.692 A188.7521 B10.7074 
N285 X-207.324 Y1.821 Z-1.705 A190.3338 B10.7904 
N286 X-207.317 Y2.044 Z-1.711 A191.8928 B10.8711 
N287 X-207.309 Y2.271 Z-1.712 A193.4275 B10.9495 
N288 X-207.302 Y2.502 Z-1.705 A194.9364 B11.0253 
N289 X-207.295 Y2.737 Z-1.692 A196.4178 B11.0985 
N290 X-207.287 Y2.977 Z-1.672 A197.8703 B11.1690 
N291 X-207.280 Y3.221 Z-1.645 A199.2923 B11.2367 
N292 X-207.272 Y3.469 Z-1.611 A200.6828 B11.3016 
N293 X-207.265 Y3.722 Z-1.569 A202.0409 B11.3636 
N294 X-207.258 Y3.979 Z-1.520 A203.3662 B11.4227 
N295 X-207.251 Y4.241 Z-1.464 A204.6581 B11.4789 
N296 X-207.244 Y4.506 Z-1.400 A205.9164 B11.5323 
N297 X-207.237 Y4.776 Z-1.329 A207.1414 B11.5828 
N298 X-207.230 Y5.049 Z-1.249 A208.3337 B11.6305 
N299 X-207.224 Y5.327 Z-1.162 A209.4941 B11.6755 
N300 X-207.218 Y5.608 Z-1.067 A210.6224 B11.7177 
N301 X-207.212 Y5.894 Z-0.965 A211.7179 B11.7572 
N302 X-207.206 Y6.182 Z-0.854 A212.7788 B11.7951 
N303 X-207.201 Y6.475 Z-0.736 A213.8018 B11.8329 
N304 X-207.196 Y6.771 Z-0.609 A214.7840 B11.8673 
N305 X-207.191 Y7.071 Z-0.474 A215.7237 B11.8986 
N306 X-207.186 Y7.374 Z-0.332 A216.6205 B11.9269 
N307 X-207.182 Y7.681 Z-0.182 A217.4760 B11.9524 
N308 X-207.179 Y7.991 Z-0.024 A218.2929 B11.9753 
N309 X-207.176 Y8.303 Z0.141 A219.0739 B11.9958 
N310 X-207.173 Y8.619 Z0.313 A219.8209 B12.0141 
N311 X-207.171 Y8.937 Z0.493 A220.5351 B12.0303 
N312 X-207.169 Y9.258 Z0.679 A221.2174 B12.0446 
N313 X-207.168 Y9.581 Z0.871 A221.8684 B12.0571 
N314 X-207.167 Y9.906 Z1.071 A222.4888 B12.0679 
N315 X-207.167 Y10.233 Z1.276 A223.0792 B12.0771 
N316 X-207.168 Y10.562 Z1.487 A223.6402 B12.0849 
N317 X-207.169 Y10.892 Z1.704 A224.1726 B12.0914 
N318 X-207.170 Y11.224 Z1.926 A224.6769 B12.0967 
N319 X-207.173 Y11.556 Z2.153 A225.1537 B12.1009 
N320 X-207.176 Y11.889 Z2.384 A225.6030 B12.1042 
N321 X-207.179 Y12.223 Z2.620 A226.0246 B12.1066 
N322 X-207.184 Y12.556 Z2.859 A226.4177 B12.1082 
N323 X-207.188 Y12.889 Z3.101 A226.7819 B12.1093 
N324 X-207.194 Y13.221 Z3.346 A227.1181 B12.1100 
N325 X-207.200 Y13.552 Z3.593 A227.4287 B12.1102 
N326 X-207.207 Y13.882 Z3.842 A227.7169 B12.1101 
N327 X-207.214 Y14.208 Z4.091 A227.9851 B12.1096 
N328 X-207.222 Y14.532 Z4.340 A228.2349 B12.1087 
N329 X-207.235 Y14.852 Z4.588 A228.4663 B12.1076 
N330 X-207.252 Y15.168 Z4.835 A228.6796 B12.1065 
N331 X-207.274 Y15.478 Z5.080 A228.8746 B12.1052 
N332 X-207.299 Y15.783 Z5.321 A229.0514 B12.1040 
N333 X-207.328 Y16.080 Z5.558 A229.2101 B12.1029 
N334 X-207.358 Y16.370 Z5.791 A229.3502 B12.1019 
N335 X-207.392 Y16.651 Z6.017 A229.4718 B12.1011 
N336 X-207.428 Y16.922 Z6.237 A229.5761 B12.1006 
N337 X-207.466 Y17.183 Z6.448 A229.6654 B12.1003 
N338 X-207.505 Y17.432 Z6.651 A229.7426 B12.1002 
N339 X-207.545 Y17.669 Z6.844 A229.8106 B12.1002 
N340 X-207.586 Y17.893 Z7.027 A229.8717 B12.1002 
N341 X-207.626 Y18.103 Z7.199 A229.9268 
N342 X-207.665 Y18.300 Z7.361 A229.9759 B12.1002 
N343 X-207.704 Y18.483 Z7.511 A230.0177 B12.1003 
N344 X-207.741 Y18.653 Z7.651 A230.0624 B12.1001 
N345 X-207.777 Y18.803 Z7.773 A230.3940 B12.0868 
N346 X-207.806 Y18.894 Z7.834 A232.6093 B11.9848 
N347 X-205.729 Y26.666 Z1.894 
N348 G00 X-200.538 Y46.096 Z-12.956 
N349 X-196.738 Y57.072 Z-35.944 
N350 X-207.120 Y18.213 Z-6.244 
N351 G01 X-207.188 Y16.504 Z-3.624 F878 
N352 X-207.385 Y15.682 Z-0.611 
N353 X-207.691 Y15.828 Z2.499 
N354 X-208.078 Y16.928 Z5.402 
N355 M340 ; chlodziwo centralne
N356 X-208.506 Y18.873 Z7.815 
N357 X-208.524 Y18.921 Z7.830 A236.1456 B11.8117 
N358 X-208.534 Y18.957 Z7.835 A239.8126 B11.6209 
N359 X-208.536 Y18.987 Z7.838 A243.3653 B11.4261 
N360 X-208.531 Y19.015 Z7.841 A246.7521 B11.2320 
N361 X-208.521 Y19.040 Z7.843 A249.9720 B11.0405 
N362 X-208.507 Y19.063 Z7.847 A253.0414 B10.8524 
N363 X-208.490 Y19.085 Z7.851 A255.9820 B10.6676 
N364 X-208.470 Y19.105 Z7.855 A258.8161 B10.4858 
N365 X-208.448 Y19.125 Z7.860 A261.5650 B10.3066 
N366 X-208.424 Y19.143 Z7.866 A264.2474 B10.1294 
N367 X-208.399 Y19.161 Z7.872 A266.8787 B9.9540 
N368 X-208.373 Y19.179 Z7.879 A269.4715 B9.7798 
N369 X-208.346 Y19.196 Z7.886 A272.0354 B9.6070 
N370 X-208.319 Y19.212 Z7.895 A274.5776 B9.4353 
N371 X-208.293 Y19.228 Z7.903 A277.1031 B9.2649 
N372 X-208.266 Y19.243 Z7.913 A279.6155 B9.0960 
N373 X-208.241 Y19.258 Z7.923 A282.1174 B8.9289 
N374 X-208.216 Y19.272 Z7.933 A284.6103 B8.7639 
N375 X-208.193 Y19.286 Z7.945 A287.0957 B8.6012 
N376 X-208.171 Y19.300 Z7.956 A289.5746 B8.4412 
N377 X-208.151 Y19.313 Z7.969 A292.0482 B8.2843 
N378 X-208.134 Y19.325 Z7.982 A294.5175 B8.1307 
N379 X-208.119 Y19.337 Z7.995 A296.9834 B7.9808 
N380 X-208.107 Y19.348 Z8.009 A299.4468 B7.8349 
N381 X-208.099 Y19.359 Z8.023 A301.9081 B7.6934 
N382 X-208.093 Y19.369 Z8.037 A304.3677 B7.5566 
N383 X-208.091 Y19.378 Z8.052 A306.8256 B7.4249 
N384 X-208.092 Y19.387 Z8.067 A309.2834 B7.2986 
N385 X-208.093 Y19.396 Z8.083 A311.7438 B7.1778 
N386 X-208.096 Y19.404 Z8.099 A314.2094 B7.0628 
N387 X-208.099 Y19.411 Z8.115 A316.6806 B6.9538 
N388 X-208.106 Y19.418 Z8.132 A319.1562 B6.8513 
N389 X-208.115 Y19.424 Z8.148 A321.6336 B6.7555 
N390 X-208.128 Y19.430 Z8.165 A324.1118 B6.6668 
N391 X-208.143 Y19.435 Z8.182 A326.5909 B6.5854 
N392 X-208.160 Y19.439 Z8.200 A329.0715 B6.5113 
N393 X-208.179 Y19.443 Z8.217 A331.5540 B6.4447 
N394 X-208.198 Y19.446 Z8.235 A334.0383 B6.3858 
N395 X-208.219 Y19.449 Z8.253 A336.5245 B6.3346 
N396 X-208.240 Y19.451 Z8.270 A339.0122 B6.2912 
N397 X-208.261 Y19.452 Z8.288 A341.5007 B6.2556 
N398 X-208.282 Y19.453 Z8.306 A343.9892 B6.2279 
N399 X-208.303 Y19.453 Z8.325 A346.4772 B6.2081 
N400 X-208.323 Y19.453 Z8.343 A348.9650 B6.1961 
N401 X-208.342 Y19.452 Z8.361 A351.4539 B6.1918 
N402 X-208.359 Y19.450 Z8.379 A353.9462 B6.1952 
N403 X-208.375 Y19.448 Z8.397 A356.4444 B6.2063 
N404 X-208.389 Y19.444 Z8.415 A358.9522 B6.2250 
N405 X-208.401 Y19.441 Z8.433 A1.4739 B6.2513 
N406 X-208.410 Y19.436 Z8.452 A4.0158 B6.2852 
N407 X-208.417 Y19.430 Z8.470 A6.5857 B6.3270 
N408 X-208.420 Y19.423 Z8.489 A9.1932 B6.3769 
N409 X-208.421 Y19.416 Z8.507 A11.8495 B6.4351 
N410 X-208.419 Y19.407 Z8.526 A14.5675 B6.5022 
N411 X-208.414 Y19.396 Z8.545 A17.3610 B6.5787 
N412 X-208.405 Y19.383 Z8.564 A20.2447 B6.6654 
N413 X-208.392 Y19.368 Z8.582 A23.2323 B6.7630 
N414 X-208.375 Y19.351 Z8.601 A26.3334 B6.8723 
N415 X-208.355 Y19.329 Z8.618 A29.5454 B6.9934 
N416 X-208.330 Y19.300 Z8.633 A32.8297 B7.1250 
N417 X-208.303 Y19.259 Z8.640 A36.0087 B7.2597 
N418 X-208.270 Y19.178 Z8.615 A38.1950 B7.3580 
N419 X-208.234 Y19.025 Z8.533 A38.4134 B7.3745 
N420 X-208.200 Y18.846 Z8.433 A38.1656 B7.3721 
N421 X-208.169 Y18.653 Z8.327 A37.9056 B7.3701 
N422 X-208.141 Y18.448 Z8.216 A37.6401 B7.3688 
N423 X-208.117 Y18.228 Z8.098 A37.3623 B7.3680 
N424 X-208.099 Y17.995 Z7.974 A37.0689 B7.3677 
N425 X-208.086 Y17.748 Z7.844 A36.7534 B7.3676 
N426 X-208.077 Y17.487 Z7.710 A36.4055 B7.3675 
N427 X-208.070 Y17.213 Z7.570 A36.0132 B7.3671 
N428 X-208.062 Y16.926 Z7.426 A35.5651 B7.3650 
N429 X-208.055 Y16.627 Z7.279 A35.0531 B7.3620 
N430 X-208.047 Y16.317 Z7.130 A34.4787 B7.3584 
N431 X-208.040 Y15.996 Z6.979 A33.8496 B7.3546 
N432 X-208.033 Y15.667 Z6.830 A33.1754 B7.3511 
N433 X-208.027 Y15.330 Z6.681 A32.4633 B7.3480 
N434 X-208.021 Y14.988 Z6.535 A31.7130 B7.3456 
N435 X-208.016 Y14.640 Z6.392 A30.9211 B7.3438 
N436 X-208.011 Y14.288 Z6.253 A30.0851 B7.3427 
N437 X-208.007 Y13.933 Z6.119 A29.2033 B7.3422 
N438 X-208.004 Y13.576 Z5.990 A28.2749 B7.3425 
N439 X-208.001 Y13.217 Z5.866 A27.2990 B7.3437 
N440 X-207.998 Y12.856 Z5.749 A26.2750 B7.3459 
N441 X-207.997 Y12.495 Z5.639 A25.2018 B7.3492 
N442 X-207.995 Y12.133 Z5.536 A24.0790 B7.3537 
N443 X-207.995 Y11.770 Z5.440 A22.9071 B7.3596 
N444 X-207.996 Y11.407 Z5.352 A21.6876 B7.3671 
N445 X-207.996 Y11.044 Z5.271 A20.4234 B7.3763 
N446 X-207.997 Y10.681 Z5.200 A19.1177 B7.3874 
N447 X-207.999 Y10.318 Z5.136 A17.7738 B7.4005 
N448 X-208.001 Y9.955 Z5.081 A16.3949 B7.4157 
N449 X-208.004 Y9.592 Z5.036 A14.9846 B7.4333 
N450 X-208.007 Y9.229 Z4.999 A13.5466 B7.4532 
N451 X-208.012 Y8.865 Z4.971 A12.0849 B7.4755 
N452 X-208.016 Y8.501 Z4.953 A10.6044 B7.5004 
N453 X-208.021 Y8.136 Z4.944 A9.1104 B7.5277 
N454 X-208.027 Y7.770 Z4.945 A7.6084 B7.5576 
N455 X-208.033 Y7.404 Z4.956 A6.1038 B7.5901 
N456 X-208.040 Y7.036 Z4.976 A4.6022 B7.6249 
N457 X-208.047 Y6.668 Z5.006 A3.1099 B7.6621 
N458 X-208.055 Y6.298 Z5.047 A1.6349 B7.7015 
N459 X-208.063 Y5.927 Z5.097 A0.1875 B7.7428 
N460 X-208.072 Y5.556 Z5.158 A358.7808 B7.7859 
N461 X-208.081 Y5.185 Z5.228 A357.4288 B7.8302 
N462 X-208.091 Y4.813 Z5.307 A356.1437 B7.8755 
N463 X-208.101 Y4.442 Z5.396 A354.9351 B7.9212 
N464 X-208.112 Y4.072 Z5.493 A353.8097 B7.9671 
N465 X-208.122 Y3.703 Z5.599 A352.7736 B8.0128 
N466 X-208.134 Y3.335 Z5.711 A351.8339 B8.0578 
N467 X-208.145 Y2.969 Z5.830 A350.9985 B8.1017 
N468 X-208.157 Y2.606 Z5.954 A350.2757 B8.1441 
N469 X-208.168 Y2.246 Z6.082 A349.6703 B8.1845 
N470 X-208.180 Y1.890 Z6.214 A349.1819 B8.2011 
N471 X-208.184 Y1.537 Z6.347 A348.8024 B8.0452 
N472 X-208.186 Y1.184 Z6.484 A348.6139 B7.7702 
N473 X-208.193 Y0.835 Z6.621 A348.5253 B7.4953 
N474 X-208.204 Y0.491 Z6.758 A348.5210 B7.2178 
N475 X-208.220 Y0.153 Z6.893 A348.5929 B6.9366 
N476 X-208.240 Y-0.180 Z7.026 A348.7335 B6.6508 
N477 X-208.264 Y-0.505 Z7.157 A348.9370 B6.3593 
N478 X-208.290 Y-0.824 Z7.283 A349.1983 B6.0395 
N479 X-208.319 Y-1.135 Z7.405 A349.5202 B5.6969 
N480 X-208.352 Y-1.438 Z7.523 A349.9131 B5.3442 
N481 X-208.388 Y-1.730 Z7.634 A350.3871 B4.9784 
N482 X-208.431 Y-2.012 Z7.739 A350.9516 B4.5964 
N483 X-208.478 Y-2.283 Z7.837 A351.6138 B4.1953 
N484 X-208.529 Y-2.542 Z7.928 A352.3708 B3.7739 
N485 X-208.582 Y-2.790 Z8.012 A353.2159 B3.3320 
N486 X-208.636 Y-3.026 Z8.087 A354.1450 B2.8697 
N487 X-208.690 Y-3.251 Z8.154 A355.1600 B2.3861 
N488 X-208.742 Y-3.463 Z8.214 A356.2752 B1.8780 
N489 X-208.793 Y-3.663 Z8.267 A357.4948 B1.3448 
N490 X-208.840 Y-3.851 Z8.312 A358.7970 B0.7913 
N491 X-208.885 Y-4.028 Z8.351 A0.1534 B0.2248 
N492 X-208.925 Y-4.195 Z8.383 A1.5748 B-0.3557 
N493 X-208.960 Y-4.349 Z8.408 A3.1015 B-0.9571 
N494 X-208.990 Y-4.489 Z8.429 A4.7549 B-1.5822 
N495 X-209.014 Y-4.617 Z8.444 A6.5310 B-2.2277 
N496 X-209.032 Y-4.732 Z8.455 A8.4252 B-2.8896 
N497 X-209.043 Y-4.834 Z8.462 A10.4387 B-3.5648 
N498 X-209.049 Y-4.925 Z8.466 A12.5726 B-4.2491 
N499 X-209.050 Y-5.005 Z8.469 A14.8204 B-4.9366 
N500 X-209.046 Y-5.074 Z8.470 A17.1696 B-5.6193 
N501 X-209.038 Y-5.134 Z8.470 A19.6032 B-6.2888 
N502 X-209.027 Y-5.187 Z8.469 A22.0998 B-6.9338 
N503 X-209.015 Y-5.233 Z8.469 A24.6472 B-7.5100 
N504 X-209.004 Y-5.273 Z8.468 A27.2327 B-8.0104 
N505 X-208.992 Y-5.309 Z8.468 A29.8443 B-8.4428 
N506 X-208.982 Y-5.341 Z8.467 A32.4739 B-8.8140 
N507 X-208.972 Y-5.370 Z8.467 A35.1164 B-9.1291 
N508 X-208.964 Y-5.397 Z8.468 A37.7689 B-9.3921 
N509 X-208.958 Y-5.421 Z8.469 A40.4297 B-9.6061 
N510 X-208.955 Y-5.445 Z8.470 A43.0975 B-9.7734 
N511 X-208.954 Y-5.467 Z8.471 A45.7716 B-9.8959 
N512 X-208.956 Y-5.489 Z8.474 A48.4520 B-9.9746 
N513 X-208.960 Y-5.509 Z8.475 A51.1398 B-10.0105 
N514 X-208.966 Y-5.530 Z8.477 A53.8363 B-10.0042 
N515 X-208.972 Y-5.550 Z8.479 A56.5435 B-9.9561 
N516 X-208.979 Y-5.571 Z8.481 A59.2601 B-9.8665 
N517 X-208.985 Y-5.592 Z8.482 A61.9860 B-9.7350 
N518 X-208.991 Y-5.615 Z8.482 A64.7215 B-9.5614 
N519 X-208.996 Y-5.638 Z8.481 A67.4665 B-9.3453 
N520 X-209.002 Y-5.662 Z8.478 A70.2207 B-9.0866 
N521 X-209.008 Y-5.688 Z8.473 A72.9826 B-8.7844 
N522 X-209.014 Y-5.715 Z8.465 A75.7491 B-8.4382 
N523 X-209.020 Y-5.744 Z8.453 A78.5157 B-8.0472 
N524 X-209.026 Y-5.773 Z8.436 A81.2750 B-7.6109 
N525 X-209.030 Y-5.804 Z8.413 A84.0138 B-7.1297 
N526 X-209.035 Y-5.836 Z8.382 A86.7099 B-6.6054 
N527 X-209.038 Y-5.868 Z8.341 A89.3292 B-6.0421 
N528 X-209.039 Y-5.900 Z8.287 A91.8271 B-5.4465 
N529 X-209.039 Y-5.931 Z8.219 A94.1589 B-4.8256 
N530 X-209.036 Y-5.958 Z8.133 A96.2876 B-4.1838 
N531 X-209.026 Y-5.982 Z8.030 A98.2231 B-3.6580 
N532 X-209.011 Y-6.000 Z7.910 A99.9528 B-3.1765 
N533 X-208.991 Y-6.012 Z7.772 A101.4984 B-2.7307 
N534 X-208.967 Y-6.018 Z7.620 A102.8874 B-2.3175 
N535 X-208.940 Y-6.016 Z7.452 A104.1389 B-1.9346 
N536 X-208.909 Y-6.007 Z7.272 A105.2843 B-1.5761 
N537 X-208.875 Y-5.991 Z7.080 A106.3762 B-1.2302 
N538 X-208.840 Y-5.968 Z6.880 A107.4332 B-0.8932 
N539 X-208.802 Y-5.937 Z6.669 A108.4391 B-0.5703 
N540 X-208.762 Y-5.898 Z6.450 A109.3968 B-0.2617 
N541 X-208.721 Y-5.853 Z6.225 A110.3544 B0.0433 
N542 X-208.681 Y-5.802 Z5.996 A111.3911 B0.3626 
N543 X-208.641 Y-5.746 Z5.769 A112.5956 B0.7150 
N544 X-208.604 Y-5.688 Z5.546 A114.0531 B1.1166 
N545 X-208.569 Y-5.629 Z5.331 A115.8130 B1.5723 
N546 X-208.537 Y-5.571 Z5.123 A117.8613 B2.0696 
N547 X-208.506 Y-5.513 Z4.919 A120.1191 B2.5778 
N548 X-208.476 Y-5.454 Z4.714 A122.4605 B3.0530 
N549 X-208.444 Y-5.389 Z4.506 A124.7445 B3.4481 
N550 X-208.434 Y-5.316 Z4.287 A126.7475 B4.3390 
N551 X-208.420 Y-5.233 Z4.059 A128.5112 B5.0669 
N552 X-208.401 Y-5.139 Z3.825 A130.0263 B5.6351 
N553 X-208.380 Y-5.035 Z3.586 A131.3356 B6.0863 
N554 X-208.359 Y-4.922 Z3.345 A132.5101 B6.4571 
N555 X-208.338 Y-4.802 Z3.106 A133.6176 B6.7732 
N556 X-208.319 Y-4.677 Z2.869 A134.7076 B7.0494 
N557 X-208.300 Y-4.548 Z2.637 A135.8101 B7.2928 
N558 X-208.284 Y-4.415 Z2.409 A136.9398 B7.5061 
N559 X-208.269 Y-4.278 Z2.187 A138.1031 B7.6897 
N560 X-208.257 Y-4.139 Z1.971 A139.3024 B7.8434 
N561 X-208.246 Y-3.996 Z1.760 A140.5381 B7.9667 
N562 X-208.236 Y-3.851 Z1.555 A141.8096 B8.0589 
N563 X-208.229 Y-3.703 Z1.357 A143.1047 B8.1267 
N564 X-208.223 Y-3.556 Z1.169 A144.3572 B8.1972 
N565 X-208.218 Y-3.405 Z0.987 A145.6383 B8.2693 
N566 X-208.212 Y-3.253 Z0.811 A146.9472 B8.3430 
N567 X-208.206 Y-3.099 Z0.642 A148.2831 B8.4183 
N568 X-208.200 Y-2.942 Z0.478 A149.6451 B8.4952 
N569 X-208.193 Y-2.784 Z0.321 A151.0321 B8.5737 
N570 X-208.187 Y-2.624 Z0.170 A152.4428 B8.6538 
N571 X-208.181 Y-2.462 Z0.025 A153.8757 B8.7353 
N572 X-208.175 Y-2.297 Z-0.114 A155.3290 B8.8182 
N573 X-208.168 Y-2.131 Z-0.247 A156.8008 B8.9024 
N574 X-208.162 Y-1.964 Z-0.374 A158.2893 B8.9879 
N575 X-208.156 Y-1.794 Z-0.495 A159.7926 B9.0743 
N576 X-208.149 Y-1.622 Z-0.610 A161.3089 B9.1618 
N577 X-208.142 Y-1.448 Z-0.719 A162.8365 B9.2500 
N578 X-208.136 Y-1.272 Z-0.822 A164.3742 B9.3390 
N579 X-208.129 Y-1.094 Z-0.920 A165.9215 B9.4287 
N580 X-208.122 Y-0.914 Z-1.011 A167.4793 B9.5189 
N581 X-208.116 Y-0.732 Z-1.098 A169.0507 B9.6098 
N582 X-208.109 Y-0.548 Z-1.178 A170.6402 B9.7016 
N583 X-208.102 Y-0.363 Z-1.253 A172.2523 B9.7942 
N584 X-208.095 Y-0.176 Z-1.322 A173.8886 B9.8877 
N585 X-208.088 Y0.013 Z-1.385 A175.5459 B9.9819 
N586 X-208.081 Y0.204 Z-1.443 A177.2172 B10.0762 
N587 X-208.074 Y0.398 Z-1.496 A178.8939 B10.1701 
N588 X-208.067 Y0.594 Z-1.543 A180.5683 B10.2633 
N589 X-208.060 Y0.794 Z-1.584 A182.2345 B10.3554 
N590 X-208.053 Y0.997 Z-1.620 A183.8885 B10.4460 
N591 X-208.046 Y1.204 Z-1.650 A185.5276 B10.5350 
N592 X-208.038 Y1.415 Z-1.674 A187.1494 B10.6222 
N593 X-208.031 Y1.629 Z-1.692 A188.7521 B10.7074 
N594 X-208.024 Y1.847 Z-1.705 A190.3338 B10.7904 
N595 X-208.016 Y2.070 Z-1.710 A191.8928 B10.8711 
N596 X-208.009 Y2.296 Z-1.710 A193.4275 B10.9495 
N597 X-208.002 Y2.526 Z-1.703 A194.9364 B11.0253 
N598 X-207.994 Y2.761 Z-1.689 A196.4178 B11.0985 
N599 X-207.987 Y3.000 Z-1.669 A197.8703 B11.1690 
N600 X-207.979 Y3.244 Z-1.641 A199.2923 B11.2367 
N601 X-207.972 Y3.491 Z-1.607 A200.6828 B11.3016 
N602 X-207.965 Y3.743 Z-1.565 A202.0409 B11.3636 
N603 X-207.958 Y3.999 Z-1.516 A203.3662 B11.4227 
N604 X-207.951 Y4.260 Z-1.459 A204.6581 B11.4789 
N605 X-207.944 Y4.525 Z-1.395 A205.9164 B11.5323 
N606 X-207.937 Y4.793 Z-1.323 A207.1414 B11.5828 
N607 X-207.930 Y5.066 Z-1.244 A208.3337 B11.6305 
N608 X-207.924 Y5.343 Z-1.157 A209.4941 B11.6755 
N609 X-207.918 Y5.623 Z-1.062 A210.6224 B11.7177 
N610 X-207.912 Y5.907 Z-0.959 A211.7179 B11.7572 
N611 X-207.906 Y6.195 Z-0.849 A212.7788 B11.7951 
N612 X-207.901 Y6.487 Z-0.730 A213.8018 B11.8329 
N613 X-207.896 Y6.782 Z-0.604 A214.7840 B11.8673 
N614 X-207.891 Y7.081 Z-0.470 A215.7237 B11.8986 
N615 X-207.887 Y7.383 Z-0.328 A216.6205 B11.9269 
N616 X-207.883 Y7.689 Z-0.178 A217.4760 B11.9524 
N617 X-207.879 Y7.997 Z-0.020 A218.2929 B11.9753 
N618 X-207.876 Y8.309 Z0.144 A219.0739 B11.9958 
N619 X-207.873 Y8.624 Z0.316 A219.8209 B12.0141 
N620 X-207.871 Y8.941 Z0.495 A220.5351 B12.0303 
N621 X-207.870 Y9.261 Z0.681 A221.2174 B12.0446 
N622 X-207.868 Y9.583 Z0.873 A221.8684 B12.0571 
N623 X-207.867 Y9.907 Z1.071 A222.4888 B12.0679 
N624 X-207.868 Y10.233 Z1.276 A223.0792 B12.0771 
N625 X-207.869 Y10.561 Z1.486 A223.6402 B12.0849 
N626 X-207.869 Y10.890 Z1.703 A224.1726 B12.0914 
N627 X-207.871 Y11.221 Z1.924 A224.6769 B12.0967 
N628 X-207.873 Y11.553 Z2.150 A225.1537 B12.1009 
N629 X-207.876 Y11.885 Z2.381 A225.6030 B12.1042 
N630 X-207.880 Y12.217 Z2.616 A226.0246 B12.1066 
N631 X-207.884 Y12.550 Z2.854 A226.4177 B12.1082 
N632 X-207.889 Y12.882 Z3.096 A226.7819 B12.1093 
N633 X-207.894 Y13.214 Z3.340 A227.1181 B12.1100 
N634 X-207.900 Y13.544 Z3.587 A227.4287 B12.1102 
N635 X-207.907 Y13.872 Z3.835 A227.7169 B12.1101 
N636 X-207.914 Y14.198 Z4.083 A227.9851 B12.1096 
N637 X-207.923 Y14.521 Z4.331 A228.2349 B12.1087 
N638 X-207.935 Y14.841 Z4.579 A228.4663 B12.1076 
N639 X-207.953 Y15.155 Z4.825 A228.6796 B12.1065 
N640 X-207.974 Y15.465 Z5.069 A228.8746 B12.1052 
N641 X-207.999 Y15.769 Z5.310 A229.0514 B12.1040 
N642 X-208.028 Y16.066 Z5.547 A229.2101 B12.1029 
N643 X-208.058 Y16.355 Z5.779 A229.3502 B12.1019 
N644 X-208.093 Y16.635 Z6.005 A229.4718 B12.1011 
N645 X-208.129 Y16.906 Z6.224 A229.5761 B12.1006 
N646 X-208.167 Y17.166 Z6.435 A229.6654 B12.1003 
N647 X-208.206 Y17.415 Z6.637 A229.7426 B12.1002 
N648 X-208.246 Y17.651 Z6.830 A229.8106 B12.1002 
N649 X-208.286 Y17.874 Z7.012 A229.8717 B12.1002 
N650 X-208.326 Y18.084 Z7.184 A229.9268 
N651 X-208.366 Y18.280 Z7.345 A229.9759 B12.1002 
N652 X-208.404 Y18.463 Z7.495 A230.0177 B12.1003 
N653 X-208.442 Y18.633 Z7.634 A230.0624 B12.1001 
N654 X-208.477 Y18.783 Z7.756 A230.3940 B12.0868 
N655 X-208.506 Y18.873 Z7.815 A232.6093 B11.9848 
N656 X-206.429 Y26.645 Z1.875 
N657 G00 X-201.238 Y46.075 Z-12.975 
N658 X-197.438 Y57.051 Z-35.963 
N659 X-207.821 Y18.191 Z-6.263 
N660 G01 X-207.888 Y16.483 Z-3.643 F878 
N661 X-208.085 Y15.661 Z-0.630 
N662 X-208.392 Y15.807 Z2.480 
N663 X-208.778 Y16.907 Z5.383 
N664 M340 ; chlodziwo centralne
VELOLIM[A]=100 ;PRZYWOLANIE VELOLIM
N665 X-209.206 Y18.852 Z7.796 
N665 X-209.206 Y18.852 Z7.796 
F200
N666 X-209.224 Y18.900 Z7.808 A236.1456 B11.8117 F199 
N667 X-209.234 Y18.936 Z7.811 A239.8126 B11.6209 
N668 X-209.236 Y18.967 Z7.811 A243.3653 B11.4261 
N669 X-209.230 Y18.995 Z7.811 A246.7521 B11.2320 
N670 X-209.220 Y19.021 Z7.811 A249.9720 B11.0405 
N671 X-209.206 Y19.045 Z7.812 A253.0414 B10.8524 
N672 X-209.189 Y19.068 Z7.814 A255.9820 B10.6676 
N673 X-209.169 Y19.090 Z7.817 A258.8161 B10.4858 
N674 X-209.146 Y19.111 Z7.820 A261.5650 B10.3066 
N675 X-209.123 Y19.131 Z7.825 A264.2474 B10.1294 
N676 X-209.097 Y19.151 Z7.830 A266.8787 B9.9540 
N677 X-209.071 Y19.170 Z7.836 A269.4715 B9.7798 
N678 X-209.045 Y19.189 Z7.843 A272.0354 B9.6070 
N679 X-209.018 Y19.207 Z7.850 A274.5776 B9.4353 
N680 X-208.991 Y19.225 Z7.859 A277.1031 B9.2649 
N681 X-208.965 Y19.242 Z7.868 A279.6155 B9.0960 
N682 X-208.939 Y19.259 Z7.878 A282.1174 B8.9289 
N683 X-208.915 Y19.276 Z7.889 A284.6103 B8.7639 
N684 X-208.891 Y19.291 Z7.901 A287.0957 B8.6012 
N685 X-208.870 Y19.307 Z7.913 A289.5746 B8.4412 
N686 X-208.850 Y19.321 Z7.926 A292.0482 B8.2843 
N687 X-208.833 Y19.335 Z7.940 A294.5175 B8.1307 
N688 X-208.818 Y19.349 Z7.954 A296.9834 B7.9808 
N689 X-208.806 Y19.361 Z7.969 A299.4468 B7.8349 
N690 X-208.798 Y19.374 Z7.985 A301.9081 B7.6934 
N691 X-208.793 Y19.385 Z8.001 A304.3677 B7.5566 
N692 X-208.791 Y19.396 Z8.017 A306.8256 B7.4249 
N693 X-208.791 Y19.406 Z8.034 A309.2834 B7.2986 
N694 X-208.793 Y19.415 Z8.052 A311.7438 B7.1778 
N695 X-208.795 Y19.423 Z8.069 A314.2094 B7.0628 
N696 X-208.799 Y19.431 Z8.087 A316.6806 B6.9538 
N697 X-208.806 Y19.438 Z8.106 A319.1562 B6.8513 
N698 X-208.815 Y19.445 Z8.125 A321.6336 B6.7555 
N699 X-208.828 Y19.450 Z8.144 A324.1118 B6.6668 
N700 X-208.843 Y19.455 Z8.163 A326.5909 B6.5854 
N701 X-208.860 Y19.459 Z8.182 A329.0715 B6.5113 
N702 X-208.879 Y19.462 Z8.202 A331.5540 B6.4447 
N703 X-208.899 Y19.465 Z8.221 A334.0383 B6.3858 
N704 X-208.920 Y19.467 Z8.241 A336.5245 B6.3346 
N705 X-208.941 Y19.468 Z8.260 A339.0122 B6.2912 
N706 X-208.962 Y19.468 Z8.280 A341.5007 B6.2556 
N707 X-208.983 Y19.467 Z8.299 A343.9892 B6.2279 
N708 X-209.004 Y19.466 Z8.319 A346.4772 B6.2081 
N709 X-209.024 Y19.464 Z8.338 A348.9650 B6.1961 
N710 X-209.043 Y19.461 Z8.358 A351.4539 B6.1918 
N711 X-209.061 Y19.458 Z8.377 A353.9462 B6.1952 
N712 X-209.077 Y19.454 Z8.396 A356.4444 B6.2063 
N713 X-209.091 Y19.448 Z8.414 A358.9522 B6.2250 
N714 X-209.102 Y19.443 Z8.433 A1.4739 B6.2513 
N715 X-209.111 Y19.436 Z8.452 A4.0158 B6.2852 
N716 X-209.118 Y19.428 Z8.470 A6.5857 B6.3270 
N717 X-209.122 Y19.420 Z8.489 A9.1932 B6.3769 
N718 X-209.123 Y19.410 Z8.507 A11.8495 B6.4351 
N719 X-209.121 Y19.399 Z8.525 A14.5675 B6.5022 
N720 X-209.115 Y19.386 Z8.543 A17.3610 B6.5787 
N721 X-209.106 Y19.371 Z8.561 A20.2447 B6.6654 
N722 X-209.093 Y19.355 Z8.579 A23.2323 B6.7630 
N723 X-209.076 Y19.335 Z8.596 A26.3334 B6.8723 
N724 X-209.056 Y19.311 Z8.612 A29.5454 B6.9934 
N725 X-209.031 Y19.282 Z8.625 A32.8297 B7.1250 
N726 X-209.003 Y19.239 Z8.630 A36.0087 B7.2597 
N727 X-208.970 Y19.157 Z8.604 A38.1950 B7.3580 
N728 X-208.935 Y19.004 Z8.522 A38.4134 B7.3745 
N729 X-208.901 Y18.826 Z8.422 A38.1656 B7.3721 
N730 X-208.869 Y18.634 Z8.317 A37.9056 B7.3701 
N731 X-208.842 Y18.429 Z8.205 A37.6401 B7.3688 
N732 X-208.818 Y18.210 Z8.088 A37.3623 B7.3680 
N733 X-208.799 Y17.977 Z7.965 A37.0689 B7.3677 
N734 X-208.786 Y17.731 Z7.836 A36.7534 B7.3676 
N735 X-208.778 Y17.471 Z7.701 A36.4055 B7.3675 
N736 X-208.771 Y17.197 Z7.562 A36.0132 B7.3671 
N737 X-208.763 Y16.911 Z7.419 A35.5651 B7.3650 
N738 X-208.755 Y16.613 Z7.272 A35.0531 B7.3620 
N739 X-208.748 Y16.303 Z7.123 A34.4787 B7.3584 
N740 X-208.741 Y15.983 Z6.974 A33.8496 B7.3546 
N741 X-208.734 Y15.655 Z6.824 A33.1754 B7.3511 
N742 X-208.728 Y15.319 Z6.676 A32.4633 B7.3480 
N743 X-208.722 Y14.977 Z6.531 A31.7130 B7.3456 
N744 X-208.717 Y14.631 Z6.388 A30.9211 B7.3438 
N745 X-208.712 Y14.280 Z6.250 A30.0851 B7.3427 
N746 X-208.708 Y13.926 Z6.116 A29.2033 B7.3422 
N747 X-208.704 Y13.570 Z5.987 A28.2749 B7.3425 
N748 X-208.701 Y13.211 Z5.865 A27.2990 B7.3437 
N749 X-208.699 Y12.852 Z5.748 A26.2750 B7.3459 
N750 X-208.697 Y12.491 Z5.638 A25.2018 B7.3492 
N751 X-208.696 Y12.130 Z5.535 A24.0790 B7.3537 
N752 X-208.696 Y11.769 Z5.439 A22.9071 B7.3596 
N753 X-208.696 Y11.407 Z5.352 A21.6876 B7.3671 
N754 X-208.697 Y11.046 Z5.272 A20.4234 B7.3763 
N755 X-208.697 Y10.684 Z5.200 A19.1177 B7.3874 
N756 X-208.699 Y10.322 Z5.137 A17.7738 B7.4005 
N757 X-208.702 Y9.960 Z5.082 A16.3949 B7.4157 
N758 X-208.705 Y9.598 Z5.036 A14.9846 B7.4333 
N759 X-208.708 Y9.235 Z4.999 A13.5466 B7.4532 
N760 X-208.712 Y8.873 Z4.971 A12.0849 B7.4755 
N761 X-208.717 Y8.509 Z4.953 A10.6044 B7.5004 
N762 X-208.722 Y8.145 Z4.944 A9.1104 B7.5277 
N763 X-208.727 Y7.781 Z4.944 A7.6084 B7.5576 
N764 X-208.734 Y7.415 Z4.955 A6.1038 B7.5901 
N765 X-208.740 Y7.049 Z4.975 A4.6022 B7.6249 
N766 X-208.747 Y6.681 Z5.005 A3.1099 B7.6621 
N767 X-208.755 Y6.312 Z5.045 A1.6349 B7.7015 
N768 X-208.763 Y5.942 Z5.095 A0.1875 B7.7428 
N769 X-208.772 Y5.572 Z5.154 A358.7808 B7.7859 
N770 X-208.781 Y5.201 Z5.224 A357.4288 B7.8302 
N771 X-208.791 Y4.830 Z5.303 A356.1437 B7.8755 
N772 X-208.801 Y4.459 Z5.391 A354.9351 B7.9212 
N773 X-208.812 Y4.089 Z5.488 A353.8097 B7.9671 
N774 X-208.822 Y3.720 Z5.593 A352.7736 B8.0128 
N775 X-208.834 Y3.353 Z5.705 A351.8339 B8.0578 
N776 X-208.845 Y2.987 Z5.823 A350.9985 B8.1017 
N777 X-208.857 Y2.624 Z5.947 A350.2757 B8.1441 
N778 X-208.868 Y2.264 Z6.075 A349.6703 B8.1845 
N779 X-208.879 Y1.908 Z6.207 A349.1819 B8.2011 
N780 X-208.884 Y1.556 Z6.340 A348.8024 B8.0452 
N781 X-208.886 Y1.211 Z6.473 A348.6139 B7.7702 
N782 X-208.892 Y0.870 Z6.607 A348.5253 B7.4953 
N783 X-208.903 Y0.534 Z6.740 A348.5210 B7.2178 
N784 X-208.918 Y0.204 Z6.872 A348.5929 B6.9366 
N785 X-208.938 Y-0.120 Z7.002 A348.7335 B6.6508 
N786 X-208.961 Y-0.437 Z7.130 A348.9370 B6.3593 
N787 X-208.986 Y-0.748 Z7.253 A349.1983 B6.0395 
N788 X-209.014 Y-1.052 Z7.373 A349.5202 B5.6969 
N789 X-209.046 Y-1.346 Z7.488 A349.9131 B5.3442 
N790 X-209.081 Y-1.632 Z7.597 A350.3871 B4.9784 
N791 X-209.123 Y-1.906 Z7.701 A350.9516 B4.5964 
N792 X-209.170 Y-2.170 Z7.798 A351.6138 B4.1953 
N793 X-209.219 Y-2.422 Z7.888 A352.3708 B3.7739 
N794 X-209.272 Y-2.663 Z7.972 A353.2159 B3.3320 
N795 X-209.325 Y-2.893 Z8.048 A354.1450 B2.8697 
N796 X-209.378 Y-3.112 Z8.117 A355.1600 B2.3861 
N797 X-209.430 Y-3.319 Z8.179 A356.2752 B1.8780 
N798 X-209.480 Y-3.514 Z8.234 A357.4948 B1.3448 
N799 X-209.528 Y-3.697 Z8.283 A358.7970 B0.7913 
N800 X-209.572 Y-3.871 Z8.325 A0.1534 B0.2248 
N801 X-209.613 Y-4.034 Z8.361 A1.5748 B-0.3557 
N802 X-209.649 Y-4.185 Z8.392 A3.1015 B-0.9571 
N803 X-209.679 Y-4.324 Z8.417 A4.7549 B-1.5822 
N804 X-209.704 Y-4.450 Z8.438 A6.5310 B-2.2277 
N805 X-209.724 Y-4.566 Z8.455 A8.4252 B-2.8896 
N806 X-209.737 Y-4.670 Z8.469 A10.4387 B-3.5648 
N807 X-209.746 Y-4.763 Z8.480 A12.5726 B-4.2491 
N808 X-209.749 Y-4.846 Z8.489 A14.8204 B-4.9366 
N809 X-209.748 Y-4.920 Z8.496 A17.1696 B-5.6193 
N810 X-209.743 Y-4.986 Z8.502 A19.6032 B-6.2888 
N811 X-209.735 Y-5.045 Z8.507 A22.0998 B-6.9338 
N812 X-209.727 Y-5.099 Z8.511 A24.6472 B-7.5100 
N813 X-209.719 Y-5.148 Z8.514 A27.2327 B-8.0104 
N814 X-209.711 Y-5.193 Z8.516 A29.8443 B-8.4428 
N815 X-209.704 Y-5.234 Z8.517 A32.4739 B-8.8140 
N816 X-209.698 Y-5.274 Z8.518 A35.1164 B-9.1291 
N817 X-209.693 Y-5.310 Z8.518 A37.7689 B-9.3921 
N818 X-209.690 Y-5.346 Z8.517 A40.4297 B-9.6061 
N819 X-209.690 Y-5.379 Z8.516 A43.0975 B-9.7734 
N820 X-209.691 Y-5.412 Z8.514 A45.7716 B-9.8959 
N821 X-209.696 Y-5.443 Z8.511 A48.4520 B-9.9746 
N822 X-209.702 Y-5.474 Z8.507 A51.1398 B-10.0105 
N823 X-209.709 Y-5.504 Z8.503 A53.8363 B-10.0042 
N824 X-209.716 Y-5.533 Z8.497 A56.5435 B-9.9561 
N825 X-209.723 Y-5.562 Z8.491 A59.2601 B-9.8665 
N826 X-209.730 Y-5.592 Z8.483 A61.9860 B-9.7350 
N827 X-209.735 Y-5.621 Z8.473 A64.7215 B-9.5614 
N828 X-209.741 Y-5.650 Z8.462 A67.4665 B-9.3453 
N829 X-209.746 Y-5.680 Z8.449 A70.2207 B-9.0866 
N830 X-209.750 Y-5.709 Z8.432 A72.9826 B-8.7844 
N831 X-209.754 Y-5.740 Z8.413 A75.7491 B-8.4382 
N832 X-209.758 Y-5.770 Z8.390 A78.5157 B-8.0472 
N833 X-209.760 Y-5.801 Z8.361 A81.2750 B-7.6109 
N834 X-209.762 Y-5.832 Z8.327 A84.0138 B-7.1297 
N835 X-209.763 Y-5.862 Z8.286 A86.7099 B-6.6054 
N836 X-209.763 Y-5.892 Z8.235 A89.3292 B-6.0421 
N837 X-209.761 Y-5.921 Z8.172 A91.8271 B-5.4465 
N838 X-209.757 Y-5.947 Z8.095 A94.1589 B-4.8256 
N839 X-209.752 Y-5.970 Z8.003 A96.2876 B-4.1838 
N840 X-209.738 Y-5.989 Z7.895 A98.2231 B-3.6580 
N841 X-209.720 Y-6.002 Z7.770 A99.9528 B-3.1765 
N842 X-209.698 Y-6.009 Z7.630 A101.4984 B-2.7307 
N843 X-209.672 Y-6.010 Z7.476 A102.8874 B-2.3175 
N844 X-209.643 Y-6.004 Z7.307 A104.1389 B-1.9346 
N845 X-209.610 Y-5.991 Z7.127 A105.2843 B-1.5761 
N846 X-209.575 Y-5.971 Z6.936 A106.3762 B-1.2302 
N847 X-209.538 Y-5.944 Z6.737 A107.4332 B-0.8932 
N848 X-209.499 Y-5.910 Z6.529 A108.4391 B-0.5703 
N849 X-209.459 Y-5.868 Z6.312 A109.3968 B-0.2617 
N850 X-209.417 Y-5.820 Z6.089 A110.3544 B0.0433 
N851 X-209.376 Y-5.766 Z5.865 A111.3911 B0.3626 
N852 X-209.336 Y-5.708 Z5.641 A112.5956 B0.7150 
N853 X-209.299 Y-5.649 Z5.423 A114.0531 B1.1166 
N854 X-209.264 Y-5.589 Z5.212 A115.8130 B1.5723 
N855 X-209.232 Y-5.530 Z5.009 A117.8613 B2.0696 
N856 X-209.202 Y-5.472 Z4.810 A120.1191 B2.5778 
N857 X-209.171 Y-5.412 Z4.611 A122.4605 B3.0530 
N858 X-209.140 Y-5.348 Z4.408 A124.7445 B3.4481 
N859 X-209.130 Y-5.275 Z4.194 A126.7475 B4.3390 
N860 X-209.116 Y-5.192 Z3.972 A128.5112 B5.0669 
N861 X-209.098 Y-5.099 Z3.744 A130.0263 B5.6351 
N862 X-209.077 Y-4.996 Z3.511 A131.3356 B6.0863 
N863 X-209.056 Y-4.884 Z3.276 A132.5101 B6.4571 
N864 X-209.036 Y-4.766 Z3.043 A133.6176 B6.7732 
N865 X-209.017 Y-4.643 Z2.813 A134.7076 B7.0494 
N866 X-208.999 Y-4.516 Z2.586 A135.8101 B7.2928 
N867 X-208.983 Y-4.385 Z2.365 A136.9398 B7.5061 
N868 X-208.969 Y-4.252 Z2.149 A138.1031 B7.6897 
N869 X-208.956 Y-4.115 Z1.938 A139.3024 B7.8434 
N870 X-208.945 Y-3.976 Z1.733 A140.5381 B7.9667 
N871 X-208.936 Y-3.834 Z1.534 A141.8096 B8.0589 
N872 X-208.929 Y-3.690 Z1.341 A143.1047 B8.1267 
N873 X-208.923 Y-3.541 Z1.153 A144.3572 B8.1972 
N874 X-208.917 Y-3.391 Z0.971 A145.6383 B8.2693 
N875 X-208.911 Y-3.238 Z0.795 A146.9472 B8.3430 
N876 X-208.905 Y-3.083 Z0.626 A148.2831 B8.4183 
N877 X-208.899 Y-2.925 Z0.462 A149.6451 B8.4952 
N878 X-208.893 Y-2.766 Z0.305 A151.0321 B8.5737 
N879 X-208.887 Y-2.605 Z0.154 A152.4428 B8.6538 
N880 X-208.881 Y-2.442 Z0.010 A153.8757 B8.7353 
N881 X-208.874 Y-2.277 Z-0.129 A155.3290 B8.8182 
N882 X-208.868 Y-2.111 Z-0.261 A156.8008 B8.9024 
N883 X-208.862 Y-1.942 Z-0.388 A158.2893 B8.9879 
N884 X-208.855 Y-1.771 Z-0.508 A159.7926 B9.0743 
N885 X-208.849 Y-1.599 Z-0.623 A161.3089 B9.1618 
N886 X-208.842 Y-1.424 Z-0.731 A162.8365 B9.2500 
N887 X-208.835 Y-1.248 Z-0.834 A164.3742 B9.3390 
N888 X-208.829 Y-1.069 Z-0.931 A165.9215 B9.4287 
N889 X-208.822 Y-0.889 Z-1.022 A167.4793 B9.5189 
N890 X-208.815 Y-0.706 Z-1.107 A169.0507 B9.6098 
N891 X-208.808 Y-0.522 Z-1.187 A170.6402 B9.7016 
N892 X-208.801 Y-0.336 Z-1.261 A172.2523 B9.7942 
N893 X-208.794 Y-0.149 Z-1.329 A173.8886 B9.8877 
N894 X-208.788 Y0.040 Z-1.392 A175.5459 B9.9819 
N895 X-208.781 Y0.232 Z-1.449 A177.2172 B10.0762 
N896 X-208.774 Y0.425 Z-1.501 A178.8939 B10.1701 
N897 X-208.767 Y0.622 Z-1.547 A180.5683 B10.2633 
N898 X-208.759 Y0.822 Z-1.588 A182.2345 B10.3554 
N899 X-208.752 Y1.025 Z-1.623 A183.8885 B10.4460 
N900 X-208.745 Y1.231 Z-1.652 A185.5276 B10.5350 
N901 X-208.738 Y1.442 Z-1.675 A187.1494 B10.6222 
N902 X-208.731 Y1.656 Z-1.693 A188.7521 B10.7074 
N903 X-208.723 Y1.874 Z-1.704 A190.3338 B10.7904 
N904 X-208.716 Y2.095 Z-1.709 A191.8928 B10.8711 
N905 X-208.709 Y2.321 Z-1.708 A193.4275 B10.9495 
N906 X-208.701 Y2.551 Z-1.701 A194.9364 B11.0253 
N907 X-208.694 Y2.785 Z-1.686 A196.4178 B11.0985 
N908 X-208.686 Y3.024 Z-1.665 A197.8703 B11.1690 
N909 X-208.679 Y3.266 Z-1.637 A199.2923 B11.2367 
N910 X-208.672 Y3.513 Z-1.602 A200.6828 B11.3016 
N911 X-208.665 Y3.764 Z-1.560 A202.0409 B11.3636 
N912 X-208.658 Y4.020 Z-1.511 A203.3662 B11.4227 
N913 X-208.650 Y4.279 Z-1.454 A204.6581 B11.4789 
N914 X-208.644 Y4.543 Z-1.390 A205.9164 B11.5323 
N915 X-208.637 Y4.811 Z-1.318 A207.1414 B11.5828 
N916 X-208.630 Y5.083 Z-1.238 A208.3337 B11.6305 
N917 X-208.624 Y5.358 Z-1.151 A209.4941 B11.6755 
N918 X-208.618 Y5.638 Z-1.056 A210.6224 B11.7177 
N919 X-208.612 Y5.921 Z-0.954 A211.7179 B11.7572 
N920 X-208.606 Y6.208 Z-0.843 A212.7788 B11.7951 
N921 X-208.601 Y6.498 Z-0.725 A213.8018 B11.8329 
N922 X-208.596 Y6.792 Z-0.599 A214.7840 B11.8673 
N923 X-208.591 Y7.090 Z-0.465 A215.7237 B11.8986 
N924 X-208.587 Y7.392 Z-0.323 A216.6205 B11.9269 
N925 X-208.583 Y7.696 Z-0.174 A217.4760 B11.9524 
N926 X-208.580 Y8.004 Z-0.017 A218.2929 B11.9753 
N927 X-208.576 Y8.315 Z0.148 A219.0739 B11.9958 
N928 X-208.574 Y8.629 Z0.319 A219.8209 B12.0141 
N929 X-208.572 Y8.945 Z0.497 A220.5351 B12.0303 
N930 X-208.570 Y9.264 Z0.682 A221.2174 B12.0446 
N931 X-208.569 Y9.585 Z0.874 A221.8684 B12.0571 
N932 X-208.568 Y9.908 Z1.072 A222.4888 B12.0679 
N933 X-208.568 Y10.233 Z1.276 A223.0792 B12.0771 
N934 X-208.569 Y10.560 Z1.486 A223.6402 B12.0849 
N935 X-208.570 Y10.889 Z1.701 A224.1726 B12.0914 
N936 X-208.571 Y11.218 Z1.922 A224.6769 B12.0967 
N937 X-208.574 Y11.549 Z2.148 A225.1537 B12.1009 
N938 X-208.577 Y11.880 Z2.378 A225.6030 B12.1042 
N939 X-208.580 Y12.212 Z2.612 A226.0246 B12.1066 
N940 X-208.585 Y12.544 Z2.850 A226.4177 B12.1082 
N941 X-208.589 Y12.875 Z3.091 A226.7819 B12.1093 
N942 X-208.595 Y13.206 Z3.335 A227.1181 B12.1100 
N943 X-208.601 Y13.535 Z3.580 A227.4287 B12.1102 
N944 X-208.608 Y13.863 Z3.828 A227.7169 B12.1101 
N945 X-208.615 Y14.188 Z4.075 A227.9851 B12.1096 
N946 X-208.623 Y14.510 Z4.323 A228.2349 B12.1087 
N947 X-208.636 Y14.829 Z4.570 A228.4663 B12.1076 
N948 X-208.653 Y15.143 Z4.816 A228.6796 B12.1065 
N949 X-208.674 Y15.452 Z5.059 A228.8746 B12.1052 
N950 X-208.700 Y15.755 Z5.299 A229.0514 B12.1040 
N951 X-208.728 Y16.051 Z5.535 A229.2101 B12.1029 
N952 X-208.759 Y16.340 Z5.767 A229.3502 B12.1019 
N953 X-208.793 Y16.620 Z5.992 A229.4718 B12.1011 
N954 X-208.829 Y16.890 Z6.210 A229.5761 B12.1006 
N955 X-208.867 Y17.149 Z6.421 A229.6654 B12.1003 
N956 X-208.906 Y17.397 Z6.623 A229.7426 B12.1002 
N957 X-208.946 Y17.633 Z6.815 A229.8106 B12.1002 
N958 X-208.986 Y17.856 Z6.997 A229.8717 B12.1002 
N959 X-209.026 Y18.065 Z7.168 A229.9268 
N960 X-209.066 Y18.261 Z7.329 A229.9759 B12.1002 
N961 X-209.104 Y18.443 Z7.479 A230.0177 B12.1003 
N962 X-209.142 Y18.613 Z7.618 A230.0624 B12.1001 
N963 X-209.177 Y18.762 Z7.738 A230.3940 B12.0868 
N964 X-209.206 Y18.852 Z7.796 A232.6093 B11.9848 
N965 X-207.129 Y26.624 Z1.856 F878 
N966 G00 X-198.823 Y57.712 Z-21.905 
;RAPORT("TD123456","Flank Milling Transition:148 End")
;trailer : concat=None
; points cnt = 915
N968 M341 ; centralne wyl.
N969 MSG (" --- KONIEC PODPROGRAMU --- ")
VELOLIM[A]=100 ;ODWOLANIE VELOLIM
N970 FGROUP()
N971 TRAFOOF
N972 STOPRE
N973 G0 G53 D0 Z550.0 M9 M5
N974 G0 G53 Y150 A0 B0
N975 M17
