; PROGRAM NAME: D12345611
; ORDER       : D123456
; OPER. NAME  : Spiral Rough Rhombic:102
; OPER. DESCR.: spiral roughing rhombic/nozka_zgr
; OPER. TYPE  : rouRoot
; GEO. OPTION : 4
; MACHINE     : HSTM_300HD_SIM840D_Py
;             : HSTM300/500 - HAMUEL: 5-axis milling machine-SIM840D Traori PP_Script
; CONTROL     : SINUMERIK 840D
; created:   2023-06-14 10:03:35.696654
;-------DODATKOWE DANE-------------------
; PROGRAMISTA : Mariusz Malec
; PARTID      : 301T002184P1010_-
;  ap         : 2.5
;  ae         : 24.0
;  lean_angle : 1.0
;  fin_offset : 0.6
;----------------------------------------
;RAPORT("TD123456","Spiral Rough Rhombic:102")
N10 TRAFOOF
N11 D0
N12 G90 G94
N13 G0 G53 D0 Z550
N14 STOPRE
M9 ; chlodziwo wyl
; --- Spiral Rough Rhombic:102 - spiral roughing rhombic/nozka_zgr ---
N16 ;ToolChange : concat=None ,current_tdmid=None, PP.tdmId=941293
N17 TRAFOOF
N18 G0 G53 D0 X-200 Y150 Z550 B0
N19 T="7741293"
;RAPORT("TD123456","ToolChangeStart 7741293")
N20 M6
;RAPORT("TD123456","ToolChangeEnd")
N21 STOPRE
N22 MSG(" TLID=941293 D=40.0 R=6.0 Ang=0.0 Len=90.0 ")
N23 ; (Preloading tool)
N24 T="7741294"
N25 S2148 M03
N26 STOPRE
N27 CYCLE832(0.1,1,1)
N28 G0 G53 A271.0903 B0.0000
N29 TRAORI
N30 G54 D1
N31 D2 
N32 ; DELTA A > 40.1
N33 TRAFOOF
N34 D2
N35 STOPRE
N36 G00 G54 Z296.000
N37 G01 A271.0903 F10000
N38 TRAORI
N39 G54 D2
N40 STOPRE
N41 TRANS 
N42 G00 X-147.002 Y87.427 Z-39.635 A271.0903 
N43 M346 ; chlodziwo mgla
N44 X-147.002 Y37.436 Z-40.586 
N45 G01 X-147.002 Y34.345 Z-40.102 F2835 
N46 X-147.002 Y31.555 Z-38.686 
N47 X-147.002 Y29.339 Z-36.477 
N48 X-147.002 Y27.915 Z-33.692 
N49 X-147.002 Y27.420 Z-30.602 
N50 X-147.002 Y27.418 Z-27.372 A271.1012 
N51 X-147.002 Y27.414 Z-24.198 A271.1089 
N52 X-147.002 Y27.408 Z-21.134 A271.1107 
N53 X-147.002 Y27.403 Z-18.225 
N54 X-147.002 Y27.397 Z-15.511 
N55 X-147.002 Y27.393 Z-13.022 
N56 X-147.002 Y27.388 Z-10.775 
N57 X-147.002 Y27.384 Z-8.779 
N58 X-147.002 Y27.381 Z-7.032 A271.1114 
N59 X-147.002 Y27.393 Z-5.525 A271.1727 
N60 X-147.002 Y27.503 Z-4.238 A271.6520 
N61 X-147.002 Y27.936 Z-3.133 A273.5182 
N62 X-147.002 Y28.812 Z-2.137 A277.3684 
N63 X-147.002 Y29.981 Z-1.158 A282.6743 
N64 X-147.002 Y31.306 Z-0.116 A288.9585 
N65 X-147.002 Y32.717 Z1.061 A296.0414 
N66 X-147.002 Y34.133 Z2.430 A303.7701 
N67 X-147.002 Y35.413 Z3.978 A311.7016 
N68 X-147.002 Y36.450 Z5.642 A319.4578 
N69 X-147.002 Y37.205 Z7.370 A326.8904 
N70 X-147.002 Y37.668 Z9.126 A333.9979 
N71 X-147.002 Y37.828 Z10.854 A340.6987 
N72 X-147.002 Y37.677 Z12.469 A346.7873 
N73 X-147.002 Y37.229 Z13.891 A352.0919 
N74 X-147.002 Y36.512 Z15.027 A356.3440 
N75 X-147.002 Y35.564 Z15.786 A359.2189 
N76 X-147.002 Y34.417 Z16.127 A0.5207 
N77 X-147.002 Y33.082 Z16.191 A0.7511 
N78 X-147.002 Y31.547 Z16.198 A0.7546 
N79 X-147.002 Y29.807 Z16.205 
N80 X-147.002 Y27.862 Z16.214 
N81 X-147.002 Y25.724 Z16.223 
N82 X-147.002 Y23.409 Z16.233 
N83 X-147.002 Y20.947 Z16.243 
N84 X-147.002 Y18.371 Z16.254 
N85 X-147.002 Y15.723 Z16.266 
N86 X-147.002 Y13.047 Z16.277 
N87 X-147.002 Y10.390 Z16.289 
N88 X-147.002 Y7.798 Z16.300 
N89 X-147.002 Y5.311 Z16.310 
N90 X-147.002 Y2.967 Z16.320 
N91 X-147.002 Y0.794 Z16.330 
N92 X-147.002 Y-1.189 Z16.338 
N93 X-147.002 Y-2.968 Z16.346 
N94 X-147.002 Y-4.542 Z16.356 A0.7707 
N95 X-147.002 Y-5.916 Z16.432 A1.0646 
N96 X-147.002 Y-7.107 Z16.712 A2.2486 
N97 X-147.002 Y-8.154 Z17.304 A4.8269 
N98 X-147.002 Y-9.123 Z18.214 A8.8983 
N99 X-147.002 Y-10.084 Z19.321 A14.0240 B0.0002 
N100 X-147.002 Y-11.089 Z20.526 A19.8501 B0.0019 
N101 X-147.002 Y-12.183 Z21.763 A26.1764 B0.0072 
N102 X-147.002 Y-13.388 Z22.966 A32.8058 B0.0148 
N103 X-147.002 Y-14.711 Z24.076 A39.5924 B0.0177 
N104 X-147.002 Y-16.115 Z25.021 A46.2628 B0.0108 
N105 X-147.002 Y-17.567 Z25.765 A52.6887 B0.0004 
N106 X-147.002 Y-19.081 Z26.323 A59.0257 B-0.0060 
N107 X-147.002 Y-20.629 Z26.673 A65.2245 B-0.0074 
N108 X-147.002 Y-22.139 Z26.787 A71.0621 B-0.0055 
N109 X-147.002 Y-23.565 Z26.667 A76.4576 B-0.0028 
N110 X-147.002 Y-24.872 Z26.325 A81.3673 B-0.0009 
N111 X-147.002 Y-25.979 Z25.777 A85.5368 B-0.0001 
N112 X-147.002 Y-26.765 Z25.050 A88.5263 B-0.0000 
N113 X-147.002 Y-27.203 Z24.184 A90.2151 
N114 X-147.002 Y-27.392 Z23.203 A90.9579 
N115 X-147.002 Y-27.446 Z22.113 A91.1848 B-0.0002 
N116 X-147.002 Y-27.449 Z20.919 A91.2156 B-0.0015 
N117 X-147.002 Y-27.445 Z19.628 A91.2159 B-0.0056 
N118 X-147.002 Y-27.439 Z18.254 B-0.0134 
N119 X-147.002 Y-27.434 Z16.815 B-0.0248 
N120 X-147.002 Y-27.428 Z15.332 B-0.0397 
N121 X-147.003 Y-27.423 Z13.829 B-0.0579 
N122 X-147.003 Y-27.417 Z12.331 B-0.0791 
N123 X-147.003 Y-27.412 Z10.863 B-0.1013 
N124 X-147.003 Y-27.406 Z9.448 B-0.1192 
N125 X-147.003 Y-27.401 Z8.106 B-0.1303 
N126 X-147.003 Y-27.397 Z6.854 A91.2172 B-0.1378 
N127 X-147.003 Y-27.400 Z5.704 A91.2504 B-0.1447 
N128 X-147.003 Y-27.443 Z4.660 A91.4494 B-0.1531 
N129 X-147.003 Y-27.627 Z3.721 A92.2447 B-0.1676 
N130 X-147.003 Y-28.090 Z2.869 A94.2527 B-0.1954 
N131 X-147.003 Y-28.847 Z2.064 A97.5905 B-0.2432 
N132 X-147.004 Y-29.807 Z1.259 A101.9414 B-0.3154 
N133 X-147.004 Y-30.900 Z0.407 A107.0658 B-0.4147 
N134 X-147.005 Y-32.075 Z-0.535 A112.8185 B-0.5408 
N135 X-147.005 Y-33.293 Z-1.612 A119.1527 B-0.6863 
N136 X-147.006 Y-34.487 Z-2.847 A125.9148 B-0.8214 
N137 X-147.006 Y-35.576 Z-4.234 A132.8876 B-0.8879 
N138 X-147.006 Y-36.491 Z-5.746 A139.8755 B-0.8580 
N139 X-147.006 Y-37.190 Z-7.352 A146.7794 B-0.7636 
N140 X-147.005 Y-37.646 Z-9.025 A153.5728 B-0.6442 
N141 X-147.005 Y-37.828 Z-10.713 A160.1397 B-0.5250 
N142 X-147.004 Y-37.713 Z-12.321 A166.2272 B-0.4194 
N143 X-147.004 Y-37.304 Z-13.763 A171.6169 B-0.3342 
N144 X-147.003 Y-36.622 Z-14.933 A175.9956 B-0.2733 
N145 X-147.003 Y-35.703 Z-15.728 A179.0015 B-0.2373 
N146 X-147.003 Y-34.585 Z-16.108 A180.4557 B-0.2213 
N147 X-147.003 Y-33.277 Z-16.191 A180.7652 B-0.2151 
N148 X-147.003 Y-31.772 Z-16.200 A180.7740 B-0.2101 
N149 X-147.003 Y-30.061 Z-16.206 B-0.2044 
N150 X-147.003 Y-28.145 Z-16.214 B-0.1981 
N151 X-147.003 Y-26.033 Z-16.222 B-0.1912 
N152 X-147.003 Y-23.742 Z-16.231 B-0.1836 
N153 X-147.003 Y-21.298 Z-16.241 B-0.1756 
N154 X-147.003 Y-18.736 Z-16.251 B-0.1671 
N155 X-147.003 Y-16.096 Z-16.261 B-0.1584 
N156 X-147.003 Y-13.421 Z-16.272 B-0.1496 
N157 X-147.003 Y-10.760 Z-16.282 B-0.1408 
N158 X-147.003 Y-8.156 Z-16.293 B-0.1313 
N159 X-147.003 Y-5.654 Z-16.303 B-0.1177 
N160 X-147.003 Y-3.290 Z-16.312 A180.7740 B-0.1000 
N161 X-147.003 Y-1.093 Z-16.321 B-0.0791 
N162 X-147.003 Y0.915 Z-16.329 B-0.0583 
N163 X-147.003 Y2.721 Z-16.336 B-0.0413 
N164 X-147.002 Y4.320 Z-16.344 A180.7822 B-0.0285 
N165 X-147.002 Y5.718 Z-16.402 A181.0015 B-0.0193 
N166 X-147.002 Y6.930 Z-16.642 A182.0134 B-0.0151 
N167 X-147.002 Y7.990 Z-17.182 A184.3583 B-0.0188 
N168 X-147.002 Y8.962 Z-18.049 A188.2202 B-0.0326 
N169 X-147.003 Y9.915 Z-19.132 A193.2047 B-0.0551 
N170 X-147.003 Y10.904 Z-20.321 A198.9077 B-0.0777 
N171 X-147.003 Y11.973 Z-21.548 A205.1172 B-0.0873 
N172 X-147.003 Y13.146 Z-22.748 A211.6385 B-0.0805 
N173 X-147.003 Y14.456 Z-23.894 A218.4810 B-0.0608 
N174 X-147.002 Y15.897 Z-24.920 A225.4699 B-0.0319 
N175 X-147.002 Y17.384 Z-25.723 A232.1417 B-0.0033 
N176 X-147.002 Y18.892 Z-26.302 A238.4936 B0.0166 
N177 X-147.002 Y20.424 Z-26.668 A244.6493 B0.0239 
N178 X-147.002 Y21.928 Z-26.804 A250.4812 B0.0203 
N179 X-147.002 Y23.353 Z-26.709 A255.8831 B0.0117 
N180 X-147.002 Y24.668 Z-26.394 A260.8193 B0.0044 
N181 X-147.002 Y25.803 Z-25.873 A265.0954 B0.0010 
N182 X-147.002 Y26.638 Z-25.168 A268.2730 B0.0001 
N183 X-147.002 Y27.117 Z-24.320 A270.1170 B0.0000 
N184 X-147.002 Y27.326 Z-23.356 A270.9377 B0.0000 
N185 X-147.002 Y27.390 Z-22.283 A271.2050 
N186 X-147.002 Y27.396 Z-21.105 A271.2500 
N187 X-147.002 Y27.391 Z-19.829 A271.2510 
N188 X-147.002 Y27.385 Z-18.469 
N189 X-147.002 Y27.379 Z-17.041 
N190 X-147.002 Y27.372 Z-15.567 
N191 X-147.002 Y27.366 Z-14.069 
N192 X-147.002 Y27.359 Z-12.574 
N193 X-147.002 Y27.353 Z-11.106 
N194 X-147.002 Y27.346 Z-9.689 
N195 X-147.002 Y27.340 Z-8.342 
N196 X-147.002 Y27.335 Z-7.083 A271.2514 
N197 X-147.002 Y27.336 Z-5.924 A271.2760 
N198 X-147.002 Y27.370 Z-4.872 A271.4408 
N199 X-147.002 Y27.523 Z-3.925 A272.1083 
N200 X-147.002 Y27.938 Z-3.069 A273.9082 
N201 X-147.002 Y28.662 Z-2.265 A277.0875 
N202 X-147.002 Y29.604 Z-1.466 A281.3362 
N203 X-147.002 Y30.682 Z-0.628 A286.3591 
N204 X-147.002 Y31.842 Z0.293 A292.0021 
N205 X-147.002 Y33.058 Z1.343 A298.2569 
N206 X-147.002 Y34.263 Z2.552 A304.9733 
N207 X-147.002 Y35.368 Z3.909 A311.8903 
N208 X-147.002 Y36.304 Z5.386 A318.8117 
N209 X-147.002 Y37.031 Z6.955 A325.6357 
N210 X-147.002 Y37.525 Z8.590 A332.3394 
N211 X-147.002 Y37.762 Z10.255 A338.8693 
N212 X-147.002 Y37.714 Z11.870 A345.0119 
N213 X-147.002 Y37.377 Z13.344 A350.5387 
N214 X-147.002 Y36.767 Z14.581 A355.1720 
N215 X-147.002 Y35.916 Z15.474 A358.5511 
N216 X-147.002 Y34.862 Z15.959 A0.4226 
N217 X-147.002 Y33.625 Z16.098 A0.9647 
N218 X-147.002 Y32.198 Z16.107 A1.0006 
N219 X-147.002 Y30.572 Z16.107 
N220 X-147.002 Y28.746 Z16.107 
N221 X-147.002 Y26.726 Z16.107 
N222 X-147.002 Y24.527 Z16.107 
N223 X-147.002 Y22.173 Z16.106 
N224 X-147.002 Y19.694 Z16.106 
N225 X-147.002 Y17.129 Z16.106 
N226 X-147.002 Y14.519 Z16.106 A1.0007 
N227 X-147.002 Y11.909 Z16.109 A1.0121 
N228 X-147.002 Y9.344 Z16.136 A1.1322 
N229 X-147.002 Y6.865 Z16.178 A1.3428 
N230 X-147.002 Y4.510 Z16.208 A1.5402 
N231 X-147.002 Y2.310 Z16.232 A1.7383 
N232 X-147.002 Y0.288 Z16.255 A1.9528 
N233 X-147.002 Y-1.542 Z16.270 A2.1496 
N234 X-147.002 Y-3.173 Z16.263 A2.2622 
N235 X-147.002 Y-4.608 Z16.268 A2.4153 
N236 X-147.002 Y-5.861 Z16.418 A3.1772 B0.0000 
N237 X-147.002 Y-6.967 Z16.863 A5.2189 B0.0004 
N238 X-147.002 Y-7.982 Z17.644 A8.7980 B0.0030 
N239 X-147.002 Y-8.982 Z18.690 A13.6920 B0.0104 
N240 X-147.002 Y-10.021 Z19.863 A19.4132 B0.0240 
N241 X-147.002 Y-11.136 Z21.067 A25.6232 B0.0407 
N242 X-147.002 Y-12.342 Z22.225 A32.0744 B0.0516 
N243 X-147.002 Y-13.648 Z23.292 A38.6484 B0.0477 
N244 X-147.002 Y-15.042 Z24.218 A45.2027 B0.0297 
N245 X-147.002 Y-16.481 Z24.952 A51.5286 B0.0058 
N246 X-147.002 Y-17.971 Z25.502 A57.7315 B-0.0181 
N247 X-147.002 Y-19.509 Z25.861 A63.8699 B-0.0397 
N248 X-147.003 Y-21.033 Z25.994 A69.7455 B-0.0580 
N249 X-147.003 Y-22.492 Z25.896 A75.2470 B-0.0732 
N250 X-147.003 Y-23.840 Z25.573 A80.2827 B-0.0858 
N251 X-147.003 Y-24.980 Z25.036 A84.5425 B-0.0966 
N252 X-147.003 Y-25.787 Z24.316 A87.5670 B-0.1065 
N253 X-147.003 Y-26.239 Z23.455 A89.2516 B-0.1159 
N254 X-147.003 Y-26.440 Z22.481 A89.9771 B-0.1254 
N255 X-147.003 Y-26.509 Z21.403 A90.1886 B-0.1353 
N256 X-147.003 Y-26.532 Z20.228 A90.2141 B-0.1456 
N257 X-147.003 Y-26.549 Z18.964 A90.2142 B-0.1567 
N258 X-147.003 Y-26.568 Z17.625 B-0.1684 
N259 X-147.003 Y-26.587 Z16.230 B-0.1807 
N260 X-147.003 Y-26.606 Z14.799 B-0.1932 
N261 X-147.003 Y-26.626 Z13.356 B-0.2059 
N262 X-147.003 Y-26.646 Z11.924 B-0.2184 
N263 X-147.003 Y-26.665 Z10.527 A90.2144 B-0.2307 
N264 X-147.003 Y-26.685 Z9.186 A90.2206 B-0.2426 
N265 X-147.003 Y-26.708 Z7.920 A90.2463 B-0.2543 
N266 X-147.003 Y-26.732 Z6.743 A90.2816 B-0.2660 
N267 X-147.004 Y-26.770 Z5.665 A90.3845 B-0.2780 
N268 X-147.004 Y-26.881 Z4.690 A90.8055 B-0.2927 
N269 X-147.004 Y-27.159 Z3.816 A91.9520 B-0.3159 
N270 X-147.004 Y-27.698 Z3.021 A94.2511 B-0.3554 
N271 X-147.004 Y-28.497 Z2.264 A97.7475 B-0.4176 
N272 X-147.004 Y-29.484 Z1.498 A102.1875 B-0.5052 
N273 X-147.005 Y-30.595 Z0.679 A107.3633 B-0.6192 
N274 X-147.006 Y-31.781 Z-0.235 A113.1343 B-0.7574 
N275 X-147.006 Y-33.009 Z-1.289 A119.4768 B-0.9098 
N276 X-147.007 Y-34.198 Z-2.494 A126.1655 B-1.0446 
N277 X-147.007 Y-35.272 Z-3.838 A132.9852 B-1.1114 
N278 X-147.007 Y-36.177 Z-5.298 A139.7925 B-1.0887 
N279 X-147.007 Y-36.871 Z-6.839 A146.4719 B-1.0035 
N280 X-147.006 Y-37.340 Z-8.443 A153.0375 B-0.8901 
N281 X-147.006 Y-37.562 Z-10.086 A159.4845 B-0.7713 
N282 X-147.005 Y-37.510 Z-11.694 A165.6226 B-0.6606 
N283 X-147.005 Y-37.173 Z-13.168 A171.1753 B-0.5668 
N284 X-147.004 Y-36.565 Z-14.382 A175.7534 B-0.4962 
N285 X-147.004 Y-35.723 Z-15.212 A178.9093 B-0.4525 
N286 X-147.004 Y-34.689 Z-15.634 A180.5410 B-0.4328 
N287 X-147.004 Y-33.478 Z-15.751 A181.0029 B-0.4281 
N288 X-147.004 Y-32.082 Z-15.758 A181.0347 B-0.4278 
N289 X-147.004 Y-30.493 Z-15.757 B-0.4277 
N290 X-147.004 Y-28.709 Z-15.756 B-0.4275 
N291 X-147.004 Y-26.737 Z-15.755 B-0.4274 
N292 X-147.004 Y-24.592 Z-15.754 B-0.4273 
N293 X-147.004 Y-22.297 Z-15.752 B-0.4271 
N294 X-147.004 Y-19.882 Z-15.751 B-0.4269 
N295 X-147.004 Y-17.383 Z-15.749 B-0.4268 
N296 X-147.004 Y-14.842 Z-15.748 B-0.4266 
N297 X-147.004 Y-12.301 Z-15.748 A181.0432 B-0.4264 
N298 X-147.004 Y-9.803 Z-15.782 A181.1995 B-0.4268 
N299 X-147.004 Y-7.387 Z-15.869 A181.6197 B-0.4313 
N300 X-147.004 Y-5.090 Z-15.944 A182.0632 B-0.4413 
N301 X-147.004 Y-2.942 Z-15.989 A182.4357 B-0.4434 
N302 X-147.004 Y-0.964 Z-16.036 A182.8554 B-0.4241 
N303 X-147.004 Y0.830 Z-16.078 A183.2898 B-0.3962 
N304 X-147.004 Y2.431 Z-16.077 A183.5601 B-0.3727 
N305 X-147.004 Y3.843 Z-16.069 A183.7945 B-0.3536 
N306 X-147.004 Y5.084 Z-16.194 A184.5735 B-0.3358 
N307 X-147.004 Y6.191 Z-16.615 A186.6277 B-0.3169 
N308 X-147.004 Y7.227 Z-17.392 A190.2926 B-0.2954 
N309 X-147.003 Y8.269 Z-18.455 A195.3807 B-0.2697 
N310 X-147.003 Y9.369 Z-19.640 A201.3064 B-0.2386 
N311 X-147.003 Y10.541 Z-20.810 A207.5616 B-0.2018 
N312 X-147.003 Y11.782 Z-21.887 A213.8610 B-0.1594 
N313 X-147.003 Y13.109 Z-22.861 A220.2337 B-0.1102 
N314 X-147.003 Y14.530 Z-23.711 A226.6825 B-0.0543 
N315 X-147.002 Y15.985 Z-24.365 A232.8839 B-0.0009 
N316 X-147.002 Y17.465 Z-24.823 A238.8757 B0.0433 
N317 X-147.002 Y18.976 Z-25.088 A244.7674 B0.0778 
N318 X-147.002 Y20.478 Z-25.141 A250.4558 B0.1034 
N319 X-147.002 Y21.930 Z-24.972 A255.8699 B0.1215 
N320 X-147.002 Y23.249 Z-24.578 A260.7514 B0.1331 
N321 X-147.002 Y24.293 Z-23.970 A264.5985 B0.1385 
N322 X-147.002 Y24.964 Z-23.191 A267.0368 B0.1384 
N323 X-147.002 Y25.313 Z-22.282 A268.2412 B0.1343 
N324 X-147.002 Y25.464 Z-21.267 A268.6745 B0.1277 
N325 X-147.002 Y25.528 Z-20.155 A268.7558 B0.1188 
N326 X-147.002 Y25.575 Z-18.957 A268.7586 B0.1063 
N327 X-147.002 Y25.625 Z-17.684 B0.0890 
N328 X-147.002 Y25.677 Z-16.352 B0.0680 
N329 X-147.002 Y25.731 Z-14.981 B0.0463 
N330 X-147.002 Y25.785 Z-13.592 B0.0271 
N331 X-147.002 Y25.840 Z-12.208 B0.0121 
N332 X-147.002 Y25.893 Z-10.851 A268.7588 B0.0034 
N333 X-147.002 Y25.946 Z-9.543 A268.7678 B0.0005 
N334 X-147.002 Y26.010 Z-8.302 A268.8322 B0.0001 
N335 X-147.002 Y26.082 Z-7.144 A268.9535 B0.0000 
N336 X-147.002 Y26.151 Z-6.078 A269.0815 
N337 X-147.002 Y26.270 Z-5.112 A269.4432 
N338 X-147.002 Y26.534 Z-4.246 A270.4481 
N339 X-147.002 Y27.024 Z-3.468 A272.4570 
N340 X-147.002 Y27.767 Z-2.743 A275.6221 
N341 X-147.002 Y28.711 Z-2.025 A279.7641 
N342 X-147.002 Y29.786 Z-1.272 A284.6437 
N343 X-147.002 Y30.937 Z-0.445 A290.0727 
N344 X-147.002 Y32.139 Z0.495 A296.0342 
N345 X-147.002 Y33.354 Z1.586 A302.4822 
N346 X-147.002 Y34.473 Z2.804 A309.0419 
N347 X-147.002 Y35.456 Z4.143 A315.6361 
N348 X-147.002 Y36.266 Z5.581 A322.1817 
N349 X-147.002 Y36.874 Z7.093 A328.6200 
N350 X-147.002 Y37.267 Z8.671 A335.0008 
N351 X-147.002 Y37.420 Z10.284 A341.2877 
N352 X-147.002 Y37.304 Z11.851 A347.2572 
N353 X-147.002 Y36.910 Z13.261 A352.5781 
N354 X-147.002 Y36.257 Z14.371 A356.7807 
N355 X-147.002 Y35.388 Z15.075 A359.4714 
N356 X-147.002 Y34.339 Z15.395 A0.7132 
N357 X-147.002 Y33.118 Z15.468 A0.9989 
N358 X-147.002 Y31.716 Z15.470 A1.0108 
N359 X-147.002 Y30.125 Z15.470 
N360 X-147.002 Y28.347 Z15.470 
N361 X-147.002 Y26.390 Z15.469 
N362 X-147.002 Y24.270 Z15.469 
N363 X-147.002 Y22.010 Z15.469 
N364 X-147.002 Y19.641 Z15.468 
N365 X-147.002 Y17.199 Z15.468 
N366 X-147.002 Y14.724 Z15.468 A1.0122 
N367 X-147.002 Y12.256 Z15.479 A1.0613 
N368 X-147.002 Y9.836 Z15.565 A1.4477 
N369 X-147.002 Y7.499 Z15.714 A2.1856 
N370 X-147.002 Y5.280 Z15.827 A2.8885 
N371 X-147.002 Y3.207 Z15.907 A3.5395 
N372 X-147.002 Y1.299 Z15.976 A4.2066 
N373 X-147.002 Y-0.430 Z16.021 A4.8189 B0.0006 
N374 X-147.002 Y-1.975 Z16.015 A5.2363 B0.0057 
N375 X-147.002 Y-3.340 Z16.015 A5.6652 B0.0199 
N376 X-147.002 Y-4.551 Z16.163 A6.7023 B0.0440 
N377 X-147.002 Y-5.653 Z16.608 A9.0187 B0.0742 
N378 X-147.002 Y-6.712 Z17.392 A12.8884 B0.1008 
N379 X-147.002 Y-7.799 Z18.436 A18.0964 B0.1143 
N380 X-147.002 Y-8.959 Z19.582 A24.0842 B0.1147 
N381 X-147.002 Y-10.193 Z20.693 A30.3500 B0.1054 
N382 X-147.002 Y-11.490 Z21.689 A36.5944 B0.0883 
N383 X-147.002 Y-12.846 Z22.551 A42.7732 B0.0622 
N384 X-147.002 Y-14.250 Z23.252 A48.8152 B0.0275 
N385 X-147.002 Y-15.686 Z23.779 A54.6922 B-0.0114 
N386 X-147.003 Y-17.185 Z24.145 A60.6003 B-0.0517 
N387 X-147.003 Y-18.719 Z24.320 A66.4614 B-0.0915 
N388 X-147.003 Y-20.230 Z24.277 A72.1048 B-0.1298 
N389 X-147.003 Y-21.651 Z24.004 A77.3424 B-0.1658 
N390 X-147.003 Y-22.856 Z23.503 A81.7426 B-0.1981 
N391 X-147.003 Y-23.715 Z22.806 A84.8306 B-0.2246 
N392 X-147.003 Y-24.219 Z21.961 A86.5598 B-0.2455 
N393 X-147.003 Y-24.467 Z21.001 A87.2922 B-0.2624 
N394 X-147.004 Y-24.578 Z19.946 A87.4735 B-0.2773 
N395 X-147.004 Y-24.651 Z18.806 A87.4869 B-0.2923 
N396 X-147.004 Y-24.726 Z17.595 B-0.3080 
N397 X-147.004 Y-24.803 Z16.326 B-0.3246 
N398 X-147.004 Y-24.884 Z15.017 B-0.3416 
N399 X-147.004 Y-24.965 Z13.688 A87.4869 B-0.3589 
N400 X-147.004 Y-25.047 Z12.361 A87.4870 B-0.3762 
N401 X-147.004 Y-25.130 Z11.056 A87.4990 B-0.3933 
N402 X-147.004 Y-25.228 Z9.794 A87.5849 B-0.4105 
N403 X-147.004 Y-25.350 Z8.595 A87.8016 B-0.4279 
N404 X-147.004 Y-25.487 Z7.471 A88.1111 B-0.4453 
N405 X-147.004 Y-25.606 Z6.434 A88.3920 B-0.4616 
N406 X-147.004 Y-25.736 Z5.491 A88.7564 B-0.4781 
N407 X-147.004 Y-25.976 Z4.645 A89.6184 B-0.5012 
N408 X-147.005 Y-26.411 Z3.889 A91.3556 B-0.5394 
N409 X-147.005 Y-27.088 Z3.194 A94.1862 B-0.5997 
N410 X-147.005 Y-27.978 Z2.519 A98.0270 B-0.6855 
N411 X-147.006 Y-29.015 Z1.820 A102.6433 B-0.7964 
N412 X-147.006 Y-30.145 Z1.059 A107.8504 B-0.9307 
N413 X-147.007 Y-31.327 Z0.201 A113.5457 B-1.0836 
N414 X-147.008 Y-32.541 Z-0.795 A119.7485 B-1.2417 
N415 X-147.008 Y-33.692 Z-1.922 A126.1406 B-1.3717 
N416 X-147.008 Y-34.727 Z-3.168 A132.5803 B-1.4366 
N417 X-147.008 Y-35.624 Z-4.534 A139.0841 B-1.4241 
N418 X-147.008 Y-36.338 Z-5.989 A145.5156 B-1.3526 
N419 X-147.008 Y-36.848 Z-7.516 A151.8698 B-1.2484 
N420 X-147.007 Y-37.139 Z-9.101 A158.1815 B-1.1310 
N421 X-147.007 Y-37.180 Z-10.693 A164.3310 B-1.0135 
N422 X-147.006 Y-36.949 Z-12.194 A170.0380 B-0.9061 
N423 X-147.006 Y-36.450 Z-13.477 A174.8995 B-0.8184 
N424 X-147.006 Y-35.715 Z-14.387 A178.3690 B-0.7587 
N425 X-147.005 Y-34.790 Z-14.877 A180.2592 B-0.7279 
N426 X-147.005 Y-33.699 Z-15.051 A180.9417 B-0.7179 
N427 X-147.005 Y-32.438 Z-15.075 A181.0406 B-0.7166 
N428 X-147.005 Y-30.996 Z-15.074 A181.0414 B-0.7167 
N429 X-147.005 Y-29.371 Z-15.073 B-0.7167 
N430 X-147.005 Y-27.566 Z-15.072 B-0.7167 
N431 X-147.005 Y-25.593 Z-15.070 B-0.7167 
N432 X-147.005 Y-23.471 Z-15.069 B-0.7167 
N433 X-147.005 Y-21.226 Z-15.067 B-0.7168 
N434 X-147.005 Y-18.889 Z-15.065 B-0.7168 
N435 X-147.005 Y-16.497 Z-15.064 B-0.7168 
N436 X-147.005 Y-14.089 Z-15.062 A181.0414 B-0.7169 
N437 X-147.005 Y-11.705 Z-15.074 A181.1000 B-0.7166 
N438 X-147.005 Y-9.381 Z-15.185 A181.6001 B-0.7166 
N439 X-147.005 Y-7.147 Z-15.387 A182.5903 B-0.7239 
N440 X-147.005 Y-5.037 Z-15.545 A183.5432 B-0.7403 
N441 X-147.005 Y-3.075 Z-15.655 A184.3988 B-0.7371 
N442 X-147.005 Y-1.274 Z-15.761 A185.3202 B-0.6994 
N443 X-147.005 Y0.354 Z-15.829 A186.1440 B-0.6537 
N444 X-147.005 Y1.803 Z-15.835 A186.7262 B-0.6168 
N445 X-147.005 Y3.088 Z-15.873 A187.4285 B-0.5845 
N446 X-147.005 Y4.246 Z-16.111 A188.9689 B-0.5494 
N447 X-147.004 Y5.336 Z-16.679 A191.9623 B-0.5060 
N448 X-147.004 Y6.435 Z-17.580 A196.5369 B-0.4513 
N449 X-147.004 Y7.605 Z-18.680 A202.2740 B-0.3859 
N450 X-147.004 Y8.857 Z-19.798 A208.5128 B-0.3133 
N451 X-147.003 Y10.168 Z-20.806 A214.7520 B-0.2374 
N452 X-147.003 Y11.520 Z-21.663 A220.8316 B-0.1601 
N453 X-147.003 Y12.918 Z-22.369 A226.7966 B-0.0808 
N454 X-147.002 Y14.339 Z-22.901 A232.5654 B-0.0054 
N455 X-147.002 Y15.805 Z-23.271 A238.2880 B0.0605 
N456 X-147.002 Y17.324 Z-23.473 A244.0527 B0.1157 
N457 X-147.002 Y18.843 Z-23.469 A249.6845 B0.1597 
N458 X-147.002 Y20.302 Z-23.243 A255.0096 B0.1928 
N459 X-147.001 Y21.572 Z-22.785 A259.5882 B0.2141 
N460 X-147.001 Y22.506 Z-22.116 A262.8796 B0.2229 
N461 X-147.001 Y23.076 Z-21.286 A264.7618 B0.2211 
N462 X-147.001 Y23.369 Z-20.338 A265.5591 B0.2121 
N463 X-147.001 Y23.512 Z-19.294 A265.7459 B0.1989 
N464 X-147.002 Y23.618 Z-18.172 A265.7574 B0.1838 
N465 X-147.002 Y23.727 Z-16.985 B0.1678 
N466 X-147.002 Y23.840 Z-15.748 B0.1512 
N467 X-147.002 Y23.957 Z-14.479 B0.1338 
N468 X-147.002 Y24.075 Z-13.195 B0.1140 
N469 X-147.002 Y24.192 Z-11.918 A265.7576 B0.0874 
N470 X-147.002 Y24.310 Z-10.668 A265.7724 B0.0558 
N471 X-147.002 Y24.442 Z-9.466 A265.8627 B0.0281 
N472 X-147.002 Y24.597 Z-8.327 A266.0844 B0.0106 
N473 X-147.002 Y24.766 Z-7.266 A266.4099 B0.0027 
N474 X-147.002 Y24.923 Z-6.289 A266.7425 B0.0004 
N475 X-147.002 Y25.110 Z-5.405 A267.2438 B0.0000 
N476 X-147.002 Y25.425 Z-4.618 A268.3406 B0.0000 
N477 X-147.002 Y25.944 Z-3.917 A270.3609 
N478 X-147.002 Y26.697 Z-3.272 A273.4541 
N479 X-147.002 Y27.646 Z-2.640 A277.4971 
N480 X-147.002 Y28.719 Z-1.978 A282.2164 
N481 X-147.002 Y29.856 Z-1.256 A287.3994 
N482 X-147.002 Y31.022 Z-0.445 A292.9592 
N483 X-147.002 Y32.226 Z0.500 A299.0152 
N484 X-147.002 Y33.366 Z1.566 A305.2189 
N485 X-147.002 Y34.377 Z2.726 A311.3452 
N486 X-147.002 Y35.275 Z4.007 A317.5772 
N487 X-147.002 Y36.021 Z5.390 A323.8256 
N488 X-147.002 Y36.585 Z6.857 A330.0526 
N489 X-147.002 Y36.949 Z8.397 A336.2806 
N490 X-147.002 Y37.082 Z9.973 A342.4339 
N491 X-147.002 Y36.955 Z11.498 A348.2712 
N492 X-147.002 Y36.562 Z12.856 A353.4267 
N493 X-147.002 Y35.925 Z13.893 A357.3764 
N494 X-147.002 Y35.091 Z14.510 A359.7471 
N495 X-147.002 Y34.091 Z14.773 A0.7722 
N496 X-147.002 Y32.930 Z14.833 A1.0113 
N497 X-147.002 Y31.598 Z14.836 A1.0233 
N498 X-147.002 Y30.090 Z14.835 
N499 X-147.002 Y28.407 Z14.834 
N500 X-147.002 Y26.557 Z14.834 
N501 X-147.002 Y24.556 Z14.833 
N502 X-147.002 Y22.425 Z14.832 
N503 X-147.002 Y20.193 Z14.831 
N504 X-147.002 Y17.893 Z14.830 
N505 X-147.002 Y15.561 Z14.829 A1.0235 
N506 X-147.002 Y13.234 Z14.835 A1.0536 
N507 X-147.002 Y10.949 Z14.916 A1.4091 
N508 X-147.002 Y8.733 Z15.152 A2.5104 
N509 X-147.002 Y6.615 Z15.408 A3.8778 
N510 X-147.002 Y4.626 Z15.594 A5.1285 
N511 X-147.002 Y2.782 Z15.745 A6.3576 B0.0002 
N512 X-147.002 Y1.096 Z15.856 A7.5146 B0.0062 
N513 X-147.002 Y-0.420 Z15.898 A8.4333 B0.0304 
N514 X-147.002 Y-1.772 Z15.906 A9.2129 B0.0734 
N515 X-147.002 Y-2.987 Z16.008 A10.3679 B0.1159 
N516 X-147.002 Y-4.116 Z16.353 A12.5709 B0.1435 
N517 X-147.002 Y-5.228 Z17.016 A16.2304 B0.1571 
N518 X-147.002 Y-6.395 Z17.953 A21.2941 B0.1592 
N519 X-147.002 Y-7.654 Z19.007 A27.2466 B0.1506 
N520 X-147.002 Y-8.989 Z20.011 A33.4622 B0.1318 
N521 X-147.002 Y-10.357 Z20.858 A39.4908 B0.1041 
N522 X-147.002 Y-11.738 Z21.531 A45.2542 B0.0670 
N523 X-147.002 Y-13.132 Z22.036 A50.7966 B0.0206 
N524 X-147.002 Y-14.562 Z22.391 A56.2895 B-0.0320 
N525 X-147.003 Y-16.071 Z22.609 A61.9697 B-0.0897 
N526 X-147.003 Y-17.616 Z22.644 A67.6671 B-0.1501 
N527 X-147.003 Y-19.115 Z22.458 A73.1080 B-0.2104 
N528 X-147.003 Y-20.432 Z22.035 A77.8094 B-0.2662 
N529 X-147.004 Y-21.418 Z21.393 A81.2269 B-0.3126 
N530 X-147.004 Y-22.040 Z20.584 A83.2307 B-0.3476 
N531 X-147.004 Y-22.371 Z19.653 A84.0874 B-0.3730 
N532 X-147.004 Y-22.540 Z18.630 A84.2781 B-0.3929 
N533 X-147.004 Y-22.672 Z17.536 A84.2880 B-0.4119 
N534 X-147.004 Y-22.807 Z16.387 B-0.4318 
N535 X-147.004 Y-22.947 Z15.195 A84.2880 B-0.4524 
N536 X-147.004 Y-23.090 Z13.979 B-0.4735 
N537 X-147.004 Y-23.234 Z12.755 A84.2880 B-0.4946 
N538 X-147.005 Y-23.377 Z11.543 A84.2890 B-0.5156 
N539 X-147.005 Y-23.527 Z10.363 A84.3348 B-0.5366 
N540 X-147.005 Y-23.716 Z9.235 A84.5735 B-0.5592 
N541 X-147.005 Y-23.949 Z8.174 A85.0477 B-0.5833 
N542 X-147.005 Y-24.189 Z7.188 A85.6239 B-0.6074 
N543 X-147.005 Y-24.407 Z6.282 A86.1776 B-0.6303 
N544 X-147.005 Y-24.646 Z5.464 A86.8837 B-0.6550 
N545 X-147.005 Y-25.006 Z4.737 A88.1596 B-0.6907 
N546 X-147.006 Y-25.558 Z4.089 A90.3186 B-0.7462 
N547 X-147.006 Y-26.332 Z3.490 A93.4962 B-0.8276 
N548 X-147.006 Y-27.290 Z2.896 A97.5627 B-0.9354 
N549 X-147.007 Y-28.362 Z2.269 A102.2575 B-1.0665 
N550 X-147.008 Y-29.495 Z1.579 A107.3972 B-1.2167 
N551 X-147.008 Y-30.657 Z0.799 A112.8991 B-1.3804 
N552 X-147.009 Y-31.848 Z-0.111 A118.8443 B-1.5450 
N553 X-147.010 Y-32.973 Z-1.135 A124.9051 B-1.6790 
N554 X-147.010 Y-33.978 Z-2.254 A130.9022 B-1.7540 
N555 X-147.010 Y-34.891 Z-3.505 A137.0816 B-1.7627 
N556 X-147.010 Y-35.663 Z-4.870 A143.3368 B-1.7137 
N557 X-147.009 Y-36.258 Z-6.322 A149.5685 B-1.6253 
N558 X-147.009 Y-36.653 Z-7.848 A155.7914 B-1.5141 
N559 X-147.008 Y-36.823 Z-9.412 A161.9437 B-1.3930 
N560 X-147.008 Y-36.738 Z-10.938 A167.8091 B-1.2731 
N561 X-147.007 Y-36.391 Z-12.312 A173.0460 B-1.1654 
N562 X-147.007 Y-35.801 Z-13.385 A177.1466 B-1.0821 
N563 X-147.007 Y-35.013 Z-14.033 A179.6428 B-1.0319 
N564 X-147.007 Y-34.064 Z-14.314 A180.7357 B-1.0106 
N565 X-147.007 Y-32.958 Z-14.387 A181.0258 B-1.0055 
N566 X-147.007 Y-31.689 Z-14.392 A181.0487 B-1.0052 
N567 X-147.007 Y-30.248 Z-14.390 B-1.0054 
N568 X-147.007 Y-28.638 Z-14.389 B-1.0055 
N569 X-147.007 Y-26.865 Z-14.388 B-1.0057 
N570 X-147.007 Y-24.943 Z-14.386 B-1.0059 
N571 X-147.007 Y-22.893 Z-14.384 B-1.0061 
N572 X-147.007 Y-20.741 Z-14.382 B-1.0064 
N573 X-147.007 Y-18.518 Z-14.381 B-1.0066 
N574 X-147.007 Y-16.260 Z-14.379 B-1.0068 
N575 X-147.007 Y-14.001 Z-14.377 A181.0488 B-1.0071 
N576 X-147.007 Y-11.778 Z-14.397 A181.1425 B-1.0064 
N577 X-147.007 Y-9.619 Z-14.566 A181.8979 B-1.0030 
N578 X-147.007 Y-7.546 Z-14.887 A183.4371 B-1.0049 
N579 X-147.007 Y-5.585 Z-15.173 A185.0489 B-1.0192 
N580 X-147.007 Y-3.759 Z-15.386 A186.5322 B-1.0108 
N581 X-147.006 Y-2.078 Z-15.572 A188.0262 B-0.9547 
N582 X-147.006 Y-0.552 Z-15.693 A189.3439 B-0.8860 
N583 X-147.006 Y0.813 Z-15.745 A190.4116 B-0.8288 
N584 X-147.006 Y2.043 Z-15.839 A191.6512 B-0.7771 
N585 X-147.005 Y3.189 Z-16.128 A193.7367 B-0.7191 
N586 X-147.005 Y4.322 Z-16.720 A197.2043 B-0.6459 
N587 X-147.005 Y5.519 Z-17.598 A202.1349 B-0.5540 
N588 X-147.004 Y6.823 Z-18.619 A208.0816 B-0.4473 
N589 X-147.004 Y8.208 Z-19.590 A214.3228 B-0.3352 
N590 X-147.003 Y9.612 Z-20.380 A220.2896 B-0.2272 
N591 X-147.003 Y11.006 Z-20.973 A225.8745 B-0.1257 
N592 X-147.002 Y12.401 Z-21.397 A231.2225 B-0.0301 
N593 X-147.002 Y13.823 Z-21.673 A236.5060 B0.0554 
N594 X-147.002 Y15.322 Z-21.817 A241.9990 B0.1309 
N595 X-147.001 Y16.857 Z-21.786 A247.5380 B0.1943 
N596 X-147.001 Y18.333 Z-21.537 A252.7904 B0.2433 
N597 X-147.001 Y19.588 Z-21.049 A257.1506 B0.2737 
N598 X-147.001 Y20.486 Z-20.349 A260.1161 B0.2848 
N599 X-147.001 Y21.028 Z-19.490 A261.6798 B0.2803 
N600 X-147.001 Y21.309 Z-18.518 A262.1902 B0.2653 
N601 X-147.001 Y21.486 Z-17.467 A262.2510 B0.2455 
N602 X-147.001 Y21.657 Z-16.361 A262.2513 B0.2241 
N603 X-147.001 Y21.834 Z-15.212 B0.2019 
N604 X-147.002 Y22.014 Z-14.037 B0.1792 
N605 X-147.002 Y22.197 Z-12.853 B0.1563 
N606 X-147.002 Y22.378 Z-11.676 A262.2513 B0.1332 
N607 X-147.002 Y22.558 Z-10.526 A262.2632 B0.1076 
N608 X-147.002 Y22.755 Z-9.422 A262.3761 B0.0769 
N609 X-147.002 Y22.990 Z-8.381 A262.6967 B0.0451 
N610 X-147.002 Y23.252 Z-7.414 A263.2018 B0.0202 
N611 X-147.002 Y23.512 Z-6.526 A263.7764 B0.0067 
N612 X-147.002 Y23.776 Z-5.721 A264.4486 B0.0016 
N613 X-147.002 Y24.132 Z-5.008 A265.5785 B0.0003 
N614 X-147.002 Y24.660 Z-4.383 A267.5182 B0.0000 
N615 X-147.002 Y25.400 Z-3.822 A270.4363 B0.0000 
N616 X-147.002 Y26.341 Z-3.282 A274.3075 
N617 X-147.002 Y27.415 Z-2.722 A278.8710 
N618 X-147.002 Y28.551 Z-2.111 A283.8562 
N619 X-147.002 Y29.699 Z-1.429 A289.0912 
N620 X-147.002 Y30.860 Z-0.649 A294.6266 
N621 X-147.002 Y32.039 Z0.265 A300.5742 
N622 X-147.002 Y33.094 Z1.259 A306.3587 
N623 X-147.002 Y34.031 Z2.335 A312.0571 
N624 X-147.002 Y34.890 Z3.543 A317.9795 
N625 X-147.002 Y35.622 Z4.865 A324.0109 
N626 X-147.002 Y36.195 Z6.284 A330.0968 
N627 X-147.002 Y36.580 Z7.784 A336.2222 
N628 X-147.002 Y36.746 Z9.327 A342.2983 
N629 X-147.002 Y36.664 Z10.831 A348.0966 
N630 X-147.002 Y36.326 Z12.182 A353.2562 
N631 X-147.002 Y35.752 Z13.229 A357.2641 
N632 X-147.002 Y34.988 Z13.855 A359.6769 
N633 X-147.002 Y34.069 Z14.123 A0.7232 
N634 X-147.002 Y33.000 Z14.196 A1.0097 
N635 X-147.002 Y31.773 Z14.201 A1.0362 
N636 X-147.002 Y30.382 Z14.201 A1.0362 
N637 X-147.002 Y28.828 Z14.200 
N638 X-147.002 Y27.117 Z14.198 
N639 X-147.002 Y25.264 Z14.197 
N640 X-147.002 Y23.287 Z14.196 
N641 X-147.002 Y21.212 Z14.195 
N642 X-147.002 Y19.068 Z14.193 
N643 X-147.002 Y16.886 Z14.192 
N644 X-147.002 Y14.702 Z14.192 A1.0405 
N645 X-147.002 Y12.548 Z14.216 A1.1522 
N646 X-147.002 Y10.450 Z14.396 A1.9505 
N647 X-147.002 Y8.425 Z14.775 A3.7429 
N648 X-147.002 Y6.493 Z15.157 A5.8081 
N649 X-147.002 Y4.679 Z15.463 A7.7897 B0.0002 
N650 X-147.002 Y2.996 Z15.710 A9.7056 B0.0041 
N651 X-147.002 Y1.456 Z15.871 A11.3911 B0.0299 
N652 X-147.002 Y0.069 Z15.944 A12.7655 B0.0822 
N653 X-147.002 Y-1.186 Z16.012 A14.1331 B0.1299 
N654 X-147.002 Y-2.358 Z16.212 A16.0721 B0.1615 
N655 X-147.002 Y-3.514 Z16.656 A19.1350 B0.1796 
N656 X-147.002 Y-4.726 Z17.368 A23.5506 B0.1849 
N657 X-147.002 Y-6.048 Z18.253 A29.0929 B0.1755 
N658 X-147.002 Y-7.465 Z19.136 A35.1391 B0.1518 
N659 X-147.002 Y-8.906 Z19.857 A41.0098 B0.1167 
N660 X-147.002 Y-10.313 Z20.363 A46.4001 B0.0726 
N661 X-147.002 Y-11.689 Z20.686 A51.4308 B0.0189 
N662 X-147.003 Y-13.096 Z20.880 A56.4691 B-0.0443 
N663 X-147.003 Y-14.603 Z20.968 A61.8608 B-0.1183 
N664 X-147.003 Y-16.153 Z20.890 A67.3655 B-0.1996 
N665 X-147.004 Y-17.613 Z20.589 A72.4685 B-0.2810 
N666 X-147.004 Y-18.801 Z20.049 A76.4776 B-0.3527 
N667 X-147.004 Y-19.620 Z19.307 A79.0349 B-0.4087 
N668 X-147.004 Y-20.094 Z18.419 A80.2224 B-0.4480 
N669 X-147.004 Y-20.350 Z17.432 A80.5062 B-0.4745 
N670 X-147.004 Y-20.549 Z16.385 A80.5268 B-0.4968 
N671 X-147.005 Y-20.750 Z15.298 A80.5277 B-0.5191 
N672 X-147.005 Y-20.956 Z14.184 A80.5277 B-0.5420 
N673 X-147.005 Y-21.164 Z13.058 B-0.5651 
N674 X-147.005 Y-21.371 Z11.938 A80.5278 B-0.5881 
N675 X-147.005 Y-21.575 Z10.838 A80.5303 B-0.6107 
N676 X-147.005 Y-21.791 Z9.779 A80.6150 B-0.6342 
N677 X-147.005 Y-22.069 Z8.782 A81.0059 B-0.6623 
N678 X-147.005 Y-22.407 Z7.857 A81.7286 B-0.6949 
N679 X-147.005 Y-22.754 Z7.005 A82.5881 B-0.7287 
N680 X-147.006 Y-23.079 Z6.226 A83.4582 B-0.7618 
N681 X-147.006 Y-23.426 Z5.528 A84.5083 B-0.7985 
N682 X-147.006 Y-23.888 Z4.915 A86.1263 B-0.8493 
N683 X-147.006 Y-24.528 Z4.373 A88.5778 B-0.9230 
N684 X-147.007 Y-25.366 Z3.871 A91.9534 B-1.0244 
N685 X-147.007 Y-26.370 Z3.367 A96.1328 B-1.1523 
N686 X-147.008 Y-27.467 Z2.825 A100.8358 B-1.3010 
N687 X-147.009 Y-28.601 Z2.221 A105.8606 B-1.4647 
N688 X-147.009 Y-29.742 Z1.538 A111.1160 B-1.6376 
N689 X-147.010 Y-30.901 Z0.743 A116.7128 B-1.8113 
N690 X-147.011 Y-32.029 Z-0.169 A122.5130 B-1.9600 
N691 X-147.011 Y-33.018 Z-1.145 A128.0667 B-2.0543 
N692 X-147.011 Y-33.930 Z-2.232 A133.7472 B-2.0919 
N693 X-147.011 Y-34.772 Z-3.467 A139.7310 B-2.0764 
N694 X-147.011 Y-35.479 Z-4.817 A145.8204 B-2.0160 
N695 X-147.011 Y-36.016 Z-6.260 A151.9506 B-1.9224 
N696 X-147.010 Y-36.355 Z-7.772 A158.0794 B-1.8072 
N697 X-147.010 Y-36.466 Z-9.302 A164.0808 B-1.6813 
N698 X-147.009 Y-36.327 Z-10.761 A169.6978 B-1.5560 
N699 X-147.009 Y-35.939 Z-12.030 A174.5574 B-1.4444 
N700 X-147.008 Y-35.333 Z-12.962 A178.1427 B-1.3611 
N701 X-147.008 Y-34.553 Z-13.471 A180.1143 B-1.3148 
N702 X-147.008 Y-33.627 Z-13.664 A180.8700 B-1.2973 
N703 X-147.008 Y-32.553 Z-13.708 A181.0460 B-1.2936 
N704 X-147.008 Y-31.323 Z-13.709 A181.0575 B-1.2936 
N705 X-147.008 Y-29.935 Z-13.708 B-1.2939 
N706 X-147.008 Y-28.389 Z-13.706 B-1.2942 
N707 X-147.008 Y-26.695 Z-13.705 B-1.2946 
N708 X-147.008 Y-24.867 Z-13.703 B-1.2949 
N709 X-147.008 Y-22.926 Z-13.701 B-1.2953 
N710 X-147.008 Y-20.897 Z-13.699 B-1.2957 
N711 X-147.008 Y-18.809 Z-13.697 B-1.2962 
N712 X-147.008 Y-16.694 Z-13.695 B-1.2966 
N713 X-147.008 Y-14.585 Z-13.693 B-1.2970 
N714 X-147.008 Y-12.512 Z-13.700 A181.0966 B-1.2969 
N715 X-147.008 Y-10.502 Z-13.841 A181.7138 B-1.2905 
N716 X-147.008 Y-8.566 Z-14.227 A183.4890 B-1.2791 
N717 X-147.008 Y-6.715 Z-14.696 A185.8720 B-1.2768 
N718 X-147.008 Y-4.972 Z-15.088 A188.1975 B-1.2686 
N719 X-147.007 Y-3.347 Z-15.413 A190.4601 B-1.2046 
N720 X-147.007 Y-1.853 Z-15.651 A192.5172 B-1.1052 
N721 X-147.007 Y-0.498 Z-15.797 A194.2775 B-1.0146 
N722 X-147.006 Y0.743 Z-15.935 A196.0520 B-0.9347 
N723 X-147.006 Y1.924 Z-16.204 A198.4351 B-0.8501 
N724 X-147.006 Y3.120 Z-16.703 A201.9419 B-0.7480 
N725 X-147.005 Y4.405 Z-17.438 A206.7427 B-0.6230 
N726 X-147.004 Y5.815 Z-18.290 A212.5221 B-0.4797 
N727 X-147.004 Y7.301 Z-19.067 A218.5501 B-0.3335 
N728 X-147.003 Y8.763 Z-19.624 A224.1232 B-0.2008 
N729 X-147.003 Y10.154 Z-19.949 A229.0872 B-0.0858 
N730 X-147.002 Y11.517 Z-20.108 A233.7683 B0.0159 
N731 X-147.002 Y12.948 Z-20.168 A238.6872 B0.1085 
N732 X-147.002 Y14.467 Z-20.112 A243.9367 B0.1918 
N733 X-147.001 Y15.967 Z-19.869 A249.0802 B0.2590 
N734 X-147.001 Y17.265 Z-19.390 A253.3913 B0.3019 
N735 X-147.001 Y18.210 Z-18.688 A256.2954 B0.3177 
N736 X-147.001 Y18.788 Z-17.818 A257.7293 B0.3109 
N737 X-147.001 Y19.111 Z-16.836 A258.1060 B0.2903 
N738 X-147.001 Y19.358 Z-15.794 A258.1435 B0.2655 
N739 X-147.001 Y19.604 Z-14.718 A258.1461 B0.2397 
N740 X-147.001 Y19.854 Z-13.623 A258.1461 B0.2134 
N741 X-147.002 Y20.105 Z-12.523 B0.1871 
N742 X-147.002 Y20.354 Z-11.435 B0.1609 
N743 X-147.002 Y20.597 Z-10.372 A258.1491 B0.1355 
N744 X-147.002 Y20.847 Z-9.354 A258.2234 B0.1106 
N745 X-147.002 Y21.141 Z-8.402 A258.5411 B0.0839 
N746 X-147.002 Y21.484 Z-7.526 A259.1501 B0.0539 
N747 X-147.002 Y21.845 Z-6.726 A259.9440 B0.0275 
N748 X-147.002 Y22.203 Z-6.003 A260.8316 B0.0108 
N749 X-147.002 Y22.604 Z-5.364 A262.0006 B0.0030 
N750 X-147.002 Y23.136 Z-4.813 A263.8238 B0.0005 
N751 X-147.002 Y23.850 Z-4.335 A266.5098 B0.0000 
N752 X-147.002 Y24.756 Z-3.895 A270.0971 B0.0000 
N753 X-147.002 Y25.820 Z-3.449 A274.4595 
N754 X-147.002 Y26.967 Z-2.961 A279.2952 
N755 X-147.002 Y28.128 Z-2.409 A284.3482 
N756 X-147.002 Y29.268 Z-1.786 A289.4974 
N757 X-147.002 Y30.412 Z-1.065 A294.8937 
N758 X-147.002 Y31.566 Z-0.214 A300.6389 
N759 X-147.002 Y32.563 Z0.686 A306.0174 
N760 X-147.002 Y33.449 Z1.652 A311.2660 
N761 X-147.002 Y34.295 Z2.759 A316.8524 
N762 X-147.002 Y35.053 Z4.000 A322.6764 
N763 X-147.002 Y35.676 Z5.354 A328.6322 
N764 X-147.002 Y36.132 Z6.803 A334.6747 
N765 X-147.002 Y36.385 Z8.309 A340.7042 
N766 X-147.002 Y36.406 Z9.805 A346.5376 
N767 X-147.002 Y36.180 Z11.189 A351.8575 
N768 X-147.002 Y35.720 Z12.327 A356.2287 
N769 X-147.002 Y35.065 Z13.078 A359.1320 
N770 X-147.002 Y34.256 Z13.433 A0.5124 
N771 X-147.002 Y33.309 Z13.548 A0.9658 
N772 X-147.002 Y32.216 Z13.568 A1.0486 
N773 X-147.002 Y30.973 Z13.567 A1.0512 
N774 X-147.002 Y29.577 Z13.566 
N775 X-147.002 Y28.033 Z13.565 
N776 X-147.002 Y26.352 Z13.563 
N777 X-147.002 Y24.549 Z13.562 
N778 X-147.002 Y22.647 Z13.560 
N779 X-147.002 Y20.670 Z13.558 
N780 X-147.002 Y18.647 Z13.556 
N781 X-147.002 Y16.609 Z13.554 
N782 X-147.002 Y14.584 Z13.554 A1.0584 
N783 X-147.002 Y12.601 Z13.586 A1.2023 
N784 X-147.002 Y10.679 Z13.805 A2.1680 
N785 X-147.002 Y8.822 Z14.293 A4.4422 
N786 X-147.002 Y7.033 Z14.852 A7.3175 
N787 X-147.002 Y5.331 Z15.344 A10.2315 B0.0003 
N788 X-147.002 Y3.730 Z15.747 A13.0405 B0.0087 
N789 X-147.002 Y2.250 Z16.024 A15.5214 B0.0436 
N790 X-147.002 Y0.899 Z16.182 A17.6121 B0.1003 
N791 X-147.002 Y-0.350 Z16.308 A19.6364 B0.1459 
N792 X-147.002 Y-1.553 Z16.528 A22.1325 B0.1734 
N793 X-147.002 Y-2.785 Z16.930 A25.5716 B0.1881 
N794 X-147.002 Y-4.112 Z17.522 A30.1501 B0.1870 
N795 X-147.002 Y-5.561 Z18.206 A35.6175 B0.1672 
N796 X-147.002 Y-7.073 Z18.806 A41.2893 B0.1307 
N797 X-147.002 Y-8.533 Z19.179 A46.4383 B0.0840 
N798 X-147.002 Y-9.898 Z19.326 A50.9492 B0.0295 
N799 X-147.002 Y-11.250 Z19.338 A55.3156 B-0.0361 
N800 X-147.003 Y-12.713 Z19.286 A60.1677 B-0.1194 
N801 X-147.003 Y-14.244 Z19.112 A65.3164 B-0.2171 
N802 X-147.004 Y-15.667 Z18.728 A70.0111 B-0.3161 
N803 X-147.004 Y-16.776 Z18.107 A73.4411 B-0.4000 
N804 X-147.004 Y-17.505 Z17.293 A75.3469 B-0.4608 
N805 X-147.004 Y-17.926 Z16.349 A75.9856 B-0.4987 
N806 X-147.005 Y-18.222 Z15.339 A76.0889 B-0.5251 
N807 X-147.005 Y-18.501 Z14.302 A76.0993 B-0.5493 
N808 X-147.005 Y-18.780 Z13.253 A76.0994 B-0.5734 
N809 X-147.005 Y-19.058 Z12.207 B-0.5975 
N810 X-147.005 Y-19.332 Z11.177 A76.0994 B-0.6212 
N811 X-147.005 Y-19.599 Z10.177 A76.1020 B-0.6442 
N812 X-147.005 Y-19.877 Z9.226 A76.2021 B-0.6688 
N813 X-147.005 Y-20.228 Z8.351 A76.6858 B-0.7019 
N814 X-147.006 Y-20.658 Z7.558 A77.6104 B-0.7444 
N815 X-147.006 Y-21.110 Z6.839 A78.7531 B-0.7910 
N816 X-147.006 Y-21.550 Z6.189 A79.9678 B-0.8388 
N817 X-147.006 Y-22.004 Z5.611 A81.3622 B-0.8915 
N818 X-147.006 Y-22.556 Z5.112 A83.2698 B-0.9598 
N819 X-147.007 Y-23.265 Z4.679 A85.9304 B-1.0525 
N820 X-147.007 Y-24.145 Z4.282 A89.4048 B-1.1731 
N821 X-147.008 Y-25.178 Z3.881 A93.6117 B-1.3202 
N822 X-147.009 Y-26.298 Z3.440 A98.3001 B-1.4864 
N823 X-147.009 Y-27.441 Z2.939 A103.2235 B-1.6639 
N824 X-147.010 Y-28.572 Z2.366 A108.2608 B-1.8468 
N825 X-147.011 Y-29.695 Z1.705 A113.4628 B-2.0305 
N826 X-147.012 Y-30.833 Z0.922 A119.0039 B-2.2017 
N827 X-147.012 Y-31.860 Z0.068 A124.3669 B-2.3265 
N828 X-147.013 Y-32.753 Z-0.832 A129.4491 B-2.3950 
N829 X-147.013 Y-33.618 Z-1.870 A134.8731 B-2.4181 
N830 X-147.013 Y-34.435 Z-3.070 A140.7034 B-2.3983 
N831 X-147.012 Y-35.131 Z-4.397 A146.7083 B-2.3385 
N832 X-147.012 Y-35.665 Z-5.825 A152.7975 B-2.2456 
N833 X-147.011 Y-36.002 Z-7.317 A158.8688 B-2.1284 
N834 X-147.011 Y-36.113 Z-8.812 A164.7632 B-1.9974 
N835 X-147.010 Y-35.983 Z-10.225 A170.2271 B-1.8647 
N836 X-147.010 Y-35.618 Z-11.442 A174.9054 B-1.7451 
N837 X-147.009 Y-35.048 Z-12.331 A178.3401 B-1.6547 
N838 X-147.009 Y-34.316 Z-12.811 A180.2045 B-1.6046 
N839 X-147.009 Y-33.448 Z-12.985 A180.8887 B-1.5861 
N840 X-147.009 Y-32.442 Z-13.025 A181.0527 B-1.5820 
N841 X-147.009 Y-31.290 Z-13.028 A181.0675 B-1.5820 
N842 X-147.009 Y-29.990 Z-13.026 A181.0675 B-1.5824 
N843 X-147.009 Y-28.545 Z-13.024 B-1.5828 
N844 X-147.009 Y-26.962 Z-13.023 B-1.5833 
N845 X-147.009 Y-25.256 Z-13.021 B-1.5838 
N846 X-147.009 Y-23.447 Z-13.018 B-1.5844 
N847 X-147.009 Y-21.557 Z-13.016 B-1.5849 
N848 X-147.009 Y-19.613 Z-13.014 B-1.5855 
N849 X-147.009 Y-17.645 Z-13.012 B-1.5861 
N850 X-147.009 Y-15.682 Z-13.009 B-1.5867 
N851 X-147.009 Y-13.750 Z-13.007 A181.0684 B-1.5872 
N852 X-147.009 Y-11.875 Z-13.047 A181.2460 B-1.5847 
N853 X-147.009 Y-10.070 Z-13.318 A182.4394 B-1.5682 
N854 X-147.009 Y-8.329 Z-13.879 A185.0409 B-1.5400 
N855 X-147.009 Y-6.648 Z-14.522 A188.3118 B-1.5141 
N856 X-147.009 Y-5.041 Z-15.098 A191.6392 B-1.4613 
N857 X-147.008 Y-3.519 Z-15.575 A194.8425 B-1.3403 
N858 X-147.007 Y-2.105 Z-15.911 A197.6770 B-1.1964 
N859 X-147.007 Y-0.793 Z-16.148 A200.2327 B-1.0687 
N860 X-147.006 Y0.460 Z-16.389 A202.9362 B-0.9492 
N861 X-147.006 Y1.722 Z-16.743 A206.3032 B-0.8197 
N862 X-147.005 Y3.066 Z-17.249 A210.6407 B-0.6698 
N863 X-147.004 Y4.531 Z-17.848 A215.8705 B-0.5007 
N864 X-147.004 Y6.072 Z-18.386 A221.4254 B-0.3291 
N865 X-147.003 Y7.559 Z-18.697 A226.4745 B-0.1794 
N866 X-147.003 Y8.918 Z-18.753 A230.7082 B-0.0602 
N867 X-147.002 Y10.229 Z-18.658 A234.6490 B0.0404 
N868 X-147.002 Y11.628 Z-18.503 A238.9974 B0.1350 
N869 X-147.001 Y13.110 Z-18.257 A243.7381 B0.2211 
N870 X-147.001 Y14.498 Z-17.824 A248.1055 B0.2842 
N871 X-147.001 Y15.582 Z-17.160 A251.2382 B0.3135 
N872 X-147.001 Y16.291 Z-16.303 A252.8386 B0.3113 
N873 X-147.001 Y16.717 Z-15.321 A253.2631 B0.2894 
N874 X-147.001 Y17.059 Z-14.291 A253.3147 B0.2622 
N875 X-147.001 Y17.393 Z-13.249 A253.3180 B0.2341 
N876 X-147.001 Y17.724 Z-12.208 B0.2061 
N877 X-147.002 Y18.051 Z-11.184 B0.1785 
N878 X-147.002 Y18.368 Z-10.188 B0.1517 
N879 X-147.002 Y18.677 Z-9.235 A253.3363 B0.1261 
N880 X-147.002 Y19.007 Z-8.347 A253.5249 B0.1021 
N881 X-147.002 Y19.399 Z-7.543 A254.0754 B0.0788 
N882 X-147.002 Y19.841 Z-6.825 A254.9691 B0.0546 
N883 X-147.002 Y20.300 Z-6.186 A256.0751 B0.0312 
N884 X-147.002 Y20.770 Z-5.623 A257.3591 B0.0133 
N885 X-147.002 Y21.311 Z-5.144 A259.0700 B0.0038 
N886 X-147.002 Y21.997 Z-4.747 A261.5031 B0.0006 
N887 X-147.002 Y22.851 Z-4.407 A264.7490 B0.0000 
N888 X-147.002 Y23.868 Z-4.085 A268.7682 B0.0000 
N889 X-147.002 Y25.010 Z-3.738 A273.4116 
N890 X-147.002 Y26.204 Z-3.333 A278.3846 
N891 X-147.002 Y27.382 Z-2.860 A283.4316 
N892 X-147.002 Y28.516 Z-2.315 A288.4527 
N893 X-147.002 Y29.641 Z-1.679 A293.6343 
N894 X-147.002 Y30.798 Z-0.911 A299.2214 
N895 X-147.002 Y31.789 Z-0.102 A304.3630 
N896 X-147.002 Y32.637 Z0.735 A309.1495 
N897 X-147.002 Y33.475 Z1.709 A314.3116 
N898 X-147.002 Y34.279 Z2.842 A319.8952 
N899 X-147.002 Y34.986 Z4.109 A325.7208 
N900 X-147.002 Y35.552 Z5.493 A331.7049 
N901 X-147.002 Y35.936 Z6.954 A337.7232 
N902 X-147.002 Y36.106 Z8.437 A343.6180 
N903 X-147.002 Y36.042 Z9.862 A349.1617 
N904 X-147.002 Y35.745 Z11.120 A354.0109 
N905 X-147.002 Y35.240 Z12.083 A357.7331 
N906 X-147.002 Y34.569 Z12.646 A359.9249 
N907 X-147.002 Y33.764 Z12.869 A0.7976 
N908 X-147.002 Y32.827 Z12.927 A1.0327 
N909 X-147.002 Y31.752 Z12.935 A1.0671 
N910 X-147.002 Y30.535 Z12.934 A1.0676 
N911 X-147.002 Y29.178 Z12.932 
N912 X-147.002 Y27.687 Z12.930 
N913 X-147.002 Y26.074 Z12.928 
N914 X-147.002 Y24.358 Z12.926 
N915 X-147.002 Y22.559 Z12.924 
N916 X-147.002 Y20.703 Z12.922 
N917 X-147.002 Y18.816 Z12.920 
N918 X-147.002 Y16.927 Z12.917 
N919 X-147.002 Y15.059 Z12.916 A1.0703 
N920 X-147.002 Y13.238 Z12.932 A1.1478 
N921 X-147.002 Y11.479 Z13.081 A1.8021 
N922 X-147.002 Y9.781 Z13.560 A3.9566 
N923 X-147.002 Y8.121 Z14.279 A7.4079 
N924 X-147.002 Y6.495 Z15.025 A11.3653 B0.0000 
N925 X-147.002 Y4.912 Z15.696 A15.4074 B0.0038 
N926 X-147.002 Y3.400 Z16.216 A19.1585 B0.0333 
N927 X-147.002 Y1.986 Z16.554 A22.3973 B0.0850 
N928 X-147.002 Y0.662 Z16.766 A25.2788 B0.1295 
N929 X-147.002 Y-0.621 Z16.955 A28.2324 B0.1568 
N930 X-147.002 Y-1.929 Z17.205 A31.6891 B0.1698 
N931 X-147.002 Y-3.323 Z17.542 A35.9042 B0.1659 
N932 X-147.002 Y-4.817 Z17.903 A40.7515 B0.1417 
N933 X-147.002 Y-6.329 Z18.146 A45.6097 B0.1004 
N934 X-147.002 Y-7.726 Z18.149 A49.7534 B0.0510 
N935 X-147.002 Y-9.005 Z17.953 A53.2589 B-0.0046 
N936 X-147.003 Y-10.325 Z17.693 A56.9857 B-0.0773 
N937 X-147.003 Y-11.765 Z17.398 A61.3210 B-0.1744 
N938 X-147.004 Y-13.168 Z16.962 A65.5601 B-0.2824 
N939 X-147.004 Y-14.304 Z16.310 A68.7170 B-0.3770 
N940 X-147.004 Y-15.067 Z15.460 A70.3512 B-0.4424 
N941 X-147.004 Y-15.542 Z14.485 A70.7794 B-0.4789 
N942 X-147.004 Y-15.927 Z13.474 A70.8323 B-0.5045 
N943 X-147.005 Y-16.299 Z12.464 A70.8349 B-0.5282 
N944 X-147.005 Y-16.664 Z11.470 B-0.5514 
N945 X-147.005 Y-17.018 Z10.505 A70.8349 B-0.5739 
N946 X-147.005 Y-17.358 Z9.579 A70.8352 B-0.5956 
N947 X-147.005 Y-17.693 Z8.708 A70.8932 B-0.6179 
N948 X-147.005 Y-18.088 Z7.923 A71.3120 B-0.6507 
N949 X-147.005 Y-18.583 Z7.242 A72.2985 B-0.7004 
N950 X-147.006 Y-19.130 Z6.648 A73.6652 B-0.7611 
N951 X-147.006 Y-19.685 Z6.124 A75.2194 B-0.8277 
N952 X-147.006 Y-20.249 Z5.666 A76.9523 B-0.9004 
N953 X-147.007 Y-20.878 Z5.280 A79.0860 B-0.9878 
N954 X-147.007 Y-21.634 Z4.960 A81.8652 B-1.0994 
N955 X-147.008 Y-22.538 Z4.678 A85.3581 B-1.2388 
N956 X-147.008 Y-23.578 Z4.397 A89.5036 B-1.4040 
N957 X-147.009 Y-24.718 Z4.080 A94.1535 B-1.5894 
N958 X-147.010 Y-25.893 Z3.702 A99.0546 B-1.7852 
N959 X-147.011 Y-27.048 Z3.252 A104.0018 B-1.9834 
N960 X-147.012 Y-28.166 Z2.730 A108.9473 B-2.1800 
N961 X-147.012 Y-29.279 Z2.113 A114.0646 B-2.3726 
N962 X-147.013 Y-30.404 Z1.373 A119.4877 B-2.5439 
N963 X-147.014 Y-31.365 Z0.600 A124.4534 B-2.6569 
N964 X-147.014 Y-32.198 Z-0.208 A129.1202 B-2.7170 
N965 X-147.014 Y-33.039 Z-1.163 A134.2417 B-2.7415 
N966 X-147.014 Y-33.870 Z-2.302 A139.9209 B-2.7308 
N967 X-147.014 Y-34.607 Z-3.591 A145.8907 B-2.6820 
N968 X-147.013 Y-35.194 Z-4.993 A151.9909 B-2.5972 
N969 X-147.013 Y-35.591 Z-6.464 A158.0726 B-2.4829 
N970 X-147.012 Y-35.766 Z-7.935 A163.9393 B-2.3494 
N971 X-147.012 Y-35.708 Z-9.330 A169.3733 B-2.2093 
N972 X-147.011 Y-35.422 Z-10.549 A174.0813 B-2.0778 
N973 X-147.011 Y-34.938 Z-11.488 A177.7125 B-1.9715 
N974 X-147.010 Y-34.293 Z-12.051 A179.9072 B-1.9054 
N975 X-147.010 Y-33.516 Z-12.278 A180.7993 B-1.8779 
N976 X-147.010 Y-32.611 Z-12.338 A181.0396 B-1.8707 
N977 X-147.010 Y-31.571 Z-12.346 A181.0773 B-1.8700 
N978 X-147.010 Y-30.392 Z-12.345 A181.0782 B-1.8705 
N979 X-147.010 Y-29.076 Z-12.343 B-1.8710 
N980 X-147.010 Y-27.630 Z-12.341 B-1.8716 
N981 X-147.010 Y-26.066 Z-12.339 B-1.8722 
N982 X-147.010 Y-24.401 Z-12.337 B-1.8729 
N983 X-147.010 Y-22.657 Z-12.334 B-1.8736 
N984 X-147.010 Y-20.858 Z-12.332 B-1.8743 
N985 X-147.010 Y-19.031 Z-12.329 B-1.8751 
N986 X-147.010 Y-17.204 Z-12.327 B-1.8758 
N987 X-147.010 Y-15.400 Z-12.325 B-1.8766 
N988 X-147.010 Y-13.643 Z-12.323 A181.0804 B-1.8772 
N989 X-147.010 Y-11.951 Z-12.371 A181.2933 B-1.8733 
N990 X-147.010 Y-10.328 Z-12.672 A182.6090 B-1.8490 
N991 X-147.010 Y-8.754 Z-13.333 A185.6222 B-1.7984 
N992 X-147.010 Y-7.195 Z-14.190 A189.8142 B-1.7316 
N993 X-147.009 Y-5.642 Z-15.042 A194.4256 B-1.6289 
N994 X-147.009 Y-4.111 Z-15.783 A199.0081 B-1.4447 
N995 X-147.008 Y-2.638 Z-16.328 A203.1429 B-1.2294 
N996 X-147.007 Y-1.232 Z-16.708 A206.8807 B-1.0358 
N997 X-147.006 Y0.142 Z-17.003 A210.5374 B-0.8606 
N998 X-147.005 Y1.541 Z-17.288 A214.4924 B-0.6859 
N999 X-147.004 Y3.003 Z-17.570 A218.8851 B-0.5055 
N1000 X-147.004 Y4.515 Z-17.785 A223.5174 B-0.3267 
N1001 X-147.003 Y5.982 Z-17.822 A227.8215 B-0.1705 
N1002 X-147.003 Y7.295 Z-17.612 A231.2598 B-0.0543 
N1003 X-147.002 Y8.513 Z-17.241 A234.2153 B0.0352 
N1004 X-147.002 Y9.791 Z-16.832 A237.4974 B0.1191 
N1005 X-147.001 Y11.155 Z-16.383 A241.2611 B0.1988 
N1006 X-147.001 Y12.415 Z-15.787 A244.6492 B0.2538 
N1007 X-147.001 Y13.377 Z-14.990 A246.8111 B0.2717 
N1008 X-147.001 Y13.997 Z-14.024 A247.5383 B0.2573 
N1009 X-147.001 Y14.465 Z-12.993 A247.6192 B0.2312 
N1010 X-147.001 Y14.910 Z-11.967 A247.6234 B0.2043 
N1011 X-147.002 Y15.344 Z-10.963 B0.1779 
N1012 X-147.002 Y15.763 Z-9.994 B0.1525 
N1013 X-147.002 Y16.162 Z-9.071 A247.6235 B0.1283 
N1014 X-147.002 Y16.544 Z-8.206 A247.6565 B0.1058 
N1015 X-147.002 Y16.952 Z-7.426 A247.9276 B0.0865 
N1016 X-147.002 Y17.427 Z-6.752 A248.6473 B0.0706 
N1017 X-147.002 Y17.961 Z-6.181 A249.7999 B0.0545 
N1018 X-147.002 Y18.523 Z-5.696 A251.2490 B0.0358 
N1019 X-147.002 Y19.107 Z-5.288 A252.9561 B0.0186 
N1020 X-147.002 Y19.770 Z-4.963 A255.1431 B0.0077 
N1021 X-147.002 Y20.569 Z-4.716 A258.0368 B0.0027 
N1022 X-147.002 Y21.518 Z-4.516 A261.6575 B0.0008 
N1023 X-147.002 Y22.600 Z-4.321 A265.9212 B0.0002 
N1024 X-147.002 Y23.791 Z-4.092 A270.7090 B0.0000 
N1025 X-147.002 Y25.027 Z-3.797 A275.7751 B0.0000 
N1026 X-147.002 Y26.238 Z-3.425 A280.8470 
N1027 X-147.002 Y27.384 Z-2.980 A285.7826 
N1028 X-147.002 Y28.495 Z-2.456 A290.7251 
N1029 X-147.002 Y29.668 Z-1.798 A296.1527 
N1030 X-147.002 Y30.736 Z-1.065 A301.3810 
N1031 X-147.002 Y31.573 Z-0.356 A305.7971 
N1032 X-147.002 Y32.376 Z0.439 A310.3515 
N1033 X-147.002 Y33.209 Z1.404 A315.4921 
N1034 X-147.002 Y34.013 Z2.540 A321.0981 
N1035 X-147.002 Y34.721 Z3.819 A326.9846 
N1036 X-147.002 Y35.285 Z5.215 A333.0300 
N1037 X-147.002 Y35.658 Z6.671 A339.0349 
N1038 X-147.002 Y35.811 Z8.116 A344.7933 
N1039 X-147.002 Y35.736 Z9.473 A350.0872 
N1040 X-147.002 Y35.443 Z10.643 A354.6143 
N1041 X-147.002 Y34.961 Z11.525 A358.0322 
N1042 X-147.002 Y34.328 Z12.040 A0.0431 
N1043 X-147.002 Y33.570 Z12.243 A0.8402 
N1044 X-147.002 Y32.686 Z12.295 A1.0512 
N1045 X-147.002 Y31.671 Z12.302 A1.0855 
N1046 X-147.002 Y30.523 Z12.301 A1.0865 
N1047 X-147.002 Y29.243 Z12.299 
N1048 X-147.002 Y27.838 Z12.297 
N1049 X-147.002 Y26.321 Z12.295 
N1050 X-147.002 Y24.710 Z12.292 
N1051 X-147.002 Y23.025 Z12.290 
N1052 X-147.002 Y21.291 Z12.287 
N1053 X-147.002 Y19.533 Z12.284 
N1054 X-147.002 Y17.777 Z12.282 
N1055 X-147.002 Y16.045 Z12.279 A1.0865 
N1056 X-147.002 Y14.359 Z12.280 A1.1005 
N1057 X-147.002 Y12.735 Z12.319 A1.2798 
N1058 X-147.002 Y11.176 Z12.573 A2.3857 
N1059 X-147.002 Y9.660 Z13.217 A5.2875 
N1060 X-147.002 Y8.138 Z14.148 A9.7366 
N1061 X-147.002 Y6.572 Z15.168 A15.0503 B0.0000 
N1062 X-147.002 Y4.965 Z16.115 A20.6263 B0.0069 
N1063 X-147.002 Y3.370 Z16.841 A25.8124 B0.0476 
N1064 X-147.002 Y1.838 Z17.307 A30.3349 B0.0930 
N1065 X-147.002 Y0.377 Z17.560 A34.2998 B0.1157 
N1066 X-147.002 Y-1.037 Z17.666 A37.9583 B0.1246 
N1067 X-147.002 Y-2.435 Z17.670 A41.5269 B0.1206 
N1068 X-147.002 Y-3.848 Z17.599 A45.1825 B0.1007 
N1069 X-147.002 Y-5.245 Z17.414 A48.7427 B0.0657 
N1070 X-147.002 Y-6.518 Z17.035 A51.6575 B0.0243 
N1071 X-147.002 Y-7.672 Z16.496 A53.9938 B-0.0206 
N1072 X-147.003 Y-8.875 Z15.934 A56.6256 B-0.0838 
N1073 X-147.003 Y-10.159 Z15.362 A59.7515 B-0.1716 
N1074 X-147.003 Y-11.345 Z14.678 A62.5523 B-0.2640 
N1075 X-147.004 Y-12.248 Z13.818 A64.1916 B-0.3334 
N1076 X-147.004 Y-12.852 Z12.819 A64.5743 B-0.3677 
N1077 X-147.004 Y-13.363 Z11.801 A64.5944 B-0.3890 
N1078 X-147.004 Y-13.855 Z10.811 A64.5948 B-0.4086 
N1079 X-147.004 Y-14.325 Z9.864 B-0.4274 
N1080 X-147.004 Y-14.769 Z8.969 B-0.4452 
N1081 X-147.004 Y-15.186 Z8.135 A64.6024 B-0.4620 
N1082 X-147.004 Y-15.609 Z7.386 A64.7935 B-0.4849 
N1083 X-147.005 Y-16.120 Z6.765 A65.5598 B-0.5295 
N1084 X-147.005 Y-16.725 Z6.268 A66.9425 B-0.5980 
N1085 X-147.005 Y-17.377 Z5.866 A68.7344 B-0.6830 
N1086 X-147.006 Y-18.051 Z5.538 A70.8037 B-0.7799 
N1087 X-147.006 Y-18.761 Z5.276 A73.1810 B-0.8904 
N1088 X-147.007 Y-19.557 Z5.078 A76.0547 B-1.0228 
N1089 X-147.007 Y-20.477 Z4.927 A79.5524 B-1.1828 
N1090 X-147.008 Y-21.518 Z4.787 A83.6314 B-1.3687 
N1091 X-147.009 Y-22.657 Z4.622 A88.1794 B-1.5748 
N1092 X-147.010 Y-23.859 Z4.401 A93.0588 B-1.7943 
N1093 X-147.011 Y-25.071 Z4.104 A98.0635 B-2.0174 
N1094 X-147.012 Y-26.240 Z3.730 A103.0003 B-2.2359 
N1095 X-147.013 Y-27.356 Z3.281 A107.8496 B-2.4478 
N1096 X-147.014 Y-28.478 Z2.733 A112.8899 B-2.6556 
N1097 X-147.014 Y-29.630 Z2.054 A118.2947 B-2.8412 
N1098 X-147.015 Y-30.570 Z1.368 A122.9948 B-2.9578 
N1099 X-147.015 Y-31.357 Z0.677 A127.2185 B-3.0207 
N1100 X-147.015 Y-32.167 Z-0.145 A131.8741 B-3.0555 
N1101 X-147.015 Y-33.022 Z-1.170 A137.2638 B-3.0640 
N1102 X-147.015 Y-33.841 Z-2.384 A143.1753 B-3.0382 
N1103 X-147.015 Y-34.540 Z-3.741 A149.3256 B-2.9738 
N1104 X-147.015 Y-35.065 Z-5.193 A155.5293 B-2.8726 
N1105 X-147.014 Y-35.374 Z-6.661 A161.5276 B-2.7434 
N1106 X-147.013 Y-35.450 Z-8.060 A167.0662 B-2.5998 
N1107 X-147.013 Y-35.304 Z-9.313 A171.9375 B-2.4572 
N1108 X-147.012 Y-34.959 Z-10.339 A175.9085 B-2.3314 
N1109 X-147.012 Y-34.447 Z-11.071 A178.7512 B-2.2372 
N1110 X-147.012 Y-33.800 Z-11.474 A180.3248 B-2.1836 
N1111 X-147.012 Y-33.031 Z-11.624 A180.9181 B-2.1632 
N1112 X-147.012 Y-32.137 Z-11.662 A181.0703 B-2.1583 
N1113 X-147.012 Y-31.114 Z-11.665 A181.0907 B-2.1582 
N1114 X-147.012 Y-29.959 Z-11.663 A181.0909 B-2.1588 
N1115 X-147.012 Y-28.677 Z-11.661 B-2.1594 
N1116 X-147.012 Y-27.276 Z-11.659 B-2.1601 
N1117 X-147.012 Y-25.770 Z-11.657 B-2.1609 
N1118 X-147.012 Y-24.178 Z-11.654 B-2.1617 
N1119 X-147.012 Y-22.523 Z-11.652 B-2.1626 
N1120 X-147.012 Y-20.827 Z-11.649 B-2.1635 
N1121 X-147.012 Y-19.118 Z-11.646 B-2.1644 
N1122 X-147.012 Y-17.420 Z-11.644 B-2.1652 
N1123 X-147.012 Y-15.754 Z-11.641 B-2.1661 
N1124 X-147.012 Y-14.141 Z-11.638 A181.0910 B-2.1669 
N1125 X-147.012 Y-12.594 Z-11.655 A181.1724 B-2.1656 
N1126 X-147.012 Y-11.117 Z-11.847 A182.0016 B-2.1462 
N1127 X-147.011 Y-9.688 Z-12.425 A184.5602 B-2.0885 
N1128 X-147.011 Y-8.243 Z-13.415 A189.1448 B-1.9832 
N1129 X-147.010 Y-6.710 Z-14.608 A195.0950 B-1.8269 
N1130 X-147.009 Y-5.060 Z-15.799 A201.7141 B-1.5673 
N1131 X-147.008 Y-3.354 Z-16.755 A208.0813 B-1.2284 
N1132 X-147.006 Y-1.672 Z-17.392 A213.7376 B-0.9127 
N1133 X-147.005 Y-0.052 Z-17.739 A218.6920 B-0.6512 
N1134 X-147.004 Y1.481 Z-17.828 A222.9630 B-0.4382 
N1135 X-147.003 Y2.902 Z-17.679 A226.5215 B-0.2701 
N1136 X-147.003 Y4.216 Z-17.333 A229.4718 B-0.1395 
N1137 X-147.003 Y5.416 Z-16.814 A231.8268 B-0.0436 
N1138 X-147.002 Y6.502 Z-16.143 A233.6039 B0.0209 
N1139 X-147.002 Y7.568 Z-15.407 A235.3025 B0.0726 
N1140 X-147.002 Y8.699 Z-14.673 A237.3822 B0.1248 
N1141 X-147.002 Y9.804 Z-13.886 A239.4492 B0.1648 
N1142 X-147.002 Y10.711 Z-12.968 A240.6993 B0.1755 
N1143 X-147.002 Y11.389 Z-11.936 A240.9804 B0.1612 
N1144 X-147.002 Y11.992 Z-10.895 A240.9857 B0.1412 
N1145 X-147.002 Y12.570 Z-9.893 B0.1219 
N1146 X-147.002 Y13.120 Z-8.942 B0.1036 
N1147 X-147.002 Y13.634 Z-8.052 B0.0864 
N1148 X-147.002 Y14.112 Z-7.232 A241.0000 B0.0707 
N1149 X-147.002 Y14.585 Z-6.507 A241.1943 B0.0578 
N1150 X-147.002 Y15.109 Z-5.910 A241.8531 B0.0486 
N1151 X-147.002 Y15.713 Z-5.453 A243.1193 B0.0410 
N1152 X-147.002 Y16.378 Z-5.112 A244.8967 B0.0314 
N1153 X-147.002 Y17.078 Z-4.859 A247.0349 B0.0204 
N1154 X-147.002 Y17.840 Z-4.688 A249.6213 B0.0113 
N1155 X-147.002 Y18.715 Z-4.592 A252.8319 B0.0055 
N1156 X-147.002 Y19.715 Z-4.541 A256.6743 B0.0023 
N1157 X-147.002 Y20.823 Z-4.493 A261.0338 B0.0008 
N1158 X-147.002 Y22.023 Z-4.412 A265.8220 B0.0002 
N1159 X-147.002 Y23.282 Z-4.265 A270.9055 B0.0000 
N1160 X-147.002 Y24.540 Z-4.034 A276.0543 B0.0000 
N1161 X-147.002 Y25.738 Z-3.720 A281.0461 
N1162 X-147.002 Y26.872 Z-3.329 A285.8908 
N1163 X-147.002 Y28.057 Z-2.823 A291.0992 
N1164 X-147.002 Y29.307 Z-2.161 A296.8292 
N1165 X-147.002 Y30.222 Z-1.545 A301.2885 
N1166 X-147.002 Y30.992 Z-0.928 A305.2734 
N1167 X-147.002 Y31.800 Z-0.183 A309.7116 
N1168 X-147.002 Y32.659 Z0.744 A314.8190 
N1169 X-147.002 Y33.504 Z1.852 A320.4527 
N1170 X-147.002 Y34.262 Z3.116 A326.4042 
N1171 X-147.002 Y34.880 Z4.499 A332.5105 
N1172 X-147.002 Y35.306 Z5.939 A338.5417 
N1173 X-147.002 Y35.513 Z7.351 A344.2340 
N1174 X-147.002 Y35.499 Z8.662 A349.3863 
N1175 X-147.002 Y35.279 Z9.798 A353.8014 
N1176 X-147.002 Y34.881 Z10.689 A357.2538 
N1177 X-147.002 Y34.336 Z11.275 A359.5366 
N1178 X-147.002 Y33.667 Z11.558 A0.6499 
N1179 X-147.002 Y32.879 Z11.650 A1.0174 
N1180 X-147.002 Y31.968 Z11.670 A1.1006 
N1181 X-147.002 Y30.930 Z11.670 A1.1089 
N1182 X-147.002 Y29.764 Z11.668 A1.1089 
N1183 X-147.002 Y28.477 Z11.665 
N1184 X-147.002 Y27.079 Z11.663 
N1185 X-147.002 Y25.585 Z11.660 
N1186 X-147.002 Y24.017 Z11.657 
N1187 X-147.002 Y22.395 Z11.654 
N1188 X-147.002 Y20.746 Z11.651 
N1189 X-147.002 Y19.092 Z11.647 
N1190 X-147.002 Y17.459 Z11.644 
N1191 X-147.002 Y15.865 Z11.641 A1.1090 
N1192 X-147.002 Y14.327 Z11.642 A1.1223 
N1193 X-147.002 Y12.854 Z11.676 A1.2814 
N1194 X-147.002 Y11.446 Z11.920 A2.3398 
N1195 X-147.002 Y10.067 Z12.608 A5.3907 
N1196 X-147.002 Y8.635 Z13.721 A10.5729 
N1197 X-147.002 Y7.043 Z15.103 A17.4927 
N1198 X-147.002 Y5.235 Z16.509 A25.4156 B0.0037 
N1199 X-147.002 Y3.324 Z17.585 A32.9456 B0.0358 
N1200 X-147.002 Y1.462 Z18.211 A39.3944 B0.0654 
N1201 X-147.002 Y-0.248 Z18.407 A44.5625 B0.0633 
N1202 X-147.002 Y-1.718 Z18.208 A48.2596 B0.0486 
N1203 X-147.002 Y-2.902 Z17.663 A50.3888 B0.0343 
N1204 X-147.002 Y-3.976 Z16.965 A51.9240 B0.0175 
N1205 X-147.002 Y-5.000 Z16.174 A53.1869 B-0.0036 
N1206 X-147.002 Y-5.953 Z15.288 A54.0844 B-0.0247 
N1207 X-147.003 Y-6.905 Z14.371 A54.9762 B-0.0513 
N1208 X-147.003 Y-7.889 Z13.459 A56.0812 B-0.0896 
N1209 X-147.003 Y-8.818 Z12.513 A57.0229 B-0.1291 
N1210 X-147.003 Y-9.590 Z11.488 A57.3161 B-0.1501 
N1211 X-147.003 Y-10.282 Z10.459 A57.3382 B-0.1612 
N1212 X-147.003 Y-10.940 Z9.472 A57.3382 B-0.1710 
N1213 X-147.003 Y-11.558 Z8.543 B-0.1803 
N1214 X-147.003 Y-12.132 Z7.681 B-0.1889 
N1215 X-147.003 Y-12.657 Z6.895 A57.3410 B-0.1969 
N1216 X-147.003 Y-13.156 Z6.204 A57.4761 B-0.2103 
N1217 X-147.003 Y-13.707 Z5.660 A58.1353 B-0.2480 
N1218 X-147.004 Y-14.353 Z5.280 A59.5332 B-0.3212 
N1219 X-147.004 Y-15.092 Z5.043 A61.6315 B-0.4296 
N1220 X-147.005 Y-15.903 Z4.914 A64.2920 B-0.5674 
N1221 X-147.005 Y-16.774 Z4.857 A67.3943 B-0.7285 
N1222 X-147.006 Y-17.714 Z4.851 A70.9276 B-0.9124 
N1223 X-147.007 Y-18.743 Z4.872 A74.9268 B-1.1206 
N1224 X-147.008 Y-19.857 Z4.887 A79.3364 B-1.3498 
N1225 X-147.009 Y-21.033 Z4.865 A84.0366 B-1.5929 
N1226 X-147.010 Y-22.250 Z4.780 A88.9368 B-1.8439 
N1227 X-147.011 Y-23.481 Z4.616 A93.9461 B-2.0971 
N1228 X-147.012 Y-24.692 Z4.365 A98.9440 B-2.3462 
N1229 X-147.013 Y-25.868 Z4.027 A103.8911 B-2.5894 
N1230 X-147.014 Y-27.098 Z3.570 A109.2024 B-2.8384 
N1231 X-147.016 Y-28.453 Z2.928 A115.2843 B-3.0780 
N1232 X-147.016 Y-29.465 Z2.309 A120.0913 B-3.2192 
N1233 X-147.016 Y-30.248 Z1.726 A124.0368 B-3.2952 
N1234 X-147.017 Y-31.038 Z1.046 A128.2533 B-3.3468 
N1235 X-147.017 Y-31.901 Z0.184 A133.1887 B-3.3803 
N1236 X-147.017 Y-32.792 Z-0.888 A138.8301 B-3.3872 
N1237 X-147.017 Y-33.619 Z-2.136 A144.8873 B-3.3571 
N1238 X-147.016 Y-34.300 Z-3.498 A151.0392 B-3.2867 
N1239 X-147.016 Y-34.792 Z-4.917 A157.0863 B-3.1796 
N1240 X-147.015 Y-35.070 Z-6.320 A162.8177 B-3.0455 
N1241 X-147.015 Y-35.131 Z-7.631 A168.0187 B-2.8987 
N1242 X-147.014 Y-34.989 Z-8.784 A172.5184 B-2.7547 
N1243 X-147.014 Y-34.669 Z-9.726 A176.1719 B-2.6278 
N1244 X-147.013 Y-34.198 Z-10.407 A178.8249 B-2.5311 
N1245 X-147.013 Y-33.601 Z-10.795 A180.3424 B-2.4742 
N1246 X-147.013 Y-32.887 Z-10.943 A180.9287 B-2.4519 
N1247 X-147.013 Y-32.055 Z-10.979 A181.0784 B-2.4465 
N1248 X-147.013 Y-31.098 Z-10.984 A181.1027 B-2.4462 
N1249 X-147.013 Y-30.015 Z-10.982 A181.1034 B-2.4468 
N1250 X-147.013 Y-28.809 Z-10.980 B-2.4476 
N1251 X-147.013 Y-27.489 Z-10.977 B-2.4484 
N1252 X-147.013 Y-26.068 Z-10.975 B-2.4493 
N1253 X-147.013 Y-24.564 Z-10.972 B-2.4502 
N1254 X-147.013 Y-22.998 Z-10.969 B-2.4512 
N1255 X-147.013 Y-21.395 Z-10.966 B-2.4522 
N1256 X-147.013 Y-19.779 Z-10.964 B-2.4533 
N1257 X-147.013 Y-18.173 Z-10.961 A181.1034 B-2.4543 
N1258 X-147.013 Y-16.600 Z-10.958 B-2.4553 
N1259 X-147.013 Y-15.075 Z-10.955 B-2.4562 
N1260 X-147.013 Y-13.612 Z-10.954 A181.1076 B-2.4570 
N1261 X-147.013 Y-12.216 Z-11.004 A181.3291 B-2.4513 
N1262 X-147.013 Y-10.878 Z-11.314 A182.6690 B-2.4144 
N1263 X-147.012 Y-9.547 Z-12.129 A186.2791 B-2.3134 
N1264 X-147.011 Y-8.090 Z-13.513 A192.6976 B-2.1161 
N1265 X-147.010 Y-6.325 Z-15.272 A201.5458 B-1.7747 
N1266 X-147.008 Y-4.188 Z-16.983 A211.5733 B-1.2375 
N1267 X-147.005 Y-1.973 Z-18.091 A220.4433 B-0.6991 
N1268 X-147.004 Y0.067 Z-18.548 A227.4709 B-0.2931 
N1269 X-147.003 Y1.706 Z-18.396 A232.0959 B-0.0456 
N1270 X-147.002 Y2.731 Z-17.656 A233.5286 B0.0251 
N1271 X-147.002 Y3.505 Z-16.676 A233.6079 B0.0270 
N1272 X-147.002 Y4.286 Z-15.653 B0.0250 
N1273 X-147.002 Y5.089 Z-14.603 B0.0230 
N1274 X-147.002 Y5.907 Z-13.533 B0.0209 
N1275 X-147.002 Y6.731 Z-12.455 B0.0188 
N1276 X-147.002 Y7.551 Z-11.382 B0.0168 
N1277 X-147.002 Y8.357 Z-10.328 B0.0147 
N1278 X-147.002 Y9.135 Z-9.309 B0.0128 
N1279 X-147.002 Y9.877 Z-8.339 B0.0109 
N1280 X-147.002 Y10.572 Z-7.429 B0.0091 
N1281 X-147.002 Y11.213 Z-6.591 B0.0075 
N1282 X-147.002 Y11.797 Z-5.832 A233.6204 B0.0062 
N1283 X-147.002 Y12.352 Z-5.179 A233.8051 B0.0063 
N1284 X-147.002 Y12.944 Z-4.680 A234.5119 B0.0091 
N1285 X-147.002 Y13.639 Z-4.370 A236.0650 B0.0135 
N1286 X-147.002 Y14.436 Z-4.223 A238.4202 B0.0158 
N1287 X-147.002 Y15.304 Z-4.186 A241.3581 B0.0140 
N1288 X-147.002 Y16.238 Z-4.224 A244.7813 B0.0099 
N1289 X-147.002 Y17.248 Z-4.310 A248.6650 B0.0057 
N1290 X-147.002 Y18.331 Z-4.409 A252.9348 B0.0027 
N1291 X-147.002 Y19.470 Z-4.489 A257.4722 B0.0009 
N1292 X-147.002 Y20.654 Z-4.524 A262.2215 B0.0002 
N1293 X-147.002 Y21.874 Z-4.495 A267.1340 B0.0000 
N1294 X-147.002 Y23.100 Z-4.385 A272.1031 B0.0000 
N1295 X-147.002 Y24.302 Z-4.190 A277.0278 
N1296 X-147.002 Y25.549 Z-3.892 A282.2215 
N1297 X-147.002 Y27.178 Z-3.355 A289.1805 
N1298 X-147.002 Y28.492 Z-2.746 A295.0552 
N1299 X-147.002 Y29.306 Z-2.255 A298.9029 
N1300 X-147.002 Y30.095 Z-1.704 A302.7983 
N1301 X-147.002 Y30.950 Z-1.018 A307.2351 
N1302 X-147.002 Y31.860 Z-0.157 A312.3118 
N1303 X-147.002 Y32.770 Z0.885 A317.9135 
N1304 X-147.002 Y33.609 Z2.086 A323.8458 
N1305 X-147.002 Y34.315 Z3.405 A329.8950 
N1306 X-147.002 Y34.845 Z4.789 A335.8738 
N1307 X-147.002 Y35.170 Z6.167 A341.5577 
N1308 X-147.002 Y35.283 Z7.464 A346.7407 
N1309 X-147.002 Y35.197 Z8.622 A351.2715 
N1310 X-147.002 Y34.934 Z9.593 A355.0396 
N1311 X-147.002 Y34.517 Z10.334 A357.9116 
N1312 X-147.002 Y33.970 Z10.797 A359.7118 
N1313 X-147.002 Y33.305 Z11.003 A0.5093 
N1314 X-147.002 Y32.523 Z11.065 A0.7419 
N1315 X-147.002 Y31.618 Z11.080 A0.7884 
N1316 X-147.002 Y30.588 Z11.085 A0.7921 
N1317 X-147.002 Y29.433 Z11.089 
N1318 X-147.002 Y28.162 Z11.093 
N1319 X-147.002 Y26.785 Z11.098 
N1320 X-147.002 Y25.320 Z11.104 
N1321 X-147.002 Y23.785 Z11.109 
N1322 X-147.002 Y22.204 Z11.115 
N1323 X-147.002 Y20.602 Z11.121 
N1324 X-147.002 Y19.003 Z11.127 
N1325 X-147.002 Y17.427 Z11.132 
N1326 X-147.002 Y15.895 Z11.138 A0.7922 
N1327 X-147.002 Y14.418 Z11.145 A0.8010 
N1328 X-147.002 Y13.007 Z11.179 A0.9192 
N1329 X-147.002 Y11.657 Z11.406 A1.8666 
N1330 X-147.002 Y10.334 Z12.113 A4.9421 
N1331 X-147.002 Y8.930 Z13.347 A10.5764 
N1332 X-147.002 Y7.279 Z14.999 A18.6674 B0.0000 
N1333 X-147.002 Y5.256 Z16.756 A28.4193 B0.0033 
N1334 X-147.002 Y3.066 Z18.030 A37.5406 B0.0306 
N1335 X-147.002 Y0.996 Z18.649 A44.9119 B0.0437 
N1336 X-147.002 Y-0.766 Z18.677 A50.2038 B0.0236 
N1337 X-147.002 Y-2.049 Z18.162 A52.9213 B0.0009 
N1338 X-147.002 Y-2.884 Z17.240 A53.3099 B-0.0045 
N1339 X-147.002 Y-3.666 Z16.230 A53.3162 B-0.0055 
N1340 X-147.002 Y-4.469 Z15.191 B-0.0065 
N1341 X-147.002 Y-5.289 Z14.130 B-0.0074 
N1342 X-147.002 Y-6.117 Z13.058 B-0.0084 
N1343 X-147.002 Y-6.944 Z11.987 B-0.0094 
N1344 X-147.002 Y-7.760 Z10.931 B-0.0104 
N1345 X-147.002 Y-8.551 Z9.906 B-0.0114 
N1346 X-147.002 Y-9.309 Z8.926 B-0.0123 
N1347 X-147.002 Y-10.021 Z8.003 B-0.0131 
N1348 X-147.002 Y-10.682 Z7.148 B-0.0139 
N1349 X-147.002 Y-11.284 Z6.369 A53.3163 B-0.0147 
N1350 X-147.002 Y-11.838 Z5.681 A53.3902 B-0.0190 
N1351 X-147.003 Y-12.427 Z5.147 A53.9752 B-0.0491 
N1352 X-147.003 Y-13.114 Z4.803 A55.3922 B-0.1228 
N1353 X-147.003 Y-13.888 Z4.618 A57.5539 B-0.2367 
N1354 X-147.004 Y-14.737 Z4.557 A60.3429 B-0.3855 
N1355 X-147.005 Y-15.654 Z4.580 A63.6448 B-0.5633 
N1356 X-147.006 Y-16.633 Z4.653 A67.3598 B-0.7646 
N1357 X-147.007 Y-17.682 Z4.750 A71.4666 B-0.9879 
N1358 X-147.008 Y-18.804 Z4.842 A75.9301 B-1.2309 
N1359 X-147.009 Y-19.978 Z4.896 A80.6315 B-1.4862 
N1360 X-147.010 Y-21.182 Z4.891 A85.4732 B-1.7475 
N1361 X-147.011 Y-22.399 Z4.811 A90.3969 B-2.0104 
N1362 X-147.012 Y-23.611 Z4.646 A95.3395 B-2.2711 
N1363 X-147.013 Y-24.801 Z4.393 A100.2653 B-2.5282 
N1364 X-147.014 Y-26.079 Z4.019 A105.6591 B-2.8002 
N1365 X-147.016 Y-27.659 Z3.396 A112.5523 B-3.0975 
N1366 X-147.016 Y-28.805 Z2.782 A117.8252 B-3.2729 
N1367 X-147.017 Y-29.595 Z2.253 A121.6749 B-3.3612 
N1368 X-147.017 Y-30.367 Z1.656 A125.6218 B-3.4231 
N1369 X-147.017 Y-31.209 Z0.904 A130.1918 B-3.4702 
N1370 X-147.017 Y-32.113 Z-0.051 A135.5191 B-3.4967 
N1371 X-147.017 Y-33.001 Z-1.205 A141.4168 B-3.4909 
N1372 X-147.017 Y-33.781 Z-2.504 A147.5481 B-3.4449 
N1373 X-147.017 Y-34.389 Z-3.880 A153.6255 B-3.3590 
N1374 X-147.016 Y-34.796 Z-5.274 A159.4673 B-3.2399 
N1375 X-147.016 Y-34.989 Z-6.615 A164.8828 B-3.0996 
N1376 X-147.015 Y-34.976 Z-7.837 A169.6953 B-2.9527 
N1377 X-147.014 Y-34.777 Z-8.884 A173.7676 B-2.8140 
N1378 X-147.014 Y-34.415 Z-9.716 A176.9906 B-2.6961 
N1379 X-147.014 Y-33.914 Z-10.285 A179.2016 B-2.6114 
N1380 X-147.013 Y-33.292 Z-10.571 A180.3160 B-2.5668 
N1381 X-147.013 Y-32.555 Z-10.665 A180.6699 B-2.5511 
N1382 X-147.013 Y-31.696 Z-10.687 A180.7430 B-2.5464 
N1383 X-147.013 Y-30.713 Z-10.693 A180.7519 B-2.5441 
N1384 X-147.013 Y-29.604 Z-10.698 A180.7520 B-2.5419 
N1385 X-147.013 Y-28.375 Z-10.703 B-2.5395 
N1386 X-147.013 Y-27.036 Z-10.709 B-2.5369 
N1387 X-147.013 Y-25.601 Z-10.716 A180.7520 B-2.5341 
N1388 X-147.013 Y-24.090 Z-10.722 B-2.5311 
N1389 X-147.013 Y-22.525 Z-10.729 B-2.5281 
N1390 X-147.013 Y-20.932 Z-10.736 A180.7520 B-2.5249 
N1391 X-147.013 Y-19.334 Z-10.743 B-2.5218 
N1392 X-147.013 Y-17.757 Z-10.750 B-2.5187 
N1393 X-147.013 Y-16.221 Z-10.756 A180.7520 B-2.5157 
N1394 X-147.013 Y-14.745 Z-10.763 B-2.5128 
N1395 X-147.013 Y-13.341 Z-10.772 A180.7650 B-2.5096 
N1396 X-147.013 Y-12.014 Z-10.854 A181.0867 B-2.4974 
N1397 X-147.013 Y-10.759 Z-11.210 A182.5934 B-2.4524 
N1398 X-147.012 Y-9.527 Z-12.028 A186.1891 B-2.3477 
N1399 X-147.012 Y-8.209 Z-13.319 A192.1292 B-2.1608 
N1400 X-147.010 Y-6.676 Z-14.901 A199.9447 B-1.8645 
N1401 X-147.008 Y-4.875 Z-16.478 A208.7303 B-1.4165 
N1402 X-147.006 Y-2.991 Z-17.634 A216.7656 B-0.9298 
N1403 X-147.005 Y-1.219 Z-18.278 A223.3462 B-0.5312 
N1404 X-147.003 Y0.335 Z-18.481 A228.3940 B-0.2433 
N1405 X-147.003 Y1.585 Z-18.303 A231.7674 B-0.0625 
N1406 X-147.002 Y2.453 Z-17.772 A233.1944 B0.0094 
N1407 X-147.002 Y3.085 Z-17.044 A233.4221 B0.0195 
N1408 X-147.002 Y3.680 Z-16.272 A233.4235 B0.0186 
N1409 X-147.002 Y4.281 Z-15.491 B0.0175 
N1410 X-147.002 Y4.885 Z-14.706 B0.0165 
N1411 X-146.999 Y12.916 Z-20.665 
N1412 G00 X-146.985 Y53.069 Z-50.460 
N1413 X-157.169 Y87.412 Z-29.449 A271.1015 B0.0000 
N1414 X-157.169 Y37.421 Z-30.410 
N1415 G01 X-157.169 Y27.423 Z-30.602 F2835 
N1416 X-157.169 Y27.418 Z-27.372 
N1417 X-157.169 Y27.412 Z-24.199 
N1418 X-157.169 Y27.407 Z-21.135 
N1419 X-157.169 Y27.401 Z-18.227 
N1420 X-157.169 Y27.397 Z-15.513 
N1421 X-157.169 Y27.392 Z-13.024 
N1422 X-157.169 Y27.388 Z-10.776 
N1423 X-157.169 Y27.385 Z-8.780 
N1424 X-157.169 Y27.382 Z-7.033 A271.1022 
N1425 X-157.169 Y27.395 Z-5.525 A271.1707 
N1426 X-157.169 Y27.515 Z-4.236 A271.6883 
N1427 X-157.169 Y27.963 Z-3.128 A273.6240 
N1428 X-157.169 Y28.857 Z-2.126 A277.5565 
N1429 X-157.169 Y30.037 Z-1.137 A282.9269 
N1430 X-157.169 Y31.371 Z-0.082 A289.2710 
N1431 X-157.169 Y32.788 Z1.114 A296.4213 
N1432 X-157.169 Y34.202 Z2.504 A304.1997 
N1433 X-157.169 Y35.475 Z4.072 A312.1740 
N1434 X-157.169 Y36.504 Z5.763 A319.9986 
N1435 X-157.169 Y37.241 Z7.514 A327.4810 
N1436 X-157.169 Y37.680 Z9.287 A334.6213 
N1437 X-157.169 Y37.809 Z11.023 A341.3247 
N1438 X-157.169 Y37.622 Z12.630 A347.3722 
N1439 X-157.169 Y37.140 Z14.033 A352.5994 
N1440 X-157.169 Y36.390 Z15.138 A356.7362 
N1441 X-157.169 Y35.412 Z15.853 A359.4504 
N1442 X-157.169 Y34.238 Z16.149 A0.5804 
N1443 X-157.169 Y32.874 Z16.197 A0.7456 
N1444 X-157.169 Y31.310 Z16.204 A0.7467 
N1445 X-157.169 Y29.541 Z16.212 
N1446 X-157.169 Y27.568 Z16.220 
N1447 X-157.169 Y25.404 Z16.230 
N1448 X-157.169 Y23.067 Z16.240 
N1449 X-157.169 Y20.587 Z16.251 
N1450 X-157.169 Y17.998 Z16.263 
N1451 X-157.169 Y15.344 Z16.275 
N1452 X-157.169 Y12.668 Z16.286 
N1453 X-157.169 Y10.018 Z16.298 
N1454 X-157.169 Y7.438 Z16.309 
N1455 X-157.169 Y4.970 Z16.320 
N1456 X-157.169 Y2.648 Z16.331 
N1457 X-157.169 Y0.500 Z16.340 
N1458 X-157.169 Y-1.454 Z16.349 
N1459 X-157.169 Y-3.205 Z16.357 
N1460 X-157.169 Y-4.751 Z16.370 A0.7750 
N1461 X-157.169 Y-6.099 Z16.467 A1.1576 
N1462 X-157.169 Y-7.268 Z16.789 A2.5289 
N1463 X-157.169 Y-8.301 Z17.435 A5.3530 
N1464 X-157.169 Y-9.269 Z18.390 A9.6457 B0.0000 
N1465 X-157.169 Y-10.239 Z19.526 A14.9345 B0.0004 
N1466 X-157.169 Y-11.265 Z20.749 A20.8974 B0.0029 
N1467 X-157.169 Y-12.386 Z21.993 A27.3372 B0.0097 
N1468 X-157.169 Y-13.623 Z23.191 A34.0543 B0.0182 
N1469 X-157.169 Y-14.975 Z24.280 A40.8804 B0.0195 
N1470 X-157.169 Y-16.405 Z25.194 A47.5702 B0.0101 
N1471 X-157.169 Y-17.888 Z25.909 A54.0504 B-0.0017 
N1472 X-157.169 Y-19.429 Z26.428 A60.4309 B-0.0083 
N1473 X-157.169 Y-20.985 Z26.727 A66.6047 B-0.0090 
N1474 X-157.169 Y-22.486 Z26.784 A72.3691 B-0.0063 
N1475 X-157.169 Y-23.893 Z26.608 A77.6734 B-0.0030 
N1476 X-157.169 Y-25.166 Z26.213 A82.4511 B-0.0008 
N1477 X-157.169 Y-26.208 Z25.615 A86.3872 B-0.0001 
N1478 X-157.169 Y-26.912 Z24.849 A89.0731 B-0.0000 
N1479 X-157.169 Y-27.286 Z23.951 A90.5215 B-0.0000 
N1480 X-157.169 Y-27.436 Z22.940 A91.1258 B-0.0001 
N1481 X-157.169 Y-27.472 Z21.823 A91.2868 B-0.0006 
N1482 X-157.169 Y-27.469 Z20.603 A91.3021 B-0.0030 
N1483 X-157.169 Y-27.462 Z19.289 A91.3021 B-0.0089 
N1484 X-157.169 Y-27.455 Z17.896 B-0.0187 
N1485 X-157.169 Y-27.447 Z16.444 B-0.0321 
N1486 X-157.169 Y-27.439 Z14.953 B-0.0486 
N1487 X-157.169 Y-27.431 Z13.449 B-0.0684 
N1488 X-157.170 Y-27.423 Z11.956 B-0.0900 
N1489 X-157.170 Y-27.416 Z10.499 B-0.1102 
N1490 X-157.170 Y-27.408 Z9.101 B-0.1248 
N1491 X-157.170 Y-27.401 Z7.780 B-0.1340 
N1492 X-157.170 Y-27.396 Z6.553 A91.3058 B-0.1412 
N1493 X-157.170 Y-27.402 Z5.428 A91.3564 B-0.1482 
N1494 X-157.170 Y-27.463 Z4.411 A91.6366 B-0.1573 
N1495 X-157.170 Y-27.703 Z3.495 A92.6806 B-0.1737 
N1496 X-157.170 Y-28.245 Z2.658 A95.0400 B-0.2046 
N1497 X-157.170 Y-29.062 Z1.855 A98.6697 B-0.2558 
N1498 X-157.171 Y-30.068 Z1.037 A103.2652 B-0.3309 
N1499 X-157.171 Y-31.198 Z0.158 A108.6204 B-0.4317 
N1500 X-157.172 Y-32.401 Z-0.828 A114.6057 B-0.5563 
N1501 X-157.172 Y-33.633 Z-1.963 A121.1560 B-0.6932 
N1502 X-157.173 Y-34.823 Z-3.267 A128.1175 B-0.8038 
N1503 X-157.173 Y-35.877 Z-4.720 A135.2153 B-0.8324 
N1504 X-157.172 Y-36.733 Z-6.288 A142.2771 B-0.7761 
N1505 X-157.172 Y-37.356 Z-7.942 A149.2321 B-0.6741 
N1506 X-157.172 Y-37.721 Z-9.648 A156.0422 B-0.5595 
N1507 X-157.171 Y-37.793 Z-11.330 A162.5080 B-0.4514 
N1508 X-157.171 Y-37.563 Z-12.893 A168.3805 B-0.3591 
N1509 X-157.170 Y-37.043 Z-14.248 A173.4388 B-0.2878 
N1510 X-157.170 Y-36.261 Z-15.287 A177.3430 B-0.2401 
N1511 X-157.170 Y-35.259 Z-15.925 A179.7711 B-0.2148 
N1512 X-157.170 Y-34.064 Z-16.162 A180.6788 B-0.2050 
N1513 X-157.170 Y-32.678 Z-16.194 A180.7850 B-0.2005 
N1514 X-157.170 Y-31.090 Z-16.200 A180.7852 B-0.1959 
N1515 X-157.170 Y-29.297 Z-16.207 B-0.1908 
N1516 X-157.170 Y-27.300 Z-16.214 B-0.1850 
N1517 X-157.170 Y-25.114 Z-16.223 B-0.1788 
N1518 X-157.170 Y-22.758 Z-16.231 B-0.1720 
N1519 X-157.170 Y-20.263 Z-16.241 B-0.1649 
N1520 X-157.170 Y-17.664 Z-16.251 B-0.1574 
N1521 X-157.170 Y-15.005 Z-16.261 B-0.1498 
N1522 X-157.170 Y-12.331 Z-16.271 B-0.1421 
N1523 X-157.170 Y-9.688 Z-16.280 B-0.1331 
N1524 X-157.170 Y-7.122 Z-16.290 B-0.1200 
N1525 X-157.170 Y-4.671 Z-16.299 B-0.1047 
N1526 X-157.170 Y-2.372 Z-16.308 B-0.0896 
N1527 X-157.169 Y-0.250 Z-16.316 A180.7851 B-0.0726 
N1528 X-157.169 Y1.677 Z-16.323 B-0.0553 
N1529 X-157.169 Y3.400 Z-16.330 A180.7852 B-0.0409 
N1530 X-157.169 Y4.917 Z-16.346 A180.8300 B-0.0300 
N1531 X-157.169 Y6.238 Z-16.461 A181.2957 B-0.0227 
N1532 X-157.169 Y7.384 Z-16.814 A182.8041 B-0.0217 
N1533 X-157.169 Y8.401 Z-17.495 A185.7936 B-0.0303 
N1534 X-157.169 Y9.360 Z-18.472 A190.2011 B-0.0491 
N1535 X-157.169 Y10.326 Z-19.612 A195.5343 B-0.0728 
N1536 X-157.170 Y11.351 Z-20.831 A201.5098 B-0.0895 
N1537 X-157.170 Y12.470 Z-22.062 A207.9174 B-0.0903 
N1538 X-157.169 Y13.714 Z-23.256 A214.6549 B-0.0762 
N1539 X-157.169 Y15.113 Z-24.382 A221.7385 B-0.0499 
N1540 X-157.169 Y16.606 Z-25.324 A228.7164 B-0.0181 
N1541 X-157.169 Y18.123 Z-26.024 A235.3008 B0.0082 
N1542 X-157.169 Y19.669 Z-26.506 A241.6553 B0.0230 
N1543 X-157.169 Y21.216 Z-26.761 A247.7541 B0.0250 
N1544 X-157.169 Y22.701 Z-26.776 A253.4359 B0.0181 
N1545 X-157.169 Y24.086 Z-26.562 A258.6534 B0.0092 
N1546 X-157.169 Y25.325 Z-26.131 A263.3130 B0.0031 
N1547 X-157.169 Y26.314 Z-25.503 A267.0588 B0.0007 
N1548 X-157.169 Y26.946 Z-24.714 A269.4779 B0.0001 
N1549 X-157.169 Y27.251 Z-23.800 A270.6642 B0.0000 
N1550 X-157.169 Y27.361 Z-22.775 A271.1066 B0.0000 
N1551 X-157.169 Y27.384 Z-21.644 A271.2131 
N1552 X-157.169 Y27.382 Z-20.411 A271.2216 
N1553 X-157.169 Y27.376 Z-19.088 
N1554 X-157.169 Y27.371 Z-17.689 
N1555 X-157.169 Y27.365 Z-16.234 
N1556 X-157.169 Y27.360 Z-14.745 
N1557 X-157.169 Y27.354 Z-13.247 
N1558 X-157.169 Y27.348 Z-11.765 
N1559 X-157.169 Y27.342 Z-10.323 
N1560 X-157.169 Y27.337 Z-8.943 
N1561 X-157.169 Y27.332 Z-7.643 
N1562 X-157.169 Y27.329 Z-6.438 A271.2290 
N1563 X-157.169 Y27.346 Z-5.337 A271.3189 
N1564 X-157.169 Y27.439 Z-4.343 A271.7287 
N1565 X-157.169 Y27.732 Z-3.448 A273.0002 
N1566 X-157.169 Y28.334 Z-2.623 A275.6272 
N1567 X-157.169 Y29.200 Z-1.822 A279.4858 
N1568 X-157.169 Y30.229 Z-1.000 A284.2180 
N1569 X-157.169 Y31.361 Z-0.112 A289.6274 
N1570 X-157.169 Y32.559 Z0.886 A295.6468 
N1571 X-157.169 Y33.781 Z2.038 A302.2275 
N1572 X-157.169 Y34.937 Z3.346 A309.1168 
N1573 X-157.169 Y35.953 Z4.795 A316.1176 
N1574 X-157.169 Y36.773 Z6.352 A323.0700 
N1575 X-157.169 Y37.359 Z7.982 A329.8805 
N1576 X-157.169 Y37.694 Z9.658 A336.5452 
N1577 X-157.169 Y37.747 Z11.313 A342.8951 
N1578 X-157.169 Y37.506 Z12.852 A348.6806 
N1579 X-157.169 Y36.983 Z14.188 A353.6749 
N1580 X-157.169 Y36.206 Z15.214 A357.5399 
N1581 X-157.169 Y35.212 Z15.845 A359.9558 
N1582 X-157.169 Y34.032 Z16.081 A0.8772 
N1583 X-157.169 Y32.665 Z16.111 A0.9919 
N1584 X-157.169 Y31.102 Z16.111 A0.9922 
N1585 X-157.169 Y29.339 Z16.111 
N1586 X-157.169 Y27.379 Z16.111 
N1587 X-157.169 Y25.235 Z16.112 
N1588 X-157.169 Y22.927 Z16.112 
N1589 X-157.169 Y20.484 Z16.112 
N1590 X-157.169 Y17.943 Z16.113 
N1591 X-157.169 Y15.343 Z16.113 A0.9923 
N1592 X-157.169 Y12.729 Z16.114 A0.9962 
N1593 X-157.169 Y10.145 Z16.132 A1.0738 
N1594 X-157.169 Y7.635 Z16.174 A1.2726 
N1595 X-157.169 Y5.237 Z16.209 A1.4797 
N1596 X-157.169 Y2.985 Z16.236 A1.6790 
N1597 X-157.169 Y0.904 Z16.259 A1.8914 
N1598 X-157.169 Y-0.989 Z16.279 A2.1063 
N1599 X-157.169 Y-2.684 Z16.279 A2.2490 
N1600 X-157.169 Y-4.180 Z16.272 A2.3565 
N1601 X-157.169 Y-5.490 Z16.358 A2.8476 
N1602 X-157.169 Y-6.639 Z16.703 A4.4529 B0.0003 
N1603 X-157.169 Y-7.678 Z17.385 A7.5719 B0.0024 
N1604 X-157.169 Y-8.680 Z18.369 A12.1405 B0.0094 
N1605 X-157.169 Y-9.709 Z19.522 A17.6873 B0.0228 
N1606 X-157.169 Y-10.806 Z20.730 A23.8119 B0.0398 
N1607 X-157.169 Y-11.993 Z21.912 A30.2419 B0.0527 
N1608 X-157.169 Y-13.277 Z23.009 A36.8071 B0.0525 
N1609 X-157.169 Y-14.654 Z23.979 A43.3967 B0.0372 
N1610 X-157.169 Y-16.091 Z24.771 A49.8230 B0.0130 
N1611 X-157.169 Y-17.574 Z25.373 A56.0781 B-0.0125 
N1612 X-157.169 Y-19.109 Z25.785 A62.2630 B-0.0359 
N1613 X-157.169 Y-20.646 Z25.979 A68.2345 B-0.0560 
N1614 X-157.169 Y-22.127 Z25.939 A73.8428 B-0.0727 
N1615 X-157.170 Y-23.512 Z25.673 A79.0204 B-0.0866 
N1616 X-157.170 Y-24.720 Z25.189 A83.5346 B-0.0986 
N1617 X-157.170 Y-25.630 Z24.512 A86.9427 B-0.1090 
N1618 X-157.170 Y-26.180 Z23.684 A89.0054 B-0.1184 
N1619 X-157.170 Y-26.445 Z22.737 A89.9858 B-0.1277 
N1620 X-157.170 Y-26.542 Z21.686 A90.3185 B-0.1373 
N1621 X-157.170 Y-26.568 Z20.535 A90.3734 B-0.1475 
N1622 X-157.170 Y-26.582 Z19.293 A90.3746 B-0.1583 
N1623 X-157.170 Y-26.596 Z17.974 B-0.1698 
N1624 X-157.170 Y-26.611 Z16.593 B-0.1818 
N1625 X-157.170 Y-26.627 Z15.170 B-0.1942 
N1626 X-157.170 Y-26.643 Z13.730 B-0.2067 
N1627 X-157.170 Y-26.658 Z12.295 A90.3748 B-0.2192 
N1628 X-157.170 Y-26.675 Z10.888 A90.3786 B-0.2316 
N1629 X-157.170 Y-26.694 Z9.533 A90.3990 B-0.2441 
N1630 X-157.170 Y-26.721 Z8.248 A90.4563 B-0.2569 
N1631 X-157.170 Y-26.750 Z7.048 A90.5313 B-0.2695 
N1632 X-157.170 Y-26.780 Z5.946 A90.6191 B-0.2814 
N1633 X-157.170 Y-26.858 Z4.946 A90.9170 B-0.2948 
N1634 X-157.170 Y-27.074 Z4.048 A91.8105 B-0.3146 
N1635 X-157.171 Y-27.535 Z3.234 A93.7802 B-0.3486 
N1636 X-157.171 Y-28.271 Z2.470 A96.9948 B-0.4033 
N1637 X-157.171 Y-29.219 Z1.706 A101.2411 B-0.4820 
N1638 X-157.172 Y-30.315 Z0.894 A106.3108 B-0.5858 
N1639 X-157.172 Y-31.503 Z-0.009 A112.0376 B-0.7129 
N1640 X-157.173 Y-32.742 Z-1.049 A118.3639 B-0.8552 
N1641 X-157.173 Y-33.962 Z-2.248 A125.1173 B-0.9869 
N1642 X-157.174 Y-35.078 Z-3.598 A132.0566 B-1.0597 
N1643 X-157.174 Y-36.020 Z-5.068 A138.9770 B-1.0458 
N1644 X-157.173 Y-36.748 Z-6.621 A145.7609 B-0.9686 
N1645 X-157.173 Y-37.246 Z-8.240 A152.4184 B-0.8623 
N1646 X-157.172 Y-37.495 Z-9.901 A158.9558 B-0.7496 
N1647 X-157.172 Y-37.465 Z-11.530 A165.1864 B-0.6440 
N1648 X-157.172 Y-37.147 Z-13.029 A170.8348 B-0.5538 
N1649 X-157.171 Y-36.553 Z-14.273 A175.5243 B-0.4853 
N1650 X-157.171 Y-35.721 Z-15.134 A178.8018 B-0.4423 
N1651 X-157.171 Y-34.694 Z-15.580 A180.5271 B-0.4228 
N1652 X-157.171 Y-33.491 Z-15.706 A181.0248 B-0.4181 
N1653 X-157.171 Y-32.103 Z-15.713 A181.0602 B-0.4180 
N1654 X-157.171 Y-30.522 Z-15.712 B-0.4182 
N1655 X-157.171 Y-28.746 Z-15.710 B-0.4183 
N1656 X-157.171 Y-26.781 Z-15.708 B-0.4185 
N1657 X-157.171 Y-24.643 Z-15.705 B-0.4187 
N1658 X-157.171 Y-22.353 Z-15.703 B-0.4190 
N1659 X-157.171 Y-19.941 Z-15.701 B-0.4192 
N1660 X-157.171 Y-17.445 Z-15.698 B-0.4194 
N1661 X-157.171 Y-14.904 Z-15.695 B-0.4197 
N1662 X-157.171 Y-12.361 Z-15.694 A181.0649 B-0.4199 
N1663 X-157.171 Y-9.861 Z-15.714 A181.1646 B-0.4206 
N1664 X-157.171 Y-7.441 Z-15.787 A181.5171 B-0.4239 
N1665 X-157.171 Y-5.139 Z-15.862 A181.9419 B-0.4324 
N1666 X-157.171 Y-2.986 Z-15.901 A182.2700 B-0.4409 
N1667 X-157.171 Y-1.003 Z-15.945 A182.6504 B-0.4322 
N1668 X-157.171 Y0.797 Z-15.993 A183.0826 B-0.4082 
N1669 X-157.171 Y2.404 Z-15.999 A183.3611 B-0.3849 
N1670 X-157.171 Y3.821 Z-15.995 A183.5947 B-0.3654 
N1671 X-157.171 Y5.066 Z-16.122 A184.3659 B-0.3473 
N1672 X-157.171 Y6.176 Z-16.547 A186.4188 B-0.3280 
N1673 X-157.170 Y7.213 Z-17.331 A190.0989 B-0.3060 
N1674 X-157.170 Y8.257 Z-18.405 A195.2243 B-0.2796 
N1675 X-157.170 Y9.361 Z-19.605 A201.2040 B-0.2474 
N1676 X-157.170 Y10.540 Z-20.790 A207.5242 B-0.2091 
N1677 X-157.170 Y11.794 Z-21.882 A213.9024 B-0.1647 
N1678 X-157.170 Y13.140 Z-22.873 A220.3813 B-0.1127 
N1679 X-157.169 Y14.583 Z-23.733 A226.9270 B-0.0539 
N1680 X-157.169 Y16.054 Z-24.387 A233.1862 B0.0016 
N1681 X-157.169 Y17.552 Z-24.840 A239.2397 B0.0471 
N1682 X-157.169 Y19.078 Z-25.097 A245.1806 B0.0825 
N1683 X-157.169 Y20.590 Z-25.135 A250.9020 B0.1086 
N1684 X-157.169 Y22.046 Z-24.949 A256.3258 B0.1269 
N1685 X-157.169 Y23.352 Z-24.534 A261.1606 B0.1385 
N1686 X-157.169 Y24.364 Z-23.908 A264.8885 B0.1435 
N1687 X-157.169 Y24.996 Z-23.114 A267.1739 B0.1428 
N1688 X-157.169 Y25.314 Z-22.194 A268.2574 B0.1381 
N1689 X-157.169 Y25.451 Z-21.169 A268.6276 B0.1310 
N1690 X-157.169 Y25.512 Z-20.049 A268.6914 B0.1218 
N1691 X-157.169 Y25.561 Z-18.843 A268.6930 B0.1096 
N1692 X-157.169 Y25.612 Z-17.564 B0.0929 
N1693 X-157.169 Y25.666 Z-16.228 B0.0714 
N1694 X-157.169 Y25.721 Z-14.855 B0.0484 
N1695 X-157.169 Y25.777 Z-13.466 B0.0279 
N1696 X-157.169 Y25.833 Z-12.084 A268.6931 B0.0123 
N1697 X-157.169 Y25.888 Z-10.731 A268.6967 B0.0034 
N1698 X-157.169 Y25.947 Z-9.429 A268.7223 B0.0006 
N1699 X-157.169 Y26.020 Z-8.195 A268.8220 B0.0001 
N1700 X-157.169 Y26.100 Z-7.045 A268.9782 B0.0000 
N1701 X-157.169 Y26.176 Z-5.988 A269.1379 
N1702 X-157.169 Y26.311 Z-5.032 A269.5719 
N1703 X-157.169 Y26.604 Z-4.174 A270.7074 
N1704 X-157.169 Y27.128 Z-3.400 A272.8708 
N1705 X-157.169 Y27.897 Z-2.673 A276.1649 
N1706 X-157.169 Y28.855 Z-1.949 A280.3947 
N1707 X-157.169 Y29.939 Z-1.184 A285.3445 
N1708 X-157.169 Y31.098 Z-0.340 A290.8508 
N1709 X-157.169 Y32.305 Z0.624 A296.8923 
N1710 X-157.169 Y33.512 Z1.739 A303.3793 
N1711 X-157.169 Y34.619 Z2.985 A309.9878 
N1712 X-157.169 Y35.592 Z4.359 A316.6757 
N1713 X-157.169 Y36.382 Z5.834 A323.3103 
N1714 X-157.169 Y36.958 Z7.375 A329.8010 
N1715 X-157.169 Y37.308 Z8.974 A336.2108 
N1716 X-157.169 Y37.409 Z10.590 A342.4708 
N1717 X-157.169 Y37.233 Z12.132 A348.3179 
N1718 X-157.169 Y36.782 Z13.489 A353.4318 
N1719 X-157.169 Y36.079 Z14.527 A357.3627 
N1720 X-157.169 Y35.169 Z15.159 A359.7807 
N1721 X-157.169 Y34.082 Z15.422 A0.8053 
N1722 X-157.169 Y32.821 Z15.471 A0.9960 
N1723 X-157.169 Y31.377 Z15.472 A1.0001 
N1724 X-157.169 Y29.745 Z15.472 
N1725 X-157.169 Y27.926 Z15.472 
N1726 X-157.169 Y25.931 Z15.472 
N1727 X-157.169 Y23.778 Z15.472 
N1728 X-157.169 Y21.492 Z15.472 
N1729 X-157.169 Y19.104 Z15.472 
N1730 X-157.169 Y16.652 Z15.472 
N1731 X-157.169 Y14.175 Z15.473 A1.0042 
N1732 X-157.169 Y11.715 Z15.495 A1.0986 
N1733 X-157.169 Y9.310 Z15.605 A1.5981 
N1734 X-157.169 Y6.995 Z15.753 A2.3613 
N1735 X-157.169 Y4.806 Z15.858 A3.0542 
N1736 X-157.169 Y2.767 Z15.938 A3.7217 
N1737 X-157.169 Y0.895 Z16.005 A4.3989 B0.0000 
N1738 X-157.169 Y-0.796 Z16.040 A4.9837 B0.0014 
N1739 X-157.169 Y-2.301 Z16.028 A5.3813 B0.0102 
N1740 X-157.169 Y-3.633 Z16.048 A5.8965 B0.0300 
N1741 X-157.169 Y-4.819 Z16.255 A7.1899 B0.0591 
N1742 X-157.169 Y-5.909 Z16.778 A9.8683 B0.0916 
N1743 X-157.169 Y-6.975 Z17.635 A14.0996 B0.1150 
N1744 X-157.169 Y-8.085 Z18.719 A19.5611 B0.1223 
N1745 X-157.169 Y-9.271 Z19.868 A25.6726 B0.1180 
N1746 X-157.169 Y-10.529 Z20.954 A31.9624 B0.1059 
N1747 X-157.169 Y-11.845 Z21.915 A38.1953 B0.0858 
N1748 X-157.169 Y-13.217 Z22.734 A44.3367 B0.0564 
N1749 X-157.169 Y-14.629 Z23.387 A50.3242 B0.0186 
N1750 X-157.169 Y-16.082 Z23.871 A56.1986 B-0.0227 
N1751 X-157.169 Y-17.593 Z24.190 A62.1025 B-0.0648 
N1752 X-157.170 Y-19.124 Z24.309 A67.9102 B-0.1059 
N1753 X-157.170 Y-20.620 Z24.208 A73.4731 B-0.1452 
N1754 X-157.170 Y-22.003 Z23.878 A78.5576 B-0.1819 
N1755 X-157.170 Y-23.138 Z23.327 A82.6980 B-0.2141 
N1756 X-157.170 Y-23.920 Z22.591 A85.5012 B-0.2402 
N1757 X-157.170 Y-24.367 Z21.717 A87.0268 B-0.2608 
N1758 X-157.170 Y-24.577 Z20.737 A87.6288 B-0.2774 
N1759 X-157.170 Y-24.669 Z19.664 A87.7511 B-0.2923 
N1760 X-157.170 Y-24.736 Z18.510 A87.7562 B-0.3073 
N1761 X-157.171 Y-24.805 Z17.289 B-0.3233 
N1762 X-157.171 Y-24.877 Z16.015 B-0.3399 
N1763 X-157.171 Y-24.951 Z14.706 A87.7562 B-0.3569 
N1764 X-157.171 Y-25.026 Z13.382 B-0.3742 
N1765 X-157.171 Y-25.101 Z12.065 A87.7573 B-0.3914 
N1766 X-157.171 Y-25.185 Z10.776 A87.8002 B-0.4086 
N1767 X-157.171 Y-25.303 Z9.536 A88.0074 B-0.4268 
N1768 X-157.171 Y-25.453 Z8.361 A88.3791 B-0.4458 
N1769 X-157.171 Y-25.593 Z7.263 A88.7609 B-0.4642 
N1770 X-157.171 Y-25.700 Z6.253 A89.0468 B-0.4806 
N1771 X-157.171 Y-25.833 Z5.338 A89.4687 B-0.4979 
N1772 X-157.171 Y-26.095 Z4.517 A90.4702 B-0.5237 
N1773 X-157.172 Y-26.572 Z3.779 A92.4237 B-0.5663 
N1774 X-157.172 Y-27.295 Z3.090 A95.4985 B-0.6321 
N1775 X-157.172 Y-28.221 Z2.407 A99.5489 B-0.7228 
N1776 X-157.173 Y-29.291 Z1.686 A104.3714 B-0.8378 
N1777 X-157.173 Y-30.452 Z0.886 A109.7996 B-0.9737 
N1778 X-157.174 Y-31.667 Z-0.033 A115.7710 B-1.1234 
N1779 X-157.175 Y-32.889 Z-1.100 A122.1909 B-1.2673 
N1780 X-157.175 Y-34.021 Z-2.300 A128.7457 B-1.3693 
N1781 X-157.175 Y-35.027 Z-3.630 A135.3790 B-1.3986 
N1782 X-157.175 Y-35.862 Z-5.067 A141.9862 B-1.3573 
N1783 X-157.175 Y-36.494 Z-6.582 A148.4835 B-1.2711 
N1784 X-157.174 Y-36.909 Z-8.166 A154.9271 B-1.1633 
N1785 X-157.174 Y-37.085 Z-9.790 A161.2904 B-1.0494 
N1786 X-157.173 Y-36.990 Z-11.372 A167.3447 B-0.9404 
N1787 X-157.173 Y-36.616 Z-12.797 A172.7464 B-0.8457 
N1788 X-157.172 Y-35.983 Z-13.910 A176.9792 B-0.7746 
N1789 X-157.172 Y-35.139 Z-14.595 A179.6071 B-0.7325 
N1790 X-157.172 Y-34.121 Z-14.895 A180.7775 B-0.7152 
N1791 X-157.172 Y-32.937 Z-14.962 A181.0471 B-0.7118 
N1792 X-157.172 Y-31.576 Z-14.964 A181.0592 B-0.7118 
N1793 X-157.172 Y-30.032 Z-14.962 B-0.7120 
N1794 X-157.172 Y-28.305 Z-14.961 B-0.7121 
N1795 X-157.172 Y-26.405 Z-14.959 B-0.7124 
N1796 X-157.172 Y-24.345 Z-14.956 B-0.7126 
N1797 X-157.172 Y-22.150 Z-14.954 B-0.7128 
N1798 X-157.172 Y-19.849 Z-14.952 B-0.7131 
N1799 X-157.172 Y-17.476 Z-14.949 B-0.7133 
N1800 X-157.172 Y-15.070 Z-14.947 B-0.7136 
N1801 X-157.172 Y-12.671 Z-14.946 A181.0661 B-0.7138 
N1802 X-157.172 Y-10.317 Z-14.985 A181.2465 B-0.7137 
N1803 X-157.172 Y-8.043 Z-15.134 A181.9359 B-0.7156 
N1804 X-157.172 Y-5.878 Z-15.314 A182.8861 B-0.7258 
N1805 X-157.172 Y-3.854 Z-15.426 A183.6673 B-0.7414 
N1806 X-157.172 Y-1.987 Z-15.526 A184.4784 B-0.7330 
N1807 X-157.172 Y-0.288 Z-15.626 A185.3550 B-0.6940 
N1808 X-157.172 Y1.233 Z-15.669 A186.0345 B-0.6532 
N1809 X-157.172 Y2.582 Z-15.691 A186.6325 B-0.6185 
N1810 X-157.172 Y3.785 Z-15.843 A187.7676 B-0.5843 
N1811 X-157.171 Y4.893 Z-16.292 A190.1865 B-0.5434 
N1812 X-157.171 Y5.977 Z-17.093 A194.2245 B-0.4918 
N1813 X-157.171 Y7.116 Z-18.164 A199.6743 B-0.4280 
N1814 X-157.171 Y8.342 Z-19.321 A205.8839 B-0.3550 
N1815 X-157.170 Y9.642 Z-20.403 A212.2503 B-0.2769 
N1816 X-157.170 Y10.990 Z-21.336 A218.4727 B-0.1968 
N1817 X-157.170 Y12.385 Z-22.117 A224.5704 B-0.1143 
N1818 X-157.169 Y13.813 Z-22.725 A230.4824 B-0.0329 
N1819 X-157.169 Y15.268 Z-23.158 A236.2407 B0.0394 
N1820 X-157.169 Y16.783 Z-23.427 A242.0488 B0.1009 
N1821 X-157.169 Y18.314 Z-23.499 A247.7689 B0.1506 
N1822 X-157.168 Y19.808 Z-23.351 A253.2475 B0.1888 
N1823 X-157.168 Y21.160 Z-22.971 A258.1455 B0.2151 
N1824 X-157.168 Y22.216 Z-22.367 A261.8993 B0.2284 
N1825 X-157.168 Y22.895 Z-21.586 A264.2032 B0.2295 
N1826 X-157.168 Y23.263 Z-20.673 A265.2910 B0.2221 
N1827 X-157.168 Y23.442 Z-19.660 A265.6188 B0.2095 
N1828 X-157.168 Y23.554 Z-18.563 A265.6563 B0.1942 
N1829 X-157.168 Y23.663 Z-17.397 A265.6564 B0.1778 
N1830 X-157.168 Y23.777 Z-16.176 B0.1606 
N1831 X-157.169 Y23.895 Z-14.916 B0.1429 
N1832 X-157.169 Y24.015 Z-13.636 B0.1237 
N1833 X-157.169 Y24.135 Z-12.355 B0.0992 
N1834 X-157.169 Y24.254 Z-11.095 A265.6625 B0.0682 
N1835 X-157.169 Y24.383 Z-9.875 A265.7276 B0.0374 
N1836 X-157.169 Y24.539 Z-8.715 A265.9297 B0.0155 
N1837 X-157.169 Y24.718 Z-7.627 A266.2757 B0.0046 
N1838 X-157.169 Y24.896 Z-6.622 A266.6739 B0.0008 
N1839 X-157.169 Y25.079 Z-5.707 A267.1490 B0.0001 
N1840 X-157.169 Y25.353 Z-4.887 A268.0596 B0.0000 
N1841 X-157.169 Y25.803 Z-4.157 A269.7754 
N1842 X-157.169 Y26.475 Z-3.494 A272.5073 
N1843 X-157.169 Y27.359 Z-2.859 A276.2399 
N1844 X-157.169 Y28.388 Z-2.207 A280.7287 
N1845 X-157.169 Y29.504 Z-1.504 A285.7628 
N1846 X-157.169 Y30.662 Z-0.720 A291.2063 
N1847 X-157.169 Y31.853 Z0.182 A297.0973 
N1848 X-157.169 Y33.028 Z1.222 A303.3261 
N1849 X-157.169 Y34.085 Z2.364 A309.5209 
N1850 X-157.169 Y35.037 Z3.634 A315.8405 
N1851 X-157.169 Y35.847 Z5.023 A322.2436 
N1852 X-157.169 Y36.468 Z6.493 A328.5725 
N1853 X-157.169 Y36.884 Z8.031 A334.8531 
N1854 X-157.169 Y37.070 Z9.608 A341.0529 
N1855 X-157.169 Y36.998 Z11.146 A346.9494 
N1856 X-157.169 Y36.660 Z12.539 A352.2304 
N1857 X-157.169 Y36.072 Z13.659 A356.4843 
N1858 X-157.169 Y35.276 Z14.383 A359.2555 
N1859 X-157.169 Y34.308 Z14.728 A0.5904 
N1860 X-157.169 Y33.180 Z14.826 A0.9764 
N1861 X-157.169 Y31.883 Z14.834 A1.0100 
N1862 X-157.169 Y30.410 Z14.834 
N1863 X-157.169 Y28.762 Z14.834 
N1864 X-157.169 Y26.945 Z14.833 
N1865 X-157.169 Y24.973 Z14.833 
N1866 X-157.169 Y22.867 Z14.833 
N1867 X-157.169 Y20.654 Z14.832 
N1868 X-157.169 Y18.366 Z14.832 
N1869 X-157.169 Y16.037 Z14.831 A1.0100 
N1870 X-157.169 Y13.707 Z14.835 A1.0270 
N1871 X-157.169 Y11.411 Z14.891 A1.2738 
N1872 X-157.169 Y9.178 Z15.104 A2.2479 
N1873 X-157.169 Y7.037 Z15.372 A3.6285 
N1874 X-157.169 Y5.018 Z15.575 A4.9209 
N1875 X-157.169 Y3.141 Z15.736 A6.1761 B0.0001 
N1876 X-157.169 Y1.420 Z15.860 A7.3812 B0.0047 
N1877 X-157.169 Y-0.135 Z15.918 A8.3746 B0.0285 
N1878 X-157.169 Y-1.522 Z15.927 A9.1700 B0.0743 
N1879 X-157.169 Y-2.766 Z15.998 A10.2153 B0.1204 
N1880 X-157.169 Y-3.912 Z16.285 A12.1765 B0.1483 
N1881 X-157.168 Y-5.027 Z16.881 A15.5365 B0.1623 
N1882 X-157.168 Y-6.184 Z17.766 A20.3382 B0.1662 
N1883 X-157.168 Y-7.428 Z18.804 A26.1489 B0.1593 
N1884 X-157.169 Y-8.753 Z19.819 A32.3308 B0.1417 
N1885 X-157.169 Y-10.117 Z20.691 A38.3865 B0.1146 
N1886 X-157.169 Y-11.491 Z21.388 A44.1555 B0.0782 
N1887 X-157.169 Y-12.874 Z21.917 A49.6908 B0.0320 
N1888 X-157.169 Y-14.283 Z22.294 A55.1239 B-0.0215 
N1889 X-157.169 Y-15.766 Z22.539 A60.7152 B-0.0803 
N1890 X-157.170 Y-17.299 Z22.615 A66.3919 B-0.1425 
N1891 X-157.170 Y-18.813 Z22.484 A71.9081 B-0.2054 
N1892 X-157.170 Y-20.191 Z22.120 A76.8552 B-0.2651 
N1893 X-157.171 Y-21.279 Z21.533 A80.6789 B-0.3163 
N1894 X-157.171 Y-22.008 Z20.767 A83.1209 B-0.3561 
N1895 X-157.171 Y-22.416 Z19.870 A84.3097 B-0.3849 
N1896 X-157.171 Y-22.611 Z18.876 A84.6412 B-0.4060 
N1897 X-157.171 Y-22.737 Z17.808 A84.6702 B-0.4248 
N1898 X-157.171 Y-22.862 Z16.681 A84.6702 B-0.4442 
N1899 X-157.171 Y-22.992 Z15.511 B-0.4645 
N1900 X-157.171 Y-23.125 Z14.311 A84.6702 B-0.4852 
N1901 X-157.171 Y-23.259 Z13.100 B-0.5061 
N1902 X-157.171 Y-23.393 Z11.897 A84.6704 B-0.5270 
N1903 X-157.171 Y-23.533 Z10.720 A84.7090 B-0.5479 
N1904 X-157.172 Y-23.726 Z9.592 A84.9944 B-0.5716 
N1905 X-157.172 Y-23.988 Z8.528 A85.6227 B-0.5991 
N1906 X-157.172 Y-24.253 Z7.533 A86.3441 B-0.6266 
N1907 X-157.172 Y-24.475 Z6.614 A86.9592 B-0.6513 
N1908 X-157.172 Y-24.682 Z5.779 A87.5756 B-0.6753 
N1909 X-157.172 Y-24.976 Z5.032 A88.6134 B-0.7070 
N1910 X-157.172 Y-25.448 Z4.365 A90.4558 B-0.7562 
N1911 X-157.173 Y-26.145 Z3.754 A93.3212 B-0.8302 
N1912 X-157.173 Y-27.048 Z3.156 A97.1567 B-0.9309 
N1913 X-157.174 Y-28.091 Z2.530 A101.7173 B-1.0552 
N1914 X-157.174 Y-29.219 Z1.841 A106.8208 B-1.1992 
N1915 X-157.175 Y-30.393 Z1.059 A112.3540 B-1.3563 
N1916 X-157.176 Y-31.599 Z0.146 A118.3497 B-1.5142 
N1917 X-157.176 Y-32.752 Z-0.892 A124.5255 B-1.6449 
N1918 X-157.177 Y-33.791 Z-2.036 A130.6898 B-1.7201 
N1919 X-157.177 Y-34.727 Z-3.316 A137.0174 B-1.7295 
N1920 X-157.176 Y-35.513 Z-4.707 A143.3883 B-1.6819 
N1921 X-157.176 Y-36.113 Z-6.185 A149.7235 B-1.5960 
N1922 X-157.176 Y-36.508 Z-7.739 A156.0520 B-1.4883 
N1923 X-157.175 Y-36.670 Z-9.331 A162.3054 B-1.3711 
N1924 X-157.175 Y-36.569 Z-10.874 A168.2380 B-1.2552 
N1925 X-157.174 Y-36.201 Z-12.250 A173.4858 B-1.1517 
N1926 X-157.174 Y-35.588 Z-13.298 A177.4948 B-1.0730 
N1927 X-157.174 Y-34.781 Z-13.907 A179.8437 B-1.0274 
N1928 X-157.173 Y-33.814 Z-14.158 A180.8218 B-1.0091 
N1929 X-157.173 Y-32.689 Z-14.214 A181.0470 B-1.0053 
N1930 X-157.173 Y-31.399 Z-14.215 A181.0586 B-1.0053 
N1931 X-157.173 Y-29.937 Z-14.214 B-1.0055 
N1932 X-157.173 Y-28.305 Z-14.212 B-1.0057 
N1933 X-157.173 Y-26.511 Z-14.210 B-1.0060 
N1934 X-157.173 Y-24.569 Z-14.208 B-1.0062 
N1935 X-157.173 Y-22.501 Z-14.206 B-1.0065 
N1936 X-157.173 Y-20.335 Z-14.204 B-1.0068 
N1937 X-157.173 Y-18.102 Z-14.202 B-1.0071 
N1938 X-157.173 Y-15.838 Z-14.199 B-1.0074 
N1939 X-157.173 Y-13.580 Z-14.197 A181.0594 B-1.0077 
N1940 X-157.173 Y-11.362 Z-14.221 A181.1708 B-1.0070 
N1941 X-157.173 Y-9.214 Z-14.376 A181.8686 B-1.0042 
N1942 X-157.173 Y-7.159 Z-14.674 A183.3024 B-1.0049 
N1943 X-157.174 Y-5.223 Z-14.931 A184.7626 B-1.0178 
N1944 X-157.174 Y-3.426 Z-15.121 A186.0966 B-1.0209 
N1945 X-157.173 Y-1.776 Z-15.300 A187.4924 B-0.9760 
N1946 X-157.173 Y-0.283 Z-15.425 A188.7528 B-0.9107 
N1947 X-157.173 Y1.054 Z-15.501 A189.8402 B-0.8528 
N1948 X-157.173 Y2.263 Z-15.653 A191.2574 B-0.7978 
N1949 X-157.172 Y3.400 Z-16.039 A193.7033 B-0.7341 
N1950 X-157.172 Y4.542 Z-16.743 A197.6339 B-0.6534 
N1951 X-157.172 Y5.765 Z-17.716 A203.0021 B-0.5532 
N1952 X-157.171 Y7.099 Z-18.783 A209.2272 B-0.4393 
N1953 X-157.171 Y8.504 Z-19.750 A215.5562 B-0.3225 
N1954 X-157.170 Y9.913 Z-20.513 A221.5081 B-0.2115 
N1955 X-157.170 Y11.314 Z-21.081 A227.0925 B-0.1069 
N1956 X-157.169 Y12.715 Z-21.476 A232.4324 B-0.0098 
N1957 X-157.169 Y14.155 Z-21.727 A237.7715 B0.0763 
N1958 X-157.168 Y15.668 Z-21.837 A243.2969 B0.1516 
N1959 X-157.168 Y17.194 Z-21.758 A248.7889 B0.2138 
N1960 X-157.168 Y18.628 Z-21.454 A253.8650 B0.2600 
N1961 X-157.168 Y19.799 Z-20.914 A257.8947 B0.2863 
N1962 X-157.168 Y20.603 Z-20.173 A260.4838 B0.2933 
N1963 X-157.168 Y21.069 Z-19.285 A261.7386 B0.2853 
N1964 X-157.168 Y21.314 Z-18.294 A262.0875 B0.2681 
N1965 X-157.168 Y21.488 Z-17.229 A262.1173 B0.2469 
N1966 X-157.168 Y21.662 Z-16.112 A262.1173 B0.2245 
N1967 X-157.168 Y21.843 Z-14.957 B0.2013 
N1968 X-157.168 Y22.027 Z-13.779 B0.1777 
N1969 X-157.168 Y22.212 Z-12.595 B0.1539 
N1970 X-157.169 Y22.395 Z-11.423 A262.1175 B0.1297 
N1971 X-157.169 Y22.579 Z-10.282 A262.1418 B0.1022 
N1972 X-157.169 Y22.790 Z-9.192 A262.3114 B0.0698 
N1973 X-157.169 Y23.046 Z-8.169 A262.7253 B0.0383 
N1974 X-157.169 Y23.330 Z-7.221 A263.3311 B0.0155 
N1975 X-157.169 Y23.611 Z-6.353 A264.0127 B0.0044 
N1976 X-157.169 Y23.908 Z-5.570 A264.8478 B0.0010 
N1977 X-157.169 Y24.311 Z-4.877 A266.2030 B0.0002 
N1978 X-157.169 Y24.889 Z-4.265 A268.3819 B0.0000 
N1979 X-157.169 Y25.671 Z-3.708 A271.5134 B0.0000 
N1980 X-157.169 Y26.637 Z-3.162 A275.5302 
N1981 X-157.169 Y27.717 Z-2.589 A280.1630 
N1982 X-157.169 Y28.851 Z-1.959 A285.1893 
N1983 X-157.169 Y29.999 Z-1.252 A290.4879 
N1984 X-157.169 Y31.164 Z-0.439 A296.1197 
N1985 X-157.169 Y32.320 Z0.504 A302.0684 
N1986 X-157.169 Y33.348 Z1.526 A307.8560 
N1987 X-157.169 Y34.283 Z2.655 A313.7124 
N1988 X-157.169 Y35.134 Z3.931 A319.8410 
N1989 X-157.169 Y35.836 Z5.314 A326.0274 
N1990 X-157.169 Y36.354 Z6.780 A332.2012 
N1991 X-157.169 Y36.668 Z8.307 A338.3486 
N1992 X-157.169 Y36.746 Z9.840 A344.3267 
N1993 X-157.169 Y36.570 Z11.283 A349.8532 
N1994 X-157.169 Y36.145 Z12.529 A354.5971 
N1995 X-157.169 Y35.500 Z13.444 A358.1001 
N1996 X-157.169 Y34.679 Z13.952 A0.0628 
N1997 X-157.169 Y33.707 Z14.151 A0.8390 
N1998 X-157.169 Y32.581 Z14.195 A1.0117 
N1999 X-157.169 Y31.295 Z14.197 A1.0204 
N2000 X-157.169 Y29.844 Z14.196 
N2001 X-157.169 Y28.232 Z14.195 
N2002 X-157.169 Y26.469 Z14.195 
N2003 X-157.169 Y24.568 Z14.194 
N2004 X-157.169 Y22.553 Z14.193 
N2005 X-157.169 Y20.449 Z14.193 
N2006 X-157.169 Y18.287 Z14.192 
N2007 X-157.169 Y16.101 Z14.191 A1.0204 
N2008 X-157.169 Y13.923 Z14.195 A1.0390 
N2009 X-157.169 Y11.786 Z14.256 A1.3075 
N2010 X-157.169 Y9.711 Z14.525 A2.5175 
N2011 X-157.169 Y7.714 Z14.932 A4.5202 
N2012 X-157.169 Y5.820 Z15.291 A6.5846 
N2013 X-157.169 Y4.047 Z15.582 A8.5882 B0.0010 
N2014 X-157.169 Y2.409 Z15.808 A10.4818 B0.0129 
N2015 X-157.169 Y0.919 Z15.937 A12.0801 B0.0561 
N2016 X-157.169 Y-0.422 Z15.996 A13.4224 B0.1125 
N2017 X-157.168 Y-1.646 Z16.096 A14.9482 B0.1518 
N2018 X-157.168 Y-2.810 Z16.372 A17.2575 B0.1769 
N2019 X-157.168 Y-3.984 Z16.910 A20.8008 B0.1906 
N2020 X-157.168 Y-5.235 Z17.688 A25.6445 B0.1906 
N2021 X-157.168 Y-6.596 Z18.577 A31.4009 B0.1751 
N2022 X-157.169 Y-8.026 Z19.398 A37.3854 B0.1458 
N2023 X-157.169 Y-9.450 Z20.029 A43.0288 B0.1061 
N2024 X-157.169 Y-10.830 Z20.453 A48.1970 B0.0572 
N2025 X-157.169 Y-12.191 Z20.715 A53.1014 B-0.0013 
N2026 X-157.169 Y-13.612 Z20.869 A58.1722 B-0.0701 
N2027 X-157.170 Y-15.127 Z20.908 A63.5805 B-0.1495 
N2028 X-157.170 Y-16.659 Z20.770 A69.0046 B-0.2348 
N2029 X-157.171 Y-18.058 Z20.405 A73.8721 B-0.3176 
N2030 X-157.171 Y-19.154 Z19.810 A77.5391 B-0.3882 
N2031 X-157.171 Y-19.888 Z19.035 A79.7847 B-0.4422 
N2032 X-157.171 Y-20.302 Z18.129 A80.7611 B-0.4795 
N2033 X-157.171 Y-20.538 Z17.138 A80.9969 B-0.5053 
N2034 X-157.171 Y-20.730 Z16.094 A81.0301 B-0.5276 
N2035 X-157.172 Y-20.920 Z15.014 A81.0327 B-0.5498 
N2036 X-157.172 Y-21.113 Z13.913 B-0.5724 
N2037 X-157.172 Y-21.308 Z12.806 A81.0328 B-0.5951 
N2038 X-157.172 Y-21.501 Z11.708 B-0.6177 
N2039 X-157.172 Y-21.693 Z10.636 A81.0469 B-0.6400 
N2040 X-157.172 Y-21.927 Z9.613 A81.2703 B-0.6658 
N2041 X-157.172 Y-22.268 Z8.659 A82.0035 B-0.7009 
N2042 X-157.172 Y-22.660 Z7.775 A83.0489 B-0.7407 
N2043 X-157.172 Y-23.019 Z6.956 A84.0645 B-0.7787 
N2044 X-157.173 Y-23.334 Z6.206 A84.9922 B-0.8141 
N2045 X-157.173 Y-23.678 Z5.535 A86.1212 B-0.8537 
N2046 X-157.173 Y-24.150 Z4.941 A87.8630 B-0.9092 
N2047 X-157.173 Y-24.812 Z4.409 A90.4775 B-0.9892 
N2048 X-157.174 Y-25.676 Z3.902 A94.0299 B-1.0974 
N2049 X-157.174 Y-26.693 Z3.378 A98.3352 B-1.2306 
N2050 X-157.175 Y-27.795 Z2.806 A103.1413 B-1.3826 
N2051 X-157.176 Y-28.938 Z2.159 A108.2978 B-1.5473 
N2052 X-157.176 Y-30.099 Z1.415 A113.7685 B-1.7170 
N2053 X-157.177 Y-31.275 Z0.542 A119.6139 B-1.8761 
N2054 X-157.178 Y-32.353 Z-0.425 A125.4037 B-1.9940 
N2055 X-157.178 Y-33.323 Z-1.483 A131.1435 B-2.0565 
N2056 X-157.178 Y-34.226 Z-2.688 A137.1734 B-2.0641 
N2057 X-157.178 Y-35.009 Z-4.022 A143.3576 B-2.0222 
N2058 X-157.177 Y-35.625 Z-5.456 A149.5794 B-1.9427 
N2059 X-157.177 Y-36.050 Z-6.973 A155.8287 B-1.8376 
N2060 X-157.176 Y-36.251 Z-8.534 A162.0209 B-1.7174 
N2061 X-157.176 Y-36.201 Z-10.058 A167.9201 B-1.5930 
N2062 X-157.175 Y-35.893 Z-11.427 A173.1719 B-1.4771 
N2063 X-157.175 Y-35.348 Z-12.494 A177.2679 B-1.3847 
N2064 X-157.175 Y-34.613 Z-13.127 A179.7192 B-1.3286 
N2065 X-157.175 Y-33.728 Z-13.393 A180.7559 B-1.3050 
N2066 X-157.175 Y-32.697 Z-13.462 A181.0336 B-1.2990 
N2067 X-157.175 Y-31.511 Z-13.467 A181.0592 B-1.2987 
N2068 X-157.175 Y-30.166 Z-13.466 A181.0592 B-1.2989 
N2069 X-157.175 Y-28.661 Z-13.465 B-1.2992 
N2070 X-157.175 Y-27.004 Z-13.463 B-1.2994 
N2071 X-157.175 Y-25.207 Z-13.461 B-1.2997 
N2072 X-157.175 Y-23.290 Z-13.459 B-1.3000 
N2073 X-157.175 Y-21.277 Z-13.457 B-1.3003 
N2074 X-157.175 Y-19.197 Z-13.455 B-1.3006 
N2075 X-157.175 Y-17.081 Z-13.453 B-1.3010 
N2076 X-157.175 Y-14.962 Z-13.450 B-1.3013 
N2077 X-157.175 Y-12.874 Z-13.451 A181.0717 B-1.3015 
N2078 X-157.175 Y-10.844 Z-13.521 A181.3818 B-1.2982 
N2079 X-157.175 Y-8.891 Z-13.798 A182.6311 B-1.2881 
N2080 X-157.175 Y-7.025 Z-14.234 A184.7481 B-1.2795 
N2081 X-157.175 Y-5.267 Z-14.616 A186.8970 B-1.2815 
N2082 X-157.175 Y-3.630 Z-14.933 A188.9789 B-1.2586 
N2083 X-157.174 Y-2.121 Z-15.196 A190.9898 B-1.1775 
N2084 X-157.174 Y-0.747 Z-15.384 A192.7971 B-1.0831 
N2085 X-157.173 Y0.509 Z-15.560 A194.6120 B-0.9970 
N2086 X-157.173 Y1.698 Z-15.861 A197.0231 B-0.9078 
N2087 X-157.173 Y2.893 Z-16.398 A200.5730 B-0.8016 
N2088 X-157.172 Y4.173 Z-17.178 A205.4553 B-0.6717 
N2089 X-157.171 Y5.581 Z-18.089 A211.3711 B-0.5218 
N2090 X-157.171 Y7.074 Z-18.931 A217.5722 B-0.3674 
N2091 X-157.170 Y8.551 Z-19.546 A223.3180 B-0.2264 
N2092 X-157.170 Y9.951 Z-19.914 A228.3948 B-0.1047 
N2093 X-157.169 Y11.310 Z-20.101 A233.1021 B0.0022 
N2094 X-157.169 Y12.721 Z-20.179 A237.9523 B0.0987 
N2095 X-157.168 Y14.219 Z-20.145 A243.1345 B0.1859 
N2096 X-157.168 Y15.717 Z-19.935 A248.2746 B0.2575 
N2097 X-157.168 Y17.044 Z-19.495 A252.7066 B0.3054 
N2098 X-157.168 Y18.039 Z-18.828 A255.8060 B0.3256 
N2099 X-157.168 Y18.669 Z-17.984 A257.4407 B0.3217 
N2100 X-157.168 Y19.019 Z-17.019 A257.9273 B0.3018 
N2101 X-157.168 Y19.271 Z-15.986 A257.9783 B0.2764 
N2102 X-157.168 Y19.519 Z-14.917 A257.9808 B0.2498 
N2103 X-157.168 Y19.771 Z-13.826 A257.9808 B0.2228 
N2104 X-157.168 Y20.025 Z-12.727 B0.1955 
N2105 X-157.168 Y20.277 Z-11.637 B0.1684 
N2106 X-157.169 Y20.524 Z-10.570 A257.9817 B0.1419 
N2107 X-157.169 Y20.774 Z-9.543 A258.0322 B0.1163 
N2108 X-157.169 Y21.065 Z-8.580 A258.3164 B0.0896 
N2109 X-157.169 Y21.417 Z-7.694 A258.9382 B0.0595 
N2110 X-157.169 Y21.802 Z-6.885 A259.8074 B0.0314 
N2111 X-157.169 Y22.190 Z-6.152 A260.8012 B0.0128 
N2112 X-157.169 Y22.601 Z-5.499 A262.0042 B0.0039 
N2113 X-157.169 Y23.117 Z-4.932 A263.7508 B0.0008 
N2114 X-157.169 Y23.798 Z-4.438 A266.2882 B0.0001 
N2115 X-157.169 Y24.659 Z-3.989 A269.6853 B0.0000 
N2116 X-157.169 Y25.683 Z-3.542 A273.8666 
N2117 X-157.169 Y26.803 Z-3.059 A278.5733 
N2118 X-157.169 Y27.952 Z-2.517 A283.5556 
N2119 X-157.169 Y29.095 Z-1.903 A288.6886 
N2120 X-157.169 Y30.231 Z-1.200 A294.0098 
N2121 X-157.169 Y31.379 Z-0.371 A299.6765 
N2122 X-157.169 Y32.418 Z0.536 A305.2047 
N2123 X-157.169 Y33.330 Z1.503 A310.5277 
N2124 X-157.169 Y34.204 Z2.617 A316.2022 
N2125 X-157.169 Y35.001 Z3.884 A322.2033 
N2126 X-157.169 Y35.653 Z5.261 A328.2920 
N2127 X-157.169 Y36.125 Z6.723 A334.4065 
N2128 X-157.169 Y36.387 Z8.232 A340.4583 
N2129 X-157.169 Y36.413 Z9.716 A346.2440 
N2130 X-157.169 Y36.194 Z11.076 A351.4649 
N2131 X-157.169 Y35.744 Z12.208 A355.7991 
N2132 X-157.169 Y35.098 Z12.995 A358.8275 
N2133 X-157.169 Y34.296 Z13.393 A0.3727 
N2134 X-157.169 Y33.353 Z13.532 A0.9160 
N2135 X-157.169 Y32.266 Z13.559 A1.0277 
N2136 X-157.169 Y31.028 Z13.560 A1.0329 
N2137 X-157.169 Y29.637 Z13.559 
N2138 X-157.169 Y28.099 Z13.558 
N2139 X-157.169 Y26.423 Z13.557 
N2140 X-157.169 Y24.625 Z13.556 
N2141 X-157.169 Y22.727 Z13.555 
N2142 X-157.169 Y20.753 Z13.554 
N2143 X-157.169 Y18.732 Z13.553 
N2144 X-157.169 Y16.694 Z13.552 
N2145 X-157.169 Y14.669 Z13.552 A1.0390 
N2146 X-157.169 Y12.683 Z13.582 A1.1746 
N2147 X-157.169 Y10.758 Z13.792 A2.0956 
N2148 X-157.169 Y8.897 Z14.276 A4.3420 
N2149 X-157.169 Y7.103 Z14.843 A7.2418 
