; PROGRAM NAME: D12345632S
; ORDER       : D123456
; OPER. NAME  : Spiral Finish Transition:110
; OPER. DESCR.: Spiral transition - Semi finish transition root/promienie_przejsc_pwk SZLIF
; OPER. TYPE  : finTransRoot
; GEO. OPTION : 7
; MACHINE     : HSTM_300HD_SIM840D_Py
;             : HSTM300/500 - HAMUEL: 5-axis milling machine-SIM840D Traori PP_Script
; CONTROL     : SINUMERIK 840D
; created:   2023-06-05 09:19:47.382052
;-------DODATKOWE DANE-------------------
; PROGRAMISTA : Mariusz Malec
; PARTID      : 301T002184P1010_-
;  ae         : 1.5
;  lean_angle : 5.0
;  tilt_angle : -15.2
;  airf_offset: 0.05
;  plat_offset: 0.6
;----------------------------------------
;RAPORT("TD123456","Spiral Finish Transition:110")
N10 TRAFOOF
N11 D0
N12 G90 G94
N13 G0 G53 D0 Z550
N14 STOPRE
M9 ; chlodziwo wyl
; --- Spiral Finish Transition:110 - Spiral transition - Semi finish transition root/promienie_przejsc_pwk SZLIF ---
N16 ;ToolChange : concat=None ,current_tdmid=None, PP.tdmId=940626
N17 TRAFOOF
N18 G0 G53 D0 X-200 Y150 Z550 B0
N19 T="7740626"
;RAPORT("TD123456","ToolChangeStart 7740626")
N20 M6
;RAPORT("TD123456","ToolChangeEnd")
N21 STOPRE
N22 MSG(" TLID=940626 D=8.391 R=5.0 Ang=10.0 Len=155.0 ")
N23 ; (Preloading tool)
N24 T="7740661"
N25 S6987 M03
N26 STOPRE
N27 CYCLE832(0.001,1,1)
N28 G0 G53 A217.0288 B-15.2000
N29 TRAORI
N30 G54 D1
N31 D1 
N32 TRANS  X=R3 A=R25
STOPRE
E_ZDARZ=400004
;ACS_PREFINISH_UBG_B_CONST_BBK_ROOT=7740626
STOPRE
N33 ; DELTA A > 40.1
N34 TRAFOOF
N35 D1
N36 STOPRE
N37 G00 G54 Z231.000
N38 G01 A217.0288 F10000
N39 TRAORI
N40 G54 D1
N41 STOPRE
N42 TRANS  X=R3 A=R25
N43 G00 X-191.461 Y63.881 Z-32.521 A217.0288 B-15.2000 
N44 M342 ; chlodziwo woda
N45 X-178.351 Y34.824 Z5.999 
N46 G01 X-178.351 Y32.392 Z7.967 F1456 
N47 X-178.351 Y29.470 Z9.087 
N48 X-178.351 Y26.346 Z9.249 
N49 X-178.351 Y23.324 Z8.438 
N50 X-178.351 Y20.701 Z6.733 
N51 X-178.351 Y20.620 Z6.657 A215.3918 
N52 X-178.351 Y20.551 Z6.602 A214.8143 
N53 X-178.351 Y20.477 Z6.544 A214.6530 
N54 X-178.352 Y20.383 Z6.471 A214.5723 
N55 X-178.353 Y20.262 Z6.377 A214.5064 
N56 X-178.355 Y20.111 Z6.257 A214.4453 
N57 X-178.357 Y19.922 Z6.107 A214.3805 
N58 X-178.360 Y19.691 Z5.922 A214.3051 
N59 X-178.365 Y19.413 Z5.698 A214.2125 
N60 X-178.370 Y19.083 Z5.433 A214.0949 
N61 X-178.376 Y18.698 Z5.123 A213.9428 
N62 X-178.383 Y18.255 Z4.768 A213.7453 
N63 X-178.392 Y17.756 Z4.369 A213.4904 
N64 X-178.402 Y17.201 Z3.929 A213.1668 
N65 X-178.412 Y16.594 Z3.451 A212.7634 
N66 X-178.424 Y15.939 Z2.943 A212.2688 
N67 X-178.437 Y15.243 Z2.412 A211.6706 
N68 X-178.450 Y14.513 Z1.866 A210.9551 
N69 X-178.464 Y13.758 Z1.316 A210.1089 
N70 X-178.479 Y12.986 Z0.770 A209.1235 
N71 X-178.494 Y12.206 Z0.239 A207.9949 
N72 X-178.509 Y11.427 Z-0.268 A206.7214 
N73 X-178.524 Y10.655 Z-0.746 A205.3039 
N74 X-178.539 Y9.900 Z-1.187 A203.7461 
N75 X-178.554 Y9.166 Z-1.589 A202.0534 
N76 X-178.569 Y8.458 Z-1.949 A200.2336 
N77 X-178.583 Y7.779 Z-2.266 A198.2993 
N78 X-178.597 Y7.132 Z-2.542 A196.2702 
N79 X-178.610 Y6.519 Z-2.777 A194.1696 
N80 X-178.623 Y5.938 Z-2.974 A192.0179 
N81 X-178.635 Y5.391 Z-3.138 A189.8312 
N82 X-178.647 Y4.874 Z-3.271 A187.6222 
N83 X-178.657 Y4.387 Z-3.377 A185.4013 
N84 X-178.668 Y3.927 Z-3.459 A183.1764 
N85 X-178.677 Y3.490 Z-3.519 A180.9538 
N86 X-178.687 Y3.075 Z-3.561 A178.7378 
N87 X-178.696 Y2.680 Z-3.585 A176.5313 
N88 X-178.704 Y2.301 Z-3.594 A174.3357 
N89 X-178.712 Y1.937 Z-3.589 A172.1512 
N90 X-178.721 Y1.586 Z-3.570 A169.9778 
N91 X-178.728 Y1.246 Z-3.540 A167.8147 
N92 X-178.736 Y0.917 Z-3.498 A165.6611 
N93 X-178.744 Y0.595 Z-3.445 A163.5162 
N94 X-178.751 Y0.282 Z-3.381 A161.3789 
N95 X-178.758 Y-0.025 Z-3.307 A159.2482 
N96 X-178.766 Y-0.326 Z-3.222 A157.1233 
N97 X-178.773 Y-0.622 Z-3.126 A155.0037 
N98 X-178.780 Y-0.913 Z-3.021 A152.8890 
N99 X-178.788 Y-1.201 Z-2.904 A150.7795 
N100 X-178.795 Y-1.485 Z-2.776 A148.6756 
N101 X-178.803 Y-1.766 Z-2.637 A146.5780 
N102 X-178.811 Y-2.044 Z-2.487 A144.4875 
N103 X-178.818 Y-2.320 Z-2.324 A142.4055 
N104 X-178.826 Y-2.593 Z-2.149 A140.3338 
N105 X-178.834 Y-2.863 Z-1.961 A138.2748 
N106 X-178.842 Y-3.132 Z-1.760 A136.2312 
N107 X-178.851 Y-3.398 Z-1.546 A134.2063 
N108 X-178.859 Y-3.661 Z-1.317 A132.2035 
N109 X-178.868 Y-3.920 Z-1.075 A130.2266 
N110 X-178.877 Y-4.177 Z-0.818 A128.2792 
N111 X-178.886 Y-4.429 Z-0.547 A126.3652 
N112 X-178.895 Y-4.676 Z-0.263 A124.4883 
N113 X-178.905 Y-4.919 Z0.034 A122.6516 
N114 X-178.914 Y-5.154 Z0.344 A120.8575 
N115 X-178.923 Y-5.383 Z0.666 A119.1065 
N116 X-178.933 Y-5.605 Z0.998 A117.3974 
N117 X-178.942 Y-5.817 Z1.338 A115.7271 
N118 X-178.951 Y-6.021 Z1.686 A114.0921 
N119 X-178.960 Y-6.214 Z2.039 A112.4901 
N120 X-178.969 Y-6.396 Z2.395 A110.9220 
N121 X-178.977 Y-6.566 Z2.751 A109.3901 
N122 X-178.986 Y-6.724 Z3.106 A107.8948 
N123 X-178.993 Y-6.869 Z3.456 A106.4318 
N124 X-179.001 Y-7.002 Z3.800 A104.9909 
N125 X-179.007 Y-7.122 Z4.135 A103.5598 
N126 X-179.013 Y-7.230 Z4.459 A102.1272 
N127 X-179.019 Y-7.325 Z4.772 A100.6855 
N128 X-179.024 Y-7.409 Z5.071 A99.2299 
N129 X-179.029 Y-7.481 Z5.356 A97.7557 
N130 X-179.033 Y-7.542 Z5.625 A96.2576 
N131 X-179.036 Y-7.593 Z5.879 A94.7326 
N132 X-179.039 Y-7.634 Z6.116 A93.1838 
N133 X-179.041 Y-7.667 Z6.338 A91.6123 
N134 X-179.043 Y-7.693 Z6.544 A90.0086 
N135 X-179.044 Y-7.711 Z6.735 A88.3560 
N136 X-179.046 Y-7.724 Z6.914 A86.6404 
N137 X-179.046 Y-7.732 Z7.082 A84.8499 
N138 X-179.047 Y-7.735 Z7.239 A82.9736 
N139 X-179.047 Y-7.734 Z7.388 A81.0026 
N140 X-179.047 Y-7.728 Z7.529 A78.9320 
N141 X-179.046 Y-7.719 Z7.664 A76.7622 
N142 X-179.046 Y-7.705 Z7.794 A74.5000 
N143 X-179.045 Y-7.687 Z7.918 A72.1578 
N144 X-179.045 Y-7.666 Z8.038 A69.7539 
N145 X-179.044 Y-7.640 Z8.153 A67.3101 
N146 X-179.043 Y-7.611 Z8.264 A64.8484 
N147 X-179.042 Y-7.579 Z8.370 A62.3883 
N148 X-179.041 Y-7.543 Z8.471 A59.9450 
N149 X-179.040 Y-7.504 Z8.567 A57.5292 
N150 X-179.038 Y-7.463 Z8.659 A55.1477 
N151 X-179.037 Y-7.419 Z8.747 A52.8036 
N152 X-179.036 Y-7.373 Z8.831 A50.4973 
N153 X-179.035 Y-7.325 Z8.911 A48.2268 
N154 X-179.034 Y-7.274 Z8.987 A45.9888 
N155 X-179.032 Y-7.222 Z9.061 A43.7783 
N156 X-179.031 Y-7.167 Z9.131 A41.5898 
N157 X-179.030 Y-7.110 Z9.199 A39.4172 
N158 X-179.028 Y-7.051 Z9.264 A37.2541 
N159 X-179.027 Y-6.990 Z9.327 A35.0939 
N160 X-179.025 Y-6.926 Z9.388 A32.9297 
N161 X-179.024 Y-6.859 Z9.447 A30.7544 
N162 X-179.022 Y-6.789 Z9.504 A28.5607 
N163 X-179.021 Y-6.716 Z9.559 A26.3415 
N164 X-179.019 Y-6.640 Z9.612 A24.0895 
N165 X-179.018 Y-6.559 Z9.664 A21.7982 
N166 X-179.016 Y-6.474 Z9.714 A19.4623 
N167 X-179.014 Y-6.383 Z9.762 A17.0783 
N168 X-179.012 Y-6.287 Z9.807 A14.6455 
N169 X-179.010 Y-6.185 Z9.851 A12.1670 
N170 X-179.008 Y-6.076 Z9.891 A9.6507 
N171 X-179.005 Y-5.959 Z9.928 A7.1099 
N172 X-179.003 Y-5.835 Z9.961 A4.5627 
N173 X-179.000 Y-5.701 Z9.990 A2.0296 
N174 X-178.996 Y-5.556 Z10.013 A359.5295 
N175 X-178.993 Y-5.400 Z10.030 A357.0775 
N176 X-178.988 Y-5.230 Z10.041 A354.6848 
N177 X-178.983 Y-5.042 Z10.043 A352.3595 
N178 X-178.977 Y-4.835 Z10.036 A350.1101 
N179 X-178.971 Y-4.606 Z10.018 A347.9467 
N180 X-178.963 Y-4.350 Z9.987 A345.8755 
N181 X-178.954 Y-4.066 Z9.941 A343.8970 
N182 X-178.943 Y-3.750 Z9.877 A342.0239 
N183 X-178.931 Y-3.401 Z9.793 A340.2872 
N184 X-178.918 Y-3.018 Z9.686 A338.7117 
N185 X-178.903 Y-2.601 Z9.556 A337.3114 
N186 X-178.886 Y-2.148 Z9.402 A336.0949 
N187 X-178.867 Y-1.662 Z9.225 A335.0582 
N188 X-178.847 Y-1.146 Z9.028 A334.3263 
N189 X-178.826 Y-0.603 Z8.813 A333.8633 
N190 X-178.803 Y-0.036 Z8.583 A333.6545 
N191 X-178.780 Y0.551 Z8.342 A333.7075 
N192 X-178.755 Y1.152 Z8.095 A334.0448 
N193 X-178.730 Y1.762 Z7.849 A334.6932 
N194 X-178.704 Y2.375 Z7.608 A335.6739 
N195 X-178.679 Y2.987 Z7.381 A336.9930 
N196 X-178.653 Y3.593 Z7.171 A338.6398 
N197 X-178.628 Y4.192 Z6.983 A340.5993 
N198 X-178.604 Y4.783 Z6.819 A342.7135 
N199 X-178.580 Y5.366 Z6.682 A344.9609 
N200 X-178.556 Y5.939 Z6.572 A347.3074 
N201 X-178.534 Y6.503 Z6.488 A349.7151 
N202 X-178.512 Y7.059 Z6.431 A352.1488 
N203 X-178.491 Y7.609 Z6.399 A354.5780 
N204 X-178.470 Y8.156 Z6.392 A356.9768 
N205 X-178.450 Y8.700 Z6.408 A359.3230 
N206 X-178.431 Y9.244 Z6.448 A1.5976 
N207 X-178.412 Y9.789 Z6.510 A3.7845 
N208 X-178.393 Y10.337 Z6.594 A5.8695 
N209 X-178.375 Y10.885 Z6.700 A7.8409 
N210 X-178.357 Y11.434 Z6.827 A9.6893 
N211 X-178.340 Y11.981 Z6.971 A11.4086 
N212 X-178.323 Y12.523 Z7.132 A12.9963 
N213 X-178.307 Y13.056 Z7.307 A14.4522 
N214 X-178.291 Y13.575 Z7.491 A15.7783 
N215 X-178.276 Y14.076 Z7.682 A16.9777 
N216 X-178.263 Y14.555 Z7.875 A18.0541 
N217 X-178.250 Y15.006 Z8.067 A19.0093 
N218 X-178.238 Y15.428 Z8.254 A19.8433 
N219 X-178.227 Y15.816 Z8.432 A20.5588 
N220 X-178.217 Y16.168 Z8.598 A21.1642 
N221 X-178.208 Y16.484 Z8.750 A21.6731 
N222 X-178.200 Y16.763 Z8.887 A22.1003 
N223 X-178.193 Y17.006 Z9.006 A22.4587 
N224 X-178.187 Y17.214 Z9.110 A22.7575 
N225 X-178.181 Y17.389 Z9.198 A23.0024 
N226 X-178.177 Y17.535 Z9.270 A23.1954 
N227 X-178.173 Y17.654 Z9.330 A23.3343 
N228 X-178.169 Y17.751 Z9.378 A23.4108 
N229 X-178.166 Y17.831 Z9.418 A23.3372 
N230 X-178.164 Y17.898 Z9.451 A23.0623 
N231 X-178.162 Y17.961 Z9.485 A22.3002 
N232 X-178.160 Y18.036 Z9.530 A20.4153 
N233 X-178.158 Y18.135 Z9.590 A17.0344 
N234 X-178.156 Y18.265 Z9.662 A12.0521 
N235 X-178.155 Y18.410 Z9.727 A6.4366 
N236 X-178.153 Y18.556 Z9.776 A0.8257 
N237 X-178.152 Y18.698 Z9.810 A355.3820 
N238 X-178.151 Y18.820 Z9.827 A350.7615 
N239 X-178.149 Y18.923 Z9.834 A346.8940 
N240 X-178.148 Y19.007 Z9.833 A343.7028 
N241 X-178.147 Y19.082 Z9.829 A340.8446 
N242 X-178.145 Y19.149 Z9.821 A338.2761 
N243 X-178.144 Y19.209 Z9.811 A335.9564 
N244 X-178.143 Y19.265 Z9.799 A333.7400 
N245 X-178.142 Y19.319 Z9.785 A331.6103 
N246 X-178.141 Y19.370 Z9.770 A329.5478 
N247 X-178.139 Y19.420 Z9.754 A327.5367 
N248 X-178.138 Y19.468 Z9.736 A325.5638 
N249 X-178.137 Y19.514 Z9.717 A323.6191 
N250 X-178.136 Y19.559 Z9.696 A321.6949 
N251 X-178.134 Y19.603 Z9.674 A319.7852 
N252 X-178.133 Y19.646 Z9.651 A317.8863 
N253 X-178.132 Y19.688 Z9.627 A315.9943 
N254 X-178.131 Y19.729 Z9.601 A314.1075 
N255 X-178.130 Y19.769 Z9.574 A312.2244 
N256 X-178.128 Y19.808 Z9.546 A310.3432 
N257 X-178.127 Y19.846 Z9.517 A308.4638 
N258 X-178.126 Y19.883 Z9.486 A306.5857 
N259 X-178.125 Y19.919 Z9.455 A304.7083 
N260 X-178.123 Y19.954 Z9.422 A302.8317 
N261 X-178.122 Y19.987 Z9.389 A300.9557 
N262 X-178.121 Y20.019 Z9.355 A299.0802 
N263 X-178.120 Y20.050 Z9.319 A297.2054 
N264 X-178.119 Y20.080 Z9.283 A295.3311 
N265 X-178.117 Y20.109 Z9.246 A293.4571 
N266 X-178.116 Y20.136 Z9.208 A291.5832 
N267 X-178.115 Y20.162 Z9.170 A289.7091 
N268 X-178.114 Y20.187 Z9.130 A287.8342 
N269 X-178.113 Y20.210 Z9.090 A285.9573 
N270 X-178.111 Y20.232 Z9.050 A284.0777 
N271 X-178.110 Y20.253 Z9.008 A282.1931 
N272 X-178.109 Y20.272 Z8.967 A280.3008 
N273 X-178.108 Y20.290 Z8.924 A278.3977 
N274 X-178.107 Y20.307 Z8.881 A276.4781 
N275 X-178.106 Y20.323 Z8.837 A274.5358 
N276 X-178.104 Y20.337 Z8.791 A272.5611 
N277 X-178.103 Y20.350 Z8.745 A270.5423 
N278 X-178.102 Y20.362 Z8.697 A268.4639 
N279 X-178.101 Y20.373 Z8.647 A266.3090 
N280 X-178.100 Y20.382 Z8.594 A264.0597 
N281 X-178.099 Y20.390 Z8.537 A261.5942 
N282 X-178.097 Y20.397 Z8.473 A258.8806 
N283 X-178.096 Y20.401 Z8.397 A255.6204 
N284 X-178.095 Y20.402 Z8.304 A251.6830 
N285 X-178.094 Y20.396 Z8.193 A246.9494 
N286 X-178.093 Y20.375 Z8.050 A240.8160 
N287 X-178.092 Y20.333 Z7.893 A233.9953 
N288 X-178.091 Y20.267 Z7.731 A226.7903 
N289 X-178.090 Y20.189 Z7.593 A220.6490 
N290 X-178.089 Y20.120 Z7.503 A217.0288 
N291 X-178.089 Y20.061 Z7.444 A215.3918 
N292 X-178.089 Y20.000 Z7.394 A214.8143 
N293 X-178.089 Y19.928 Z7.338 A214.6530 
N294 X-178.090 Y19.835 Z7.266 A214.5723 
N295 X-178.091 Y19.716 Z7.172 A214.5064 
N296 X-178.093 Y19.565 Z7.053 A214.4453 
N297 X-178.095 Y19.377 Z6.903 A214.3805 
N298 X-178.098 Y19.148 Z6.719 A214.3051 
N299 X-178.102 Y18.870 Z6.496 A214.2125 
N300 X-178.108 Y18.542 Z6.232 A214.0949 
N301 X-178.114 Y18.159 Z5.923 A213.9428 
N302 X-178.121 Y17.719 Z5.571 A213.7453 
N303 X-178.130 Y17.224 Z5.174 A213.4904 
N304 X-178.139 Y16.673 Z4.736 A213.1668 
N305 X-178.150 Y16.072 Z4.263 A212.7634 
N306 X-178.162 Y15.424 Z3.759 A212.2688 
N307 X-178.174 Y14.736 Z3.233 A211.6706 
N308 X-178.188 Y14.017 Z2.694 A210.9551 
N309 X-178.202 Y13.274 Z2.150 A210.1089 
N310 X-178.216 Y12.516 Z1.613 A209.1235 
N311 X-178.231 Y11.753 Z1.091 A207.9949 
N312 X-178.247 Y10.993 Z0.594 A206.7214 
N313 X-178.262 Y10.243 Z0.127 A205.3039 
N314 X-178.277 Y9.511 Z-0.304 A203.7461 
N315 X-178.292 Y8.804 Z-0.694 A202.0534 
N316 X-178.307 Y8.124 Z-1.043 A200.2336 
N317 X-178.321 Y7.476 Z-1.350 A198.2993 
N318 X-178.335 Y6.862 Z-1.615 A196.2702 
N319 X-178.348 Y6.282 Z-1.841 A194.1696 
N320 X-178.361 Y5.737 Z-2.031 A192.0179 
N321 X-178.373 Y5.226 Z-2.187 A189.8312 
N322 X-178.384 Y4.746 Z-2.315 A187.6222 
N323 X-178.395 Y4.296 Z-2.417 A185.4013 
N324 X-178.405 Y3.873 Z-2.496 A183.1764 
N325 X-178.415 Y3.474 Z-2.555 A180.9538 
N326 X-178.425 Y3.097 Z-2.596 A178.7378 
N327 X-178.433 Y2.738 Z-2.622 A176.5313 
N328 X-178.442 Y2.396 Z-2.633 A174.3357 
N329 X-178.450 Y2.069 Z-2.633 A172.1512 
N330 X-178.458 Y1.754 Z-2.620 A169.9778 
N331 X-178.466 Y1.450 Z-2.597 A167.8147 
N332 X-178.474 Y1.156 Z-2.563 A165.6611 
N333 X-178.481 Y0.869 Z-2.520 A163.5162 
N334 X-178.489 Y0.590 Z-2.467 A161.3789 
N335 X-178.496 Y0.317 Z-2.404 A159.2482 
N336 X-178.504 Y0.049 Z-2.333 A157.1233 
N337 X-178.511 Y-0.214 Z-2.252 A155.0037 
N338 X-178.518 Y-0.474 Z-2.162 A152.8890 
N339 X-178.526 Y-0.730 Z-2.062 A150.7795 
N340 X-178.533 Y-0.983 Z-1.952 A148.6756 
N341 X-178.541 Y-1.234 Z-1.832 A146.5780 
N342 X-178.548 Y-1.483 Z-1.701 A144.4875 
N343 X-178.556 Y-1.731 Z-1.559 A142.4055 
N344 X-178.564 Y-1.977 Z-1.406 A140.3338 
N345 X-178.572 Y-2.221 Z-1.241 A138.2748 
N346 X-178.580 Y-2.464 Z-1.063 A136.2312 
N347 X-178.589 Y-2.706 Z-0.873 A134.2063 
N348 X-178.597 Y-2.946 Z-0.669 A132.2035 
N349 X-178.606 Y-3.184 Z-0.451 A130.2266 
N350 X-178.615 Y-3.419 Z-0.220 A128.2792 
N351 X-178.624 Y-3.652 Z0.025 A126.3652 
N352 X-178.633 Y-3.881 Z0.283 A124.4883 
N353 X-178.642 Y-4.106 Z0.555 A122.6516 
N354 X-178.652 Y-4.326 Z0.839 A120.8575 
N355 X-178.661 Y-4.540 Z1.135 A119.1065 
N356 X-178.670 Y-4.748 Z1.442 A117.3974 
N357 X-178.680 Y-4.948 Z1.757 A115.7271 
N358 X-178.689 Y-5.140 Z2.080 A114.0921 
N359 X-178.698 Y-5.322 Z2.408 A112.4901 
N360 X-178.707 Y-5.495 Z2.739 A110.9220 
N361 X-178.715 Y-5.656 Z3.072 A109.3901 
N362 X-178.723 Y-5.806 Z3.402 A107.8948 
N363 X-178.731 Y-5.944 Z3.729 A106.4318 
N364 X-178.738 Y-6.070 Z4.049 A104.9909 
N365 X-178.745 Y-6.184 Z4.361 A103.5598 
N366 X-178.751 Y-6.286 Z4.662 A102.1272 
N367 X-178.757 Y-6.377 Z4.951 A100.6855 
N368 X-178.762 Y-6.456 Z5.226 A99.2299 
N369 X-178.767 Y-6.525 Z5.486 A97.7557 
N370 X-178.770 Y-6.583 Z5.730 A96.2576 
N371 X-178.774 Y-6.631 Z5.958 A94.7326 
N372 X-178.777 Y-6.671 Z6.170 A93.1838 
N373 X-178.779 Y-6.703 Z6.365 A91.6123 
N374 X-178.781 Y-6.728 Z6.544 A90.0086 
N375 X-178.782 Y-6.747 Z6.708 A88.3560 
N376 X-178.783 Y-6.761 Z6.858 A86.6404 
N377 X-178.784 Y-6.771 Z6.995 A84.8499 
N378 X-178.784 Y-6.777 Z7.121 A82.9736 
N379 X-178.785 Y-6.781 Z7.237 A81.0026 
N380 X-178.784 Y-6.781 Z7.344 A78.9320 
N381 X-178.784 Y-6.779 Z7.443 A76.7622 
N382 X-178.784 Y-6.775 Z7.536 A74.5000 
N383 X-178.783 Y-6.769 Z7.623 A72.1578 
N384 X-178.782 Y-6.760 Z7.704 A69.7539 
N385 X-178.781 Y-6.750 Z7.781 A67.3101 
N386 X-178.781 Y-6.738 Z7.854 A64.8484 
N387 X-178.780 Y-6.724 Z7.923 A62.3883 
N388 X-178.779 Y-6.708 Z7.988 A59.9450 
N389 X-178.777 Y-6.690 Z8.049 A57.5292 
N390 X-178.776 Y-6.671 Z8.108 A55.1477 
N391 X-178.775 Y-6.650 Z8.164 A52.8036 
N392 X-178.774 Y-6.628 Z8.217 A50.4973 
N393 X-178.773 Y-6.605 Z8.268 A48.2268 
N394 X-178.771 Y-6.580 Z8.317 A45.9888 
N395 X-178.770 Y-6.554 Z8.364 A43.7783 
N396 X-178.769 Y-6.527 Z8.410 A41.5898 
N397 X-178.767 Y-6.498 Z8.453 A39.4172 
N398 X-178.766 Y-6.467 Z8.496 A37.2541 
N399 X-178.765 Y-6.435 Z8.538 A35.0939 
N400 X-178.763 Y-6.401 Z8.578 A32.9297 
N401 X-178.762 Y-6.366 Z8.617 A30.7544 
N402 X-178.760 Y-6.328 Z8.656 A28.5607 
N403 X-178.759 Y-6.288 Z8.694 A26.3415 
N404 X-178.757 Y-6.246 Z8.731 A24.0895 
N405 X-178.755 Y-6.201 Z8.768 A21.7982 
N406 X-178.754 Y-6.152 Z8.804 A19.4623 
N407 X-178.752 Y-6.100 Z8.839 A17.0783 
N408 X-178.750 Y-6.043 Z8.874 A14.6455 
N409 X-178.748 Y-5.982 Z8.907 A12.1670 
N410 X-178.746 Y-5.914 Z8.940 A9.6507 
N411 X-178.743 Y-5.840 Z8.971 A7.1099 
N412 X-178.740 Y-5.758 Z8.999 A4.5627 
N413 X-178.738 Y-5.667 Z9.025 A2.0296 
N414 X-178.734 Y-5.564 Z9.048 A359.5295 
N415 X-178.730 Y-5.449 Z9.067 A357.0775 
N416 X-178.726 Y-5.319 Z9.080 A354.6848 
N417 X-178.721 Y-5.170 Z9.087 A352.3595 
N418 X-178.715 Y-5.001 Z9.086 A350.1101 
N419 X-178.709 Y-4.807 Z9.075 A347.9467 
N420 X-178.701 Y-4.586 Z9.052 A345.8755 
N421 X-178.692 Y-4.334 Z9.014 A343.8970 
N422 X-178.681 Y-4.048 Z8.959 A342.0239 
N423 X-178.669 Y-3.727 Z8.884 A340.2872 
N424 X-178.656 Y-3.369 Z8.787 A338.7117 
N425 X-178.641 Y-2.973 Z8.666 A337.3114 
N426 X-178.624 Y-2.539 Z8.520 A336.0949 
N427 X-178.605 Y-2.069 Z8.350 A335.0582 
N428 X-178.585 Y-1.564 Z8.158 A334.3263 
N429 X-178.564 Y-1.028 Z7.946 A333.8633 
N430 X-178.541 Y-0.464 Z7.718 A333.6545 
N431 X-178.517 Y0.124 Z7.477 A333.7075 
N432 X-178.493 Y0.730 Z7.227 A334.0448 
N433 X-178.468 Y1.349 Z6.976 A334.6932 
N434 X-178.442 Y1.977 Z6.729 A335.6739 
N435 X-178.417 Y2.609 Z6.492 A336.9930 
N436 X-178.391 Y3.242 Z6.272 A338.6398 
N437 X-178.366 Y3.871 Z6.072 A340.5993 
N438 X-178.341 Y4.496 Z5.898 A342.7135 
N439 X-178.318 Y5.115 Z5.750 A344.9609 
N440 X-178.294 Y5.727 Z5.630 A347.3074 
N441 X-178.272 Y6.331 Z5.539 A349.7151 
N442 X-178.250 Y6.927 Z5.475 A352.1488 
N443 X-178.229 Y7.518 Z5.439 A354.5780 
N444 X-178.208 Y8.105 Z5.428 A356.9768 
N445 X-178.188 Y8.688 Z5.443 A359.3230 
N446 X-178.169 Y9.271 Z5.483 A1.5976 
N447 X-178.150 Y9.853 Z5.547 A3.7845 
N448 X-178.131 Y10.435 Z5.634 A5.8695 
N449 X-178.113 Y11.017 Z5.744 A7.8409 
N450 X-178.095 Y11.597 Z5.875 A9.6893 
N451 X-178.077 Y12.172 Z6.025 A11.4086 
N452 X-178.061 Y12.740 Z6.192 A12.9963 
N453 X-178.045 Y13.296 Z6.372 A14.4522 
N454 X-178.029 Y13.837 Z6.562 A15.7783 
N455 X-178.014 Y14.358 Z6.759 A16.9777 
N456 X-178.000 Y14.854 Z6.957 A18.0541 
N457 X-177.987 Y15.321 Z7.154 A19.0093 
N458 X-177.975 Y15.755 Z7.346 A19.8433 
N459 X-177.965 Y16.155 Z7.528 A20.5588 
N460 X-177.955 Y16.517 Z7.698 A21.1642 
N461 X-177.946 Y16.841 Z7.853 A21.6731 
N462 X-177.938 Y17.126 Z7.992 A22.1003 
N463 X-177.931 Y17.374 Z8.115 A22.4587 
N464 X-177.924 Y17.587 Z8.220 A22.7575 
N465 X-177.919 Y17.766 Z8.309 A23.0024 
N466 X-177.914 Y17.915 Z8.383 A23.1954 
N467 X-177.910 Y18.036 Z8.444 A23.3343 
N468 X-177.907 Y18.135 Z8.492 A23.4108 
N469 X-177.904 Y18.213 Z8.532 A23.3372 
N470 X-177.902 Y18.276 Z8.563 A23.0623 
N471 X-177.899 Y18.327 Z8.592 A22.3002 
N472 X-177.898 Y18.372 Z8.626 A20.4153 
N473 X-177.896 Y18.417 Z8.668 A17.0344 
N474 X-177.894 Y18.466 Z8.718 A12.0521 
N475 X-177.893 Y18.518 Z8.768 A6.4366 
N476 X-177.891 Y18.570 Z8.811 A0.8257 
N477 X-177.890 Y18.621 Z8.848 A355.3820 
N478 X-177.888 Y18.665 Z8.875 A350.7615 
N479 X-177.887 Y18.704 Z8.894 A346.8940 
N480 X-177.886 Y18.736 Z8.907 A343.7028 
N481 X-177.885 Y18.765 Z8.917 A340.8446 
N482 X-177.883 Y18.792 Z8.924 A338.2761 
N483 X-177.882 Y18.815 Z8.930 A335.9564 
N484 X-177.881 Y18.838 Z8.934 A333.7400 
N485 X-177.880 Y18.860 Z8.936 A331.6103 
N486 X-177.878 Y18.881 Z8.938 A329.5478 
N487 X-177.877 Y18.902 Z8.940 A327.5367 
N488 X-177.876 Y18.922 Z8.940 A325.5638 
N489 X-177.875 Y18.942 Z8.940 A323.6191 
N490 X-177.873 Y18.961 Z8.939 A321.6949 
N491 X-177.872 Y18.980 Z8.937 A319.7852 
N492 X-177.871 Y18.999 Z8.935 A317.8863 
N493 X-177.870 Y19.018 Z8.933 A315.9943 
N494 X-177.869 Y19.037 Z8.929 A314.1075 
N495 X-177.867 Y19.055 Z8.926 A312.2244 
N496 X-177.866 Y19.073 Z8.921 A310.3432 
N497 X-177.865 Y19.091 Z8.916 A308.4638 
N498 X-177.864 Y19.108 Z8.911 A306.5857 
N499 X-177.862 Y19.126 Z8.905 A304.7083 
N500 X-177.861 Y19.143 Z8.899 A302.8317 
N501 X-177.860 Y19.160 Z8.893 A300.9557 
N502 X-177.859 Y19.176 Z8.886 A299.0802 
N503 X-177.858 Y19.192 Z8.878 A297.2054 
N504 X-177.856 Y19.208 Z8.870 A295.3311 
N505 X-177.855 Y19.224 Z8.862 A293.4571 
N506 X-177.854 Y19.239 Z8.853 A291.5832 
N507 X-177.853 Y19.254 Z8.844 A289.7091 
N508 X-177.852 Y19.268 Z8.835 A287.8342 
N509 X-177.850 Y19.282 Z8.825 A285.9573 
N510 X-177.849 Y19.296 Z8.815 A284.0777 
N511 X-177.848 Y19.310 Z8.805 A282.1931 
N512 X-177.847 Y19.323 Z8.794 A280.3008 
N513 X-177.846 Y19.336 Z8.783 A278.3977 
N514 X-177.844 Y19.348 Z8.772 A276.4781 
N515 X-177.843 Y19.361 Z8.760 A274.5358 
N516 X-177.842 Y19.373 Z8.748 A272.5611 
N517 X-177.841 Y19.385 Z8.736 A270.5423 
N518 X-177.840 Y19.397 Z8.723 A268.4639 
N519 X-177.839 Y19.410 Z8.709 A266.3090 
N520 X-177.838 Y19.422 Z8.694 A264.0597 
N521 X-177.836 Y19.435 Z8.678 A261.5942 
N522 X-177.835 Y19.450 Z8.659 A258.8806 
N523 X-177.834 Y19.467 Z8.636 A255.6204 
N524 X-177.833 Y19.486 Z8.608 A251.6830 
N525 X-177.832 Y19.508 Z8.571 A246.9494 
N526 X-177.831 Y19.532 Z8.521 A240.8160 
N527 X-177.830 Y19.553 Z8.461 A233.9953 
N528 X-177.829 Y19.564 Z8.391 A226.7903 
N529 X-177.828 Y19.560 Z8.325 A220.6490 
N530 X-177.827 Y19.539 Z8.273 A217.0288 
N531 X-177.828 Y19.504 Z8.227 A215.3918 
N532 X-177.829 Y19.454 Z8.180 A214.8143 
N533 X-177.830 Y19.386 Z8.122 A214.6530 
N534 X-177.832 Y19.296 Z8.047 A214.5723 
N535 X-177.834 Y19.180 Z7.951 A214.5064 
N536 X-177.837 Y19.033 Z7.829 A214.4453 
N537 X-177.840 Y18.848 Z7.677 A214.3805 
N538 X-177.845 Y18.622 Z7.490 A214.3051 
N539 X-177.850 Y18.348 Z7.264 A214.2125 
N540 X-177.856 Y18.023 Z6.998 A214.0949 
N541 X-177.864 Y17.645 Z6.687 A213.9428 
N542 X-177.872 Y17.210 Z6.333 A213.7453 
N543 X-177.882 Y16.720 Z5.935 A213.4904 
N544 X-177.892 Y16.176 Z5.497 A213.1668 
N545 X-177.904 Y15.582 Z5.024 A212.7634 
N546 X-177.917 Y14.943 Z4.521 A212.2688 
N547 X-177.931 Y14.265 Z3.996 A211.6706 
N548 X-177.945 Y13.558 Z3.459 A210.9551 
N549 X-177.960 Y12.828 Z2.919 A210.1089 
N550 X-177.976 Y12.086 Z2.386 A209.1235 
N551 X-177.992 Y11.340 Z1.869 A207.9949 
N552 X-178.008 Y10.598 Z1.377 A206.7214 
N553 X-178.025 Y9.870 Z0.916 A205.3039 
N554 X-178.041 Y9.162 Z0.491 A203.7461 
N555 X-178.057 Y8.479 Z0.107 A202.0534 
N556 X-178.073 Y7.826 Z-0.236 A200.2336 
N557 X-178.089 Y7.207 Z-0.537 A198.2993 
N558 X-178.103 Y6.623 Z-0.797 A196.2702 
N559 X-178.118 Y6.075 Z-1.018 A194.1696 
N560 X-178.132 Y5.562 Z-1.205 A192.0179 
N561 X-178.145 Y5.083 Z-1.359 A189.8312 
N562 X-178.157 Y4.636 Z-1.486 A187.6222 
N563 X-178.169 Y4.218 Z-1.588 A185.4013 
N564 X-178.180 Y3.827 Z-1.669 A183.1764 
N565 X-178.191 Y3.460 Z-1.730 A180.9538 
N566 X-178.202 Y3.115 Z-1.776 A178.7378 
N567 X-178.212 Y2.787 Z-1.807 A176.5313 
N568 X-178.221 Y2.476 Z-1.825 A174.3357 
N569 X-178.231 Y2.179 Z-1.832 A172.1512 
N570 X-178.240 Y1.894 Z-1.828 A169.9778 
N571 X-178.249 Y1.619 Z-1.814 A167.8147 
N572 X-178.258 Y1.353 Z-1.792 A165.6611 
N573 X-178.266 Y1.094 Z-1.760 A163.5162 
N574 X-178.275 Y0.842 Z-1.720 A161.3789 
N575 X-178.283 Y0.595 Z-1.671 A159.2482 
N576 X-178.292 Y0.352 Z-1.614 A157.1233 
N577 X-178.300 Y0.114 Z-1.549 A155.0037 
N578 X-178.309 Y-0.122 Z-1.474 A152.8890 
N579 X-178.317 Y-0.355 Z-1.391 A150.7795 
N580 X-178.326 Y-0.586 Z-1.299 A148.6756 
N581 X-178.334 Y-0.816 Z-1.197 A146.5780 
N582 X-178.343 Y-1.044 Z-1.086 A144.4875 
N583 X-178.352 Y-1.272 Z-0.964 A142.4055 
N584 X-178.361 Y-1.499 Z-0.830 A140.3338 
N585 X-178.370 Y-1.726 Z-0.686 A138.2748 
N586 X-178.379 Y-1.952 Z-0.529 A136.2312 
N587 X-178.389 Y-2.178 Z-0.360 A134.2063 
N588 X-178.398 Y-2.404 Z-0.177 A132.2035 
N589 X-178.408 Y-2.628 Z0.019 A130.2266 
N590 X-178.418 Y-2.851 Z0.228 A128.2792 
N591 X-178.428 Y-3.072 Z0.452 A126.3652 
N592 X-178.439 Y-3.291 Z0.689 A124.4883 
N593 X-178.449 Y-3.507 Z0.939 A122.6516 
N594 X-178.459 Y-3.718 Z1.202 A120.8575 
N595 X-178.470 Y-3.925 Z1.478 A119.1065 
N596 X-178.480 Y-4.127 Z1.764 A117.3974 
N597 X-178.491 Y-4.321 Z2.059 A115.7271 
N598 X-178.501 Y-4.508 Z2.362 A114.0921 
N599 X-178.511 Y-4.687 Z2.671 A112.4901 
N600 X-178.521 Y-4.856 Z2.983 A110.9220 
N601 X-178.531 Y-5.015 Z3.297 A109.3901 
N602 X-178.540 Y-5.163 Z3.610 A107.8948 
N603 X-178.549 Y-5.299 Z3.919 A106.4318 
N604 X-178.557 Y-5.425 Z4.222 A104.9909 
N605 X-178.565 Y-5.539 Z4.516 A103.5598 
N606 X-178.572 Y-5.642 Z4.801 A102.1272 
N607 X-178.579 Y-5.733 Z5.072 A100.6855 
N608 X-178.585 Y-5.813 Z5.330 A99.2299 
N609 X-178.591 Y-5.883 Z5.573 A97.7557 
N610 X-178.596 Y-5.943 Z5.800 A96.2576 
N611 X-178.600 Y-5.994 Z6.011 A94.7326 
N612 X-178.604 Y-6.037 Z6.205 A93.1838 
N613 X-178.607 Y-6.072 Z6.382 A91.6123 
N614 X-178.610 Y-6.100 Z6.544 A90.0086 
N615 X-178.613 Y-6.124 Z6.690 A88.3560 
N616 X-178.615 Y-6.143 Z6.821 A86.6404 
N617 X-178.617 Y-6.158 Z6.940 A84.8499 
N618 X-178.618 Y-6.171 Z7.046 A82.9736 
N619 X-178.620 Y-6.181 Z7.142 A81.0026 
N620 X-178.621 Y-6.189 Z7.228 A78.9320 
N621 X-178.621 Y-6.196 Z7.306 A76.7622 
N622 X-178.622 Y-6.202 Z7.377 A74.5000 
N623 X-178.622 Y-6.206 Z7.441 A72.1578 
N624 X-178.623 Y-6.210 Z7.501 A69.7539 
N625 X-178.623 Y-6.212 Z7.556 A67.3101 
N626 X-178.623 Y-6.214 Z7.608 A64.8484 
N627 X-178.623 Y-6.214 Z7.656 A62.3883 
N628 X-178.623 Y-6.213 Z7.702 A59.9450 
N629 X-178.623 Y-6.212 Z7.745 A57.5292 
N630 X-178.623 Y-6.209 Z7.786 A55.1477 
N631 X-178.623 Y-6.205 Z7.826 A52.8036 
N632 X-178.623 Y-6.200 Z7.864 A50.4973 
N633 X-178.623 Y-6.194 Z7.901 A48.2268 
N634 X-178.623 Y-6.187 Z7.937 A45.9888 
N635 X-178.623 Y-6.178 Z7.972 A43.7783 
N636 X-178.622 Y-6.169 Z8.007 A41.5898 
N637 X-178.622 Y-6.158 Z8.040 A39.4172 
N638 X-178.622 Y-6.146 Z8.074 A37.2541 
N639 X-178.622 Y-6.132 Z8.107 A35.0939 
N640 X-178.621 Y-6.117 Z8.139 A32.9297 
N641 X-178.621 Y-6.100 Z8.172 A30.7544 
N642 X-178.620 Y-6.082 Z8.204 A28.5607 
N643 X-178.620 Y-6.062 Z8.236 A26.3415 
N644 X-178.619 Y-6.039 Z8.269 A24.0895 
N645 X-178.619 Y-6.014 Z8.301 A21.7982 
N646 X-178.618 Y-5.986 Z8.334 A19.4623 
N647 X-178.617 Y-5.955 Z8.366 A17.0783 
N648 X-178.617 Y-5.919 Z8.399 A14.6455 
N649 X-178.616 Y-5.879 Z8.432 A12.1670 
N650 X-178.614 Y-5.833 Z8.464 A9.6507 
N651 X-178.613 Y-5.781 Z8.496 A7.1099 
N652 X-178.612 Y-5.720 Z8.526 A4.5627 
N653 X-178.610 Y-5.650 Z8.555 A2.0296 
N654 X-178.607 Y-5.568 Z8.582 A359.5295 
N655 X-178.605 Y-5.473 Z8.605 A357.0775 
N656 X-178.602 Y-5.361 Z8.624 A354.6848 
N657 X-178.598 Y-5.231 Z8.637 A352.3595 
N658 X-178.593 Y-5.078 Z8.642 A350.1101 
N659 X-178.587 Y-4.900 Z8.638 A347.9467 
N660 X-178.580 Y-4.694 Z8.623 A345.8755 
N661 X-178.573 Y-4.455 Z8.593 A343.8970 
N662 X-178.563 Y-4.182 Z8.546 A342.0239 
N663 X-178.552 Y-3.872 Z8.479 A340.2872 
N664 X-178.540 Y-3.523 Z8.390 A338.7117 
N665 X-178.526 Y-3.136 Z8.276 A337.3114 
N666 X-178.510 Y-2.709 Z8.138 A336.0949 
N667 X-178.493 Y-2.243 Z7.975 A335.0582 
N668 X-178.474 Y-1.742 Z7.789 A334.3263 
N669 X-178.453 Y-1.207 Z7.582 A333.8633 
N670 X-178.432 Y-0.643 Z7.358 A333.6545 
N671 X-178.409 Y-0.053 Z7.120 A333.7075 
N672 X-178.386 Y0.557 Z6.873 A334.0448 
N673 X-178.362 Y1.182 Z6.624 A334.6932 
N674 X-178.337 Y1.818 Z6.377 A335.6739 
N675 X-178.313 Y2.460 Z6.141 A336.9930 
N676 X-178.288 Y3.104 Z5.920 A338.6398 
N677 X-178.264 Y3.747 Z5.720 A340.5993 
N678 X-178.241 Y4.386 Z5.544 A342.7135 
N679 X-178.218 Y5.020 Z5.396 A344.9609 
N680 X-178.196 Y5.647 Z5.277 A347.3074 
N681 X-178.175 Y6.267 Z5.187 A349.7151 
N682 X-178.154 Y6.879 Z5.125 A352.1488 
N683 X-178.134 Y7.485 Z5.090 A354.5780 
N684 X-178.114 Y8.086 Z5.083 A356.9768 
N685 X-178.095 Y8.684 Z5.101 A359.3230 
N686 X-178.077 Y9.280 Z5.145 A1.5976 
N687 X-178.059 Y9.875 Z5.214 A3.7845 
N688 X-178.041 Y10.469 Z5.306 A5.8695 
N689 X-178.024 Y11.061 Z5.422 A7.8409 
N690 X-178.007 Y11.651 Z5.558 A9.6893 
N691 X-177.991 Y12.235 Z5.714 A11.4086 
N692 X-177.975 Y12.810 Z5.886 A12.9963 
N693 X-177.960 Y13.374 Z6.072 A14.4522 
N694 X-177.946 Y13.920 Z6.268 A15.7783 
N695 X-177.932 Y14.446 Z6.470 A16.9777 
N696 X-177.920 Y14.946 Z6.674 A18.0541 
N697 X-177.908 Y15.416 Z6.877 A19.0093 
N698 X-177.897 Y15.854 Z7.074 A19.8433 
N699 X-177.887 Y16.255 Z7.261 A20.5588 
N700 X-177.878 Y16.618 Z7.436 A21.1642 
N701 X-177.870 Y16.943 Z7.596 A21.6731 
N702 X-177.863 Y17.229 Z7.739 A22.1003 
N703 X-177.857 Y17.477 Z7.866 A22.4587 
N704 X-177.852 Y17.690 Z7.975 A22.7575 
N705 X-177.848 Y17.868 Z8.069 A23.0024 
N706 X-177.844 Y18.016 Z8.147 A23.1954 
N707 X-177.842 Y18.137 Z8.211 A23.3343 
N708 X-177.839 Y18.234 Z8.264 A23.4108 
N709 X-177.838 Y18.310 Z8.306 A23.3372 
N710 X-177.836 Y18.370 Z8.342 A23.0623 
N711 X-177.835 Y18.417 Z8.373 A22.3002 
N712 X-177.834 Y18.454 Z8.407 A20.4153 
N713 X-177.833 Y18.484 Z8.448 A17.0344 
N714 X-177.833 Y18.513 Z8.498 A12.0521 
N715 X-177.832 Y18.543 Z8.548 A6.4366 
N716 X-177.832 Y18.573 Z8.594 A0.8257 
N717 X-177.832 Y18.604 Z8.636 A355.3820 
N718 X-177.832 Y18.632 Z8.669 A350.7615 
N719 X-177.831 Y18.657 Z8.694 A346.8940 
N720 X-177.831 Y18.680 Z8.714 A343.7028 
N721 X-177.831 Y18.701 Z8.731 A340.8446 
N722 X-177.831 Y18.720 Z8.745 A338.2761 
N723 X-177.831 Y18.738 Z8.757 A335.9564 
N724 X-177.831 Y18.756 Z8.768 A333.7400 
N725 X-177.830 Y18.774 Z8.777 A331.6103 
N726 X-177.830 Y18.792 Z8.786 A329.5478 
N727 X-177.830 Y18.809 Z8.794 A327.5367 
N728 X-177.830 Y18.826 Z8.801 A325.5638 
N729 X-177.830 Y18.844 Z8.807 A323.6191 
N730 X-177.830 Y18.861 Z8.813 A321.6949 
N731 X-177.830 Y18.879 Z8.818 A319.7852 
N732 X-177.830 Y18.897 Z8.822 A317.8863 
N733 X-177.829 Y18.915 Z8.826 A315.9943 
N734 X-177.829 Y18.933 Z8.829 A314.1075 
N735 X-177.829 Y18.951 Z8.831 A312.2244 
N736 X-177.829 Y18.969 Z8.833 A310.3432 
N737 X-177.829 Y18.987 Z8.834 A308.4638 
N738 X-177.829 Y19.005 Z8.835 A306.5857 
N739 X-177.829 Y19.023 Z8.835 A304.7083 
N740 X-177.828 Y19.041 Z8.834 A302.8317 
N741 X-177.828 Y19.060 Z8.833 A300.9557 
N742 X-177.828 Y19.078 Z8.831 A299.0802 
N743 X-177.828 Y19.096 Z8.828 A297.2054 
N744 X-177.828 Y19.114 Z8.825 A295.3311 
N745 X-177.828 Y19.131 Z8.822 A293.4571 
N746 X-177.828 Y19.149 Z8.818 A291.5832 
N747 X-177.828 Y19.167 Z8.813 A289.7091 
N748 X-177.828 Y19.184 Z8.808 A287.8342 
N749 X-177.827 Y19.201 Z8.802 A285.9573 
N750 X-177.827 Y19.218 Z8.795 A284.0777 
N751 X-177.827 Y19.235 Z8.789 A282.1931 
N752 X-177.827 Y19.252 Z8.781 A280.3008 
N753 X-177.827 Y19.268 Z8.773 A278.3977 
N754 X-177.827 Y19.284 Z8.765 A276.4781 
N755 X-177.827 Y19.301 Z8.755 A274.5358 
N756 X-177.827 Y19.317 Z8.746 A272.5611 
N757 X-177.827 Y19.333 Z8.735 A270.5423 
N758 X-177.827 Y19.349 Z8.724 A268.4639 
N759 X-177.827 Y19.365 Z8.712 A266.3090 
N760 X-177.827 Y19.382 Z8.698 A264.0597 
N761 X-177.827 Y19.400 Z8.683 A261.5942 
N762 X-177.826 Y19.418 Z8.666 A258.8806 
N763 X-177.826 Y19.439 Z8.643 A255.6204 
N764 X-177.826 Y19.463 Z8.615 A251.6830 
N765 X-177.826 Y19.489 Z8.579 A246.9494 
N766 X-177.826 Y19.518 Z8.529 A240.8160 
N767 X-177.826 Y19.543 Z8.468 A233.9953 
N768 X-177.826 Y19.558 Z8.397 A226.7903 
N769 X-177.827 Y19.557 Z8.328 A220.6490 
N770 X-177.827 Y19.539 Z8.273 A217.0286 
N771 X-177.828 Y19.506 Z8.229 A215.4347 
N772 X-177.829 Y19.458 Z8.184 A214.8449 
N773 X-177.830 Y19.394 Z8.128 A214.6743 
N774 X-177.832 Y19.308 Z8.057 A214.5878 
N775 X-177.834 Y19.197 Z7.965 A214.5175 
N776 X-177.836 Y19.055 Z7.847 A214.4534 
N777 X-177.840 Y18.877 Z7.700 A214.3869 
N778 X-177.844 Y18.658 Z7.519 A214.3107 
N779 X-177.849 Y18.392 Z7.301 A214.2182 
N780 X-177.855 Y18.076 Z7.041 A214.1016 
N781 X-177.862 Y17.706 Z6.738 A213.9519 
N782 X-177.870 Y17.281 Z6.390 A213.7582 
N783 X-177.878 Y16.799 Z5.999 A213.5086 
N784 X-177.887 Y16.263 Z5.567 A213.1917 
N785 X-177.896 Y15.676 Z5.098 A212.7961 
N786 X-177.905 Y15.042 Z4.598 A212.3106 
N787 X-177.911 Y14.369 Z4.075 A211.7228 
N788 X-177.914 Y13.663 Z3.538 A211.0190 
N789 X-177.913 Y12.934 Z2.996 A210.1856 
N790 X-177.907 Y12.190 Z2.459 A209.2130 
N791 X-177.896 Y11.441 Z1.937 A208.0962 
N792 X-177.883 Y10.694 Z1.438 A206.8328 
N793 X-177.869 Y9.959 Z0.970 A205.4230 
N794 X-177.857 Y9.242 Z0.538 A203.8693 
N795 X-177.848 Y8.550 Z0.145 A202.1766 
N796 X-177.842 Y7.888 Z-0.206 A200.3521 
N797 X-177.839 Y7.258 Z-0.514 A198.4073 
N798 X-177.837 Y6.662 Z-0.781 A196.3609 
N799 X-177.838 Y6.103 Z-1.008 A194.2358 
N800 X-177.839 Y5.579 Z-1.199 A192.0527 
N801 X-177.842 Y5.089 Z-1.358 A189.8283 
N802 X-177.845 Y4.632 Z-1.487 A187.5759 
N803 X-177.849 Y4.205 Z-1.591 A185.3067 
N804 X-177.853 Y3.805 Z-1.673 A183.0296 
N805 X-177.857 Y3.430 Z-1.735 A180.7516 
N806 X-177.861 Y3.076 Z-1.780 A178.4779 
N807 X-177.866 Y2.742 Z-1.810 A176.2118 
N808 X-177.870 Y2.424 Z-1.827 A173.9555 
N809 X-177.875 Y2.120 Z-1.832 A171.7098 
N810 X-177.880 Y1.829 Z-1.826 A169.4747 
N811 X-177.885 Y1.548 Z-1.809 A167.2500 
N812 X-177.889 Y1.276 Z-1.783 A165.0350 
N813 X-177.894 Y1.012 Z-1.748 A162.8290 
N814 X-177.899 Y0.754 Z-1.703 A160.6310 
N815 X-177.904 Y0.502 Z-1.650 A158.4401 
N816 X-177.909 Y0.254 Z-1.588 A156.2556 
N817 X-177.914 Y0.010 Z-1.517 A154.0772 
N818 X-177.919 Y-0.232 Z-1.436 A151.9049 
N819 X-177.924 Y-0.470 Z-1.347 A149.7391 
N820 X-177.929 Y-0.707 Z-1.247 A147.5804 
N821 X-177.934 Y-0.942 Z-1.137 A145.4299 
N822 X-177.939 Y-1.177 Z-1.016 A143.2890 
N823 X-177.944 Y-1.410 Z-0.884 A141.1594 
N824 X-177.949 Y-1.643 Z-0.740 A139.0435 
N825 X-177.954 Y-1.875 Z-0.584 A136.9443 
N826 X-177.959 Y-2.107 Z-0.415 A134.8651 
N827 X-177.965 Y-2.338 Z-0.232 A132.8095 
N828 X-177.970 Y-2.567 Z-0.036 A130.7814 
N829 X-177.975 Y-2.796 Z0.175 A128.7848 
N830 X-177.980 Y-3.022 Z0.400 A126.8235 
N831 X-177.985 Y-3.246 Z0.638 A124.9013 
N832 X-177.988 Y-3.466 Z0.891 A123.0215 
N833 X-177.991 Y-3.683 Z1.157 A121.1866 
N834 X-177.993 Y-3.894 Z1.435 A119.3974 
N835 X-177.994 Y-4.099 Z1.724 A117.6528 
N836 X-177.994 Y-4.298 Z2.023 A115.9499 
N837 X-177.993 Y-4.489 Z2.330 A114.2849 
N838 X-177.991 Y-4.671 Z2.642 A112.6553 
N839 X-177.988 Y-4.843 Z2.959 A111.0612 
N840 X-177.984 Y-5.005 Z3.277 A109.5046 
N841 X-177.979 Y-5.155 Z3.594 A107.9855 
N842 X-177.973 Y-5.294 Z3.907 A106.4997 
N843 X-177.967 Y-5.422 Z4.214 A105.0372 
N844 X-177.960 Y-5.537 Z4.512 A103.5855 
N845 X-177.952 Y-5.641 Z4.799 A102.1332 
N846 X-177.944 Y-5.734 Z5.074 A100.6725 
N847 X-177.936 Y-5.815 Z5.335 A99.1981 
N848 X-177.927 Y-5.885 Z5.580 A97.7051 
N849 X-177.919 Y-5.945 Z5.809 A96.1878 
N850 X-177.910 Y-5.996 Z6.021 A94.6434 
N851 X-177.901 Y-6.039 Z6.216 A93.0742 
N852 X-177.893 Y-6.074 Z6.394 A91.4804 
N853 X-177.885 Y-6.103 Z6.556 A89.8517 
N854 X-177.877 Y-6.126 Z6.703 A88.1714 
N855 X-177.869 Y-6.145 Z6.835 A86.4257 
N856 X-177.861 Y-6.160 Z6.953 A84.6029 
N857 X-177.854 Y-6.172 Z7.059 A82.6925 
N858 X-177.847 Y-6.182 Z7.155 A80.6862 
N859 X-177.840 Y-6.191 Z7.240 A78.5803 
N860 X-177.833 Y-6.197 Z7.318 A76.3771 
N861 X-177.826 Y-6.203 Z7.388 A74.0849 
N862 X-177.820 Y-6.207 Z7.453 A71.7179 
N863 X-177.815 Y-6.210 Z7.512 A69.2959 
N864 X-177.810 Y-6.212 Z7.567 A66.8417 
N865 X-177.806 Y-6.214 Z7.618 A64.3774 
N866 X-177.802 Y-6.214 Z7.665 A61.9222 
N867 X-177.798 Y-6.213 Z7.710 A59.4906 
N868 X-177.796 Y-6.211 Z7.753 A57.0928 
N869 X-177.793 Y-6.208 Z7.794 A54.7345 
N870 X-177.791 Y-6.204 Z7.833 A52.4181 
N871 X-177.790 Y-6.199 Z7.870 A50.1431 
N872 X-177.789 Y-6.193 Z7.906 A47.9066 
N873 X-177.788 Y-6.186 Z7.942 A45.7041 
N874 X-177.788 Y-6.177 Z7.976 A43.5299 
N875 X-177.788 Y-6.168 Z8.010 A41.3776 
N876 X-177.788 Y-6.157 Z8.043 A39.2402 
N877 X-177.789 Y-6.145 Z8.076 A37.1107 
N878 X-177.789 Y-6.132 Z8.108 A34.9819 
N879 X-177.791 Y-6.117 Z8.140 A32.8465 
N880 X-177.792 Y-6.100 Z8.172 A30.6973 
N881 X-177.794 Y-6.082 Z8.204 A28.5271 
N882 X-177.796 Y-6.062 Z8.236 A26.3289 
N883 X-177.798 Y-6.039 Z8.269 A24.0959 
N884 X-177.801 Y-6.014 Z8.301 A21.8222 
N885 X-177.804 Y-5.987 Z8.333 A19.5029 
N886 X-177.808 Y-5.956 Z8.366 A17.1352 
N887 X-177.812 Y-5.921 Z8.398 A14.7185 
N888 X-177.817 Y-5.881 Z8.431 A12.2560 
N889 X-177.821 Y-5.835 Z8.463 A9.7553 
N890 X-177.826 Y-5.783 Z8.494 A7.2290 
N891 X-177.831 Y-5.723 Z8.525 A4.6945 
N892 X-177.836 Y-5.654 Z8.554 A2.1716 
N893 X-177.841 Y-5.573 Z8.580 A359.6791 
N894 X-177.846 Y-5.479 Z8.604 A357.2322 
N895 X-177.849 Y-5.369 Z8.622 A354.8422 
N896 X-177.853 Y-5.239 Z8.636 A352.5178 
N897 X-177.855 Y-5.088 Z8.642 A350.2675 
N898 X-177.856 Y-4.912 Z8.639 A348.1009 
N899 X-177.856 Y-4.707 Z8.624 A346.0247 
N900 X-177.855 Y-4.471 Z8.595 A344.0394 
N901 X-177.853 Y-4.200 Z8.549 A342.1552 
N902 X-177.848 Y-3.892 Z8.484 A340.3999 
N903 X-177.841 Y-3.545 Z8.396 A338.7954 
N904 X-177.831 Y-3.159 Z8.283 A337.3512 
N905 X-177.819 Y-2.733 Z8.146 A336.0689 
N906 X-177.803 Y-2.269 Z7.984 A335.0821 
N907 X-177.785 Y-1.768 Z7.798 A334.3690 
N908 X-177.764 Y-1.233 Z7.592 A333.9112 
N909 X-177.739 Y-0.668 Z7.367 A333.7018 
N910 X-177.712 Y-0.076 Z7.129 A333.7524 
N911 X-177.681 Y0.537 Z6.881 A334.0870 
N912 X-177.648 Y1.166 Z6.629 A334.7330 
N913 X-177.613 Y1.807 Z6.381 A335.7113 
N914 X-177.578 Y2.456 Z6.142 A337.0263 
N915 X-177.542 Y3.108 Z5.919 A338.6624 
N916 X-177.507 Y3.760 Z5.716 A340.5922 
N917 X-177.473 Y4.410 Z5.538 A342.7864 
N918 X-177.440 Y5.056 Z5.389 A345.1008 
N919 X-177.408 Y5.696 Z5.269 A347.5070 
N920 X-177.376 Y6.329 Z5.179 A349.9700 
N921 X-177.346 Y6.956 Z5.119 A352.4557 
N922 X-177.317 Y7.578 Z5.088 A354.9334 
N923 X-177.288 Y8.195 Z5.085 A357.3759 
N924 X-177.260 Y8.809 Z5.109 A359.7597 
N925 X-177.233 Y9.421 Z5.160 A2.0644 
N926 X-177.206 Y10.030 Z5.236 A4.2727 
N927 X-177.180 Y10.638 Z5.337 A6.3700 
N928 X-177.154 Y11.242 Z5.462 A8.3442 
N929 X-177.130 Y11.842 Z5.607 A10.1866 
N930 X-177.105 Y12.433 Z5.772 A11.8925 
N931 X-177.082 Y13.014 Z5.952 A13.4604 
N932 X-177.060 Y13.579 Z6.145 A14.8916 
N933 X-177.039 Y14.125 Z6.346 A16.1889 
N934 X-177.019 Y14.647 Z6.552 A17.3566 
N935 X-177.000 Y15.141 Z6.757 A18.3984 
N936 X-176.983 Y15.602 Z6.960 A19.3159 
N937 X-176.967 Y16.027 Z7.154 A20.1105 
N938 X-176.953 Y16.416 Z7.338 A20.7876 
N939 X-176.941 Y16.764 Z7.508 A21.3586 
N940 X-176.930 Y17.074 Z7.661 A21.8383 
N941 X-176.921 Y17.344 Z7.798 A22.2411 
N942 X-176.913 Y17.577 Z7.917 A22.5789 
N943 X-176.906 Y17.775 Z8.020 A22.8597 
N944 X-176.900 Y17.939 Z8.106 A23.0887 
N945 X-176.895 Y18.075 Z8.178 A23.2677 
N946 X-176.892 Y18.184 Z8.236 A23.3943 
N947 X-176.889 Y18.271 Z8.284 A23.4025 
N948 X-176.886 Y18.340 Z8.323 A23.2540 
N949 X-176.885 Y18.393 Z8.357 A22.7003 
N950 X-176.884 Y18.434 Z8.388 A21.5756 
N951 X-176.884 Y18.467 Z8.424 A19.1686 
N952 X-176.884 Y18.496 Z8.467 A15.2810 
N953 X-176.885 Y18.524 Z8.515 A10.1552 
N954 X-176.886 Y18.552 Z8.562 A4.7528 
N955 X-176.887 Y18.580 Z8.605 A359.4459 
N956 X-176.887 Y18.609 Z8.642 A354.5022 
N957 X-176.887 Y18.634 Z8.671 A350.3486 
N958 X-176.886 Y18.657 Z8.694 A346.8623 
N959 X-176.886 Y18.678 Z8.713 A343.9641 
N960 X-176.885 Y18.697 Z8.728 A341.3687 
N961 X-176.885 Y18.714 Z8.741 A339.0205 
N962 X-176.884 Y18.732 Z8.753 A336.7842 
N963 X-176.884 Y18.749 Z8.763 A334.6447 
N964 X-176.883 Y18.766 Z8.773 A332.5780 
N965 X-176.883 Y18.783 Z8.782 A330.5661 
N966 X-176.882 Y18.800 Z8.790 A328.5936 
N967 X-176.881 Y18.817 Z8.797 A326.6489 
N968 X-176.880 Y18.834 Z8.804 A324.7213 
N969 X-176.880 Y18.851 Z8.810 A322.8049 
N970 X-176.879 Y18.869 Z8.815 A320.8934 
N971 X-176.878 Y18.887 Z8.819 A318.9833 
N972 X-176.877 Y18.904 Z8.824 A317.0719 
N973 X-176.876 Y18.923 Z8.827 A315.1558 
N974 X-176.875 Y18.941 Z8.830 A313.2345 
N975 X-176.873 Y18.959 Z8.832 A311.3074 
N976 X-176.872 Y18.978 Z8.834 A309.3727 
N977 X-176.871 Y18.997 Z8.834 A307.4309 
N978 X-176.870 Y19.016 Z8.835 A305.4824 
N979 X-176.868 Y19.035 Z8.834 A303.5265 
N980 X-176.867 Y19.054 Z8.833 A301.5634 
N981 X-176.865 Y19.073 Z8.831 A299.5938 
N982 X-176.864 Y19.092 Z8.829 A297.6176 
N983 X-176.862 Y19.111 Z8.826 A295.6346 
N984 X-176.861 Y19.130 Z8.822 A293.6451 
N985 X-176.859 Y19.148 Z8.818 A291.6491 
N986 X-176.858 Y19.167 Z8.813 A289.6465 
N987 X-176.856 Y19.186 Z8.807 A287.6367 
N988 X-176.854 Y19.204 Z8.801 A285.6191 
N989 X-176.853 Y19.222 Z8.794 A283.5928 
N990 X-176.851 Y19.241 Z8.786 A281.5566 
N991 X-176.849 Y19.258 Z8.778 A279.5089 
N992 X-176.847 Y19.276 Z8.769 A277.4472 
N993 X-176.846 Y19.294 Z8.759 A275.3680 
N994 X-176.844 Y19.311 Z8.749 A273.2677 
N995 X-176.842 Y19.328 Z8.738 A271.1405 
N996 X-176.840 Y19.345 Z8.727 A268.9784 
N997 X-176.838 Y19.362 Z8.714 A266.7717 
N998 X-176.836 Y19.379 Z8.701 A264.5071 
N999 X-176.834 Y19.396 Z8.687 A262.1677 
N1000 X-176.832 Y19.412 Z8.671 A259.7341 
N1001 X-176.830 Y19.429 Z8.654 A257.1852 
N1002 X-176.828 Y19.447 Z8.635 A254.3693 
N1003 X-176.826 Y19.466 Z8.612 A251.2553 
N1004 X-176.823 Y19.486 Z8.584 A247.5288 
N1005 X-176.819 Y19.508 Z8.548 A243.0910 
N1006 X-176.815 Y19.530 Z8.503 A237.8550 
N1007 X-176.811 Y19.548 Z8.449 A232.0271 
N1008 X-176.807 Y19.559 Z8.387 A225.8189 
N1009 X-176.804 Y19.557 Z8.324 A220.3778 
N1010 X-176.802 Y19.539 Z8.273 A217.0284 
N1011 X-176.801 Y19.507 Z8.231 A215.4749 
N1012 X-176.800 Y19.462 Z8.187 A214.8783 
N1013 X-176.800 Y19.401 Z8.135 A214.6993 
N1014 X-176.799 Y19.319 Z8.066 A214.6057 
N1015 X-176.797 Y19.212 Z7.977 A214.5292 
N1016 X-176.796 Y19.075 Z7.864 A214.4601 
N1017 X-176.794 Y18.903 Z7.722 A214.3894 
N1018 X-176.792 Y18.690 Z7.545 A214.3096 
N1019 X-176.789 Y18.430 Z7.331 A214.2136 
N1020 X-176.785 Y18.119 Z7.076 A214.0937 
N1021 X-176.781 Y17.754 Z6.776 A213.9405 
N1022 X-176.777 Y17.332 Z6.431 A213.7430 
N1023 X-176.772 Y16.852 Z6.041 A213.4892 
N1024 X-176.767 Y16.316 Z5.608 A213.1668 
N1025 X-176.762 Y15.726 Z5.136 A212.7638 
N1026 X-176.756 Y15.087 Z4.632 A212.2680 
N1027 X-176.751 Y14.405 Z4.102 A211.6663 
N1028 X-176.746 Y13.689 Z3.556 A210.9440 
N1029 X-176.742 Y12.946 Z3.004 A210.0864 
N1030 X-176.738 Y12.186 Z2.455 A209.0824 
N1031 X-176.735 Y11.417 Z1.920 A207.9253 
N1032 X-176.734 Y10.650 Z1.409 A206.6111 
N1033 X-176.733 Y9.893 Z0.928 A205.1384 
N1034 X-176.734 Y9.153 Z0.484 A203.5083 
N1035 X-176.736 Y8.437 Z0.082 A201.7248 
N1036 X-176.739 Y7.751 Z-0.276 A199.7946 
N1037 X-176.743 Y7.097 Z-0.589 A197.7301 
N1038 X-176.748 Y6.479 Z-0.859 A195.5518 
N1039 X-176.754 Y5.897 Z-1.086 A193.2831 
N1040 X-176.760 Y5.353 Z-1.275 A190.9452 
N1041 X-176.766 Y4.844 Z-1.430 A188.5558 
N1042 X-176.773 Y4.369 Z-1.554 A186.1299 
N1043 X-176.780 Y3.925 Z-1.650 A183.6805 
N1044 X-176.787 Y3.510 Z-1.723 A181.2186 
N1045 X-176.794 Y3.121 Z-1.775 A178.7529 
N1046 X-176.801 Y2.754 Z-1.810 A176.2902 
N1047 X-176.809 Y2.406 Z-1.828 A173.8349 
N1048 X-176.816 Y2.076 Z-1.832 A171.3899 
N1049 X-176.823 Y1.760 Z-1.823 A168.9568 
N1050 X-176.830 Y1.457 Z-1.802 A166.5360 
N1051 X-176.837 Y1.164 Z-1.769 A164.1278 
N1052 X-176.844 Y0.880 Z-1.726 A161.7316 
N1053 X-176.850 Y0.603 Z-1.673 A159.3469 
N1054 X-176.857 Y0.332 Z-1.609 A156.9730 
N1055 X-176.864 Y0.066 Z-1.534 A154.6096 
N1056 X-176.871 Y-0.196 Z-1.449 A152.2570 
N1057 X-176.878 Y-0.454 Z-1.353 A149.9160 
N1058 X-176.884 Y-0.710 Z-1.245 A147.5875 
N1059 X-176.891 Y-0.964 Z-1.126 A145.2733 
N1060 X-176.898 Y-1.215 Z-0.995 A142.9753 
N1061 X-176.905 Y-1.466 Z-0.850 A140.6963 
N1062 X-176.911 Y-1.715 Z-0.692 A138.4395 
N1063 X-176.918 Y-1.963 Z-0.521 A136.2087 
N1064 X-176.924 Y-2.209 Z-0.335 A134.0080 
N1065 X-176.931 Y-2.454 Z-0.134 A131.8417 
N1066 X-176.937 Y-2.696 Z0.082 A129.7142 
N1067 X-176.943 Y-2.936 Z0.313 A127.6297 
N1068 X-176.947 Y-3.173 Z0.559 A125.5921 
N1069 X-176.949 Y-3.405 Z0.820 A123.6048 
N1070 X-176.948 Y-3.633 Z1.095 A121.6703 
N1071 X-176.944 Y-3.855 Z1.382 A119.7895 
N1072 X-176.937 Y-4.070 Z1.682 A117.9611 
N1073 X-176.927 Y-4.277 Z1.991 A116.1820 
N1074 X-176.915 Y-4.476 Z2.309 A114.4478 
N1075 X-176.900 Y-4.665 Z2.632 A112.7550 
N1076 X-176.882 Y-4.843 Z2.959 A111.1031 
N1077 X-176.863 Y-5.009 Z3.287 A109.4928 
N1078 X-176.841 Y-5.164 Z3.614 A107.9233 
N1079 X-176.819 Y-5.306 Z3.935 A106.3892 
N1080 X-176.795 Y-5.436 Z4.250 A104.8797 
N1081 X-176.770 Y-5.553 Z4.555 A103.3818 
N1082 X-176.744 Y-5.658 Z4.848 A101.8838 
N1083 X-176.717 Y-5.751 Z5.127 A100.3780 
N1084 X-176.691 Y-5.831 Z5.391 A98.8585 
N1085 X-176.664 Y-5.901 Z5.638 A97.3198 
N1086 X-176.638 Y-5.960 Z5.868 A95.7561 
N1087 X-176.612 Y-6.010 Z6.080 A94.1656 
N1088 X-176.587 Y-6.051 Z6.275 A92.5503 
N1089 X-176.564 Y-6.085 Z6.452 A90.9073 
N1090 X-176.541 Y-6.112 Z6.611 A89.2237 
N1091 X-176.520 Y-6.134 Z6.755 A87.4845 
N1092 X-176.499 Y-6.152 Z6.884 A85.6782 
N1093 X-176.478 Y-6.166 Z7.000 A83.7954 
N1094 X-176.459 Y-6.177 Z7.102 A81.8293 
N1095 X-176.440 Y-6.186 Z7.194 A79.7770 
N1096 X-176.422 Y-6.193 Z7.276 A77.6415 
N1097 X-176.405 Y-6.199 Z7.350 A75.4319 
N1098 X-176.389 Y-6.204 Z7.417 A73.1634 
N1099 X-176.374 Y-6.208 Z7.477 A70.8549 
N1100 X-176.361 Y-6.210 Z7.532 A68.5294 
N1101 X-176.350 Y-6.212 Z7.582 A66.2105 
N1102 X-176.340 Y-6.213 Z7.629 A63.9177 
N1103 X-176.331 Y-6.213 Z7.672 A61.6669 
N1104 X-176.324 Y-6.212 Z7.712 A59.4691 
N1105 X-176.319 Y-6.211 Z7.750 A57.3306 
N1106 X-176.314 Y-6.208 Z7.786 A55.2539 
N1107 X-176.310 Y-6.205 Z7.820 A53.2375 
N1108 X-176.308 Y-6.201 Z7.852 A51.2776 
N1109 X-176.306 Y-6.197 Z7.883 A49.3688 
N1110 X-176.305 Y-6.192 Z7.913 A47.5035 
N1111 X-176.304 Y-6.186 Z7.942 A45.6728 
N1112 X-176.305 Y-6.179 Z7.971 A43.8675 
N1113 X-176.306 Y-6.171 Z7.999 A42.0783 
N1114 X-176.307 Y-6.163 Z8.026 A40.2960 
N1115 X-176.309 Y-6.154 Z8.054 A38.5118 
N1116 X-176.312 Y-6.143 Z8.081 A36.7175 
N1117 X-176.315 Y-6.132 Z8.109 A34.9055 
N1118 X-176.319 Y-6.119 Z8.136 A33.0686 
N1119 X-176.324 Y-6.105 Z8.164 A31.2007 
N1120 X-176.329 Y-6.089 Z8.193 A29.2970 
N1121 X-176.336 Y-6.072 Z8.221 A27.3526 
N1122 X-176.343 Y-6.053 Z8.250 A25.3632 
N1123 X-176.351 Y-6.032 Z8.279 A23.3261 
N1124 X-176.361 Y-6.008 Z8.309 A21.2398 
N1125 X-176.371 Y-5.982 Z8.338 A19.1031 
N1126 X-176.383 Y-5.953 Z8.368 A16.9165 
N1127 X-176.396 Y-5.920 Z8.398 A14.6805 
N1128 X-176.410 Y-5.884 Z8.429 A12.3990 
N1129 X-176.425 Y-5.842 Z8.459 A10.0772 
N1130 X-176.441 Y-5.795 Z8.488 A7.7242 
N1131 X-176.459 Y-5.741 Z8.517 A5.3519 
N1132 X-176.477 Y-5.679 Z8.545 A2.9756 
N1133 X-176.495 Y-5.607 Z8.570 A0.6110 
N1134 X-176.514 Y-5.523 Z8.594 A358.2719 
N1135 X-176.533 Y-5.425 Z8.614 A355.9699 
N1136 X-176.552 Y-5.311 Z8.630 A353.7142 
N1137 X-176.571 Y-5.178 Z8.640 A351.5130 
N1138 X-176.590 Y-5.022 Z8.642 A349.3753 
N1139 X-176.608 Y-4.841 Z8.635 A347.3107 
N1140 X-176.626 Y-4.630 Z8.616 A345.3237 
N1141 X-176.643 Y-4.388 Z8.583 A343.4167 
N1142 X-176.660 Y-4.111 Z8.532 A341.6054 
N1143 X-176.675 Y-3.797 Z8.461 A339.9154 
N1144 X-176.687 Y-3.444 Z8.368 A338.3614 
N1145 X-176.696 Y-3.051 Z8.250 A336.9474 
N1146 X-176.701 Y-2.619 Z8.108 A335.8001 
N1147 X-176.702 Y-2.148 Z7.940 A334.9160 
N1148 X-176.699 Y-1.640 Z7.749 A334.2863 
N1149 X-176.690 Y-1.097 Z7.538 A333.9027 
N1150 X-176.676 Y-0.524 Z7.309 A333.7683 
N1151 X-176.657 Y0.077 Z7.066 A333.9018 
N1152 X-176.633 Y0.700 Z6.814 A334.3317 
N1153 X-176.602 Y1.341 Z6.560 A335.0873 
N1154 X-176.568 Y1.996 Z6.309 A336.1889 
N1155 X-176.533 Y2.661 Z6.069 A337.6386 
N1156 X-176.499 Y3.332 Z5.846 A339.4184 
N1157 X-176.465 Y4.007 Z5.645 A341.4995 
N1158 X-176.432 Y4.682 Z5.471 A343.8485 
N1159 X-176.400 Y5.357 Z5.328 A346.3148 
N1160 X-176.368 Y6.030 Z5.217 A348.8663 
N1161 X-176.338 Y6.699 Z5.140 A351.4654 
N1162 X-176.309 Y7.364 Z5.095 A354.0749 
N1163 X-176.280 Y8.025 Z5.083 A356.6602 
N1164 X-176.253 Y8.683 Z5.102 A359.1898 
N1165 X-176.227 Y9.336 Z5.152 A1.6364 
N1166 X-176.201 Y9.986 Z5.231 A3.9767 
N1167 X-176.176 Y10.631 Z5.337 A6.1916 
N1168 X-176.152 Y11.270 Z5.469 A8.2665 
N1169 X-176.128 Y11.899 Z5.624 A10.1916 
N1170 X-176.106 Y12.517 Z5.798 A11.9623 
N1171 X-176.085 Y13.119 Z5.988 A13.5785 
N1172 X-176.066 Y13.701 Z6.189 A15.0429 
N1173 X-176.047 Y14.259 Z6.398 A16.3605 
N1174 X-176.030 Y14.788 Z6.610 A17.5372 
N1175 X-176.015 Y15.284 Z6.820 A18.5781 
N1176 X-176.001 Y15.745 Z7.025 A19.4862 
N1177 X-175.988 Y16.166 Z7.220 A20.2656 
N1178 X-175.977 Y16.547 Z7.402 A20.9251 
N1179 X-175.968 Y16.886 Z7.568 A21.4785 
N1180 X-175.959 Y17.184 Z7.717 A21.9415 
N1181 X-175.952 Y17.443 Z7.849 A22.3279 
N1182 X-175.946 Y17.663 Z7.962 A22.6484 
N1183 X-175.941 Y17.848 Z8.059 A22.9100 
N1184 X-175.937 Y18.001 Z8.139 A23.1161 
N1185 X-175.934 Y18.125 Z8.205 A23.2664 
N1186 X-175.931 Y18.224 Z8.259 A23.3553 
N1187 X-175.929 Y18.303 Z8.303 A23.3028 
N1188 X-175.928 Y18.364 Z8.338 A23.0690 
N1189 X-175.927 Y18.412 Z8.369 A22.4061 
N1190 X-175.928 Y18.449 Z8.402 A20.7662 
N1191 X-175.929 Y18.478 Z8.439 A17.8692 
N1192 X-175.931 Y18.505 Z8.483 A13.6471 
N1193 X-175.934 Y18.530 Z8.527 A8.8656 
N1194 X-175.936 Y18.556 Z8.568 A4.0165 
N1195 X-175.937 Y18.581 Z8.606 A359.2569 
N1196 X-175.938 Y18.605 Z8.638 A355.0908 
N1197 X-175.938 Y18.627 Z8.663 A351.5038 
N1198 X-175.938 Y18.647 Z8.684 A348.4486 
N1199 X-175.937 Y18.664 Z8.701 A345.8867 
N1200 X-175.937 Y18.680 Z8.715 A343.5488 
N1201 X-175.936 Y18.696 Z8.728 A341.4025 
N1202 X-175.936 Y18.712 Z8.739 A339.3464 
N1203 X-175.935 Y18.727 Z8.750 A337.3577 
N1204 X-175.934 Y18.742 Z8.760 A335.4190 
N1205 X-175.933 Y18.758 Z8.769 A333.5140 
N1206 X-175.932 Y18.773 Z8.777 A331.6287 
N1207 X-175.931 Y18.789 Z8.785 A329.7526 
N1208 X-175.930 Y18.806 Z8.793 A327.8770 
N1209 X-175.929 Y18.822 Z8.799 A325.9927 
N1210 X-175.927 Y18.839 Z8.806 A324.0967 
N1211 X-175.926 Y18.857 Z8.811 A322.1829 
N1212 X-175.924 Y18.875 Z8.817 A320.2482 
N1213 X-175.922 Y18.893 Z8.821 A318.2910 
N1214 X-175.920 Y18.911 Z8.825 A316.3078 
N1215 X-175.918 Y18.931 Z8.828 A314.2959 
N1216 X-175.916 Y18.950 Z8.831 A312.2566 
N1217 X-175.914 Y18.970 Z8.833 A310.1897 
N1218 X-175.911 Y18.990 Z8.834 A308.0944 
N1219 X-175.909 Y19.011 Z8.835 A305.9696 
N1220 X-175.906 Y19.032 Z8.835 A303.8158 
N1221 X-175.903 Y19.053 Z8.833 A301.6344 
N1222 X-175.900 Y19.074 Z8.831 A299.4264 
N1223 X-175.897 Y19.096 Z8.829 A297.1925 
N1224 X-175.894 Y19.117 Z8.825 A294.9333 
N1225 X-175.890 Y19.139 Z8.820 A292.6494 
N1226 X-175.887 Y19.161 Z8.815 A290.3411 
N1227 X-175.883 Y19.182 Z8.808 A288.0091 
N1228 X-175.879 Y19.204 Z8.801 A285.6537 
N1229 X-175.875 Y19.225 Z8.793 A283.2755 
N1230 X-175.872 Y19.247 Z8.784 A280.8748 
N1231 X-175.868 Y19.268 Z8.773 A278.4521 
N1232 X-175.863 Y19.288 Z8.762 A276.0078 
N1233 X-175.859 Y19.309 Z8.751 A273.5424 
N1234 X-175.855 Y19.329 Z8.738 A271.0559 
N1235 X-175.851 Y19.348 Z8.724 A268.5478 
N1236 X-175.847 Y19.368 Z8.710 A266.0168 
N1237 X-175.842 Y19.386 Z8.694 A263.4593 
N1238 X-175.838 Y19.405 Z8.678 A260.8685 
N1239 X-175.834 Y19.422 Z8.661 A258.2330 
N1240 X-175.830 Y19.440 Z8.642 A255.5364 
N1241 X-175.825 Y19.457 Z8.623 A252.7588 
N1242 X-175.821 Y19.473 Z8.601 A249.8789 
N1243 X-175.816 Y19.490 Z8.577 A246.7616 
N1244 X-175.811 Y19.507 Z8.550 A243.3583 
N1245 X-175.806 Y19.524 Z8.517 A239.3927 
N1246 X-175.799 Y19.541 Z8.476 A234.8404 
N1247 X-175.793 Y19.553 Z8.430 A230.0212 
N1248 X-175.786 Y19.560 Z8.376 A224.8246 
N1249 X-175.781 Y19.556 Z8.321 A220.0832 
N1250 X-175.777 Y19.539 Z8.273 A217.0282 
N1251 X-175.775 Y19.508 Z8.232 A215.5004 
N1252 X-175.774 Y19.464 Z8.189 A214.8984 
N1253 X-175.772 Y19.404 Z8.138 A214.7148 
N1254 X-175.771 Y19.325 Z8.071 A214.6169 
N1255 X-175.769 Y19.221 Z7.985 A214.5364 
N1256 X-175.766 Y19.087 Z7.874 A214.4639 
N1257 X-175.763 Y18.918 Z7.734 A214.3902 
N1258 X-175.759 Y18.709 Z7.561 A214.3076 
N1259 X-175.754 Y18.453 Z7.350 A214.2089 
N1260 X-175.748 Y18.146 Z7.098 A214.0861 
N1261 X-175.742 Y17.784 Z6.801 A213.9300 
N1262 X-175.735 Y17.365 Z6.458 A213.7293 
N1263 X-175.726 Y16.887 Z6.069 A213.4717 
N1264 X-175.718 Y16.351 Z5.636 A213.1445 
N1265 X-175.709 Y15.760 Z5.163 A212.7351 
N1266 X-175.700 Y15.117 Z4.656 A212.2307 
N1267 X-175.691 Y14.430 Z4.121 A211.6171 
N1268 X-175.682 Y13.706 Z3.569 A210.8791 
N1269 X-175.675 Y12.953 Z3.008 A210.0005 
N1270 X-175.668 Y12.181 Z2.450 A208.9691 
N1271 X-175.663 Y11.398 Z1.906 A207.7764 
N1272 X-175.660 Y10.614 Z1.384 A206.4167 
N1273 X-175.658 Y9.838 Z0.893 A204.8868 
N1274 X-175.658 Y9.078 Z0.440 A203.1864 
N1275 X-175.660 Y8.341 Z0.029 A201.3178 
N1276 X-175.664 Y7.633 Z-0.336 A199.2870 
N1277 X-175.668 Y6.957 Z-0.654 A197.1068 
N1278 X-175.675 Y6.317 Z-0.926 A194.7983 
N1279 X-175.682 Y5.714 Z-1.154 A192.3855 
N1280 X-175.690 Y5.149 Z-1.341 A189.8896 
N1281 X-175.699 Y4.620 Z-1.492 A187.3294 
N1282 X-175.708 Y4.126 Z-1.610 A184.7217 
N1283 X-175.717 Y3.664 Z-1.699 A182.0817 
N1284 X-175.727 Y3.232 Z-1.762 A179.4225 
N1285 X-175.736 Y2.826 Z-1.804 A176.7552 
N1286 X-175.746 Y2.444 Z-1.827 A174.0882 
N1287 X-175.756 Y2.081 Z-1.832 A171.4275 
N1288 X-175.765 Y1.736 Z-1.821 A168.7775 
N1289 X-175.775 Y1.406 Z-1.797 A166.1410 
N1290 X-175.784 Y1.088 Z-1.759 A163.5197 
N1291 X-175.793 Y0.780 Z-1.708 A160.9144 
N1292 X-175.802 Y0.482 Z-1.645 A158.3256 
N1293 X-175.812 Y0.190 Z-1.570 A155.7537 
N1294 X-175.821 Y-0.096 Z-1.482 A153.1994 
N1295 X-175.829 Y-0.377 Z-1.382 A150.6640 
N1296 X-175.838 Y-0.654 Z-1.269 A148.1494 
N1297 X-175.847 Y-0.928 Z-1.143 A145.6579 
N1298 X-175.855 Y-1.198 Z-1.003 A143.1923 
N1299 X-175.864 Y-1.467 Z-0.849 A140.7559 
N1300 X-175.872 Y-1.732 Z-0.680 A138.3527 
N1301 X-175.880 Y-1.995 Z-0.496 A135.9873 
N1302 X-175.888 Y-2.256 Z-0.297 A133.6641 
N1303 X-175.896 Y-2.514 Z-0.081 A131.3879 
N1304 X-175.903 Y-2.768 Z0.150 A129.1630 
N1305 X-175.910 Y-3.018 Z0.397 A126.9934 
N1306 X-175.912 Y-3.264 Z0.660 A124.8827 
N1307 X-175.909 Y-3.504 Z0.937 A122.8334 
N1308 X-175.901 Y-3.737 Z1.229 A120.8468 
N1309 X-175.888 Y-3.964 Z1.532 A118.9221 
N1310 X-175.870 Y-4.182 Z1.847 A117.0563 
N1311 X-175.848 Y-4.391 Z2.171 A115.2445 
N1312 X-175.821 Y-4.589 Z2.501 A113.4818 
N1313 X-175.789 Y-4.776 Z2.835 A111.7655 
N1314 X-175.755 Y-4.952 Z3.171 A110.0951 
N1315 X-175.717 Y-5.114 Z3.506 A108.4699 
N1316 X-175.677 Y-5.263 Z3.836 A106.8855 
N1317 X-175.635 Y-5.400 Z4.160 A105.3319 
N1318 X-175.592 Y-5.523 Z4.474 A103.7957 
N1319 X-175.547 Y-5.633 Z4.776 A102.2643 
N1320 X-175.502 Y-5.730 Z5.064 A100.7283 
N1321 X-175.457 Y-5.815 Z5.336 A99.1810 
N1322 X-175.412 Y-5.888 Z5.591 A97.6166 
N1323 X-175.367 Y-5.951 Z5.829 A96.0290 
N1324 X-175.324 Y-6.003 Z6.047 A94.4148 
N1325 X-175.282 Y-6.046 Z6.248 A92.7758 
N1326 X-175.243 Y-6.081 Z6.430 A91.1101 
N1327 X-175.205 Y-6.109 Z6.594 A89.4067 
N1328 X-175.169 Y-6.132 Z6.742 A87.6518 
N1329 X-175.134 Y-6.150 Z6.874 A85.8349 
N1330 X-175.101 Y-6.165 Z6.992 A83.9489 
N1331 X-175.069 Y-6.176 Z7.096 A81.9895 
N1332 X-175.039 Y-6.185 Z7.189 A79.9573 
N1333 X-175.009 Y-6.192 Z7.271 A77.8583 
N1334 X-174.982 Y-6.198 Z7.344 A75.7046 
N1335 X-174.957 Y-6.203 Z7.410 A73.5131 
N1336 X-174.934 Y-6.206 Z7.468 A71.3037 
N1337 X-174.913 Y-6.209 Z7.521 A69.0986 
N1338 X-174.896 Y-6.211 Z7.569 A66.9198 
N1339 X-174.880 Y-6.212 Z7.613 A64.7858 
N1340 X-174.867 Y-6.212 Z7.654 A62.7114 
N1341 X-174.856 Y-6.212 Z7.691 A60.7069 
N1342 X-174.847 Y-6.211 Z7.726 A58.7780 
N1343 X-174.840 Y-6.210 Z7.758 A56.9266 
N1344 X-174.834 Y-6.208 Z7.789 A55.1516 
N1345 X-174.829 Y-6.205 Z7.817 A53.4493 
N1346 X-174.826 Y-6.202 Z7.844 A51.8143 
N1347 X-174.823 Y-6.199 Z7.869 A50.2384 
N1348 X-174.822 Y-6.195 Z7.894 A48.7121 
N1349 X-174.821 Y-6.191 Z7.918 A47.2262 
N1350 X-174.821 Y-6.186 Z7.940 A45.7698 
N1351 X-174.821 Y-6.181 Z7.963 A44.3326 
N1352 X-174.822 Y-6.175 Z7.985 A42.9038 
N1353 X-174.824 Y-6.169 Z8.007 A41.4733 
N1354 X-174.826 Y-6.162 Z8.030 A40.0315 
N1355 X-174.829 Y-6.155 Z8.052 A38.5694 
N1356 X-174.833 Y-6.146 Z8.075 A37.0786 
N1357 X-174.838 Y-6.137 Z8.098 A35.5520 
N1358 X-174.843 Y-6.127 Z8.122 A33.9836 
N1359 X-174.850 Y-6.115 Z8.146 A32.3682 
N1360 X-174.858 Y-6.102 Z8.171 A30.7015 
N1361 X-174.867 Y-6.088 Z8.197 A28.9806 
N1362 X-174.877 Y-6.072 Z8.223 A27.2034 
N1363 X-174.889 Y-6.054 Z8.249 A25.3692 
N1364 X-174.902 Y-6.034 Z8.277 A23.4786 
N1365 X-174.917 Y-6.012 Z8.304 A21.5337 
N1366 X-174.934 Y-5.988 Z8.332 A19.5366 
N1367 X-174.952 Y-5.961 Z8.361 A17.4902 
N1368 X-174.972 Y-5.931 Z8.389 A15.3983 
N1369 X-174.995 Y-5.898 Z8.417 A13.2646 
N1370 X-175.018 Y-5.861 Z8.446 A11.0940 
N1371 X-175.044 Y-5.819 Z8.474 A8.8926 
N1372 X-175.071 Y-5.772 Z8.501 A6.6684 
N1373 X-175.099 Y-5.718 Z8.528 A4.4323 
N1374 X-175.129 Y-5.657 Z8.553 A2.1961 
N1375 X-175.160 Y-5.586 Z8.577 A359.9705 
N1376 X-175.191 Y-5.504 Z8.599 A357.7662 
N1377 X-175.223 Y-5.409 Z8.617 A355.5920 
N1378 X-175.256 Y-5.298 Z8.631 A353.4552 
N1379 X-175.290 Y-5.170 Z8.640 A351.3628 
N1380 X-175.324 Y-5.021 Z8.642 A349.3229 
N1381 X-175.358 Y-4.847 Z8.635 A347.3438 
N1382 X-175.393 Y-4.646 Z8.618 A345.4303 
N1383 X-175.428 Y-4.415 Z8.587 A343.5846 
N1384 X-175.464 Y-4.151 Z8.540 A341.8200 
N1385 X-175.498 Y-3.851 Z8.474 A340.1604 
N1386 X-175.529 Y-3.513 Z8.387 A338.6217 
N1387 X-175.557 Y-3.136 Z8.277 A337.2090 
N1388 X-175.582 Y-2.720 Z8.142 A336.0413 
N1389 X-175.601 Y-2.265 Z7.983 A335.1208 
N1390 X-175.615 Y-1.772 Z7.799 A334.4444 
N1391 X-175.622 Y-1.243 Z7.595 A334.0062 
N1392 X-175.622 Y-0.680 Z7.371 A333.8068 
N1393 X-175.614 Y-0.087 Z7.132 A333.8605 
N1394 X-175.598 Y0.531 Z6.882 A334.1901 
N1395 X-175.574 Y1.171 Z6.627 A334.8171 
N1396 X-175.542 Y1.830 Z6.372 A335.7484 
N1397 X-175.508 Y2.502 Z6.125 A337.2375 
N1398 X-175.475 Y3.186 Z5.892 A339.0298 
N1399 X-175.442 Y3.878 Z5.681 A341.1173 
N1400 X-175.409 Y4.577 Z5.496 A343.4722 
N1401 X-175.378 Y5.279 Z5.343 A346.0519 
N1402 X-175.348 Y5.984 Z5.224 A348.7193 
N1403 X-175.318 Y6.689 Z5.141 A351.4383 
N1404 X-175.290 Y7.392 Z5.094 A354.1695 
N1405 X-175.262 Y8.093 Z5.084 A356.8739 
N1406 X-175.236 Y8.791 Z5.109 A359.5149 
N1407 X-175.211 Y9.483 Z5.168 A2.0598 
N1408 X-175.187 Y10.170 Z5.259 A4.4815 
N1409 X-175.164 Y10.848 Z5.380 A6.7582 
N1410 X-175.142 Y11.515 Z5.528 A8.8744 
N1411 X-175.121 Y12.169 Z5.698 A10.8212 
N1412 X-175.102 Y12.804 Z5.887 A12.5963 
N1413 X-175.084 Y13.418 Z6.090 A14.2018 
N1414 X-175.068 Y14.006 Z6.303 A15.6432 
N1415 X-175.053 Y14.563 Z6.520 A16.9278 
N1416 X-175.040 Y15.086 Z6.736 A18.0634 
N1417 X-175.028 Y15.571 Z6.948 A19.0554 
N1418 X-175.017 Y16.016 Z7.150 A19.9090 
N1419 X-175.008 Y16.417 Z7.340 A20.6325 
N1420 X-175.001 Y16.776 Z7.514 A21.2394 
N1421 X-174.994 Y17.091 Z7.671 A21.7461 
N1422 X-174.989 Y17.365 Z7.809 A22.1684 
N1423 X-174.984 Y17.599 Z7.929 A22.5187 
N1424 X-174.981 Y17.795 Z8.031 A22.8059 
N1425 X-174.977 Y17.958 Z8.117 A23.0354 
N1426 X-174.975 Y18.091 Z8.187 A23.2091 
N1427 X-174.973 Y18.197 Z8.244 A23.3244 
N1428 X-174.972 Y18.282 Z8.291 A23.3095 
N1429 X-174.971 Y18.347 Z8.328 A23.1291 
N1430 X-174.970 Y18.398 Z8.361 A22.5384 
N1431 X-174.971 Y18.437 Z8.391 A21.4078 
N1432 X-174.973 Y18.468 Z8.424 A19.1537 
N1433 X-174.976 Y18.494 Z8.462 A15.7433 
N1434 X-174.980 Y18.518 Z8.503 A11.4985 
N1435 X-174.984 Y18.540 Z8.542 A7.1948 
N1436 X-174.986 Y18.562 Z8.577 A2.9734 
N1437 X-174.988 Y18.583 Z8.609 A358.9121 
N1438 X-174.989 Y18.603 Z8.635 A355.4321 
N1439 X-174.989 Y18.621 Z8.657 A352.4775 
N1440 X-174.989 Y18.637 Z8.674 A349.9994 
N1441 X-174.989 Y18.651 Z8.689 A347.7790 
N1442 X-174.988 Y18.665 Z8.702 A345.7578 
N1443 X-174.988 Y18.678 Z8.713 A343.8318 
N1444 X-174.987 Y18.692 Z8.725 A341.9756 
N1445 X-174.987 Y18.705 Z8.735 A340.1716 
N1446 X-174.986 Y18.718 Z8.745 A338.4007 
N1447 X-174.985 Y18.732 Z8.754 A336.6440 
N1448 X-174.984 Y18.746 Z8.762 A334.8916 
N1449 X-174.983 Y18.761 Z8.771 A333.1270 
N1450 X-174.982 Y18.776 Z8.779 A331.3463 
N1451 X-174.980 Y18.791 Z8.786 A329.5381 
N1452 X-174.979 Y18.807 Z8.793 A327.6994 
N1453 X-174.977 Y18.823 Z8.800 A325.8243 
N1454 X-174.975 Y18.841 Z8.806 A323.9048 
N1455 X-174.972 Y18.859 Z8.812 A321.9406 
N1456 X-174.970 Y18.877 Z8.818 A319.9276 
N1457 X-174.967 Y18.897 Z8.822 A317.8599 
N1458 X-174.964 Y18.917 Z8.826 A315.7352 
N1459 X-174.961 Y18.937 Z8.830 A313.5537 
N1460 X-174.957 Y18.959 Z8.832 A311.3152 
N1461 X-174.953 Y18.981 Z8.834 A309.0197 
N1462 X-174.949 Y19.004 Z8.835 A306.6674 
N1463 X-174.945 Y19.027 Z8.835 A304.2588 
N1464 X-174.940 Y19.051 Z8.834 A301.7948 
N1465 X-174.935 Y19.075 Z8.832 A299.2753 
N1466 X-174.929 Y19.100 Z8.828 A296.7035 
N1467 X-174.924 Y19.125 Z8.823 A294.0831 
N1468 X-174.918 Y19.150 Z8.818 A291.4162 
N1469 X-174.911 Y19.176 Z8.811 A288.7043 
N1470 X-174.905 Y19.201 Z8.802 A285.9521 
N1471 X-174.898 Y19.226 Z8.792 A283.1621 
N1472 X-174.891 Y19.251 Z8.781 A280.3388 
N1473 X-174.884 Y19.276 Z8.769 A277.4863 
N1474 X-174.877 Y19.300 Z8.756 A274.6097 
N1475 X-174.870 Y19.324 Z8.741 A271.7137 
N1476 X-174.862 Y19.346 Z8.725 A268.8033 
N1477 X-174.855 Y19.369 Z8.709 A265.8828 
N1478 X-174.848 Y19.390 Z8.691 A262.9538 
N1479 X-174.841 Y19.410 Z8.672 A260.0149 
N1480 X-174.833 Y19.430 Z8.653 A257.0581 
N1481 X-174.826 Y19.449 Z8.632 A254.0701 
N1482 X-174.819 Y19.467 Z8.610 A251.0326 
N1483 X-174.813 Y19.484 Z8.586 A247.9211 
N1484 X-174.806 Y19.500 Z8.561 A244.7085 
N1485 X-174.798 Y19.516 Z8.533 A241.2502 
N1486 X-174.791 Y19.532 Z8.500 A237.4942 
N1487 X-174.783 Y19.545 Z8.463 A233.4201 
N1488 X-174.774 Y19.555 Z8.421 A229.0673 
N1489 X-174.764 Y19.560 Z8.372 A224.4432 
N1490 X-174.757 Y19.556 Z8.319 A219.9887 
N1491 X-174.752 Y19.539 Z8.273 A217.0280 
N1492 X-174.749 Y19.508 Z8.232 A215.5010 
N1493 X-174.747 Y19.465 Z8.190 A214.9034 
N1494 X-174.745 Y19.405 Z8.138 A214.7200 
N1495 X-174.743 Y19.326 Z8.072 A214.6204 
N1496 X-174.740 Y19.222 Z7.986 A214.5377 
N1497 X-174.736 Y19.089 Z7.875 A214.4625 
N1498 X-174.732 Y18.921 Z7.736 A214.3860 
N1499 X-174.726 Y18.711 Z7.563 A214.3004 
N1500 X-174.719 Y18.455 Z7.352 A214.1983 
N1501 X-174.711 Y18.147 Z7.098 A214.0717 
N1502 X-174.702 Y17.783 Z6.800 A213.9112 
N1503 X-174.692 Y17.360 Z6.454 A213.7057 
N1504 X-174.680 Y16.878 Z6.062 A213.4428 
N1505 X-174.668 Y16.336 Z5.624 A213.1101 
N1506 X-174.655 Y15.737 Z5.145 A212.6956 
N1507 X-174.642 Y15.086 Z4.631 A212.1872 
N1508 X-174.629 Y14.388 Z4.088 A211.5726 
N1509 X-174.618 Y13.651 Z3.528 A210.8390 
N1510 X-174.607 Y12.884 Z2.958 A209.9754 
N1511 X-174.598 Y12.097 Z2.392 A208.9772 
N1512 X-174.590 Y11.297 Z1.839 A207.8481 
N1513 X-174.586 Y10.496 Z1.310 A206.4829 
N1514 X-174.583 Y9.702 Z0.812 A204.8931 
N1515 X-174.583 Y8.924 Z0.354 A203.0817 
N1516 X-174.585 Y8.169 Z-0.061 A201.0452 
N1517 X-174.589 Y7.442 Z-0.428 A198.7748 
N1518 X-174.595 Y6.748 Z-0.746 A196.3819 
N1519 X-174.603 Y6.091 Z-1.015 A193.8759 
N1520 X-174.612 Y5.471 Z-1.238 A191.2718 
N1521 X-174.623 Y4.890 Z-1.418 A188.5855 
N1522 X-174.634 Y4.346 Z-1.560 A185.8330 
N1523 X-174.646 Y3.838 Z-1.668 A183.0306 
N1524 X-174.658 Y3.363 Z-1.746 A180.1938 
N1525 X-174.670 Y2.918 Z-1.797 A177.3371 
N1526 X-174.682 Y2.500 Z-1.824 A174.4726 
N1527 X-174.695 Y2.106 Z-1.832 A171.6098 
N1528 X-174.707 Y1.732 Z-1.821 A168.7563 
N1529 X-174.719 Y1.375 Z-1.793 A165.9176 
N1530 X-174.731 Y1.033 Z-1.750 A163.0978 
N1531 X-174.743 Y0.704 Z-1.693 A160.2995 
N1532 X-174.755 Y0.384 Z-1.621 A157.5250 
N1533 X-174.767 Y0.073 Z-1.535 A154.7759 
N1534 X-174.778 Y-0.230 Z-1.436 A152.0545 
N1535 X-174.789 Y-0.528 Z-1.322 A149.3633 
N1536 X-174.800 Y-0.821 Z-1.194 A146.7054 
N1537 X-174.810 Y-1.109 Z-1.051 A144.0840 
N1538 X-174.820 Y-1.393 Z-0.892 A141.5029 
N1539 X-174.831 Y-1.673 Z-0.719 A138.9666 
N1540 X-174.840 Y-1.950 Z-0.529 A136.4795 
N1541 X-174.849 Y-2.222 Z-0.323 A134.0464 
N1542 X-174.858 Y-2.490 Z-0.101 A131.6718 
N1543 X-174.867 Y-2.754 Z0.138 A129.3597 
N1544 X-174.874 Y-3.013 Z0.392 A127.1136 
N1545 X-174.875 Y-3.266 Z0.663 A124.9363 
N1546 X-174.868 Y-3.512 Z0.948 A122.8297 
N1547 X-174.854 Y-3.751 Z1.247 A120.7940 
N1548 X-174.833 Y-3.981 Z1.558 A118.8275 
N1549 X-174.805 Y-4.203 Z1.879 A116.9261 
N1550 X-174.770 Y-4.414 Z2.209 A115.0839 
N1551 X-174.729 Y-4.614 Z2.544 A113.2954 
N1552 X-174.683 Y-4.802 Z2.883 A111.5572 
N1553 X-174.631 Y-4.977 Z3.223 A109.8682 
N1554 X-174.576 Y-5.140 Z3.561 A108.2264 
N1555 X-174.518 Y-5.288 Z3.894 A106.6257 
N1556 X-174.458 Y-5.424 Z4.220 A105.0551 
N1557 X-174.395 Y-5.545 Z4.535 A103.5006 
N1558 X-174.331 Y-5.654 Z4.837 A101.9498 
N1559 X-174.267 Y-5.750 Z5.124 A100.3935 
N1560 X-174.203 Y-5.833 Z5.395 A98.8250 
N1561 X-174.139 Y-5.904 Z5.649 A97.2383 
N1562 X-174.077 Y-5.964 Z5.884 A95.6270 
N1563 X-174.017 Y-6.014 Z6.100 A93.9889 
N1564 X-173.959 Y-6.056 Z6.298 A92.3256 
N1565 X-173.904 Y-6.089 Z6.477 A90.6330 
N1566 X-173.852 Y-6.116 Z6.639 A88.8991 
N1567 X-173.802 Y-6.138 Z6.783 A87.1120 
N1568 X-173.754 Y-6.155 Z6.912 A85.2639 
N1569 X-173.708 Y-6.169 Z7.027 A83.3505 
N1570 X-173.664 Y-6.179 Z7.128 A81.3712 
N1571 X-173.622 Y-6.187 Z7.217 A79.3310 
N1572 X-173.583 Y-6.194 Z7.295 A77.2403 
N1573 X-173.547 Y-6.199 Z7.365 A75.1144 
N1574 X-173.513 Y-6.203 Z7.426 A72.9718 
N1575 X-173.484 Y-6.207 Z7.481 A70.8324 
N1576 X-173.457 Y-6.209 Z7.531 A68.7170 
N1577 X-173.435 Y-6.211 Z7.576 A66.6449 
N1578 X-173.415 Y-6.212 Z7.618 A64.6329 
N1579 X-173.398 Y-6.212 Z7.655 A62.6933 
N1580 X-173.384 Y-6.212 Z7.690 A60.8341 
N1581 X-173.373 Y-6.211 Z7.722 A59.0598 
N1582 X-173.364 Y-6.210 Z7.751 A57.3718 
N1583 X-173.356 Y-6.208 Z7.779 A55.7683 
N1584 X-173.350 Y-6.206 Z7.804 A54.2454 
N1585 X-173.346 Y-6.204 Z7.828 A52.7973 
N1586 X-173.342 Y-6.201 Z7.851 A51.4164 
N1587 X-173.340 Y-6.198 Z7.872 A50.0941 
N1588 X-173.338 Y-6.195 Z7.892 A48.8206 
N1589 X-173.337 Y-6.192 Z7.912 A47.5858 
N1590 X-173.337 Y-6.188 Z7.931 A46.3789 
N1591 X-173.337 Y-6.184 Z7.949 A45.1894 
N1592 X-173.338 Y-6.180 Z7.968 A44.0067 
N1593 X-173.340 Y-6.176 Z7.986 A42.8204 
N1594 X-173.342 Y-6.170 Z8.004 A41.6206 
N1595 X-173.344 Y-6.165 Z8.023 A40.3981 
N1596 X-173.348 Y-6.159 Z8.043 A39.1438 
N1597 X-173.352 Y-6.152 Z8.062 A37.8499 
N1598 X-173.357 Y-6.144 Z8.083 A36.5089 
N1599 X-173.364 Y-6.135 Z8.104 A35.1147 
N1600 X-173.371 Y-6.125 Z8.126 A33.6619 
N1601 X-173.380 Y-6.114 Z8.149 A32.1463 
N1602 X-173.391 Y-6.102 Z8.172 A30.5651 
N1603 X-173.403 Y-6.088 Z8.197 A28.9168 
N1604 X-173.417 Y-6.072 Z8.222 A27.2015 
N1605 X-173.434 Y-6.055 Z8.248 A25.4206 
N1606 X-173.452 Y-6.036 Z8.275 A23.5767 
N1607 X-173.473 Y-6.014 Z8.302 A21.6739 
N1608 X-173.496 Y-5.990 Z8.330 A19.7167 
N1609 X-173.522 Y-5.964 Z8.358 A17.7105 
N1610 X-173.550 Y-5.935 Z8.385 A15.6605 
N1611 X-173.580 Y-5.902 Z8.413 A13.5723 
N1612 X-173.613 Y-5.867 Z8.441 A11.4514 
N1613 X-173.648 Y-5.827 Z8.468 A9.3041 
N1614 X-173.685 Y-5.782 Z8.495 A7.1384 
N1615 X-173.724 Y-5.731 Z8.522 A4.9639 
N1616 X-173.764 Y-5.673 Z8.547 A2.7909 
N1617 X-173.806 Y-5.608 Z8.570 A0.6290 
N1618 X-173.849 Y-5.532 Z8.592 A358.4873 
N1619 X-173.894 Y-5.445 Z8.611 A356.3739 
N1620 X-173.939 Y-5.344 Z8.626 A354.2952 
N1621 X-173.986 Y-5.228 Z8.637 A352.2566 
N1622 X-174.034 Y-5.093 Z8.642 A350.2639 
N1623 X-174.083 Y-4.938 Z8.640 A348.3235 
N1624 X-174.133 Y-4.759 Z8.629 A346.4406 
N1625 X-174.184 Y-4.553 Z8.607 A344.6163 
N1626 X-174.236 Y-4.317 Z8.571 A342.8541 
N1627 X-174.289 Y-4.049 Z8.520 A341.1702 
N1628 X-174.340 Y-3.746 Z8.449 A339.5831 
N1629 X-174.388 Y-3.405 Z8.358 A338.1009 
N1630 X-174.433 Y-3.027 Z8.243 A336.8260 
N1631 X-174.473 Y-2.610 Z8.105 A335.7680 
N1632 X-174.508 Y-2.155 Z7.942 A334.9359 
N1633 X-174.535 Y-1.662 Z7.758 A334.3296 
N1634 X-174.554 Y-1.133 Z7.552 A333.9463 
N1635 X-174.564 Y-0.570 Z7.327 A333.7894 
N1636 X-174.564 Y0.023 Z7.088 A333.8720 
N1637 X-174.554 Y0.643 Z6.838 A334.2096 
N1638 X-174.532 Y1.287 Z6.583 A334.8065 
N1639 X-174.502 Y1.950 Z6.328 A335.8709 
N1640 X-174.469 Y2.631 Z6.081 A337.3920 
N1641 X-174.437 Y3.325 Z5.848 A339.3781 
N1642 X-174.405 Y4.031 Z5.638 A341.6219 
N1643 X-174.374 Y4.748 Z5.456 A344.1127 
N1644 X-174.345 Y5.472 Z5.306 A346.8139 
N1645 X-174.316 Y6.201 Z5.194 A349.5956 
N1646 X-174.289 Y6.934 Z5.120 A352.4213 
N1647 X-174.262 Y7.666 Z5.086 A355.2509 
N1648 X-174.237 Y8.397 Z5.090 A358.0449 
N1649 X-174.213 Y9.123 Z5.133 A0.7673 
N1650 X-174.190 Y9.843 Z5.212 A3.3895 
N1651 X-174.169 Y10.554 Z5.323 A5.8918 
N1652 X-174.148 Y11.252 Z5.465 A8.2662 
N1653 X-174.130 Y11.934 Z5.632 A10.3972 
N1654 X-174.113 Y12.597 Z5.821 A12.2917 
N1655 X-174.097 Y13.236 Z6.027 A13.9519 
N1656 X-174.084 Y13.847 Z6.243 A15.3714 
N1657 X-174.071 Y14.425 Z6.464 A16.6596 
N1658 X-174.061 Y14.967 Z6.686 A17.8128 
N1659 X-174.051 Y15.469 Z6.902 A18.8303 
N1660 X-174.044 Y15.928 Z7.110 A19.7128 
N1661 X-174.037 Y16.343 Z7.305 A20.4653 
N1662 X-174.032 Y16.713 Z7.484 A21.0990 
N1663 X-174.027 Y17.039 Z7.645 A21.6294 
N1664 X-174.024 Y17.321 Z7.787 A22.0721 
N1665 X-174.021 Y17.563 Z7.911 A22.4402 
N1666 X-174.019 Y17.766 Z8.016 A22.7436 
N1667 X-174.017 Y17.934 Z8.104 A22.9887 
N1668 X-174.015 Y18.071 Z8.177 A23.1789 
N1669 X-174.014 Y18.182 Z8.236 A23.3138 
N1670 X-174.013 Y18.269 Z8.284 A23.3297 
N1671 X-174.013 Y18.337 Z8.322 A23.1988 
N1672 X-174.013 Y18.390 Z8.355 A22.7084 
N1673 X-174.014 Y18.430 Z8.384 A21.7476 
N1674 X-174.017 Y18.462 Z8.416 A19.7859 
N1675 X-174.021 Y18.488 Z8.452 A16.7748 
N1676 X-174.026 Y18.510 Z8.490 A12.9818 
N1677 X-174.031 Y18.531 Z8.525 A9.1290 
N1678 X-174.035 Y18.550 Z8.558 A5.3523 
N1679 X-174.037 Y18.569 Z8.587 A1.7305 
N1680 X-174.039 Y18.586 Z8.613 A358.4433 
N1681 X-174.039 Y18.601 Z8.633 A355.7510 
N1682 X-174.040 Y18.616 Z8.650 A353.3504 
N1683 X-174.040 Y18.629 Z8.665 A351.2240 
N1684 X-174.040 Y18.641 Z8.678 A349.3263 
N1685 X-174.040 Y18.653 Z8.690 A347.5295 
N1686 X-174.040 Y18.664 Z8.701 A345.8101 
N1687 X-174.039 Y18.676 Z8.712 A344.1511 
N1688 X-174.039 Y18.687 Z8.721 A342.5298 
N1689 X-174.038 Y18.699 Z8.731 A340.9263 
N1690 X-174.037 Y18.711 Z8.740 A339.3281 
N1691 X-174.036 Y18.723 Z8.748 A337.7186 
N1692 X-174.035 Y18.736 Z8.757 A336.0880 
N1693 X-174.034 Y18.750 Z8.765 A334.4254 
N1694 X-174.032 Y18.764 Z8.773 A332.7220 
N1695 X-174.031 Y18.778 Z8.780 A330.9701 
N1696 X-174.029 Y18.794 Z8.788 A329.1649 
N1697 X-174.027 Y18.810 Z8.795 A327.2954 
N1698 X-174.024 Y18.827 Z8.802 A325.3600 
N1699 X-174.021 Y18.845 Z8.808 A323.3528 
N1700 X-174.018 Y18.865 Z8.814 A321.2680 
N1701 X-174.014 Y18.885 Z8.820 A319.1007 
N1702 X-174.010 Y18.906 Z8.825 A316.8489 
N1703 X-174.006 Y18.928 Z8.829 A314.5100 
N1704 X-174.001 Y18.951 Z8.832 A312.0825 
N1705 X-173.995 Y18.975 Z8.834 A309.5660 
N1706 X-173.989 Y19.001 Z8.835 A306.9615 
N1707 X-173.983 Y19.027 Z8.835 A304.2716 
N1708 X-173.976 Y19.054 Z8.834 A301.4992 
N1709 X-173.968 Y19.081 Z8.831 A298.6480 
N1710 X-173.960 Y19.109 Z8.827 A295.7230 
N1711 X-173.951 Y19.138 Z8.821 A292.7298 
N1712 X-173.942 Y19.167 Z8.813 A289.6741 
N1713 X-173.932 Y19.195 Z8.804 A286.5628 
N1714 X-173.922 Y19.224 Z8.793 A283.4030 
N1715 X-173.912 Y19.252 Z8.781 A280.2027 
N1716 X-173.901 Y19.280 Z8.767 A276.9705 
N1717 X-173.890 Y19.307 Z8.751 A273.7157 
N1718 X-173.879 Y19.334 Z8.734 A270.4476 
N1719 X-173.868 Y19.359 Z8.716 A267.1749 
N1720 X-173.857 Y19.383 Z8.697 A263.9048 
N1721 X-173.846 Y19.406 Z8.676 A260.6403 
N1722 X-173.836 Y19.428 Z8.655 A257.3778 
N1723 X-173.825 Y19.449 Z8.632 A254.1075 
N1724 X-173.815 Y19.468 Z8.608 A250.8132 
N1725 X-173.806 Y19.486 Z8.583 A247.4720 
N1726 X-173.796 Y19.504 Z8.556 A244.0545 
N1727 X-173.787 Y19.519 Z8.526 A240.5279 
N1728 X-173.777 Y19.534 Z8.495 A236.8642 
N1729 X-173.766 Y19.547 Z8.459 A232.9099 
N1730 X-173.755 Y19.556 Z8.419 A228.8175 
N1731 X-173.743 Y19.560 Z8.372 A224.4313 
N1732 X-173.734 Y19.556 Z8.320 A220.0322 
N1733 X-173.728 Y19.539 Z8.273 A217.0278 
N1734 X-173.724 Y19.508 Z8.231 A215.4832 
N1735 X-173.721 Y19.463 Z8.188 A214.8949 
N1736 X-173.718 Y19.403 Z8.137 A214.7159 
N1737 X-173.715 Y19.323 Z8.070 A214.6172 
N1738 X-173.711 Y19.219 Z7.983 A214.5346 
N1739 X-173.707 Y19.086 Z7.873 A214.4588 
N1740 X-173.701 Y18.917 Z7.733 A214.3812 
N1741 X-173.693 Y18.707 Z7.559 A214.2942 
N1742 X-173.684 Y18.450 Z7.348 A214.1904 
N1743 X-173.674 Y18.141 Z7.094 A214.0619 
N1744 X-173.662 Y17.776 Z6.794 A213.8992 
N1745 X-173.648 Y17.353 Z6.448 A213.6914 
N1746 X-173.633 Y16.869 Z6.054 A213.4264 
N1747 X-173.618 Y16.325 Z5.615 A213.0921 
N1748 X-173.601 Y15.724 Z5.135 A212.6767 
N1749 X-173.585 Y15.070 Z4.618 A212.1690 
N1750 X-173.568 Y14.369 Z4.074 A211.5576 
N1751 X-173.553 Y13.628 Z3.510 A210.8316 
N1752 X-173.539 Y12.857 Z2.938 A209.9827 
N1753 X-173.527 Y12.063 Z2.369 A209.0104 
N1754 X-173.518 Y11.257 Z1.813 A207.8116 
N1755 X-173.511 Y10.448 Z1.279 A206.3944 
N1756 X-173.507 Y9.646 Z0.778 A204.7606 
N1757 X-173.507 Y8.859 Z0.317 A202.9093 
N1758 X-173.509 Y8.094 Z-0.100 A200.8375 
N1759 X-173.513 Y7.357 Z-0.469 A198.5422 
N1760 X-173.521 Y6.652 Z-0.787 A196.0275 
N1761 X-173.530 Y5.983 Z-1.056 A193.4051 
N1762 X-173.541 Y5.352 Z-1.278 A190.6848 
N1763 X-173.554 Y4.758 Z-1.456 A187.8791 
N1764 X-173.568 Y4.203 Z-1.594 A185.0025 
N1765 X-173.582 Y3.683 Z-1.696 A182.0712 
N1766 X-173.597 Y3.197 Z-1.767 A179.1014 
N1767 X-173.612 Y2.741 Z-1.811 A176.1084 
N1768 X-173.627 Y2.312 Z-1.830 A173.1058 
N1769 X-173.642 Y1.907 Z-1.828 A170.1049 
N1770 X-173.657 Y1.523 Z-1.807 A167.1150 
N1771 X-173.672 Y1.156 Z-1.768 A164.1433 
N1772 X-173.687 Y0.804 Z-1.712 A161.1954 
N1773 X-173.701 Y0.465 Z-1.640 A158.2757 
N1774 X-173.715 Y0.136 Z-1.554 A155.3880 
N1775 X-173.729 Y-0.184 Z-1.452 A152.5358 
N1776 X-173.742 Y-0.496 Z-1.334 A149.7229 
N1777 X-173.755 Y-0.801 Z-1.202 A146.9531 
N1778 X-173.767 Y-1.101 Z-1.054 A144.2307 
N1779 X-173.779 Y-1.395 Z-0.891 A141.5597 
N1780 X-173.791 Y-1.684 Z-0.711 A138.9447 
N1781 X-173.802 Y-1.968 Z-0.515 A136.3903 
N1782 X-173.812 Y-2.246 Z-0.303 A133.9007 
N1783 X-173.823 Y-2.520 Z-0.075 A131.4799 
N1784 X-173.833 Y-2.787 Z0.170 A129.1312 
N1785 X-173.839 Y-3.049 Z0.430 A126.8571 
N1786 X-173.837 Y-3.304 Z0.706 A124.6594 
N1787 X-173.826 Y-3.551 Z0.996 A122.5389 
N1788 X-173.804 Y-3.790 Z1.299 A120.4946 
N1789 X-173.773 Y-4.021 Z1.614 A118.5235 
N1790 X-173.734 Y-4.241 Z1.938 A116.6203 
N1791 X-173.686 Y-4.451 Z2.270 A114.7784 
N1792 X-173.631 Y-4.649 Z2.607 A112.9917 
N1793 X-173.569 Y-4.835 Z2.947 A111.2569 
N1794 X-173.500 Y-5.009 Z3.287 A109.5722 
N1795 X-173.428 Y-5.168 Z3.624 A107.9344 
N1796 X-173.352 Y-5.315 Z3.956 A106.3361 
N1797 X-173.273 Y-5.447 Z4.280 A104.7653 
N1798 X-173.192 Y-5.567 Z4.592 A103.2079 
N1799 X-173.109 Y-5.673 Z4.892 A101.6519 
N1800 X-173.026 Y-5.766 Z5.177 A100.0886 
N1801 X-172.943 Y-5.847 Z5.445 A98.5114 
N1802 X-172.862 Y-5.917 Z5.696 A96.9137 
N1803 X-172.782 Y-5.975 Z5.928 A95.2896 
N1804 X-172.705 Y-6.024 Z6.142 A93.6379 
N1805 X-172.631 Y-6.064 Z6.337 A91.9594 
N1806 X-172.561 Y-6.096 Z6.514 A90.2484 
N1807 X-172.494 Y-6.122 Z6.673 A88.4930 
N1808 X-172.430 Y-6.142 Z6.815 A86.6835 
N1809 X-172.369 Y-6.159 Z6.941 A84.8138 
N1810 X-172.311 Y-6.171 Z7.053 A82.8824 
N1811 X-172.255 Y-6.181 Z7.151 A80.8921 
N1812 X-172.203 Y-6.189 Z7.237 A78.8509 
N1813 X-172.154 Y-6.195 Z7.313 A76.7721 
N1814 X-172.109 Y-6.200 Z7.379 A74.6723 
N1815 X-172.068 Y-6.204 Z7.438 A72.5702 
N1816 X-172.032 Y-6.207 Z7.491 A70.4851 
N1817 X-172.001 Y-6.209 Z7.538 A68.4361 
N1818 X-171.973 Y-6.210 Z7.582 A66.4411 
N1819 X-171.950 Y-6.211 Z7.621 A64.5149 
N1820 X-171.930 Y-6.212 Z7.656 A62.6681 
N1821 X-171.913 Y-6.211 Z7.689 A60.9075 
N1822 X-171.899 Y-6.211 Z7.719 A59.2366 
N1823 X-171.888 Y-6.210 Z7.747 A57.6565 
N1824 X-171.879 Y-6.208 Z7.772 A56.1656 
N1825 X-171.871 Y-6.207 Z7.796 A54.7601 
N1826 X-171.866 Y-6.205 Z7.818 A53.4346 
N1827 X-171.862 Y-6.203 Z7.838 A52.1818 
N1828 X-171.858 Y-6.200 Z7.858 A50.9934 
N1829 X-171.856 Y-6.198 Z7.876 A49.8601 
N1830 X-171.855 Y-6.195 Z7.893 A48.7722 
N1831 X-171.854 Y-6.193 Z7.909 A47.7197 
N1832 X-171.853 Y-6.190 Z7.925 A46.6922 
N1833 X-171.854 Y-6.186 Z7.941 A45.6793 
N1834 X-171.854 Y-6.183 Z7.957 A44.6711 
N1835 X-171.856 Y-6.179 Z7.973 A43.6577 
N1836 X-171.857 Y-6.175 Z7.988 A42.6296 
N1837 X-171.860 Y-6.171 Z8.005 A41.5774 
N1838 X-171.863 Y-6.166 Z8.021 A40.4921 
N1839 X-171.867 Y-6.160 Z8.039 A39.3652 
N1840 X-171.871 Y-6.154 Z8.057 A38.1889 
N1841 X-171.877 Y-6.147 Z8.075 A36.9560 
N1842 X-171.884 Y-6.139 Z8.095 A35.6600 
N1843 X-171.893 Y-6.130 Z8.116 A34.2959 
N1844 X-171.903 Y-6.120 Z8.138 A32.8595 
N1845 X-171.916 Y-6.109 Z8.160 A31.3480 
N1846 X-171.930 Y-6.096 Z8.184 A29.7601 
N1847 X-171.947 Y-6.081 Z8.209 A28.0962 
N1848 X-171.967 Y-6.065 Z8.234 A26.3582 
N1849 X-171.990 Y-6.046 Z8.261 A24.5495 
N1850 X-172.015 Y-6.026 Z8.288 A22.6746 
N1851 X-172.044 Y-6.003 Z8.315 A20.7394 
N1852 X-172.075 Y-5.978 Z8.343 A18.7505 
N1853 X-172.110 Y-5.950 Z8.371 A16.7148 
N1854 X-172.148 Y-5.919 Z8.399 A14.6394 
N1855 X-172.189 Y-5.885 Z8.427 A12.5310 
N1856 X-172.233 Y-5.847 Z8.455 A10.3968 
N1857 X-172.280 Y-5.805 Z8.482 A8.2446 
N1858 X-172.329 Y-5.757 Z8.508 A6.0842 
N1859 X-172.380 Y-5.704 Z8.534 A3.9262 
N1860 X-172.434 Y-5.643 Z8.558 A1.7806 
N1861 X-172.488 Y-5.573 Z8.580 A359.6564 
N1862 X-172.544 Y-5.494 Z8.601 A357.5622 
N1863 X-172.602 Y-5.403 Z8.618 A355.5049 
N1864 X-172.661 Y-5.299 Z8.631 A353.4897 
N1865 X-172.721 Y-5.179 Z8.640 A351.5209 
N1866 X-172.783 Y-5.042 Z8.642 A349.6032 
N1867 X-172.846 Y-4.885 Z8.638 A347.7417 
N1868 X-172.910 Y-4.704 Z8.624 A345.9391 
N1869 X-172.977 Y-4.499 Z8.600 A344.1954 
N1870 X-173.045 Y-4.264 Z8.562 A342.5168 
N1871 X-173.114 Y-3.999 Z8.509 A340.9210 
N1872 X-173.181 Y-3.700 Z8.437 A339.4263 
N1873 X-173.246 Y-3.366 Z8.345 A338.0427 
N1874 X-173.306 Y-2.994 Z8.232 A336.7748 
N1875 X-173.362 Y-2.585 Z8.096 A335.7317 
N1876 X-173.412 Y-2.138 Z7.936 A334.9127 
N1877 X-173.453 Y-1.655 Z7.755 A334.3121 
N1878 X-173.485 Y-1.135 Z7.553 A333.9233 
N1879 X-173.507 Y-0.581 Z7.332 A333.7452 
N1880 X-173.517 Y0.004 Z7.096 A333.7832 
N1881 X-173.513 Y0.618 Z6.849 A334.0400 
N1882 X-173.497 Y1.256 Z6.595 A334.7001 
N1883 X-173.469 Y1.916 Z6.341 A335.7694 
N1884 X-173.437 Y2.595 Z6.093 A337.2567 
N1885 X-173.407 Y3.292 Z5.859 A339.1622 
N1886 X-173.377 Y4.003 Z5.646 A341.4900 
N1887 X-173.348 Y4.728 Z5.460 A344.0449 
N1888 X-173.320 Y5.464 Z5.308 A346.8054 
N1889 X-173.294 Y6.208 Z5.193 A349.6477 
N1890 X-173.268 Y6.957 Z5.118 A352.5365 
N1891 X-173.244 Y7.709 Z5.085 A355.4319 
N1892 X-173.221 Y8.459 Z5.093 A358.2935 
N1893 X-173.200 Y9.206 Z5.140 A1.0853 
N1894 X-173.179 Y9.945 Z5.226 A3.7798 
N1895 X-173.161 Y10.674 Z5.345 A6.3609 
N1896 X-173.143 Y11.388 Z5.496 A8.7128 
N1897 X-173.128 Y12.083 Z5.673 A10.8339 
N1898 X-173.114 Y12.756 Z5.870 A12.7267 
N1899 X-173.102 Y13.401 Z6.083 A14.3953 
N1900 X-173.092 Y14.014 Z6.305 A15.8421 
N1901 X-173.084 Y14.591 Z6.530 A17.0623 
N1902 X-173.077 Y15.129 Z6.754 A18.1590 
N1903 X-173.071 Y15.623 Z6.971 A19.1266 
N1904 X-173.066 Y16.073 Z7.177 A19.9638 
N1905 X-173.063 Y16.477 Z7.369 A20.6758 
N1906 X-173.061 Y16.834 Z7.543 A21.2745 
N1907 X-173.059 Y17.146 Z7.699 A21.7750 
N1908 X-173.057 Y17.415 Z7.835 A22.1919 
N1909 X-173.057 Y17.643 Z7.952 A22.5369 
N1910 X-173.056 Y17.833 Z8.051 A22.8182 
N1911 X-173.055 Y17.989 Z8.134 A23.0410 
N1912 X-173.055 Y18.116 Z8.201 A23.2071 
N1913 X-173.055 Y18.217 Z8.255 A23.3138 
N1914 X-173.055 Y18.296 Z8.299 A23.2905 
N1915 X-173.055 Y18.358 Z8.334 A23.1098 
N1916 X-173.056 Y18.405 Z8.364 A22.5713 
N1917 X-173.058 Y18.442 Z8.394 A21.2538 
N1918 X-173.063 Y18.470 Z8.427 A18.9998 
N1919 X-173.068 Y18.494 Z8.462 A15.8366 
N1920 X-173.075 Y18.514 Z8.496 A12.3733 
N1921 X-173.080 Y18.532 Z8.527 A8.9246 
N1922 X-173.084 Y18.549 Z8.556 A5.5799 
N1923 X-173.087 Y18.565 Z8.582 A2.3931 
N1924 X-173.089 Y18.580 Z8.604 A359.5171 
N1925 X-173.090 Y18.593 Z8.622 A357.1892 
N1926 X-173.091 Y18.605 Z8.638 A355.1093 
N1927 X-173.091 Y18.616 Z8.651 A353.2709 
N1928 X-173.091 Y18.627 Z8.663 A351.5428 
N1929 X-173.091 Y18.637 Z8.674 A349.9152 
N1930 X-173.091 Y18.647 Z8.685 A348.3612 
N1931 X-173.091 Y18.657 Z8.695 A346.8665 
N1932 X-173.091 Y18.667 Z8.704 A345.4107 
N1933 X-173.090 Y18.677 Z8.713 A343.9749 
N1934 X-173.090 Y18.687 Z8.721 A342.5416 
N1935 X-173.089 Y18.697 Z8.730 A341.1013 
N1936 X-173.088 Y18.708 Z8.738 A339.6384 
N1937 X-173.087 Y18.720 Z8.746 A338.1415 
N1938 X-173.086 Y18.732 Z8.754 A336.6037 
N1939 X-173.085 Y18.745 Z8.762 A335.0084 
N1940 X-173.083 Y18.758 Z8.770 A333.3547 
N1941 X-173.081 Y18.773 Z8.778 A331.6276 
N1942 X-173.079 Y18.788 Z8.785 A329.8247 
N1943 X-173.076 Y18.804 Z8.793 A327.9383 
N1944 X-173.073 Y18.822 Z8.800 A325.9563 
N1945 X-173.069 Y18.840 Z8.807 A323.8752 
N1946 X-173.065 Y18.860 Z8.813 A321.6903 
N1947 X-173.061 Y18.882 Z8.819 A319.3973 
N1948 X-173.055 Y18.904 Z8.825 A316.9910 
N1949 X-173.049 Y18.928 Z8.829 A314.4681 
N1950 X-173.043 Y18.953 Z8.832 A311.8289 
N1951 X-173.035 Y18.980 Z8.835 A309.0751 
N1952 X-173.027 Y19.008 Z8.836 A306.2086 
N1953 X-173.018 Y19.037 Z8.835 A303.2341 
N1954 X-173.008 Y19.067 Z8.833 A300.1576 
N1955 X-172.997 Y19.097 Z8.829 A296.9866 
N1956 X-172.985 Y19.128 Z8.823 A293.7292 
N1957 X-172.973 Y19.160 Z8.815 A290.3949 
N1958 X-172.960 Y19.191 Z8.806 A286.9937 
N1959 X-172.946 Y19.223 Z8.794 A283.5364 
N1960 X-172.932 Y19.254 Z8.780 A280.0343 
N1961 X-172.917 Y19.284 Z8.765 A276.4998 
N1962 X-172.902 Y19.314 Z8.747 A272.9455 
N1963 X-172.887 Y19.342 Z8.728 A269.3838 
N1964 X-172.872 Y19.369 Z8.708 A265.8259 
N1965 X-172.857 Y19.395 Z8.686 A262.2798 
N1966 X-172.843 Y19.419 Z8.664 A258.7468 
N1967 X-172.829 Y19.442 Z8.640 A255.2207 
N1968 X-172.815 Y19.463 Z8.614 A251.6887 
N1969 X-172.802 Y19.483 Z8.588 A248.1313 
N1970 X-172.790 Y19.501 Z8.559 A244.5221 
N1971 X-172.777 Y19.518 Z8.529 A240.8293 
N1972 X-172.765 Y19.533 Z8.496 A237.0216 
N1973 X-172.751 Y19.546 Z8.460 A233.0789 
N1974 X-172.738 Y19.556 Z8.421 A229.0088 
N1975 X-172.723 Y19.560 Z8.375 A224.6459 
N1976 X-172.711 Y19.556 Z8.321 A220.1436 
N1977 X-172.703 Y19.539 Z8.273 A217.0277 
N1978 X-172.698 Y19.507 Z8.230 A215.4638 
N1979 X-172.694 Y19.462 Z8.187 A214.8841 
N1980 X-172.691 Y19.401 Z8.135 A214.7093 
N1981 X-172.687 Y19.320 Z8.067 A214.6121 
N1982 X-172.683 Y19.215 Z7.980 A214.5300 
N1983 X-172.677 Y19.080 Z7.868 A214.4541 
N1984 X-172.669 Y18.910 Z7.727 A214.3757 
N1985 X-172.660 Y18.698 Z7.552 A214.2874 
N1986 X-172.649 Y18.438 Z7.338 A214.1819 
N1987 X-172.636 Y18.126 Z7.081 A214.0511 
N1988 X-172.621 Y17.758 Z6.779 A213.8857 
N1989 X-172.604 Y17.329 Z6.429 A213.6745 
N1990 X-172.586 Y16.840 Z6.031 A213.4057 
N1991 X-172.567 Y16.291 Z5.587 A213.0674 
N1992 X-172.546 Y15.683 Z5.102 A212.6485 
N1993 X-172.526 Y15.021 Z4.580 A212.1384 
N1994 X-172.506 Y14.312 Z4.030 A211.5272 
N1995 X-172.487 Y13.562 Z3.461 A210.8062 
N1996 X-172.470 Y12.781 Z2.884 A209.9710 
N1997 X-172.456 Y11.977 Z2.309 A208.9189 
N1998 X-172.444 Y11.162 Z1.748 A207.6536 
N1999 X-172.436 Y10.343 Z1.212 A206.1734 
N2000 X-172.432 Y9.531 Z0.708 A204.4741 
N2001 X-172.431 Y8.734 Z0.246 A202.5509 
N2002 X-172.433 Y7.959 Z-0.170 A200.3981 
N2003 X-172.439 Y7.212 Z-0.537 A198.0123 
N2004 X-172.448 Y6.498 Z-0.852 A195.3988 
N2005 X-172.459 Y5.821 Z-1.117 A192.6734 
N2006 X-172.472 Y5.182 Z-1.332 A189.8453 
N2007 X-172.487 Y4.581 Z-1.503 A186.9272 
N2008 X-172.504 Y4.018 Z-1.634 A183.9346 
N2009 X-172.521 Y3.492 Z-1.728 A180.8848 
N2010 X-172.539 Y3.000 Z-1.789 A177.7958 
N2011 X-172.557 Y2.538 Z-1.823 A174.6845 
N2012 X-172.575 Y2.103 Z-1.832 A171.5660 
N2013 X-172.593 Y1.692 Z-1.819 A168.4533 
N2014 X-172.611 Y1.302 Z-1.785 A165.3569 
N2015 X-172.628 Y0.929 Z-1.734 A162.2857 
N2016 X-172.645 Y0.572 Z-1.665 A159.2465 
N2017 X-172.662 Y0.227 Z-1.579 A156.2450 
N2018 X-172.678 Y-0.107 Z-1.477 A153.2863 
N2019 X-172.693 Y-0.431 Z-1.360 A150.3752 
N2020 X-172.708 Y-0.747 Z-1.227 A147.5165 
N2021 X-172.723 Y-1.055 Z-1.078 A144.7149 
N2022 X-172.737 Y-1.356 Z-0.912 A141.9746 
N2023 X-172.750 Y-1.652 Z-0.731 A139.3001 
N2024 X-172.762 Y-1.940 Z-0.534 A136.6956 
N2025 X-172.774 Y-2.223 Z-0.321 A134.1650 
N2026 X-172.785 Y-2.499 Z-0.092 A131.7114 
N2027 X-172.797 Y-2.769 Z0.153 A129.3372 
N2028 X-172.804 Y-3.032 Z0.413 A127.0439 
N2029 X-172.801 Y-3.288 Z0.688 A124.8325 
N2030 X-172.786 Y-3.535 Z0.977 A122.7027 
N2031 X-172.759 Y-3.775 Z1.279 A120.6528 
N2032 X-172.721 Y-4.005 Z1.591 A118.6792 
N2033 X-172.673 Y-4.225 Z1.913 A116.7760 
N2034 X-172.615 Y-4.434 Z2.243 A114.9359 
N2035 X-172.547 Y-4.633 Z2.577 A113.1521 
N2036 X-172.471 Y-4.819 Z2.915 A111.4206 
N2037 X-172.388 Y-4.992 Z3.253 A109.7390 
N2038 X-172.300 Y-5.152 Z3.588 A108.1040 
N2039 X-172.207 Y-5.299 Z3.919 A106.5085 
N2040 X-172.111 Y-5.433 Z4.242 A104.9407 
N2041 X-172.012 Y-5.553 Z4.555 A103.3866 
N2042 X-171.911 Y-5.661 Z4.856 A101.8337 
N2043 X-171.809 Y-5.756 Z5.142 A100.2729 
N2044 X-171.708 Y-5.838 Z5.413 A98.6971 
N2045 X-171.609 Y-5.909 Z5.666 A97.0999 
N2046 X-171.511 Y-5.969 Z5.901 A95.4748 
N2047 X-171.416 Y-6.019 Z6.117 A93.8198 
N2048 X-171.325 Y-6.059 Z6.315 A92.1356 
N2049 X-171.239 Y-6.093 Z6.496 A90.4178 
N2050 X-171.156 Y-6.120 Z6.658 A88.6553 
N2051 X-171.076 Y-6.141 Z6.803 A86.8388 
N2052 X-171.001 Y-6.157 Z6.932 A84.9630 
N2053 X-170.929 Y-6.170 Z7.046 A83.0273 
N2054 X-170.861 Y-6.180 Z7.146 A81.0359 
N2055 X-170.797 Y-6.188 Z7.233 A78.9981 
N2056 X-170.737 Y-6.194 Z7.309 A76.9277 
N2057 X-170.683 Y-6.199 Z7.375 A74.8418 
N2058 X-170.633 Y-6.203 Z7.434 A72.7588 
N2059 X-170.590 Y-6.206 Z7.487 A70.6976 
N2060 X-170.551 Y-6.209 Z7.534 A68.6766 
N2061 X-170.518 Y-6.210 Z7.576 A66.7133 
N2062 X-170.489 Y-6.211 Z7.615 A64.8223 
N2063 X-170.465 Y-6.211 Z7.650 A63.0140 
N2064 X-170.445 Y-6.211 Z7.682 A61.2949 
N2065 X-170.428 Y-6.211 Z7.712 A59.6688 
N2066 X-170.414 Y-6.210 Z7.739 A58.1369 
N2067 X-170.403 Y-6.209 Z7.764 A56.6981 
N2068 X-170.394 Y-6.207 Z7.786 A55.3491 
N2069 X-170.387 Y-6.206 Z7.807 A54.0849 
N2070 X-170.382 Y-6.204 Z7.827 A52.8996 
N2071 X-170.378 Y-6.202 Z7.845 A51.7852 
N2072 X-170.375 Y-6.200 Z7.862 A50.7330 
N2073 X-170.373 Y-6.198 Z7.878 A49.7338 
N2074 X-170.371 Y-6.195 Z7.893 A48.7769 
N2075 X-170.370 Y-6.193 Z7.907 A47.8530 
N2076 X-170.370 Y-6.190 Z7.921 A46.9516 
N2077 X-170.370 Y-6.188 Z7.935 A46.0633 
N2078 X-170.371 Y-6.185 Z7.949 A45.1783 
N2079 X-170.372 Y-6.182 Z7.963 A44.2874 
N2080 X-170.373 Y-6.179 Z7.977 A43.3812 
N2081 X-170.375 Y-6.175 Z7.991 A42.4508 
N2082 X-170.378 Y-6.171 Z8.006 A41.4871 
N2083 X-170.381 Y-6.166 Z8.021 A40.4813 
N2084 X-170.386 Y-6.161 Z8.037 A39.4254 
N2085 X-170.391 Y-6.155 Z8.054 A38.3114 
N2086 X-170.398 Y-6.149 Z8.072 A37.1320 
N2087 X-170.406 Y-6.141 Z8.091 A35.8813 
N2088 X-170.416 Y-6.133 Z8.111 A34.5536 
N2089 X-170.428 Y-6.123 Z8.133 A33.1451 
N2090 X-170.443 Y-6.112 Z8.155 A31.6535 
N2091 X-170.460 Y-6.099 Z8.179 A30.0779 
N2092 X-170.481 Y-6.085 Z8.204 A28.4190 
N2093 X-170.504 Y-6.068 Z8.229 A26.6793 
N2094 X-170.532 Y-6.050 Z8.256 A24.8625 
N2095 X-170.563 Y-6.030 Z8.283 A22.9740 
N2096 X-170.598 Y-6.007 Z8.311 A21.0201 
N2097 X-170.637 Y-5.981 Z8.339 A19.0082 
N2098 X-170.681 Y-5.953 Z8.368 A16.9464 
N2099 X-170.728 Y-5.922 Z8.396 A14.8431 
N2100 X-170.779 Y-5.888 Z8.425 A12.7065 
N2101 X-170.833 Y-5.850 Z8.453 A10.5449 
N2102 X-170.891 Y-5.807 Z8.480 A8.3672 
N2103 X-170.952 Y-5.759 Z8.507 A6.1843 
N2104 X-171.016 Y-5.705 Z8.533 A4.0081 
N2105 X-171.082 Y-5.644 Z8.557 A1.8495 
N2106 X-171.150 Y-5.574 Z8.580 A359.7182 
N2107 X-171.219 Y-5.494 Z8.600 A357.6236 
N2108 X-171.290 Y-5.404 Z8.617 A355.5731 
N2109 X-171.362 Y-5.301 Z8.631 A353.5720 
N2110 X-171.436 Y-5.183 Z8.639 A351.6241 
N2111 X-171.511 Y-5.050 Z8.642 A349.7329 
N2112 X-171.588 Y-4.897 Z8.638 A347.9019 
N2113 X-171.666 Y-4.724 Z8.626 A346.1323 
N2114 X-171.746 Y-4.527 Z8.603 A344.4224 
N2115 X-171.829 Y-4.305 Z8.569 A342.7746 
N2116 X-171.913 Y-4.054 Z8.521 A341.2024 
N2117 X-171.995 Y-3.772 Z8.455 A339.7223 
N2118 X-172.077 Y-3.456 Z8.372 A338.3434 
N2119 X-172.154 Y-3.106 Z8.268 A337.0696 
N2120 X-172.227 Y-2.719 Z8.142 A336.0012 
N2121 X-172.294 Y-2.296 Z7.994 A335.1416 
N2122 X-172.352 Y-1.836 Z7.824 A334.4902 
N2123 X-172.401 Y-1.341 Z7.634 A334.0434 
N2124 X-172.438 Y-0.811 Z7.424 A333.8013 
N2125 X-172.463 Y-0.248 Z7.198 A333.7721 
N2126 X-172.473 Y0.345 Z6.958 A333.9682 
N2127 X-172.468 Y0.966 Z6.710 A334.3953 
N2128 X-172.447 Y1.610 Z6.457 A335.2468 
N2129 X-172.418 Y2.277 Z6.207 A336.5190 
N2130 X-172.389 Y2.963 Z5.967 A338.2073 
N2131 X-172.361 Y3.669 Z5.743 A340.3004 
N2132 X-172.333 Y4.390 Z5.543 A342.7908 
N2133 X-172.307 Y5.126 Z5.373 A345.4844 
N2134 X-172.282 Y5.874 Z5.240 A348.3483 
N2135 X-172.259 Y6.630 Z5.146 A351.2718 
N2136 X-172.236 Y7.393 Z5.094 A354.2184 
N2137 X-172.215 Y8.157 Z5.084 A357.1483 
N2138 X-172.196 Y8.919 Z5.117 A0.0235 
N2139 X-172.178 Y9.676 Z5.190 A2.8127 
N2140 X-172.161 Y10.422 Z5.300 A5.4955 
N2141 X-172.147 Y11.155 Z5.443 A7.9556 
N2142 X-172.134 Y11.869 Z5.615 A10.1858 
N2143 X-172.123 Y12.560 Z5.810 A12.1866 
N2144 X-172.114 Y13.223 Z6.022 A13.9641 
N2145 X-172.106 Y13.854 Z6.244 A15.5277 
N2146 X-172.101 Y14.448 Z6.472 A16.8868 
N2147 X-172.096 Y15.002 Z6.699 A18.0460 
N2148 X-172.094 Y15.512 Z6.921 A18.9989 
N2149 X-172.092 Y15.976 Z7.132 A19.8373 
N2150 X-172.091 Y16.393 Z7.329 A20.5588 
N2151 X-172.091 Y16.762 Z7.508 A21.1704 
N2152 X-172.091 Y17.086 Z7.668 A21.6844 
N2153 X-172.092 Y17.364 Z7.809 A22.1143 
N2154 X-172.093 Y17.601 Z7.931 A22.4714 
N2155 X-172.094 Y17.799 Z8.033 A22.7642 
N2156 X-172.095 Y17.961 Z8.119 A22.9981 
N2157 X-172.095 Y18.093 Z8.189 A23.1754 
N2158 X-172.096 Y18.199 Z8.246 A23.2946 
N2159 X-172.096 Y18.282 Z8.291 A23.2874 
N2160 X-172.097 Y18.347 Z8.328 A23.1250 
N2161 X-172.098 Y18.396 Z8.359 A22.5917 
N2162 X-172.101 Y18.434 Z8.388 A21.5931 
N2163 X-172.106 Y18.464 Z8.418 A19.6618 
N2164 X-172.112 Y18.488 Z8.451 A16.8346 
N2165 X-172.119 Y18.507 Z8.483 A13.6850 
N2166 X-172.126 Y18.524 Z8.513 A10.5365 
N2167 X-172.131 Y18.540 Z8.540 A7.4718 
N2168 X-172.135 Y18.554 Z8.564 A4.5561 
N2169 X-172.137 Y18.567 Z8.585 A1.9395 
N2170 X-172.139 Y18.580 Z8.604 A359.6189 
N2171 X-172.140 Y18.591 Z8.619 A357.5953 
N2172 X-172.141 Y18.601 Z8.632 A355.8205 
N2173 X-172.142 Y18.610 Z8.645 A354.1667 
N2174 X-172.142 Y18.620 Z8.656 A352.6129 
N2175 X-172.142 Y18.629 Z8.666 A351.1562 
N2176 X-172.142 Y18.637 Z8.675 A349.7660 
N2177 X-172.142 Y18.646 Z8.684 A348.4242 
N2178 X-172.142 Y18.655 Z8.693 A347.1192 
N2179 X-172.142 Y18.663 Z8.701 A345.8335 
N2180 X-172.141 Y18.672 Z8.709 A344.5517 
N2181 X-172.141 Y18.682 Z8.717 A343.2567 
N2182 X-172.140 Y18.691 Z8.725 A341.9424 
N2183 X-172.140 Y18.701 Z8.733 A340.5959 
N2184 X-172.139 Y18.712 Z8.740 A339.1979 
N2185 X-172.137 Y18.723 Z8.748 A337.7478 
N2186 X-172.136 Y18.735 Z8.756 A336.2294 
N2187 X-172.134 Y18.748 Z8.764 A334.6375 
N2188 X-172.132 Y18.761 Z8.772 A332.9591 
N2189 X-172.130 Y18.776 Z8.780 A331.1887 
N2190 X-172.127 Y18.792 Z8.788 A329.3085 
N2191 X-172.124 Y18.809 Z8.795 A327.3181 
N2192 X-172.120 Y18.828 Z8.803 A325.2109 
N2193 X-172.115 Y18.848 Z8.810 A322.9793 
N2194 X-172.110 Y18.870 Z8.816 A320.6173 
N2195 X-172.103 Y18.893 Z8.822 A318.1213 
N2196 X-172.096 Y18.918 Z8.828 A315.4865 
N2197 X-172.088 Y18.945 Z8.832 A312.7101 
N2198 X-172.079 Y18.973 Z8.834 A309.7956 
N2199 X-172.068 Y19.002 Z8.836 A306.7487 
N2200 X-172.057 Y19.033 Z8.835 A303.5758 
N2201 X-172.044 Y19.065 Z8.833 A300.2849 
N2202 X-172.030 Y19.098 Z8.829 A296.8851 
N2203 X-172.015 Y19.132 Z8.823 A293.3889 
N2204 X-171.999 Y19.165 Z8.814 A289.8081 
N2205 X-171.982 Y19.199 Z8.803 A286.1561 
N2206 X-171.964 Y19.233 Z8.790 A282.4470 
N2207 X-171.946 Y19.265 Z8.775 A278.6956 
N2208 X-171.927 Y19.297 Z8.757 A274.9177 
N2209 X-171.907 Y19.328 Z8.738 A271.1287 
N2210 X-171.888 Y19.358 Z8.717 A267.3435 
N2211 X-171.869 Y19.385 Z8.694 A263.5740 
N2212 X-171.851 Y19.412 Z8.671 A259.8267 
N2213 X-171.833 Y19.436 Z8.646 A256.0997 
N2214 X-171.815 Y19.459 Z8.619 A252.3838 
N2215 X-171.799 Y19.480 Z8.591 A248.6638 
N2216 X-171.783 Y19.499 Z8.562 A244.9181 
N2217 X-171.767 Y19.517 Z8.531 A241.1191 
N2218 X-171.752 Y19.532 Z8.498 A237.2383 
N2219 X-171.736 Y19.545 Z8.462 A233.2544 
N2220 X-171.720 Y19.555 Z8.422 A229.1666 
N2221 X-171.703 Y19.560 Z8.376 A224.8173 
N2222 X-171.688 Y19.556 Z8.323 A220.2529 
N2223 X-171.678 Y19.539 Z8.273 A217.0276 
N2224 X-171.672 Y19.506 Z8.230 A215.4502 
N2225 X-171.668 Y19.461 Z8.186 A214.8766 
N2226 X-171.664 Y19.399 Z8.133 A214.7048 
N2227 X-171.659 Y19.318 Z8.065 A214.6086 
N2228 X-171.654 Y19.213 Z7.978 A214.5271 
N2229 X-171.647 Y19.077 Z7.866 A214.4514 
N2230 X-171.638 Y18.906 Z7.724 A214.3728 
N2231 X-171.627 Y18.694 Z7.549 A214.2841 
N2232 X-171.614 Y18.434 Z7.334 A214.1778 
N2233 X-171.598 Y18.121 Z7.077 A214.0459 
N2234 X-171.581 Y17.752 Z6.774 A213.8790 
N2235 X-171.561 Y17.323 Z6.423 A213.6660 
N2236 X-171.539 Y16.832 Z6.024 A213.3947 
N2237 X-171.516 Y16.281 Z5.579 A213.0534 
N2238 X-171.492 Y15.671 Z5.092 A212.6307 
N2239 X-171.468 Y15.007 Z4.569 A212.1158 
N2240 X-171.444 Y14.295 Z4.017 A211.4987 
N2241 X-171.422 Y13.542 Z3.446 A210.7703 
N2242 X-171.402 Y12.757 Z2.866 A209.9262 
N2243 X-171.385 Y11.949 Z2.289 A208.8620 
N2244 X-171.371 Y11.128 Z1.726 A207.5810 
N2245 X-171.362 Y10.304 Z1.187 A206.0812 
N2246 X-171.356 Y9.486 Z0.682 A204.3585 
N2247 X-171.355 Y8.683 Z0.218 A202.4082 
N2248 X-171.357 Y7.901 Z-0.200 A200.2263 
N2249 X-171.364 Y7.147 Z-0.567 A197.8137 
N2250 X-171.374 Y6.426 Z-0.882 A195.1837 
N2251 X-171.387 Y5.741 Z-1.145 A192.3536 
N2252 X-171.402 Y5.093 Z-1.360 A189.4265 
N2253 X-171.420 Y4.485 Z-1.528 A186.4110 
N2254 X-171.439 Y3.914 Z-1.655 A183.3209 
N2255 X-171.459 Y3.380 Z-1.744 A180.1730 
N2256 X-171.479 Y2.880 Z-1.801 A176.9855 
N2257 X-171.500 Y2.410 Z-1.828 A173.7763 
N2258 X-171.521 Y1.968 Z-1.830 A170.5618 
N2259 X-171.542 Y1.550 Z-1.809 A167.3564 
N2260 X-171.563 Y1.154 Z-1.767 A164.1726 
N2261 X-171.583 Y0.775 Z-1.706 A161.0204 
N2262 X-171.602 Y0.412 Z-1.627 A157.9084 
N2263 X-171.621 Y0.063 Z-1.531 A154.8435 
N2264 X-171.639 Y-0.275 Z-1.418 A151.8322 
N2265 X-171.657 Y-0.603 Z-1.289 A148.8804 
N2266 X-171.673 Y-0.921 Z-1.144 A145.9935 
N2267 X-171.689 Y-1.231 Z-0.983 A143.1761 
N2268 X-171.704 Y-1.533 Z-0.806 A140.4327 
N2269 X-171.718 Y-1.827 Z-0.613 A137.7673 
N2270 X-171.731 Y-2.115 Z-0.405 A135.1833 
N2271 X-171.744 Y-2.395 Z-0.181 A132.6833 
N2272 X-171.756 Y-2.667 Z0.058 A130.2690 
N2273 X-171.766 Y-2.932 Z0.312 A127.9412 
N2274 X-171.767 Y-3.190 Z0.581 A125.6997 
N2275 X-171.754 Y-3.440 Z0.863 A123.5440 
N2276 X-171.727 Y-3.681 Z1.158 A121.4720 
N2277 X-171.687 Y-3.913 Z1.464 A119.4801 
N2278 X-171.634 Y-4.135 Z1.779 A117.5624 
N2279 X-171.570 Y-4.347 Z2.102 A115.7115 
N2280 X-171.495 Y-4.548 Z2.431 A113.9196 
N2281 X-171.409 Y-4.737 Z2.764 A112.1807 
N2282 X-171.315 Y-4.915 Z3.099 A110.4917 
N2283 X-171.214 Y-5.079 Z3.433 A108.8495 
N2284 X-171.107 Y-5.231 Z3.763 A107.2489 
N2285 X-170.996 Y-5.370 Z4.088 A105.6801 
N2286 X-170.880 Y-5.496 Z4.404 A104.1297 
N2287 X-170.762 Y-5.610 Z4.710 A102.5839 
N2288 X-170.642 Y-5.710 Z5.002 A101.0321 
N2289 X-170.523 Y-5.799 Z5.280 A99.4661 
N2290 X-170.404 Y-5.875 Z5.542 A97.8792 
N2291 X-170.287 Y-5.940 Z5.786 A96.2645 
N2292 X-170.172 Y-5.995 Z6.013 A94.6171 
N2293 X-170.062 Y-6.041 Z6.221 A92.9370 
N2294 X-169.957 Y-6.078 Z6.412 A91.2232 
N2295 X-169.856 Y-6.108 Z6.585 A89.4673 
N2296 X-169.760 Y-6.132 Z6.740 A87.6589 
N2297 X-169.667 Y-6.151 Z6.877 A85.7917 
N2298 X-169.580 Y-6.165 Z7.000 A83.8639 
N2299 X-169.497 Y-6.176 Z7.106 A81.8792 
N2300 X-169.418 Y-6.185 Z7.199 A79.8462 
N2301 X-169.345 Y-6.192 Z7.280 A77.7781 
N2302 X-169.278 Y-6.197 Z7.350 A75.6915 
N2303 X-169.218 Y-6.202 Z7.412 A73.6049 
N2304 X-169.164 Y-6.205 Z7.466 A71.5372 
N2305 X-169.116 Y-6.208 Z7.515 A69.5069 
N2306 X-169.075 Y-6.209 Z7.559 A67.5322 
N2307 X-169.040 Y-6.211 Z7.599 A65.6288 
N2308 X-169.009 Y-6.211 Z7.635 A63.8085 
N2309 X-168.984 Y-6.211 Z7.668 A62.0788 
N2310 X-168.962 Y-6.211 Z7.698 A60.4441 
N2311 X-168.945 Y-6.210 Z7.726 A58.9062 
N2312 X-168.931 Y-6.209 Z7.751 A57.4652 
N2313 X-168.920 Y-6.208 Z7.774 A56.1189 
N2314 X-168.911 Y-6.206 Z7.795 A54.8634 
N2315 X-168.904 Y-6.205 Z7.814 A53.6932 
N2316 X-168.898 Y-6.203 Z7.832 A52.6013 
N2317 X-168.894 Y-6.201 Z7.848 A51.5795 
N2318 X-168.891 Y-6.199 Z7.864 A50.6190 
N2319 X-168.889 Y-6.198 Z7.878 A49.7102 
N2320 X-168.888 Y-6.196 Z7.892 A48.8431 
N2321 X-168.887 Y-6.193 Z7.905 A48.0077 
N2322 X-168.886 Y-6.191 Z7.917 A47.1943 
N2323 X-168.886 Y-6.189 Z7.930 A46.3931 
N2324 X-168.887 Y-6.187 Z7.942 A45.5950 
N2325 X-168.888 Y-6.184 Z7.955 A44.7908 
N2326 X-168.889 Y-6.181 Z7.967 A43.9713 
N2327 X-168.891 Y-6.178 Z7.980 A43.1278 
N2328 X-168.893 Y-6.174 Z7.994 A42.2512 
N2329 X-168.897 Y-6.170 Z8.008 A41.3325 
N2330 X-168.901 Y-6.166 Z8.022 A40.3629 
N2331 X-168.906 Y-6.161 Z8.038 A39.3338 
N2332 X-168.912 Y-6.155 Z8.055 A38.2374 
N2333 X-168.920 Y-6.149 Z8.073 A37.0666 
N2334 X-168.929 Y-6.141 Z8.092 A35.8156 
N2335 X-168.941 Y-6.132 Z8.112 A34.4800 
N2336 X-168.956 Y-6.122 Z8.134 A33.0565 
N2337 X-168.974 Y-6.111 Z8.157 A31.5434 
N2338 X-168.995 Y-6.098 Z8.181 A29.9406 
N2339 X-169.020 Y-6.083 Z8.206 A28.2496 
N2340 X-169.049 Y-6.067 Z8.232 A26.4733 
N2341 X-169.083 Y-6.048 Z8.259 A24.6160 
N2342 X-169.121 Y-6.027 Z8.287 A22.6833 
N2343 X-169.164 Y-6.003 Z8.316 A20.6819 
N2344 X-169.213 Y-5.977 Z8.345 A18.6200 
N2345 X-169.266 Y-5.947 Z8.374 A16.5066 
N2346 X-169.324 Y-5.915 Z8.403 A14.3511 
N2347 X-169.387 Y-5.879 Z8.432 A12.1628 
N2348 X-169.454 Y-5.838 Z8.460 A9.9514 
N2349 X-169.526 Y-5.793 Z8.488 A7.7277 
N2350 X-169.601 Y-5.742 Z8.515 A5.5044 
N2351 X-169.679 Y-5.685 Z8.541 A3.2946 
N2352 X-169.760 Y-5.620 Z8.565 A1.1102 
N2353 X-169.842 Y-5.545 Z8.588 A358.9623 
N2354 X-169.927 Y-5.460 Z8.607 A356.8612 
N2355 X-170.012 Y-5.364 Z8.623 A354.8145 
N2356 X-170.100 Y-5.255 Z8.634 A352.8275 
N2357 X-170.188 Y-5.131 Z8.641 A350.9039 
N2358 X-170.278 Y-4.992 Z8.641 A349.0469 
N2359 X-170.369 Y-4.834 Z8.634 A347.2582 
N2360 X-170.462 Y-4.656 Z8.619 A345.5363 
N2361 X-170.557 Y-4.456 Z8.593 A343.8782 
N2362 X-170.655 Y-4.231 Z8.556 A342.2881 
N2363 X-170.753 Y-3.979 Z8.504 A340.7797 
N2364 X-170.850 Y-3.697 Z8.437 A339.3656 
N2365 X-170.945 Y-3.384 Z8.351 A338.0522 
N2366 X-171.036 Y-3.037 Z8.246 A336.8420 
N2367 X-171.122 Y-2.655 Z8.121 A335.8317 
N2368 X-171.202 Y-2.239 Z7.974 A335.0218 
N2369 X-171.272 Y-1.788 Z7.806 A334.4102 
N2370 X-171.332 Y-1.301 Z7.618 A333.9935 
N2371 X-171.379 Y-0.781 Z7.412 A333.7726 
N2372 X-171.411 Y-0.228 Z7.190 A333.7566 
N2373 X-171.427 Y0.355 Z6.954 A333.9589 
N2374 X-171.426 Y0.966 Z6.710 A334.3858 
N2375 X-171.406 Y1.601 Z6.461 A335.2276 
N2376 X-171.377 Y2.260 Z6.213 A336.4837 
N2377 X-171.346 Y2.941 Z5.974 A338.1532 
N2378 X-171.315 Y3.641 Z5.751 A340.2294 
N2379 X-171.285 Y4.360 Z5.550 A342.7099 
N2380 X-171.253 Y5.096 Z5.379 A345.4004 
N2381 X-171.222 Y5.846 Z5.244 A348.2702 
N2382 X-171.191 Y6.607 Z5.148 A351.2048 
N2383 X-171.160 Y7.375 Z5.094 A354.1675 
N2384 X-171.129 Y8.146 Z5.084 A357.1174 
N2385 X-171.102 Y8.917 Z5.117 A0.0149 
N2386 X-171.078 Y9.682 Z5.191 A2.8271 
N2387 X-171.058 Y10.438 Z5.303 A5.5323 
N2388 X-171.044 Y11.178 Z5.449 A8.0114 
N2389 X-171.035 Y11.900 Z5.623 A10.2563 
N2390 X-171.031 Y12.596 Z5.821 A12.2670 
N2391 X-171.030 Y13.264 Z6.036 A14.0500 
N2392 X-171.034 Y13.898 Z6.261 A15.6152 
N2393 X-171.039 Y14.494 Z6.490 A16.9725 
N2394 X-171.046 Y15.048 Z6.719 A18.1271 
N2395 X-171.055 Y15.557 Z6.941 A19.0726 
N2396 X-171.063 Y16.018 Z7.152 A19.9025 
N2397 X-171.072 Y16.432 Z7.348 A20.6152 
N2398 X-171.081 Y16.798 Z7.526 A21.2183 
N2399 X-171.089 Y17.117 Z7.684 A21.7245 
N2400 X-171.097 Y17.392 Z7.823 A22.1469 
N2401 X-171.104 Y17.624 Z7.943 A22.4968 
N2402 X-171.109 Y17.818 Z8.044 A22.7821 
N2403 X-171.114 Y17.977 Z8.127 A23.0077 
N2404 X-171.118 Y18.106 Z8.196 A23.1753 
N2405 X-171.121 Y18.209 Z8.251 A23.2823 
N2406 X-171.124 Y18.289 Z8.295 A23.2558 
N2407 X-171.126 Y18.352 Z8.331 A23.0649 
N2408 X-171.129 Y18.400 Z8.362 A22.4805 
N2409 X-171.133 Y18.437 Z8.391 A21.4027 
N2410 X-171.140 Y18.466 Z8.422 A19.3193 
N2411 X-171.148 Y18.489 Z8.453 A16.6941 
N2412 X-171.156 Y18.507 Z8.483 A13.7638 
N2413 X-171.163 Y18.523 Z8.510 A10.8459 
N2414 X-171.169 Y18.537 Z8.535 A8.0210 
N2415 X-171.173 Y18.550 Z8.558 A5.3326 
N2416 X-171.176 Y18.562 Z8.577 A2.9311 
N2417 X-171.179 Y18.573 Z8.594 A0.8097 
N2418 X-171.180 Y18.583 Z8.609 A358.9771 
N2419 X-171.181 Y18.592 Z8.622 A357.2714 
N2420 X-171.182 Y18.601 Z8.633 A355.6949 
N2421 X-171.183 Y18.610 Z8.644 A354.2194 
N2422 X-171.183 Y18.618 Z8.654 A352.8412 
N2423 X-171.184 Y18.626 Z8.663 A351.5368 
N2424 X-171.184 Y18.634 Z8.672 A350.2860 
N2425 X-171.184 Y18.642 Z8.680 A349.0793 
N2426 X-171.184 Y18.649 Z8.688 A347.9034 
N2427 X-171.184 Y18.657 Z8.695 A346.7425 
N2428 X-171.183 Y18.665 Z8.703 A345.5827 
N2429 X-171.183 Y18.673 Z8.710 A344.4099 
N2430 X-171.183 Y18.682 Z8.717 A343.2180 
N2431 X-171.182 Y18.691 Z8.725 A341.9949 
N2432 X-171.181 Y18.700 Z8.732 A340.7199 
N2433 X-171.180 Y18.710 Z8.739 A339.3903 
