; PROGRAM NAME: D12345636
; ORDER       : D123456
; OPER. NAME  : Side Milling:141
; OPER. DESCR.: Side Milling/rowek_zgr
; OPER. TYPE  : sideMill
; GEO. OPTION : 1
; MACHINE     : HSTM_300HD_SIM840D_Py
;             : HSTM300/500 - HAMUEL: 5-axis milling machine-SIM840D Traori PP_Script
; CONTROL     : SINUMERIK 840D
; created:   2023-06-05 09:20:51.353043
;-------DODATKOWE DANE-------------------
; PROGRAMISTA : Mariusz Malec
; PARTID      : 301T002184P1010_-
;  ap         : 2.5
;  ae         : 5.0
;  lean_angle : 0.0
;  fin_offset : 0.3
;----------------------------------------
;RAPORT("TD123456","Side Milling:141")
N10 TRAFOOF
N11 D0
N12 G90 G94
N13 G0 G53 D0 Z550
N14 STOPRE
M9 ; chlodziwo wyl
; --- Side Milling:141 - Side Milling/rowek_zgr ---
N16 ;ToolChange : concat=None ,current_tdmid=None, PP.tdmId=940663
N17 TRAFOOF
N18 G0 G53 D0 X-200 Y150 Z550 B0
N19 T="7740663"
;RAPORT("TD123456","ToolChangeStart 7740663")
N20 M6
;RAPORT("TD123456","ToolChangeEnd")
N21 STOPRE
N22 MSG(" TLID=940663 D=6.0 R=0.6 Ang=0.0 Len=102.0 ")
N23 ; (Preloading tool)
N24 T="7740664"
N25 S8488 M03
N26 STOPRE
N27 CYCLE832(0.1,1,1)
N28 G0 G53 A52.0000 B0.0000
N29 TRAORI
N30 G54 D1
;tol5=0.15
STOPRE
E_ZDARZ=500002
;ACS_ROUGH_SLOT=7740663
STOPRE
;UWAGA : ZMIENIONA TOLERANCJA OSI A i B, ruchy osi A i B beda usuniete : TOL5=0.15
N31 ; DELTA A > 40.1
N32 TRAFOOF
N33 D1
N34 STOPRE
N35 G00 G54 Z284.000
N36 G01 A52.0000 F10000
N37 TRAORI
N38 G54 D1
N39 STOPRE
N40 TRANS 
N41 G00 X-148.159 Y-31.170 Z56.183 A52.0000 
N42 M342 ; chlodziwo woda
N43 X-148.159 Y8.231 Z25.400 
N44 ;on NNTE
N45 D1 
N46 G01 G41 X-148.056 Y2.075 Z17.520 F407 
N47 X-148.055 Y1.991 Z17.413 
N48 X-148.054 Y1.907 Z17.306 
N49 X-148.052 Y1.823 Z17.198 
N50 X-148.051 Y1.739 Z17.091 
N51 X-148.049 Y1.655 Z16.983 
N52 X-148.048 Y1.571 Z16.876 
N53 X-148.047 Y1.487 Z16.768 
N54 X-148.045 Y1.403 Z16.661 
N55 X-148.044 Y1.319 Z16.553 
N56 X-148.042 Y1.235 Z16.446 
N57 X-148.041 Y1.151 Z16.338 
N58 X-148.039 Y1.067 Z16.231 
N59 X-148.038 Y0.983 Z16.124 
N60 X-148.037 Y0.899 Z16.016 
N61 X-148.035 Y0.815 Z15.909 
N62 X-148.034 Y0.731 Z15.801 
N63 X-148.032 Y0.647 Z15.694 
N64 X-148.031 Y0.563 Z15.586 
N65 X-148.030 Y0.479 Z15.479 
N66 X-148.028 Y0.396 Z15.371 
N67 X-148.027 Y0.312 Z15.264 
N68 X-148.025 Y0.228 Z15.157 
N69 X-148.024 Y0.144 Z15.049 
N70 X-148.023 Y0.060 Z14.942 
N71 X-148.021 Y-0.024 Z14.834 
N72 X-148.020 Y-0.108 Z14.727 
N73 X-148.018 Y-0.192 Z14.619 
N74 X-148.017 Y-0.276 Z14.512 
N75 X-148.016 Y-0.360 Z14.404 
N76 X-148.014 Y-0.444 Z14.297 
N77 X-148.013 Y-0.528 Z14.189 
N78 X-148.011 Y-0.612 Z14.082 
N79 X-148.010 Y-0.696 Z13.975 
N80 X-148.009 Y-0.780 Z13.867 
N81 X-148.007 Y-0.864 Z13.760 
N82 X-148.006 Y-0.948 Z13.652 
N83 X-148.004 Y-1.032 Z13.545 
N84 X-148.003 Y-1.116 Z13.437 
N85 X-148.002 Y-1.200 Z13.330 
N86 X-148.000 Y-1.283 Z13.222 
N87 X-147.999 Y-1.367 Z13.115 
N88 X-147.997 Y-1.451 Z13.008 
N89 X-147.996 Y-1.535 Z12.900 
N90 X-147.995 Y-1.619 Z12.793 
N91 X-147.993 Y-1.703 Z12.685 
N92 X-147.992 Y-1.787 Z12.578 
N93 X-147.990 Y-1.870 Z12.471 
N94 X-147.989 Y-1.954 Z12.364 
N95 X-147.988 Y-2.038 Z12.257 
N96 X-147.986 Y-2.121 Z12.150 
N97 X-147.985 Y-2.205 Z12.043 
N98 X-147.983 Y-2.289 Z11.936 
N99 X-147.982 Y-2.373 Z11.828 
N100 X-147.981 Y-2.456 Z11.721 
N101 X-147.979 Y-2.540 Z11.614 
N102 X-147.978 Y-2.624 Z11.507 
N103 X-147.976 Y-2.707 Z11.400 
N104 X-147.975 Y-2.791 Z11.293 
N105 X-147.974 Y-2.875 Z11.186 
N106 X-147.972 Y-2.958 Z11.079 
N107 X-147.971 Y-3.042 Z10.971 
N108 X-147.969 Y-3.126 Z10.864 
N109 X-147.968 Y-3.210 Z10.757 
N110 X-147.967 Y-3.293 Z10.650 
N111 X-147.965 Y-3.377 Z10.543 
N112 X-147.964 Y-3.461 Z10.436 
N113 X-147.962 Y-3.544 Z10.329 
N114 X-147.961 Y-3.628 Z10.222 
N115 X-147.960 Y-3.712 Z10.114 
N116 X-147.958 Y-3.795 Z10.007 
N117 X-147.957 Y-3.879 Z9.900 
N118 X-147.955 Y-3.963 Z9.793 
N119 X-147.955 Y-4.046 Z9.686 
N120 X-147.955 Y-4.130 Z9.579 
N121 X-147.955 Y-4.214 Z9.472 
N122 X-147.955 Y-4.298 Z9.364 
N123 X-147.955 Y-4.381 Z9.257 
N124 X-147.955 Y-4.465 Z9.150 
N125 X-147.955 Y-4.549 Z9.043 
N126 X-147.956 Y-4.632 Z8.936 
N127 X-147.956 Y-4.716 Z8.829 
N128 X-147.956 Y-4.800 Z8.722 
N129 X-147.956 Y-4.884 Z8.615 
N130 X-147.956 Y-4.967 Z8.507 
N131 X-147.956 Y-5.051 Z8.400 
N132 X-147.956 Y-5.135 Z8.293 
N133 X-147.956 Y-5.218 Z8.186 
N134 X-147.957 Y-5.302 Z8.079 
N135 X-147.957 Y-5.386 Z7.972 
N136 X-147.957 Y-5.469 Z7.865 
N137 X-147.957 Y-5.553 Z7.757 
N138 X-147.957 Y-5.637 Z7.650 
N139 X-147.957 Y-5.721 Z7.543 
N140 X-147.957 Y-5.804 Z7.436 
N141 X-147.957 Y-5.888 Z7.329 
N142 X-147.958 Y-5.972 Z7.222 
N143 X-147.958 Y-6.055 Z7.115 
N144 X-147.958 Y-6.139 Z7.008 
N145 X-147.958 Y-6.223 Z6.900 
N146 X-147.958 Y-6.306 Z6.793 
N147 X-147.958 Y-6.390 Z6.686 
N148 X-147.958 Y-6.474 Z6.579 
N149 X-147.958 Y-6.558 Z6.472 
N150 X-147.959 Y-6.641 Z6.365 
N151 X-147.960 Y-6.725 Z6.258 
N152 X-147.962 Y-6.809 Z6.150 
N153 X-147.964 Y-6.892 Z6.043 
N154 X-147.966 Y-6.976 Z5.936 
N155 X-147.969 Y-7.060 Z5.829 
N156 X-147.971 Y-7.143 Z5.722 
N157 X-147.973 Y-7.227 Z5.615 
N158 X-147.975 Y-7.311 Z5.508 
N159 X-147.977 Y-7.394 Z5.401 
N160 X-147.980 Y-7.478 Z5.294 
N161 X-147.982 Y-7.562 Z5.186 
N162 X-147.984 Y-7.646 Z5.079 
N163 X-147.986 Y-7.729 Z4.972 
N164 X-147.988 Y-7.813 Z4.865 
N165 X-147.991 Y-7.897 Z4.758 
N166 X-147.993 Y-7.980 Z4.651 
N167 X-147.995 Y-8.064 Z4.544 
N168 X-147.997 Y-8.148 Z4.437 
N169 X-147.999 Y-8.231 Z4.329 
N170 X-148.002 Y-8.315 Z4.222 
N171 X-148.004 Y-8.399 Z4.115 
N172 X-148.006 Y-8.482 Z4.008 
N173 X-148.008 Y-8.566 Z3.901 
N174 X-148.010 Y-8.650 Z3.794 
N175 X-148.012 Y-8.734 Z3.687 
N176 X-148.015 Y-8.817 Z3.580 
N177 X-148.017 Y-8.901 Z3.472 
N178 X-148.019 Y-8.985 Z3.365 
N179 X-148.021 Y-9.068 Z3.258 
N180 X-148.023 Y-9.152 Z3.151 
N181 X-148.026 Y-9.236 Z3.044 
N182 X-148.028 Y-9.319 Z2.937 
N183 X-148.030 Y-9.403 Z2.830 
N184 X-148.032 Y-9.487 Z2.723 
N185 X-148.034 Y-9.570 Z2.616 
N186 X-148.037 Y-9.654 Z2.508 
N187 X-148.039 Y-9.738 Z2.401 
N188 X-148.041 Y-9.822 Z2.294 
N189 X-148.043 Y-9.905 Z2.187 
N190 X-148.045 Y-9.989 Z2.080 
N191 X-148.048 Y-10.073 Z1.973 
N192 X-148.050 Y-10.156 Z1.866 
N193 X-148.052 Y-10.240 Z1.759 
N194 X-148.054 Y-10.324 Z1.651 
N195 X-148.056 Y-10.407 Z1.544 
N196 X-148.059 Y-10.491 Z1.437 
N197 X-148.061 Y-10.575 Z1.330 
N198 X-148.063 Y-10.658 Z1.223 
N199 X-148.065 Y-10.742 Z1.116 
N200 X-148.067 Y-10.826 Z1.009 
N201 X-148.071 Y-10.910 Z0.902 
N202 X-148.076 Y-10.993 Z0.795 
N203 X-148.080 Y-11.077 Z0.687 
N204 X-148.084 Y-11.160 Z0.580 
N205 X-148.089 Y-11.244 Z0.473 
N206 X-148.093 Y-11.328 Z0.366 
N207 X-148.097 Y-11.411 Z0.259 
N208 X-148.102 Y-11.495 Z0.152 
N209 X-148.106 Y-11.579 Z0.045 
N210 X-148.110 Y-11.662 Z-0.062 
N211 X-148.115 Y-11.746 Z-0.169 
N212 X-148.119 Y-11.830 Z-0.276 
N213 X-148.123 Y-11.913 Z-0.383 
N214 X-148.128 Y-11.997 Z-0.490 
N215 X-148.132 Y-12.081 Z-0.597 
N216 X-148.136 Y-12.164 Z-0.705 
N217 X-148.141 Y-12.248 Z-0.812 
N218 X-148.145 Y-12.332 Z-0.919 
N219 X-148.149 Y-12.415 Z-1.026 
N220 X-148.153 Y-12.499 Z-1.133 
N221 X-148.158 Y-12.583 Z-1.240 
N222 X-148.162 Y-12.666 Z-1.347 
N223 X-148.166 Y-12.750 Z-1.454 
N224 X-148.171 Y-12.834 Z-1.561 
N225 X-148.175 Y-12.917 Z-1.668 
N226 X-148.179 Y-13.001 Z-1.775 
N227 X-148.184 Y-13.085 Z-1.882 
N228 X-148.188 Y-13.168 Z-1.990 
N229 X-148.192 Y-13.252 Z-2.097 
N230 X-148.197 Y-13.336 Z-2.204 
N231 X-148.201 Y-13.419 Z-2.311 
N232 X-148.205 Y-13.503 Z-2.418 
N233 X-148.210 Y-13.587 Z-2.525 
N234 X-148.214 Y-13.670 Z-2.632 
N235 X-148.219 Y-13.754 Z-2.739 
N236 X-148.225 Y-13.838 Z-2.846 
N237 X-148.231 Y-13.921 Z-2.953 
N238 X-148.237 Y-14.005 Z-3.060 
N239 X-148.242 Y-14.088 Z-3.167 
N240 X-148.248 Y-14.172 Z-3.274 
N241 X-148.254 Y-14.256 Z-3.381 
N242 X-148.260 Y-14.339 Z-3.488 
N243 X-148.266 Y-14.423 Z-3.595 
N244 X-148.272 Y-14.507 Z-3.702 
N245 X-148.278 Y-14.590 Z-3.809 
N246 X-148.284 Y-14.674 Z-3.916 
N247 X-148.289 Y-14.757 Z-4.023 
N248 X-148.295 Y-14.841 Z-4.130 
N249 X-148.301 Y-14.925 Z-4.238 
N250 X-148.307 Y-15.008 Z-4.345 
N251 X-148.313 Y-15.092 Z-4.452 
N252 X-148.319 Y-15.176 Z-4.559 
N253 X-148.325 Y-15.259 Z-4.666 
N254 X-148.331 Y-15.343 Z-4.773 
N255 X-148.337 Y-15.426 Z-4.880 
N256 X-148.342 Y-15.510 Z-4.987 
N257 X-148.348 Y-15.594 Z-5.094 
N258 X-148.354 Y-15.677 Z-5.201 
N259 X-148.360 Y-15.761 Z-5.308 
N260 X-148.366 Y-15.845 Z-5.415 
N261 X-148.372 Y-15.928 Z-5.522 
N262 X-148.378 Y-16.012 Z-5.629 
N263 X-148.384 Y-16.096 Z-5.736 
N264 X-148.390 Y-16.180 Z-5.844 
N265 X-148.396 Y-16.263 Z-5.951 
N266 X-148.401 Y-16.347 Z-6.058 
N267 X-148.407 Y-16.431 Z-6.166 
N268 X-148.413 Y-16.515 Z-6.273 
N269 X-148.419 Y-16.599 Z-6.380 
N270 X-148.425 Y-16.683 Z-6.488 
N271 X-148.431 Y-16.767 Z-6.595 
N272 X-148.437 Y-16.851 Z-6.703 
N273 X-148.443 Y-16.934 Z-6.810 
N274 X-148.449 Y-17.018 Z-6.917 
N275 X-148.455 Y-17.102 Z-7.025 
N276 X-148.460 Y-17.186 Z-7.132 
N277 X-148.466 Y-17.270 Z-7.239 
N278 X-148.472 Y-17.354 Z-7.347 
N279 X-148.478 Y-17.438 Z-7.454 
N280 X-148.484 Y-17.522 Z-7.561 
N281 X-148.490 Y-17.605 Z-7.669 
N282 X-148.496 Y-17.689 Z-7.776 
N283 X-148.502 Y-17.773 Z-7.883 
N284 X-148.508 Y-17.857 Z-7.991 
N285 G40 X-148.941 Y-24.008 Z-15.864 F407
N286 X-148.941 Y-24.008 Z-15.864 
N287 G00 X-148.941 Y-43.708 Z-0.472 
N288 X-148.159 Y-10.012 Z39.653 
N289 X-148.159 Y9.689 Z24.261 
N290 ;on NNTE
N291 D1 
N292 G01 G41 X-148.056 Y3.532 Z16.381 F407 
N293 X-148.055 Y3.448 Z16.274 
N294 X-148.054 Y3.364 Z16.167 
N295 X-148.052 Y3.280 Z16.059 
N296 X-148.051 Y3.197 Z15.952 
N297 X-148.049 Y3.113 Z15.844 
N298 X-148.048 Y3.029 Z15.737 
N299 X-148.047 Y2.945 Z15.629 
N300 X-148.045 Y2.861 Z15.522 
N301 X-148.044 Y2.777 Z15.414 
N302 X-148.042 Y2.693 Z15.307 
N303 X-148.041 Y2.609 Z15.199 
N304 X-148.039 Y2.525 Z15.092 
N305 X-148.038 Y2.441 Z14.985 
N306 X-148.037 Y2.357 Z14.877 
N307 X-148.035 Y2.273 Z14.770 
N308 X-148.034 Y2.189 Z14.662 
N309 X-148.032 Y2.105 Z14.555 
N310 X-148.031 Y2.021 Z14.447 
N311 X-148.030 Y1.937 Z14.340 
N312 X-148.028 Y1.853 Z14.232 
N313 X-148.027 Y1.769 Z14.125 
N314 X-148.025 Y1.685 Z14.018 
N315 X-148.024 Y1.602 Z13.910 
N316 X-148.023 Y1.518 Z13.803 
N317 X-148.021 Y1.434 Z13.695 
N318 X-148.020 Y1.350 Z13.588 
N319 X-148.018 Y1.266 Z13.480 
N320 X-148.017 Y1.182 Z13.373 
N321 X-148.016 Y1.098 Z13.265 
N322 X-148.014 Y1.014 Z13.158 
N323 X-148.013 Y0.930 Z13.050 
N324 X-148.011 Y0.846 Z12.943 
N325 X-148.010 Y0.762 Z12.836 
N326 X-148.009 Y0.678 Z12.728 
N327 X-148.007 Y0.594 Z12.621 
N328 X-148.006 Y0.510 Z12.513 
N329 X-148.004 Y0.426 Z12.406 
N330 X-148.003 Y0.342 Z12.298 
N331 X-148.002 Y0.258 Z12.191 
N332 X-148.000 Y0.174 Z12.083 
N333 X-147.999 Y0.090 Z11.976 
N334 X-147.997 Y0.006 Z11.869 
N335 X-147.996 Y-0.077 Z11.761 
N336 X-147.995 Y-0.161 Z11.654 
N337 X-147.993 Y-0.245 Z11.547 
N338 X-147.992 Y-0.329 Z11.439 
N339 X-147.990 Y-0.413 Z11.332 
N340 X-147.989 Y-0.496 Z11.225 
N341 X-147.988 Y-0.580 Z11.118 
N342 X-147.986 Y-0.664 Z11.011 
N343 X-147.985 Y-0.747 Z10.904 
N344 X-147.983 Y-0.831 Z10.797 
N345 X-147.982 Y-0.915 Z10.689 
N346 X-147.981 Y-0.998 Z10.582 
N347 X-147.979 Y-1.082 Z10.475 
N348 X-147.978 Y-1.166 Z10.368 
N349 X-147.976 Y-1.250 Z10.261 
N350 X-147.975 Y-1.333 Z10.154 
N351 X-147.974 Y-1.417 Z10.047 
N352 X-147.972 Y-1.501 Z9.940 
N353 X-147.971 Y-1.584 Z9.832 
N354 X-147.969 Y-1.668 Z9.725 
N355 X-147.968 Y-1.752 Z9.618 
N356 X-147.967 Y-1.835 Z9.511 
N357 X-147.965 Y-1.919 Z9.404 
N358 X-147.964 Y-2.003 Z9.297 
N359 X-147.962 Y-2.086 Z9.190 
N360 X-147.961 Y-2.170 Z9.083 
N361 X-147.960 Y-2.254 Z8.975 
N362 X-147.958 Y-2.338 Z8.868 
N363 X-147.957 Y-2.421 Z8.761 
N364 X-147.955 Y-2.505 Z8.654 
N365 X-147.955 Y-2.589 Z8.547 
N366 X-147.955 Y-2.672 Z8.440 
N367 X-147.955 Y-2.756 Z8.333 
N368 X-147.955 Y-2.840 Z8.226 
N369 X-147.955 Y-2.923 Z8.118 
N370 X-147.955 Y-3.007 Z8.011 
N371 X-147.955 Y-3.091 Z7.904 
N372 X-147.956 Y-3.175 Z7.797 
N373 X-147.956 Y-3.258 Z7.690 
N374 X-147.956 Y-3.342 Z7.583 
N375 X-147.956 Y-3.426 Z7.476 
N376 X-147.956 Y-3.509 Z7.368 
N377 X-147.956 Y-3.593 Z7.261 
N378 X-147.956 Y-3.677 Z7.154 
N379 X-147.956 Y-3.761 Z7.047 
N380 X-147.957 Y-3.844 Z6.940 
N381 X-147.957 Y-3.928 Z6.833 
N382 X-147.957 Y-4.012 Z6.726 
N383 X-147.957 Y-4.095 Z6.618 
N384 X-147.957 Y-4.179 Z6.511 
N385 X-147.957 Y-4.263 Z6.404 
N386 X-147.957 Y-4.346 Z6.297 
N387 X-147.957 Y-4.430 Z6.190 
N388 X-147.958 Y-4.514 Z6.083 
N389 X-147.958 Y-4.598 Z5.976 
N390 X-147.958 Y-4.681 Z5.869 
N391 X-147.958 Y-4.765 Z5.761 
N392 X-147.958 Y-4.849 Z5.654 
N393 X-147.958 Y-4.932 Z5.547 
N394 X-147.958 Y-5.016 Z5.440 
N395 X-147.958 Y-5.100 Z5.333 
N396 X-147.959 Y-5.183 Z5.226 
N397 X-147.960 Y-5.267 Z5.119 
N398 X-147.962 Y-5.351 Z5.012 
N399 X-147.964 Y-5.435 Z4.904 
N400 X-147.966 Y-5.518 Z4.797 
N401 X-147.969 Y-5.602 Z4.690 
N402 X-147.971 Y-5.686 Z4.583 
N403 X-147.973 Y-5.769 Z4.476 
N404 X-147.975 Y-5.853 Z4.369 
N405 X-147.977 Y-5.937 Z4.262 
N406 X-147.980 Y-6.020 Z4.155 
N407 X-147.982 Y-6.104 Z4.047 
N408 X-147.984 Y-6.188 Z3.940 
N409 X-147.986 Y-6.271 Z3.833 
N410 X-147.988 Y-6.355 Z3.726 
N411 X-147.991 Y-6.439 Z3.619 
N412 X-147.993 Y-6.523 Z3.512 
N413 X-147.995 Y-6.606 Z3.405 
N414 X-147.997 Y-6.690 Z3.298 
N415 X-147.999 Y-6.774 Z3.190 
N416 X-148.002 Y-6.857 Z3.083 
N417 X-148.004 Y-6.941 Z2.976 
N418 X-148.006 Y-7.025 Z2.869 
N419 X-148.008 Y-7.108 Z2.762 
N420 X-148.010 Y-7.192 Z2.655 
N421 X-148.012 Y-7.276 Z2.548 
N422 X-148.015 Y-7.359 Z2.441 
N423 X-148.017 Y-7.443 Z2.334 
N424 X-148.019 Y-7.527 Z2.226 
N425 X-148.021 Y-7.610 Z2.119 
N426 X-148.023 Y-7.694 Z2.012 
N427 X-148.026 Y-7.778 Z1.905 
N428 X-148.028 Y-7.862 Z1.798 
N429 X-148.030 Y-7.945 Z1.691 
N430 X-148.032 Y-8.029 Z1.584 
N431 X-148.034 Y-8.113 Z1.477 
N432 X-148.037 Y-8.196 Z1.369 
N433 X-148.039 Y-8.280 Z1.262 
N434 X-148.041 Y-8.364 Z1.155 
N435 X-148.043 Y-8.447 Z1.048 
N436 X-148.045 Y-8.531 Z0.941 
N437 X-148.048 Y-8.615 Z0.834 
N438 X-148.050 Y-8.698 Z0.727 
N439 X-148.052 Y-8.782 Z0.620 
N440 X-148.054 Y-8.866 Z0.512 
N441 X-148.056 Y-8.950 Z0.405 
N442 X-148.059 Y-9.033 Z0.298 
N443 X-148.061 Y-9.117 Z0.191 
N444 X-148.063 Y-9.201 Z0.084 
N445 X-148.065 Y-9.284 Z-0.023 
N446 X-148.067 Y-9.368 Z-0.130 
N447 X-148.071 Y-9.452 Z-0.237 
N448 X-148.076 Y-9.535 Z-0.344 
N449 X-148.080 Y-9.619 Z-0.451 
N450 X-148.084 Y-9.703 Z-0.559 
N451 X-148.089 Y-9.786 Z-0.666 
N452 X-148.093 Y-9.870 Z-0.773 
N453 X-148.097 Y-9.954 Z-0.880 
N454 X-148.102 Y-10.037 Z-0.987 
N455 X-148.106 Y-10.121 Z-1.094 
N456 X-148.110 Y-10.205 Z-1.201 
N457 X-148.115 Y-10.288 Z-1.308 
N458 X-148.119 Y-10.372 Z-1.415 
N459 X-148.123 Y-10.456 Z-1.522 
N460 X-148.128 Y-10.539 Z-1.629 
N461 X-148.132 Y-10.623 Z-1.736 
N462 X-148.136 Y-10.707 Z-1.844 
N463 X-148.141 Y-10.790 Z-1.951 
N464 X-148.145 Y-10.874 Z-2.058 
N465 X-148.149 Y-10.958 Z-2.165 
N466 X-148.153 Y-11.041 Z-2.272 
N467 X-148.158 Y-11.125 Z-2.379 
N468 X-148.162 Y-11.209 Z-2.486 
N469 X-148.166 Y-11.292 Z-2.593 
N470 X-148.171 Y-11.376 Z-2.700 
N471 X-148.175 Y-11.460 Z-2.807 
N472 X-148.179 Y-11.543 Z-2.914 
N473 X-148.184 Y-11.627 Z-3.021 
N474 X-148.188 Y-11.711 Z-3.128 
N475 X-148.192 Y-11.794 Z-3.236 
N476 X-148.197 Y-11.878 Z-3.343 
N477 X-148.201 Y-11.961 Z-3.450 
N478 X-148.205 Y-12.045 Z-3.557 
N479 X-148.210 Y-12.129 Z-3.664 
N480 X-148.214 Y-12.212 Z-3.771 
N481 X-148.219 Y-12.296 Z-3.878 
N482 X-148.225 Y-12.380 Z-3.985 
N483 X-148.231 Y-12.463 Z-4.092 
N484 X-148.237 Y-12.547 Z-4.199 
N485 X-148.242 Y-12.631 Z-4.306 
N486 X-148.248 Y-12.714 Z-4.413 
N487 X-148.254 Y-12.798 Z-4.520 
N488 X-148.260 Y-12.881 Z-4.627 
N489 X-148.266 Y-12.965 Z-4.734 
N490 X-148.272 Y-13.049 Z-4.841 
N491 X-148.278 Y-13.132 Z-4.948 
N492 X-148.284 Y-13.216 Z-5.055 
N493 X-148.289 Y-13.300 Z-5.162 
N494 X-148.295 Y-13.383 Z-5.269 
N495 X-148.301 Y-13.467 Z-5.377 
N496 X-148.307 Y-13.550 Z-5.484 
N497 X-148.313 Y-13.634 Z-5.591 
N498 X-148.319 Y-13.718 Z-5.698 
N499 X-148.325 Y-13.801 Z-5.805 
N500 X-148.331 Y-13.885 Z-5.912 
N501 X-148.337 Y-13.969 Z-6.019 
N502 X-148.342 Y-14.052 Z-6.126 
N503 X-148.348 Y-14.136 Z-6.233 
N504 X-148.354 Y-14.219 Z-6.340 
N505 X-148.360 Y-14.303 Z-6.447 
N506 X-148.366 Y-14.387 Z-6.554 
N507 X-148.372 Y-14.470 Z-6.661 
N508 X-148.378 Y-14.554 Z-6.768 
N509 X-148.384 Y-14.638 Z-6.875 
N510 X-148.390 Y-14.722 Z-6.983 
N511 X-148.396 Y-14.806 Z-7.090 
N512 X-148.401 Y-14.889 Z-7.197 
N513 X-148.407 Y-14.973 Z-7.305 
N514 X-148.413 Y-15.057 Z-7.412 
N515 X-148.419 Y-15.141 Z-7.519 
N516 X-148.425 Y-15.225 Z-7.627 
N517 X-148.431 Y-15.309 Z-7.734 
N518 X-148.437 Y-15.393 Z-7.841 
N519 X-148.443 Y-15.477 Z-7.949 
N520 X-148.449 Y-15.560 Z-8.056 
N521 X-148.455 Y-15.644 Z-8.164 
N522 X-148.460 Y-15.728 Z-8.271 
N523 X-148.466 Y-15.812 Z-8.378 
N524 X-148.472 Y-15.896 Z-8.486 
N525 X-148.478 Y-15.980 Z-8.593 
N526 X-148.484 Y-16.064 Z-8.700 
N527 X-148.490 Y-16.148 Z-8.808 
N528 X-148.496 Y-16.231 Z-8.915 
N529 X-148.502 Y-16.315 Z-9.022 
N530 X-148.508 Y-16.399 Z-9.130 
N531 G40 X-148.941 Y-22.550 Z-17.002 F407
N532 X-148.941 Y-22.550 Z-17.002 
N533 G00 X-148.941 Y-61.951 Z13.781 
;RAPORT("TD123456","Side Milling:141 End")
;trailer : concat=None
; points cnt = 480
N535 MSG (" --- GROUPED OF SUBPROGRAM --- ")
N536 FGROUP()
N537 TRAFOOF
; PROGRAM NAME: D12345636
; ORDER       : D123456
; OPER. NAME  : Side Milling:142
; OPER. DESCR.: rough slot NGA
; OPER. TYPE  : sideMill
; GEO. OPTION : 1
; MACHINE     : HSTM_300HD_SIM840D_Py
;             : HSTM300/500 - HAMUEL: 5-axis milling machine-SIM840D Traori PP_Script
; CONTROL     : SINUMERIK 840D
; created:   2023-06-05 09:20:56.866485
;-------DODATKOWE DANE-------------------
; PROGRAMISTA : Mariusz Malec
; PARTID      : 301T002184P1010_-
;  ap         : 2.5
;  ae         : 5.0
;  lean_angle : 0.0
;  fin_offset : 0.3
;----------------------------------------
;RAPORT("TD123456","Side Milling:142")
N10 TRAFOOF
N11 D0
N12 G90 G94
N13 G0 G53 D0 Z550
N14 STOPRE
M9 ; chlodziwo wyl
; --- Side Milling:142 - rough slot NGA ---
N16 ;ToolChange : concat=None ,current_tdmid=None, PP.tdmId=940663
N17 TRAFOOF
N18 G0 G53 D0 Z550 B0
N19 STOPRE
N20 MSG(" TLID=940663 D=6.0 R=0.6 Ang=0.0 Len=102.0 ")
N21 S8488 M03
N22 STOPRE
N23 CYCLE832(0.1,1,1)
N24 G0 G53 A232.0000 B-0.0000
N25 TRAORI
N26 G54 D1
;tol5=0.15
STOPRE
E_ZDARZ=500002
;ACS_ROUGH_SLOT=7740663
STOPRE
;UWAGA : ZMIENIONA TOLERANCJA OSI A i B, ruchy osi A i B beda usuniete : TOL5=0.15
N27 ; DELTA A > 40.1
N28 TRAFOOF
N29 D1
N30 STOPRE
N31 G00 G54 Z284.000
N32 G01 A232.0000 F10000
N33 TRAORI
N34 G54 D1
N35 STOPRE
N36 TRANS 
N37 G00 X-148.563 Y31.611 Z-55.613 A232.0000 
N38 M342 ; chlodziwo woda
N39 X-148.563 Y-7.790 Z-24.830 
N40 ;on NNTA
N41 D3 
N42 G01 G41 X-148.298 Y-1.635 Z-16.952 F407 
N43 X-148.294 Y-1.552 Z-16.845 
N44 X-148.291 Y-1.468 Z-16.737 
N45 X-148.287 Y-1.384 Z-16.630 
N46 X-148.283 Y-1.300 Z-16.523 
N47 X-148.280 Y-1.216 Z-16.415 
N48 X-148.276 Y-1.132 Z-16.308 
N49 X-148.273 Y-1.048 Z-16.200 
N50 X-148.269 Y-0.964 Z-16.093 
N51 X-148.265 Y-0.880 Z-15.986 
N52 X-148.262 Y-0.796 Z-15.878 
N53 X-148.258 Y-0.712 Z-15.771 
N54 X-148.255 Y-0.628 Z-15.663 
N55 X-148.251 Y-0.544 Z-15.556 
N56 X-148.247 Y-0.461 Z-15.448 
N57 X-148.244 Y-0.377 Z-15.341 
N58 X-148.240 Y-0.293 Z-15.234 
N59 X-148.236 Y-0.209 Z-15.126 
N60 X-148.233 Y-0.125 Z-15.019 
N61 X-148.229 Y-0.041 Z-14.911 
N62 X-148.226 Y0.043 Z-14.804 
N63 X-148.222 Y0.127 Z-14.697 
N64 X-148.218 Y0.211 Z-14.589 
N65 X-148.215 Y0.295 Z-14.482 
N66 X-148.211 Y0.379 Z-14.374 
N67 X-148.208 Y0.463 Z-14.267 
N68 X-148.204 Y0.547 Z-14.159 
N69 X-148.200 Y0.630 Z-14.052 
N70 X-148.197 Y0.714 Z-13.945 
N71 X-148.193 Y0.798 Z-13.837 
N72 X-148.190 Y0.882 Z-13.730 
N73 X-148.186 Y0.966 Z-13.622 
N74 X-148.182 Y1.050 Z-13.515 
N75 X-148.179 Y1.134 Z-13.407 
N76 X-148.175 Y1.218 Z-13.300 
N77 X-148.171 Y1.302 Z-13.193 
N78 X-148.168 Y1.386 Z-13.085 
N79 X-148.164 Y1.470 Z-12.978 
N80 X-148.161 Y1.554 Z-12.870 
N81 X-148.157 Y1.638 Z-12.763 
N82 X-148.153 Y1.721 Z-12.656 
N83 X-148.150 Y1.805 Z-12.548 
N84 X-148.146 Y1.889 Z-12.441 
N85 X-148.143 Y1.973 Z-12.333 
N86 X-148.139 Y2.057 Z-12.226 
N87 X-148.135 Y2.141 Z-12.119 
N88 X-148.132 Y2.225 Z-12.012 
N89 X-148.128 Y2.308 Z-11.905 
N90 X-148.125 Y2.392 Z-11.798 
N91 X-148.121 Y2.476 Z-11.690 
N92 X-148.117 Y2.559 Z-11.583 
N93 X-148.114 Y2.643 Z-11.476 
N94 X-148.110 Y2.727 Z-11.369 
N95 X-148.107 Y2.810 Z-11.262 
N96 X-148.103 Y2.894 Z-11.155 
N97 X-148.099 Y2.978 Z-11.048 
N98 X-148.096 Y3.061 Z-10.941 
N99 X-148.092 Y3.145 Z-10.834 
N100 X-148.089 Y3.229 Z-10.727 
N101 X-148.085 Y3.312 Z-10.619 
N102 X-148.081 Y3.396 Z-10.512 
N103 X-148.078 Y3.480 Z-10.405 
N104 X-148.074 Y3.563 Z-10.298 
N105 X-148.071 Y3.647 Z-10.191 
N106 X-148.067 Y3.731 Z-10.084 
N107 X-148.063 Y3.814 Z-9.977 
N108 X-148.060 Y3.898 Z-9.870 
N109 X-148.056 Y3.982 Z-9.763 
N110 X-148.053 Y4.065 Z-9.656 
N111 X-148.049 Y4.149 Z-9.548 
N112 X-148.045 Y4.233 Z-9.441 
N113 X-148.042 Y4.316 Z-9.334 
N114 X-148.038 Y4.400 Z-9.227 
N115 X-148.035 Y4.484 Z-9.120 
N116 X-148.031 Y4.567 Z-9.013 
N117 X-148.028 Y4.651 Z-8.906 
N118 X-148.027 Y4.735 Z-8.799 
N119 X-148.025 Y4.818 Z-8.692 
N120 X-148.024 Y4.902 Z-8.584 
N121 X-148.023 Y4.986 Z-8.477 
N122 X-148.021 Y5.070 Z-8.370 
N123 X-148.020 Y5.153 Z-8.263 
N124 X-148.018 Y5.237 Z-8.156 
N125 X-148.017 Y5.321 Z-8.049 
N126 X-148.015 Y5.404 Z-7.942 
N127 X-148.014 Y5.488 Z-7.835 
N128 X-148.012 Y5.572 Z-7.727 
N129 X-148.011 Y5.655 Z-7.620 
N130 X-148.010 Y5.739 Z-7.513 
N131 X-148.008 Y5.823 Z-7.406 
N132 X-148.007 Y5.907 Z-7.299 
N133 X-148.005 Y5.990 Z-7.192 
N134 X-148.004 Y6.074 Z-7.085 
N135 X-148.002 Y6.158 Z-6.977 
N136 X-148.001 Y6.241 Z-6.870 
N137 X-147.999 Y6.325 Z-6.763 
N138 X-147.998 Y6.409 Z-6.656 
N139 X-147.997 Y6.492 Z-6.549 
N140 X-147.995 Y6.576 Z-6.442 
N141 X-147.994 Y6.660 Z-6.335 
N142 X-147.992 Y6.744 Z-6.228 
N143 X-147.991 Y6.827 Z-6.120 
N144 X-147.989 Y6.911 Z-6.013 
N145 X-147.988 Y6.995 Z-5.906 
N146 X-147.986 Y7.078 Z-5.799 
N147 X-147.985 Y7.162 Z-5.692 
N148 X-147.984 Y7.246 Z-5.585 
N149 X-147.982 Y7.329 Z-5.478 
N150 X-147.981 Y7.413 Z-5.371 
N151 X-147.979 Y7.497 Z-5.263 
N152 X-147.978 Y7.581 Z-5.156 
N153 X-147.976 Y7.664 Z-5.049 
N154 X-147.975 Y7.748 Z-4.942 
N155 X-147.973 Y7.832 Z-4.835 
N156 X-147.972 Y7.915 Z-4.728 
N157 X-147.970 Y7.999 Z-4.621 
N158 X-147.969 Y8.083 Z-4.514 
N159 X-147.968 Y8.166 Z-4.406 
N160 X-147.966 Y8.250 Z-4.299 
N161 X-147.965 Y8.334 Z-4.192 
N162 X-147.963 Y8.418 Z-4.085 
N163 X-147.962 Y8.501 Z-3.978 
N164 X-147.960 Y8.585 Z-3.871 
N165 X-147.959 Y8.669 Z-3.764 
N166 X-147.957 Y8.752 Z-3.656 
N167 X-147.956 Y8.836 Z-3.549 
N168 X-147.955 Y8.920 Z-3.442 
N169 X-147.953 Y9.003 Z-3.335 
N170 X-147.952 Y9.087 Z-3.228 
N171 X-147.950 Y9.171 Z-3.121 
N172 X-147.951 Y9.255 Z-3.014 
N173 X-147.953 Y9.338 Z-2.907 
N174 X-147.954 Y9.422 Z-2.799 
N175 X-147.955 Y9.506 Z-2.692 
N176 X-147.957 Y9.589 Z-2.585 
N177 X-147.958 Y9.673 Z-2.478 
N178 X-147.959 Y9.757 Z-2.371 
N179 X-147.961 Y9.840 Z-2.264 
N180 X-147.962 Y9.924 Z-2.157 
N181 X-147.963 Y10.008 Z-2.050 
N182 X-147.965 Y10.092 Z-1.942 
N183 X-147.966 Y10.175 Z-1.835 
N184 X-147.967 Y10.259 Z-1.728 
N185 X-147.969 Y10.343 Z-1.621 
N186 X-147.970 Y10.426 Z-1.514 
N187 X-147.971 Y10.510 Z-1.407 
N188 X-147.973 Y10.594 Z-1.300 
N189 X-147.974 Y10.677 Z-1.192 
N190 X-147.976 Y10.761 Z-1.085 
N191 X-147.977 Y10.845 Z-0.978 
N192 X-147.978 Y10.929 Z-0.871 
N193 X-147.980 Y11.012 Z-0.764 
N194 X-147.981 Y11.096 Z-0.657 
N195 X-147.982 Y11.180 Z-0.550 
N196 X-147.984 Y11.263 Z-0.443 
N197 X-147.985 Y11.347 Z-0.335 
N198 X-147.986 Y11.431 Z-0.228 
N199 X-147.988 Y11.514 Z-0.121 
N200 X-147.989 Y11.598 Z-0.014 
N201 X-147.990 Y11.682 Z0.093 
N202 X-147.992 Y11.766 Z0.200 
N203 X-147.993 Y11.849 Z0.307 
N204 X-147.994 Y11.933 Z0.415 
N205 X-147.996 Y12.017 Z0.522 
N206 X-147.997 Y12.100 Z0.629 
N207 X-147.999 Y12.184 Z0.736 
N208 X-148.000 Y12.268 Z0.843 
N209 X-148.001 Y12.351 Z0.950 
N210 X-148.003 Y12.435 Z1.057 
N211 X-148.004 Y12.519 Z1.164 
N212 X-148.005 Y12.603 Z1.272 
N213 X-148.007 Y12.686 Z1.379 
N214 X-148.008 Y12.770 Z1.486 
N215 X-148.009 Y12.854 Z1.593 
N216 X-148.011 Y12.937 Z1.700 
N217 X-148.012 Y13.021 Z1.807 
N218 X-148.013 Y13.105 Z1.914 
N219 X-148.015 Y13.188 Z2.021 
N220 X-148.016 Y13.272 Z2.129 
N221 X-148.017 Y13.356 Z2.236 
N222 X-148.019 Y13.440 Z2.343 
N223 X-148.020 Y13.523 Z2.450 
N224 X-148.021 Y13.607 Z2.557 
N225 X-148.023 Y13.691 Z2.664 
N226 X-148.024 Y13.774 Z2.771 
N227 X-148.026 Y13.858 Z2.879 
N228 X-148.029 Y13.942 Z2.986 
N229 X-148.032 Y14.025 Z3.093 
N230 X-148.036 Y14.109 Z3.200 
N231 X-148.039 Y14.193 Z3.307 
N232 X-148.043 Y14.276 Z3.414 
N233 X-148.047 Y14.360 Z3.521 
N234 X-148.050 Y14.444 Z3.628 
N235 X-148.054 Y14.527 Z3.735 
N236 X-148.057 Y14.611 Z3.842 
N237 X-148.061 Y14.695 Z3.950 
N238 X-148.064 Y14.778 Z4.057 
N239 X-148.068 Y14.862 Z4.164 
N240 X-148.071 Y14.946 Z4.271 
N241 X-148.075 Y15.029 Z4.378 
N242 X-148.079 Y15.113 Z4.485 
N243 X-148.082 Y15.197 Z4.592 
N244 X-148.086 Y15.281 Z4.699 
N245 X-148.089 Y15.364 Z4.806 
N246 X-148.093 Y15.448 Z4.913 
N247 X-148.096 Y15.532 Z5.021 
N248 X-148.100 Y15.615 Z5.128 
N249 X-148.103 Y15.699 Z5.235 
N250 X-148.107 Y15.783 Z5.342 
N251 X-148.110 Y15.866 Z5.449 
N252 X-148.114 Y15.950 Z5.556 
N253 X-148.118 Y16.034 Z5.663 
N254 X-148.121 Y16.117 Z5.770 
N255 X-148.125 Y16.201 Z5.877 
N256 X-148.128 Y16.285 Z5.984 
N257 X-148.132 Y16.368 Z6.091 
N258 X-148.135 Y16.452 Z6.199 
N259 X-148.139 Y16.536 Z6.306 
N260 X-148.142 Y16.620 Z6.413 
N261 X-148.146 Y16.704 Z6.521 
N262 X-148.150 Y16.788 Z6.628 
N263 X-148.153 Y16.872 Z6.736 
N264 X-148.157 Y16.956 Z6.843 
N265 X-148.160 Y17.039 Z6.951 
N266 X-148.164 Y17.123 Z7.058 
N267 X-148.167 Y17.207 Z7.165 
N268 X-148.171 Y17.291 Z7.273 
N269 X-148.174 Y17.375 Z7.380 
N270 X-148.178 Y17.459 Z7.488 
N271 X-148.182 Y17.543 Z7.595 
N272 X-148.185 Y17.627 Z7.702 
N273 X-148.189 Y17.711 Z7.810 
N274 X-148.192 Y17.795 Z7.917 
N275 X-148.196 Y17.879 Z8.025 
N276 X-148.199 Y17.963 Z8.132 
N277 X-148.203 Y18.047 Z8.240 
N278 X-148.206 Y18.130 Z8.347 
N279 X-148.210 Y18.214 Z8.454 
N280 X-148.214 Y18.298 Z8.562 
N281 G40 X-148.475 Y24.453 Z16.439 F407
N282 X-148.475 Y24.453 Z16.439 
N283 G00 X-148.475 Y44.153 Z1.048 
N284 X-148.563 Y10.453 Z-39.082 
N285 X-148.563 Y-9.248 Z-23.691 
N286 ;on NNTA
N287 D3 
N288 G01 G41 X-148.298 Y-3.093 Z-15.813 F407 
N289 X-148.294 Y-3.009 Z-15.706 
N290 X-148.291 Y-2.925 Z-15.598 
N291 X-148.287 Y-2.842 Z-15.491 
N292 X-148.283 Y-2.758 Z-15.384 
N293 X-148.280 Y-2.674 Z-15.276 
N294 X-148.276 Y-2.590 Z-15.169 
N295 X-148.273 Y-2.506 Z-15.061 
N296 X-148.269 Y-2.422 Z-14.954 
N297 X-148.265 Y-2.338 Z-14.847 
N298 X-148.262 Y-2.254 Z-14.739 
N299 X-148.258 Y-2.170 Z-14.632 
N300 X-148.255 Y-2.086 Z-14.524 
N301 X-148.251 Y-2.002 Z-14.417 
N302 X-148.247 Y-1.918 Z-14.309 
N303 X-148.244 Y-1.834 Z-14.202 
N304 X-148.240 Y-1.751 Z-14.095 
N305 X-148.236 Y-1.667 Z-13.987 
N306 X-148.233 Y-1.583 Z-13.880 
N307 X-148.229 Y-1.499 Z-13.772 
N308 X-148.226 Y-1.415 Z-13.665 
N309 X-148.222 Y-1.331 Z-13.558 
N310 X-148.218 Y-1.247 Z-13.450 
N311 X-148.215 Y-1.163 Z-13.343 
N312 X-148.211 Y-1.079 Z-13.235 
N313 X-148.208 Y-0.995 Z-13.128 
N314 X-148.204 Y-0.911 Z-13.020 
N315 X-148.200 Y-0.827 Z-12.913 
N316 X-148.197 Y-0.743 Z-12.806 
N317 X-148.193 Y-0.660 Z-12.698 
N318 X-148.190 Y-0.576 Z-12.591 
N319 X-148.186 Y-0.492 Z-12.483 
N320 X-148.182 Y-0.408 Z-12.376 
N321 X-148.179 Y-0.324 Z-12.269 
N322 X-148.175 Y-0.240 Z-12.161 
N323 X-148.171 Y-0.156 Z-12.054 
N324 X-148.168 Y-0.072 Z-11.946 
N325 X-148.164 Y0.012 Z-11.839 
N326 X-148.161 Y0.096 Z-11.731 
N327 X-148.157 Y0.180 Z-11.624 
N328 X-148.153 Y0.264 Z-11.517 
N329 X-148.150 Y0.348 Z-11.409 
N330 X-148.146 Y0.432 Z-11.302 
N331 X-148.143 Y0.515 Z-11.194 
N332 X-148.139 Y0.599 Z-11.087 
N333 X-148.135 Y0.683 Z-10.980 
N334 X-148.132 Y0.767 Z-10.873 
N335 X-148.128 Y0.850 Z-10.766 
N336 X-148.125 Y0.934 Z-10.659 
N337 X-148.121 Y1.018 Z-10.551 
N338 X-148.117 Y1.101 Z-10.444 
N339 X-148.114 Y1.185 Z-10.337 
N340 X-148.110 Y1.269 Z-10.230 
N341 X-148.107 Y1.352 Z-10.123 
N342 X-148.103 Y1.436 Z-10.016 
N343 X-148.099 Y1.520 Z-9.909 
N344 X-148.096 Y1.603 Z-9.802 
N345 X-148.092 Y1.687 Z-9.695 
N346 X-148.089 Y1.771 Z-9.588 
N347 X-148.085 Y1.854 Z-9.480 
N348 X-148.081 Y1.938 Z-9.373 
N349 X-148.078 Y2.022 Z-9.266 
N350 X-148.074 Y2.106 Z-9.159 
N351 X-148.071 Y2.189 Z-9.052 
N352 X-148.067 Y2.273 Z-8.945 
N353 X-148.063 Y2.357 Z-8.838 
N354 X-148.060 Y2.440 Z-8.731 
N355 X-148.056 Y2.524 Z-8.624 
N356 X-148.053 Y2.608 Z-8.517 
N357 X-148.049 Y2.691 Z-8.409 
N358 X-148.045 Y2.775 Z-8.302 
N359 X-148.042 Y2.859 Z-8.195 
N360 X-148.038 Y2.942 Z-8.088 
N361 X-148.035 Y3.026 Z-7.981 
N362 X-148.031 Y3.110 Z-7.874 
N363 X-148.028 Y3.193 Z-7.767 
N364 X-148.027 Y3.277 Z-7.660 
N365 X-148.025 Y3.361 Z-7.553 
N366 X-148.024 Y3.444 Z-7.445 
N367 X-148.023 Y3.528 Z-7.338 
N368 X-148.021 Y3.612 Z-7.231 
N369 X-148.020 Y3.695 Z-7.124 
N370 X-148.018 Y3.779 Z-7.017 
N371 X-148.017 Y3.863 Z-6.910 
N372 X-148.015 Y3.947 Z-6.803 
N373 X-148.014 Y4.030 Z-6.696 
N374 X-148.012 Y4.114 Z-6.588 
N375 X-148.011 Y4.198 Z-6.481 
N376 X-148.010 Y4.281 Z-6.374 
N377 X-148.008 Y4.365 Z-6.267 
N378 X-148.007 Y4.449 Z-6.160 
N379 X-148.005 Y4.532 Z-6.053 
N380 X-148.004 Y4.616 Z-5.946 
N381 X-148.002 Y4.700 Z-5.839 
N382 X-148.001 Y4.784 Z-5.731 
N383 X-147.999 Y4.867 Z-5.624 
N384 X-147.998 Y4.951 Z-5.517 
N385 X-147.997 Y5.035 Z-5.410 
N386 X-147.995 Y5.118 Z-5.303 
N387 X-147.994 Y5.202 Z-5.196 
N388 X-147.992 Y5.286 Z-5.089 
N389 X-147.991 Y5.369 Z-4.981 
N390 X-147.989 Y5.453 Z-4.874 
N391 X-147.988 Y5.537 Z-4.767 
N392 X-147.986 Y5.621 Z-4.660 
N393 X-147.985 Y5.704 Z-4.553 
N394 X-147.984 Y5.788 Z-4.446 
N395 X-147.982 Y5.872 Z-4.339 
N396 X-147.981 Y5.955 Z-4.232 
N397 X-147.979 Y6.039 Z-4.124 
N398 X-147.978 Y6.123 Z-4.017 
N399 X-147.976 Y6.206 Z-3.910 
N400 X-147.975 Y6.290 Z-3.803 
N401 X-147.973 Y6.374 Z-3.696 
N402 X-147.972 Y6.458 Z-3.589 
N403 X-147.970 Y6.541 Z-3.482 
N404 X-147.969 Y6.625 Z-3.375 
N405 X-147.968 Y6.709 Z-3.267 
N406 X-147.966 Y6.792 Z-3.160 
N407 X-147.965 Y6.876 Z-3.053 
N408 X-147.963 Y6.960 Z-2.946 
N409 X-147.962 Y7.043 Z-2.839 
N410 X-147.960 Y7.127 Z-2.732 
N411 X-147.959 Y7.211 Z-2.625 
N412 X-147.957 Y7.295 Z-2.517 
N413 X-147.956 Y7.378 Z-2.410 
N414 X-147.955 Y7.462 Z-2.303 
N415 X-147.953 Y7.546 Z-2.196 
N416 X-147.952 Y7.629 Z-2.089 
N417 X-147.950 Y7.713 Z-1.982 
N418 X-147.951 Y7.797 Z-1.875 
N419 X-147.953 Y7.880 Z-1.768 
N420 X-147.954 Y7.964 Z-1.660 
N421 X-147.955 Y8.048 Z-1.553 
N422 X-147.957 Y8.132 Z-1.446 
N423 X-147.958 Y8.215 Z-1.339 
N424 X-147.959 Y8.299 Z-1.232 
N425 X-147.961 Y8.383 Z-1.125 
N426 X-147.962 Y8.466 Z-1.018 
N427 X-147.963 Y8.550 Z-0.911 
N428 X-147.965 Y8.634 Z-0.803 
N429 X-147.966 Y8.717 Z-0.696 
N430 X-147.967 Y8.801 Z-0.589 
N431 X-147.969 Y8.885 Z-0.482 
N432 X-147.970 Y8.969 Z-0.375 
N433 X-147.971 Y9.052 Z-0.268 
N434 X-147.973 Y9.136 Z-0.161 
N435 X-147.974 Y9.220 Z-0.053 
N436 X-147.976 Y9.303 Z0.054 
N437 X-147.977 Y9.387 Z0.161 
N438 X-147.978 Y9.471 Z0.268 
N439 X-147.980 Y9.554 Z0.375 
N440 X-147.981 Y9.638 Z0.482 
N441 X-147.982 Y9.722 Z0.589 
N442 X-147.984 Y9.806 Z0.696 
N443 X-147.985 Y9.889 Z0.804 
N444 X-147.986 Y9.973 Z0.911 
N445 X-147.988 Y10.057 Z1.018 
N446 X-147.989 Y10.140 Z1.125 
N447 X-147.990 Y10.224 Z1.232 
N448 X-147.992 Y10.308 Z1.339 
N449 X-147.993 Y10.391 Z1.446 
N450 X-147.994 Y10.475 Z1.553 
N451 X-147.996 Y10.559 Z1.661 
N452 X-147.997 Y10.643 Z1.768 
N453 X-147.999 Y10.726 Z1.875 
N454 X-148.000 Y10.810 Z1.982 
N455 X-148.001 Y10.894 Z2.089 
N456 X-148.003 Y10.977 Z2.196 
N457 X-148.004 Y11.061 Z2.303 
N458 X-148.005 Y11.145 Z2.411 
N459 X-148.007 Y11.228 Z2.518 
N460 X-148.008 Y11.312 Z2.625 
N461 X-148.009 Y11.396 Z2.732 
N462 X-148.011 Y11.480 Z2.839 
N463 X-148.012 Y11.563 Z2.946 
N464 X-148.013 Y11.647 Z3.053 
N465 X-148.015 Y11.731 Z3.160 
N466 X-148.016 Y11.814 Z3.268 
N467 X-148.017 Y11.898 Z3.375 
N468 X-148.019 Y11.982 Z3.482 
N469 X-148.020 Y12.065 Z3.589 
N470 X-148.021 Y12.149 Z3.696 
N471 X-148.023 Y12.233 Z3.803 
N472 X-148.024 Y12.317 Z3.910 
N473 X-148.026 Y12.400 Z4.017 
N474 X-148.029 Y12.484 Z4.125 
N475 X-148.032 Y12.568 Z4.232 
N476 X-148.036 Y12.651 Z4.339 
N477 X-148.039 Y12.735 Z4.446 
N478 X-148.043 Y12.819 Z4.553 
N479 X-148.047 Y12.902 Z4.660 
N480 X-148.050 Y12.986 Z4.767 
N481 X-148.054 Y13.070 Z4.874 
N482 X-148.057 Y13.153 Z4.981 
N483 X-148.061 Y13.237 Z5.088 
N484 X-148.064 Y13.321 Z5.196 
N485 X-148.068 Y13.404 Z5.303 
N486 X-148.071 Y13.488 Z5.410 
N487 X-148.075 Y13.572 Z5.517 
N488 X-148.079 Y13.655 Z5.624 
N489 X-148.082 Y13.739 Z5.731 
N490 X-148.086 Y13.823 Z5.838 
N491 X-148.089 Y13.906 Z5.945 
N492 X-148.093 Y13.990 Z6.052 
N493 X-148.096 Y14.074 Z6.159 
N494 X-148.100 Y14.157 Z6.267 
N495 X-148.103 Y14.241 Z6.374 
N496 X-148.107 Y14.325 Z6.481 
N497 X-148.110 Y14.408 Z6.588 
N498 X-148.114 Y14.492 Z6.695 
N499 X-148.118 Y14.576 Z6.802 
N500 X-148.121 Y14.659 Z6.909 
N501 X-148.125 Y14.743 Z7.016 
N502 X-148.128 Y14.827 Z7.123 
N503 X-148.132 Y14.910 Z7.230 
N504 X-148.135 Y14.994 Z7.338 
N505 X-148.139 Y15.078 Z7.445 
N506 X-148.142 Y15.162 Z7.552 
N507 X-148.146 Y15.246 Z7.660 
N508 X-148.150 Y15.330 Z7.767 
N509 X-148.153 Y15.414 Z7.875 
N510 X-148.157 Y15.498 Z7.982 
N511 X-148.160 Y15.582 Z8.090 
N512 X-148.164 Y15.666 Z8.197 
N513 X-148.167 Y15.749 Z8.304 
N514 X-148.171 Y15.833 Z8.412 
N515 X-148.174 Y15.917 Z8.519 
N516 X-148.178 Y16.001 Z8.627 
N517 X-148.182 Y16.085 Z8.734 
N518 X-148.185 Y16.169 Z8.841 
N519 X-148.189 Y16.253 Z8.949 
N520 X-148.192 Y16.337 Z9.056 
N521 X-148.196 Y16.421 Z9.164 
N522 X-148.199 Y16.505 Z9.271 
N523 X-148.203 Y16.589 Z9.379 
N524 X-148.206 Y16.673 Z9.486 
N525 X-148.210 Y16.757 Z9.593 
N526 X-148.214 Y16.841 Z9.701 
N527 G40 X-148.475 Y22.995 Z17.578 F407
N528 X-148.475 Y22.995 Z17.578 
N529 G00 X-148.475 Y62.396 Z-13.205 
;RAPORT("TD123456","Side Milling:142 End")
;trailer : concat=None
; points cnt = 480
N531 M9 ; chlodziwo wyl.
N532 MSG (" --- KONIEC PODPROGRAMU --- ")
N533 FGROUP()
N534 TRAFOOF
N535 STOPRE
N536 G0 G53 D0 Z550.0 M9 M5
N537 G0 G53 Y150 A0 B0
N538 M17
