; PROGRAM NAME: D12345614
; ORDER       : D123456
; OPER. NAME  : Spiral Rough Rhombic:105
; OPER. DESCR.: spiral roughing rhombic/bandaz_zgr
; OPER. TYPE  : rouRoot
; GEO. OPTION : 4
; MACHINE     : HSTM_300HD_SIM840D_Py
;             : HSTM300/500 - HAMUEL: 5-axis milling machine-SIM840D Traori PP_Script
; CONTROL     : SINUMERIK 840D
; created:   2023-06-05 09:19:00.748311
;-------DODATKOWE DANE-------------------
; PROGRAMISTA : Mariusz Malec
; PARTID      : 301T002184P1010_-
;  ap         : 2.5
;  ae         : 24.0
;  lean_angle : 1.0
;  fin_offset : 0.6
;----------------------------------------
;RAPORT("TD123456","Spiral Rough Rhombic:105")
N10 TRAFOOF
N11 D0
N12 G90 G94
N13 G0 G53 D0 Z550
N14 STOPRE
M9 ; chlodziwo wyl
; --- Spiral Rough Rhombic:105 - spiral roughing rhombic/bandaz_zgr ---
N16 ;ToolChange : concat=None ,current_tdmid=None, PP.tdmId=941293
N17 TRAFOOF
N18 G0 G53 D0 X-200 Y150 Z550 B0
N19 T="7741293"
;RAPORT("TD123456","ToolChangeStart 7741293")
N20 M6
;RAPORT("TD123456","ToolChangeEnd")
N21 STOPRE
N22 MSG(" TLID=941293 D=40.0 R=6.0 Ang=0.0 Len=90.0 ")
N23 ; (Preloading tool)
N24 T="7758845"
N25 S2148 M03
N26 STOPRE
N27 CYCLE832(0.1,1,1)
N28 G0 G53 A271.0501 B0.0000
N29 TRAORI
N30 G54 D1
N31 D1 
N32 ; DELTA A > 40.1
N33 TRAFOOF
N34 D1
N35 STOPRE
N36 G00 G54 Z296.000
N37 G01 A271.0501 F10000
N38 TRAORI
N39 G54 D1
N40 STOPRE
N41 TRANS 
N42 G00 X-205.492 Y87.386 Z-39.677 A271.0501 
N43 M346 ; chlodziwo mgla
N44 X-205.492 Y37.395 Z-40.594 
N45 G01 X-205.492 Y34.304 Z-40.107 F2835 
N46 X-205.492 Y31.515 Z-38.689 
N47 X-205.492 Y29.301 Z-36.479 
N48 X-205.492 Y27.878 Z-33.692 
N49 X-205.492 Y27.386 Z-30.602 
N50 X-205.492 Y27.383 Z-27.370 
N51 X-205.492 Y27.380 Z-24.195 
N52 X-205.492 Y27.378 Z-21.128 
N53 X-205.492 Y27.375 Z-18.217 
N54 X-205.492 Y27.373 Z-15.501 
N55 X-205.492 Y27.371 Z-13.009 
N56 X-205.492 Y27.369 Z-10.759 
N57 X-205.492 Y27.367 Z-8.760 
N58 X-205.492 Y27.366 Z-7.010 A271.0509 
N59 X-205.492 Y27.382 Z-5.498 A271.1244 
N60 X-205.492 Y27.510 Z-4.204 A271.6730 
N61 X-205.492 Y27.983 Z-3.090 A273.7154 
N62 X-205.492 Y28.918 Z-2.073 A277.8313 
N63 X-205.492 Y30.150 Z-1.056 A283.4479 
N64 X-205.492 Y31.545 Z0.049 A290.1215 
N65 X-205.492 Y33.041 Z1.333 A297.7478 
N66 X-205.492 Y34.529 Z2.856 A306.1190 
N67 X-205.492 Y35.830 Z4.582 A314.6615 
N68 X-205.492 Y36.822 Z6.420 A322.9088 
N69 X-205.492 Y37.473 Z8.295 A330.7032 
N70 X-205.492 Y37.779 Z10.146 A337.9927 
N71 X-205.492 Y37.740 Z11.884 A344.5962 
N72 X-205.492 Y37.377 Z13.428 A350.3582 
N73 X-205.492 Y36.725 Z14.698 A355.0951 
N74 X-205.492 Y35.825 Z15.607 A358.5209 
N75 X-205.492 Y34.715 Z16.078 A0.3243 
N76 X-205.492 Y33.417 Z16.195 A0.7642 
N77 X-205.492 Y31.925 Z16.206 A0.7858 
N78 X-205.492 Y30.228 Z16.212 A0.7862 
N79 X-205.492 Y28.328 Z16.219 
N80 X-205.492 Y26.232 Z16.227 
N81 X-205.492 Y23.956 Z16.236 
N82 X-205.492 Y21.526 Z16.245 
N83 X-205.492 Y18.976 Z16.254 
N84 X-205.492 Y16.345 Z16.264 
N85 X-205.492 Y13.677 Z16.274 
N86 X-205.492 Y11.017 Z16.284 
N87 X-205.492 Y8.412 Z16.294 
N88 X-205.492 Y5.904 Z16.303 
N89 X-205.492 Y3.530 Z16.312 
N90 X-205.492 Y1.320 Z16.320 
N91 X-205.492 Y-0.704 Z16.328 
N92 X-205.492 Y-2.529 Z16.334 
N93 X-205.492 Y-4.150 Z16.342 A0.7916 
N94 X-205.492 Y-5.571 Z16.406 A1.0391 
N95 X-205.492 Y-6.810 Z16.715 A2.3431 
N96 X-205.492 Y-7.909 Z17.361 A5.1694 B0.0000 
N97 X-205.492 Y-8.931 Z18.283 A9.3329 B0.0003 
N98 X-205.492 Y-9.943 Z19.383 A14.4938 B0.0026 
N99 X-205.492 Y-11.002 Z20.582 A20.3811 B0.0098 
N100 X-205.492 Y-12.156 Z21.820 A26.8274 B0.0232 
N101 X-205.492 Y-13.433 Z23.027 A33.6392 B0.0353 
N102 X-205.492 Y-14.837 Z24.135 A40.6416 B0.0339 
N103 X-205.492 Y-16.332 Z25.066 A47.5565 B0.0170 
N104 X-205.492 Y-17.887 Z25.787 A54.2840 B-0.0037 
N105 X-205.492 Y-19.499 Z26.296 A60.8951 B-0.0173 
N106 X-205.492 Y-21.105 Z26.560 A67.2025 B-0.0206 
N107 X-205.492 Y-22.638 Z26.569 A73.0399 B-0.0165 
N108 X-205.492 Y-24.067 Z26.338 A78.3965 B-0.0100 
N109 X-205.492 Y-25.331 Z25.881 A83.1300 B-0.0044 
N110 X-205.492 Y-26.322 Z25.223 A86.8592 B-0.0013 
N111 X-205.492 Y-26.972 Z24.402 A89.3363 B-0.0002 
N112 X-205.492 Y-27.316 Z23.455 A90.6730 
N113 X-205.492 Y-27.439 Z22.399 A91.1718 B-0.0009 
N114 X-205.492 Y-27.456 Z21.239 A91.2592 B-0.0029 
N115 X-205.492 Y-27.450 Z19.981 A91.2614 B-0.0068 
N116 X-205.492 Y-27.444 Z18.637 B-0.0130 
N117 X-205.492 Y-27.438 Z17.221 B-0.0210 
N118 X-205.492 Y-27.431 Z15.755 B-0.0306 
N119 X-205.493 Y-27.424 Z14.262 B-0.0418 
N120 X-205.493 Y-27.417 Z12.765 B-0.0543 
N121 X-205.493 Y-27.411 Z11.290 B-0.0679 
N122 X-205.493 Y-27.404 Z9.861 B-0.0821 
N123 X-205.493 Y-27.398 Z8.497 B-0.0956 
N124 X-205.493 Y-27.392 Z7.218 A91.2617 B-0.1064 
N125 X-205.493 Y-27.390 Z6.035 A91.2730 B-0.1141 
N126 X-205.493 Y-27.406 Z4.957 A91.3625 B-0.1201 
N127 X-205.493 Y-27.523 Z3.985 A91.8759 B-0.1281 
N128 X-205.493 Y-27.896 Z3.106 A93.4889 B-0.1437 
N129 X-205.493 Y-28.588 Z2.284 A96.5165 B-0.1727 
N130 X-205.493 Y-29.530 Z1.468 A100.7457 B-0.2192 
N131 X-205.494 Y-30.651 Z0.602 A105.9439 B-0.2857 
N132 X-205.494 Y-31.879 Z-0.364 A111.8969 B-0.3724 
N133 X-205.494 Y-33.155 Z-1.477 A118.4802 B-0.4758 
N134 X-205.495 Y-34.441 Z-2.790 A125.7111 B-0.5778 
N135 X-205.495 Y-35.619 Z-4.294 A133.2656 B-0.6277 
N136 X-205.495 Y-36.578 Z-5.928 A140.7535 B-0.5999 
N137 X-205.495 Y-37.281 Z-7.660 A148.1156 B-0.5244 
N138 X-205.494 Y-37.699 Z-9.444 A155.2713 B-0.4341 
N139 X-205.494 Y-37.801 Z-11.193 A162.0107 B-0.3482 
N140 X-205.494 Y-37.579 Z-12.804 A168.0656 B-0.2753 
N141 X-205.493 Y-37.056 Z-14.193 A173.2448 B-0.2194 
N142 X-205.493 Y-36.266 Z-15.262 A177.2554 B-0.1822 
N143 X-205.493 Y-35.250 Z-15.922 A179.7661 B-0.1629 
N144 X-205.493 Y-34.041 Z-16.163 A180.6915 B-0.1561 
N145 X-205.493 Y-32.640 Z-16.194 A180.7934 B-0.1535 
N146 X-205.493 Y-31.038 Z-16.200 A180.7935 B-0.1511 
N147 X-205.493 Y-29.229 Z-16.206 B-0.1483 
N148 X-205.493 Y-27.218 Z-16.213 B-0.1449 
N149 X-205.493 Y-25.018 Z-16.221 B-0.1391 
N150 X-205.493 Y-22.650 Z-16.230 B-0.1301 
N151 X-205.493 Y-20.144 Z-16.239 B-0.1201 
N152 X-205.493 Y-17.537 Z-16.248 B-0.1100 
N153 X-205.493 Y-14.872 Z-16.258 B-0.1002 
N154 X-205.493 Y-12.194 Z-16.268 B-0.0907 
N155 X-205.493 Y-9.549 Z-16.277 B-0.0818 
N156 X-205.493 Y-6.984 Z-16.286 B-0.0735 
N157 X-205.493 Y-4.536 Z-16.295 B-0.0660 
N158 X-205.493 Y-2.242 Z-16.303 B-0.0592 
N159 X-205.493 Y-0.126 Z-16.311 B-0.0533 
N160 X-205.493 Y1.794 Z-16.318 B-0.0478 
N161 X-205.493 Y3.509 Z-16.324 A180.7935 B-0.0419 
N162 X-205.492 Y5.019 Z-16.341 A180.8419 B-0.0357 
N163 X-205.492 Y6.333 Z-16.459 A181.3223 B-0.0314 
N164 X-205.492 Y7.473 Z-16.822 A182.8753 B-0.0335 
N165 X-205.493 Y8.490 Z-17.538 A186.0127 B-0.0473 
N166 X-205.493 Y9.463 Z-18.569 A190.6648 B-0.0714 
N167 X-205.493 Y10.459 Z-19.771 A196.3011 B-0.0945 
N168 X-205.493 Y11.537 Z-21.058 A202.6459 B-0.1052 
N169 X-205.493 Y12.738 Z-22.353 A209.4827 B-0.1001 
N170 X-205.493 Y14.102 Z-23.612 A216.7605 B-0.0795 
N171 X-205.493 Y15.649 Z-24.771 A224.3977 B-0.0441 
N172 X-205.492 Y17.267 Z-25.678 A231.7293 B-0.0060 
N173 X-205.492 Y18.899 Z-26.311 A238.6150 B0.0222 
N174 X-205.492 Y20.537 Z-26.691 A245.1865 B0.0367 
N175 X-205.492 Y22.116 Z-26.808 A251.2918 B0.0370 
N176 X-205.492 Y23.584 Z-26.672 A256.8448 B0.0267 
N177 X-205.492 Y24.909 Z-26.305 A261.8218 B0.0140 
N178 X-205.492 Y26.011 Z-25.728 A265.9807 B0.0052 
N179 X-205.492 Y26.767 Z-24.974 A268.8654 B0.0012 
N180 X-205.492 Y27.160 Z-24.085 A270.3818 B0.0001 
N181 X-205.492 Y27.313 Z-23.083 A270.9828 B0.0000 
N182 X-205.492 Y27.352 Z-21.975 A271.1497 
N183 X-205.492 Y27.354 Z-20.763 A271.1699 
N184 X-205.492 Y27.350 Z-19.456 A271.1700 
N185 X-205.492 Y27.346 Z-18.070 
N186 X-205.492 Y27.341 Z-16.623 
N187 X-205.492 Y27.337 Z-15.136 
N188 X-205.492 Y27.333 Z-13.633 
N189 X-205.492 Y27.328 Z-12.141 
N190 X-205.492 Y27.324 Z-10.682 
N191 X-205.492 Y27.320 Z-9.280 
N192 X-205.492 Y27.316 Z-7.955 
N193 X-205.492 Y27.313 Z-6.721 A271.1728 
N194 X-205.492 Y27.323 Z-5.589 A271.2300 
N195 X-205.492 Y27.391 Z-4.563 A271.5297 
N196 X-205.492 Y27.630 Z-3.640 A272.5625 
N197 X-205.492 Y28.175 Z-2.794 A274.9323 
N198 X-205.492 Y29.018 Z-1.979 A278.6676 
N199 X-205.492 Y30.054 Z-1.144 A283.3989 
N200 X-205.492 Y31.212 Z-0.240 A288.8989 
N201 X-205.492 Y32.455 Z0.786 A295.1081 
N202 X-205.492 Y33.748 Z1.993 A302.0313 
N203 X-205.492 Y34.983 Z3.390 A309.3917 
N204 X-205.492 Y36.053 Z4.947 A316.8650 
N205 X-205.492 Y36.889 Z6.615 A324.2327 
N206 X-205.492 Y37.456 Z8.350 A331.3980 
N207 X-205.492 Y37.732 Z10.101 A338.2873 
N208 X-205.492 Y37.697 Z11.783 A344.6901 
N209 X-205.492 Y37.355 Z13.305 A350.3868 
N210 X-205.492 Y36.730 Z14.571 A355.1239 
N211 X-205.492 Y35.859 Z15.483 A358.5753 
N212 X-205.492 Y34.783 Z15.973 A0.4650 
N213 X-205.492 Y33.524 Z16.106 A0.9893 
N214 X-205.492 Y32.076 Z16.115 A1.0254 
N215 X-205.492 Y30.430 Z16.114 A1.0262 
N216 X-205.492 Y28.585 Z16.113 
N217 X-205.492 Y26.549 Z16.112 
N218 X-205.492 Y24.336 Z16.111 
N219 X-205.492 Y21.972 Z16.110 
N220 X-205.492 Y19.488 Z16.109 
N221 X-205.492 Y16.922 Z16.108 
N222 X-205.492 Y14.315 Z16.107 A1.0265 
N223 X-205.492 Y11.714 Z16.110 A1.0439 
N224 X-205.492 Y9.160 Z16.138 A1.1775 
N225 X-205.492 Y6.696 Z16.179 A1.3917 
N226 X-205.492 Y4.359 Z16.208 A1.5919 
N227 X-205.492 Y2.177 Z16.233 A1.8006 
N228 X-205.492 Y0.173 Z16.255 A2.0182 
N229 X-205.492 Y-1.639 Z16.263 A2.1969 
N230 X-205.492 Y-3.254 Z16.258 A2.3193 
N231 X-205.492 Y-4.678 Z16.301 A2.6376 B0.0001 
N232 X-205.492 Y-5.929 Z16.550 A3.8374 B0.0011 
N233 X-205.492 Y-7.050 Z17.133 A6.5180 B0.0058 
N234 X-205.492 Y-8.105 Z18.016 A10.6306 B0.0181 
N235 X-205.492 Y-9.161 Z19.100 A15.8392 B0.0396 
N236 X-205.492 Y-10.268 Z20.275 A21.7566 B0.0638 
N237 X-205.492 Y-11.460 Z21.458 A28.1135 B0.0766 
N238 X-205.492 Y-12.751 Z22.582 A34.7051 B0.0718 
N239 X-205.492 Y-14.145 Z23.596 A41.4101 B0.0532 
N240 X-205.492 Y-15.616 Z24.444 A48.0339 B0.0245 
N241 X-205.492 Y-17.136 Z25.095 A54.4777 B-0.0072 
N242 X-205.492 Y-18.711 Z25.551 A60.8466 B-0.0367 
N243 X-205.493 Y-20.294 Z25.783 A67.0072 B-0.0619 
N244 X-205.493 Y-21.826 Z25.774 A72.8082 B-0.0825 
N245 X-205.493 Y-23.266 Z25.531 A78.1877 B-0.0994 
N246 X-205.493 Y-24.531 Z25.061 A82.9027 B-0.1133 
N247 X-205.493 Y-25.505 Z24.391 A86.5429 B-0.1249 
N248 X-205.493 Y-26.135 Z23.565 A88.9155 B-0.1351 
N249 X-205.493 Y-26.461 Z22.618 A90.1496 B-0.1446 
N250 X-205.493 Y-26.574 Z21.568 A90.5644 B-0.1534 
N251 X-205.493 Y-26.596 Z20.423 A90.6218 B-0.1622 
N252 X-205.493 Y-26.604 Z19.190 A90.6224 B-0.1715 
N253 X-205.493 Y-26.613 Z17.880 B-0.1813 
N254 X-205.493 Y-26.622 Z16.512 B-0.1916 
N255 X-205.493 Y-26.631 Z15.105 A90.6224 B-0.2021 
N256 X-205.493 Y-26.641 Z13.681 A90.6236 B-0.2128 
N257 X-205.493 Y-26.653 Z12.264 A90.6354 B-0.2234 
N258 X-205.493 Y-26.678 Z10.875 A90.7041 B-0.2338 
N259 X-205.493 Y-26.723 Z9.538 A90.8626 B-0.2442 
N260 X-205.493 Y-26.761 Z8.270 A91.0128 B-0.2541 
N261 X-205.493 Y-26.779 Z7.088 A91.0919 B-0.2625 
N262 X-205.493 Y-26.794 Z6.001 A91.1607 B-0.2700 
N263 X-205.494 Y-26.849 Z5.014 A91.4041 B-0.2788 
N264 X-205.494 Y-27.046 Z4.126 A92.2501 B-0.2936 
N265 X-205.494 Y-27.515 Z3.318 A94.2780 B-0.3215 
N266 X-205.494 Y-28.284 Z2.548 A97.6518 B-0.3675 
N267 X-205.494 Y-29.286 Z1.763 A102.1625 B-0.4339 
N268 X-205.495 Y-30.455 Z0.906 A107.6093 B-0.5210 
N269 X-205.495 Y-31.719 Z-0.072 A113.7810 B-0.6258 
N270 X-205.496 Y-33.021 Z-1.216 A120.5781 B-0.7406 
N271 X-205.496 Y-34.300 Z-2.566 A127.9367 B-0.8401 
N272 X-205.496 Y-35.425 Z-4.081 A135.4209 B-0.8757 
N273 X-205.496 Y-36.314 Z-5.702 A142.7396 B-0.8386 
N274 X-205.496 Y-36.945 Z-7.397 A149.8660 B-0.7608 
N275 X-205.495 Y-37.302 Z-9.137 A156.8087 B-0.6698 
N276 X-205.495 Y-37.363 Z-10.857 A163.4325 B-0.5815 
N277 X-205.494 Y-37.114 Z-12.453 A169.4660 B-0.5041 
N278 X-205.494 Y-36.571 Z-13.812 A174.5869 B-0.4433 
N279 X-205.494 Y-35.772 Z-14.799 A178.3363 B-0.4032 
N280 X-205.494 Y-34.766 Z-15.345 A180.4527 B-0.3837 
N281 X-205.494 Y-33.581 Z-15.515 A181.1348 B-0.3791 
N282 X-205.494 Y-32.214 Z-15.526 A181.1954 B-0.3797 
N283 X-205.494 Y-30.652 Z-15.520 A181.1954 B-0.3809 
N284 X-205.494 Y-28.894 Z-15.514 B-0.3823 
N285 X-205.494 Y-26.945 Z-15.508 B-0.3838 
N286 X-205.494 Y-24.819 Z-15.501 B-0.3855 
N287 X-205.494 Y-22.536 Z-15.493 B-0.3873 
N288 X-205.494 Y-20.126 Z-15.485 B-0.3891 
N289 X-205.494 Y-17.626 Z-15.476 B-0.3911 
N290 X-205.494 Y-15.077 Z-15.467 B-0.3931 
N291 X-205.494 Y-12.522 Z-15.459 B-0.3951 
N292 X-205.494 Y-10.005 Z-15.451 A181.1976 B-0.3970 
N293 X-205.494 Y-7.567 Z-15.453 A181.2430 B-0.3991 
N294 X-205.494 Y-5.245 Z-15.489 A181.4451 B-0.4020 
N295 X-205.494 Y-3.070 Z-15.534 A181.7157 B-0.4069 
N296 X-205.494 Y-1.067 Z-15.564 A181.9567 B-0.4139 
N297 X-205.494 Y0.751 Z-15.601 A182.2507 B-0.4205 
N298 X-205.494 Y2.375 Z-15.616 A182.4688 B-0.4207 
N299 X-205.494 Y3.806 Z-15.611 A182.6040 B-0.4106 
N300 X-205.494 Y5.060 Z-15.716 A183.1921 B-0.3942 
N301 X-205.494 Y6.168 Z-16.126 A185.0895 B-0.3742 
N302 X-205.494 Y7.196 Z-16.939 A188.7938 B-0.3506 
N303 X-205.494 Y8.239 Z-18.101 A194.1970 B-0.3211 
N304 X-205.494 Y9.367 Z-19.426 A200.6544 B-0.2839 
N305 X-205.493 Y10.607 Z-20.745 A207.5596 B-0.2380 
N306 X-205.493 Y11.954 Z-21.956 A214.5636 B-0.1830 
N307 X-205.493 Y13.430 Z-23.049 A221.7282 B-0.1164 
N308 X-205.493 Y15.010 Z-23.959 A228.8592 B-0.0420 
N309 X-205.492 Y16.596 Z-24.603 A235.5276 B0.0237 
N310 X-205.492 Y18.195 Z-25.011 A241.9077 B0.0754 
N311 X-205.492 Y19.779 Z-25.182 A248.0000 B0.1137 
N312 X-205.492 Y21.305 Z-25.111 A253.7303 B0.1409 
N313 X-205.492 Y22.719 Z-24.802 A258.9745 B0.1592 
N314 X-205.492 Y23.896 Z-24.266 A263.3229 B0.1693 
N315 X-205.492 Y24.706 Z-23.537 A266.2855 B0.1718 
N316 X-205.492 Y25.148 Z-22.664 A267.8387 B0.1682 
N317 X-205.492 Y25.347 Z-21.679 A268.4529 B0.1611 
N318 X-205.492 Y25.431 Z-20.595 A268.6045 B0.1517 
N319 X-205.492 Y25.483 Z-19.419 A268.6165 B0.1412 
N320 X-205.492 Y25.535 Z-18.164 B0.1298 
N321 X-205.492 Y25.590 Z-16.845 B0.1170 
N322 X-205.492 Y25.647 Z-15.479 B0.0997 
N323 X-205.492 Y25.705 Z-14.088 B0.0747 
N324 X-205.492 Y25.763 Z-12.695 B0.0471 
N325 X-205.492 Y25.820 Z-11.321 B0.0242 
N326 X-205.492 Y25.876 Z-9.989 A268.6186 B0.0089 
N327 X-205.492 Y25.936 Z-8.719 A268.6498 B0.0018 
N328 X-205.492 Y26.006 Z-7.526 A268.7378 B0.0001 
N329 X-205.492 Y26.074 Z-6.423 A268.8385 B0.0000 
N330 X-205.492 Y26.173 Z-5.419 A269.0957 
N331 X-205.492 Y26.399 Z-4.516 A269.9150 
N332 X-205.492 Y26.837 Z-3.706 A271.6764 
N333 X-205.492 Y27.534 Z-2.959 A274.6126 
N334 X-205.492 Y28.459 Z-2.228 A278.6374 
N335 X-205.492 Y29.542 Z-1.464 A283.5089 
N336 X-205.492 Y30.723 Z-0.625 A289.0345 
N337 X-205.492 Y31.968 Z0.337 A295.1599 
N338 X-205.492 Y33.252 Z1.472 A301.9200 
N339 X-205.492 Y34.452 Z2.769 A308.9238 
N340 X-205.492 Y35.502 Z4.209 A315.9987 
N341 X-205.492 Y36.349 Z5.759 A322.9986 
N342 X-205.492 Y36.958 Z7.380 A329.8350 
N343 X-205.492 Y37.316 Z9.051 A336.5209 
N344 X-205.492 Y37.400 Z10.719 A342.9698 
N345 X-205.492 Y37.192 Z12.292 A348.9304 
N346 X-205.492 Y36.699 Z13.647 A354.0381 
N347 X-205.492 Y35.954 Z14.647 A357.8263 
N348 X-205.492 Y35.006 Z15.227 A0.0541 
N349 X-205.492 Y33.883 Z15.445 A0.9075 
N350 X-205.492 Y32.586 Z15.475 A1.0308 
N351 X-205.492 Y31.104 Z15.475 A1.0318 
N352 X-205.492 Y29.435 Z15.474 
N353 X-205.492 Y27.581 Z15.473 
N354 X-205.492 Y25.554 Z15.472 
N355 X-205.492 Y23.375 Z15.470 
N356 X-205.492 Y21.068 Z15.469 
N357 X-205.492 Y18.667 Z15.468 
N358 X-205.492 Y16.209 Z15.466 
N359 X-205.492 Y13.736 Z15.467 A1.0392 
N360 X-205.492 Y11.287 Z15.498 A1.1782 
N361 X-205.492 Y8.899 Z15.621 A1.7542 
N362 X-205.492 Y6.609 Z15.765 A2.5206 
N363 X-205.492 Y4.448 Z15.864 A3.2076 
N364 X-205.492 Y2.440 Z15.944 A3.8983 B0.0000 
N365 X-205.492 Y0.602 Z16.005 A4.5643 B0.0012 
N366 X-205.492 Y-1.055 Z16.024 A5.0928 B0.0088 
N367 X-205.492 Y-2.532 Z16.028 A5.5602 B0.0311 
N368 X-205.492 Y-3.845 Z16.134 A6.4482 B0.0680 
N369 X-205.492 Y-5.032 Z16.485 A8.3928 B0.1063 
N370 X-205.492 Y-6.150 Z17.154 A11.7856 B0.1311 
N371 X-205.492 Y-7.268 Z18.102 A16.5619 B0.1416 
N372 X-205.492 Y-8.442 Z19.198 A22.2885 B0.1422 
N373 X-205.492 Y-9.688 Z20.301 A28.4571 B0.1339 
N374 X-205.492 Y-10.996 Z21.312 A34.7018 B0.1163 
N375 X-205.492 Y-12.359 Z22.194 A40.8869 B0.0883 
N376 X-205.492 Y-13.772 Z22.926 A46.9808 B0.0483 
N377 X-205.492 Y-15.221 Z23.490 A52.9267 B0.0006 
N378 X-205.493 Y-16.729 Z23.894 A58.8864 B-0.0494 
N379 X-205.493 Y-18.286 Z24.119 A64.8607 B-0.0992 
N380 X-205.493 Y-19.839 Z24.131 A70.6846 B-0.1469 
N381 X-205.493 Y-21.326 Z23.914 A76.1825 B-0.1917 
N382 X-205.493 Y-22.625 Z23.464 A80.9487 B-0.2315 
N383 X-205.493 Y-23.612 Z22.810 A84.5463 B-0.2647 
N384 X-205.494 Y-24.256 Z22.000 A86.8541 B-0.2912 
N385 X-205.494 Y-24.595 Z21.075 A88.0027 B-0.3119 
N386 X-205.494 Y-24.734 Z20.055 A88.3654 B-0.3284 
N387 X-205.494 Y-24.800 Z18.954 A88.4322 B-0.3437 
N388 X-205.494 Y-24.856 Z17.784 A88.4438 B-0.3591 
N389 X-205.494 Y-24.912 Z16.558 A88.4500 B-0.3747 
N390 X-205.494 Y-24.970 Z15.291 A88.4578 B-0.3897 
N391 X-205.494 Y-25.030 Z14.004 A88.4696 B-0.4038 
N392 X-205.494 Y-25.101 Z12.716 A88.5270 B-0.4174 
N393 X-205.494 Y-25.206 Z11.447 A88.7396 B-0.4317 
N394 X-205.494 Y-25.360 Z10.219 A89.1874 B-0.4482 
N395 X-205.494 Y-25.531 Z9.045 A89.7551 B-0.4660 
N396 X-205.494 Y-25.658 Z7.942 A90.1919 B-0.4819 
N397 X-205.494 Y-25.727 Z6.920 A90.4230 B-0.4941 
N398 X-205.494 Y-25.783 Z5.988 A90.6174 B-0.5052 
N399 X-205.495 Y-25.917 Z5.146 A91.1495 B-0.5208 
N400 X-205.495 Y-26.246 Z4.388 A92.5270 B-0.5494 
N401 X-205.495 Y-26.864 Z3.686 A95.1695 B-0.5991 
N402 X-205.495 Y-27.750 Z2.993 A99.0433 B-0.6721 
N403 X-205.496 Y-28.837 Z2.255 A103.9284 B-0.7673 
N404 X-205.496 Y-30.058 Z1.420 A109.6255 B-0.8810 
N405 X-205.497 Y-31.344 Z0.447 A115.9444 B-1.0056 
N406 X-205.497 Y-32.640 Z-0.703 A122.7991 B-1.1276 
N407 X-205.498 Y-33.870 Z-2.041 A130.0248 B-1.2160 
N408 X-205.498 Y-34.926 Z-3.522 A137.2602 B-1.2349 
N409 X-205.497 Y-35.755 Z-5.102 A144.3467 B-1.1904 
N410 X-205.497 Y-36.341 Z-6.757 A151.2800 B-1.1105 
N411 X-205.497 Y-36.669 Z-8.465 A158.1003 B-1.0163 
N412 X-205.496 Y-36.711 Z-10.163 A164.6640 B-0.9207 
N413 X-205.496 Y-36.452 Z-11.739 A170.6574 B-0.8327 
N414 X-205.496 Y-35.905 Z-13.047 A175.6302 B-0.7612 
N415 X-205.495 Y-35.118 Z-13.931 A179.0195 B-0.7143 
N416 X-205.495 Y-34.144 Z-14.367 A180.7231 B-0.6926 
N417 X-205.495 Y-33.002 Z-14.482 A181.1944 B-0.6880 
N418 X-205.495 Y-31.685 Z-14.485 A181.2265 B-0.6889 
N419 X-205.495 Y-30.183 Z-14.479 B-0.6903 
N420 X-205.495 Y-28.495 Z-14.472 B-0.6918 
N421 X-205.495 Y-26.627 Z-14.465 B-0.6936 
N422 X-205.495 Y-24.592 Z-14.457 B-0.6955 
N423 X-205.495 Y-22.413 Z-14.448 B-0.6975 
N424 X-205.495 Y-20.117 Z-14.439 B-0.6997 
N425 X-205.495 Y-17.740 Z-14.430 B-0.7019 
N426 X-205.495 Y-15.320 Z-14.420 B-0.7042 
N427 X-205.495 Y-12.898 Z-14.411 B-0.7064 
N428 X-205.495 Y-10.517 Z-14.402 A181.2295 B-0.7086 
N429 X-205.495 Y-8.212 Z-14.410 A181.3050 B-0.7106 
N430 X-205.495 Y-6.019 Z-14.483 A181.6707 B-0.7123 
N431 X-205.495 Y-3.963 Z-14.594 A182.2594 B-0.7164 
N432 X-205.495 Y-2.069 Z-14.683 A182.8295 B-0.7251 
N433 X-205.495 Y-0.347 Z-14.769 A183.4365 B-0.7346 
N434 X-205.495 Y1.195 Z-14.825 A183.9623 B-0.7355 
N435 X-205.495 Y2.558 Z-14.849 A184.3647 B-0.7178 
N436 X-205.495 Y3.761 Z-14.979 A185.2063 B-0.6857 
N437 X-205.495 Y4.850 Z-15.430 A187.4269 B-0.6418 
N438 X-205.495 Y5.904 Z-16.311 A191.5906 B-0.5837 
N439 X-205.495 Y7.031 Z-17.558 A197.5817 B-0.5088 
N440 X-205.494 Y8.293 Z-18.939 A204.6094 B-0.4194 
N441 X-205.494 Y9.677 Z-20.232 A211.8559 B-0.3213 
N442 X-205.493 Y11.137 Z-21.329 A218.8869 B-0.2194 
N443 X-205.493 Y12.661 Z-22.222 A225.7041 B-0.1137 
N444 X-205.492 Y14.201 Z-22.879 A232.1401 B-0.0128 
N445 X-205.492 Y15.753 Z-23.315 A238.2948 B0.0732 
N446 X-205.492 Y17.326 Z-23.543 A244.3104 B0.1435 
N447 X-205.491 Y18.866 Z-23.541 A250.0342 B0.1982 
N448 X-205.491 Y20.317 Z-23.305 A255.3380 B0.2387 
N449 X-205.491 Y21.563 Z-22.834 A259.8241 B0.2644 
N450 X-205.491 Y22.462 Z-22.155 A262.9746 B0.2745 
N451 X-205.491 Y22.994 Z-21.318 A264.7049 B0.2715 
N452 X-205.491 Y23.266 Z-20.363 A265.4052 B0.2600 
N453 X-205.491 Y23.406 Z-19.313 A265.5624 B0.2437 
N454 X-205.491 Y23.515 Z-18.184 A265.5713 B0.2253 
N455 X-205.491 Y23.629 Z-16.989 B0.2057 
N456 X-205.492 Y23.747 Z-15.745 B0.1852 
N457 X-205.492 Y23.868 Z-14.467 B0.1643 
N458 X-205.492 Y23.991 Z-13.176 B0.1431 
N459 X-205.492 Y24.113 Z-11.893 A265.5714 B0.1205 
N460 X-205.492 Y24.234 Z-10.637 A265.5774 B0.0918 
N461 X-205.492 Y24.358 Z-9.429 A265.6182 B0.0571 
N462 X-205.492 Y24.502 Z-8.286 A265.7691 B0.0268 
N463 X-205.492 Y24.670 Z-7.221 A266.0663 B0.0088 
N464 X-205.492 Y24.842 Z-6.244 A266.4317 B0.0019 
N465 X-205.492 Y25.057 Z-5.360 A267.0317 B0.0003 
N466 X-205.492 Y25.411 Z-4.573 A268.2761 B0.0000 
N467 X-205.492 Y25.974 Z-3.871 A270.4776 B0.0000 
N468 X-205.492 Y26.775 Z-3.220 A273.7785 
N469 X-205.492 Y27.774 Z-2.571 A278.0452 
N470 X-205.492 Y28.899 Z-1.882 A283.0122 
N471 X-205.492 Y30.089 Z-1.116 A288.4825 
N472 X-205.492 Y31.322 Z-0.237 A294.4212 
N473 X-205.492 Y32.592 Z0.807 A300.9381 
N474 X-205.492 Y33.765 Z1.985 A307.5497 
N475 X-205.492 Y34.806 Z3.291 A314.2007 
N476 X-205.492 Y35.695 Z4.729 A320.9319 
N477 X-205.492 Y36.383 Z6.262 A327.6007 
N478 X-205.492 Y36.846 Z7.865 A334.1821 
N479 X-205.492 Y37.061 Z9.499 A340.6243 
N480 X-205.492 Y37.004 Z11.095 A346.7493 
N481 X-205.492 Y36.666 Z12.536 A352.2225 
N482 X-205.492 Y36.070 Z13.678 A356.5627 
N483 X-205.492 Y35.262 Z14.402 A359.3364 
N484 X-205.492 Y34.284 Z14.741 A0.6500 
N485 X-205.492 Y33.144 Z14.832 A1.0141 
N486 X-205.492 Y31.836 Z14.839 A1.0422 
N487 X-205.492 Y30.353 Z14.837 
N488 X-205.492 Y28.695 Z14.836 
N489 X-205.492 Y26.869 Z14.835 
N490 X-205.492 Y24.890 Z14.833 
N491 X-205.492 Y22.778 Z14.832 
N492 X-205.492 Y20.561 Z14.830 
N493 X-205.492 Y18.271 Z14.829 
N494 X-205.492 Y15.944 Z14.827 A1.0422 
N495 X-205.492 Y13.617 Z14.829 A1.0598 
N496 X-205.492 Y11.325 Z14.887 A1.3176 
N497 X-205.492 Y9.098 Z15.103 A2.3159 
N498 X-205.492 Y6.964 Z15.371 A3.7042 
N499 X-205.492 Y4.952 Z15.575 A5.0091 B0.0000 
N500 X-205.492 Y3.080 Z15.741 A6.2985 B0.0008 
N501 X-205.492 Y1.365 Z15.862 A7.5032 B0.0116 
N502 X-205.492 Y-0.185 Z15.917 A8.4946 B0.0509 
N503 X-205.492 Y-1.575 Z15.956 A9.4321 B0.1042 
N504 X-205.492 Y-2.834 Z16.104 A10.8324 B0.1472 
N505 X-205.492 Y-4.010 Z16.488 A13.2663 B0.1738 
N506 X-205.492 Y-5.169 Z17.158 A17.0509 B0.1880 
N507 X-205.492 Y-6.375 Z18.063 A22.0888 B0.1907 
N508 X-205.492 Y-7.659 Z19.061 A27.9101 B0.1809 
N509 X-205.492 Y-9.003 Z20.000 A33.9435 B0.1589 
N510 X-205.492 Y-10.365 Z20.787 A39.7801 B0.1260 
N511 X-205.492 Y-11.728 Z21.408 A45.3433 B0.0819 
N512 X-205.492 Y-13.100 Z21.876 A50.7194 B0.0263 
N513 X-205.492 Y-14.516 Z22.215 A56.1206 B-0.0374 
N514 X-205.493 Y-16.020 Z22.432 A61.7698 B-0.1074 
N515 X-205.493 Y-17.572 Z22.480 A67.5096 B-0.1808 
N516 X-205.493 Y-19.093 Z22.316 A73.0604 B-0.2539 
N517 X-205.494 Y-20.444 Z21.920 A77.9238 B-0.3211 
N518 X-205.494 Y-21.486 Z21.312 A81.6057 B-0.3771 
N519 X-205.494 Y-22.189 Z20.542 A83.9927 B-0.4210 
N520 X-205.494 Y-22.594 Z19.656 A85.2320 B-0.4538 
N521 X-205.494 Y-22.803 Z18.683 A85.7005 B-0.4788 
N522 X-205.494 Y-22.929 Z17.643 A85.8250 B-0.5003 
N523 X-205.495 Y-23.032 Z16.551 A85.8420 B-0.5208 
N524 X-205.495 Y-23.135 Z15.420 A85.8469 B-0.5406 
N525 X-205.495 Y-23.242 Z14.266 A85.8604 B-0.5589 
N526 X-205.495 Y-23.358 Z13.107 A85.9081 B-0.5761 
N527 X-205.495 Y-23.508 Z11.961 A86.1085 B-0.5940 
N528 X-205.495 Y-23.731 Z10.848 A86.6457 B-0.6162 
N529 X-205.495 Y-24.029 Z9.781 A87.5545 B-0.6444 
N530 X-205.495 Y-24.325 Z8.769 A88.5434 B-0.6743 
N531 X-205.495 Y-24.534 Z7.820 A89.2558 B-0.6989 
N532 X-205.495 Y-24.649 Z6.946 A89.6261 B-0.7163 
N533 X-205.495 Y-24.750 Z6.152 A89.9688 B-0.7325 
N534 X-205.496 Y-24.968 Z5.440 A90.8169 B-0.7584 
N535 X-205.496 Y-25.416 Z4.796 A92.6674 B-0.8050 
N536 X-205.496 Y-26.153 Z4.185 A95.7901 B-0.8792 
N537 X-205.497 Y-27.130 Z3.558 A100.0341 B-0.9796 
N538 X-205.497 Y-28.277 Z2.864 A105.1638 B-1.1015 
N539 X-205.498 Y-29.525 Z2.059 A110.9738 B-1.2377 
N540 X-205.498 Y-30.810 Z1.110 A117.2886 B-1.3763 
N541 X-205.499 Y-32.075 Z-0.005 A123.9989 B-1.5003 
N542 X-205.499 Y-33.249 Z-1.286 A130.9323 B-1.5811 
N543 X-205.499 Y-34.269 Z-2.711 A137.9229 B-1.5955 
N544 X-205.499 Y-35.086 Z-4.246 A144.8522 B-1.5521 
N545 X-205.499 Y-35.677 Z-5.868 A151.6988 B-1.4731 
N546 X-205.498 Y-36.021 Z-7.555 A158.4785 B-1.3755 
N547 X-205.498 Y-36.087 Z-9.238 A165.0301 B-1.2710 
N548 X-205.497 Y-35.858 Z-10.802 A171.0243 B-1.1700 
N549 X-205.497 Y-35.350 Z-12.093 A175.9626 B-1.0848 
N550 X-205.497 Y-34.611 Z-12.938 A179.2243 B-1.0283 
N551 X-205.497 Y-33.697 Z-13.337 A180.7896 B-1.0020 
N552 X-205.497 Y-32.627 Z-13.441 A181.2187 B-0.9957 
N553 X-205.497 Y-31.390 Z-13.444 A181.2503 B-0.9959 
N554 X-205.497 Y-29.980 Z-13.438 A181.2504 B-0.9968 
N555 X-205.497 Y-28.393 Z-13.431 A181.2534 B-0.9978 
N556 X-205.497 Y-26.636 Z-13.425 A181.2604 B-0.9993 
N557 X-205.497 Y-24.722 Z-13.417 A181.2634 B-1.0016 
N558 X-205.497 Y-22.669 Z-13.408 A181.2635 B-1.0043 
N559 X-205.497 Y-20.506 Z-13.398 B-1.0071 
N560 X-205.497 Y-18.264 Z-13.388 B-1.0100 
N561 X-205.497 Y-15.979 Z-13.377 B-1.0129 
N562 X-205.497 Y-13.691 Z-13.367 B-1.0159 
N563 X-205.497 Y-11.436 Z-13.356 A181.2640 B-1.0188 
N564 X-205.497 Y-9.252 Z-13.358 A181.3145 B-1.0212 
N565 X-205.497 Y-7.168 Z-13.430 A181.6736 B-1.0212 
N566 X-205.497 Y-5.207 Z-13.605 A182.5325 B-1.0197 
N567 X-205.497 Y-3.390 Z-13.788 A183.5354 B-1.0230 
N568 X-205.497 Y-1.730 Z-13.941 A184.5118 B-1.0311 
N569 X-205.497 Y-0.234 Z-14.066 A185.4418 B-1.0338 
N570 X-205.497 Y1.098 Z-14.151 A186.2422 B-1.0123 
N571 X-205.496 Y2.287 Z-14.305 A187.3438 B-0.9637 
N572 X-205.496 Y3.384 Z-14.740 A189.6667 B-0.8940 
N573 X-205.496 Y4.481 Z-15.606 A193.9455 B-0.7990 
N574 X-205.495 Y5.700 Z-16.875 A200.2637 B-0.6735 
N575 X-205.495 Y7.106 Z-18.291 A207.7937 B-0.5247 
N576 X-205.494 Y8.638 Z-19.551 A215.3711 B-0.3704 
N577 X-205.493 Y10.184 Z-20.503 A222.2851 B-0.2257 
N578 X-205.493 Y11.707 Z-21.179 A228.5837 B-0.0913 
N579 X-205.492 Y13.200 Z-21.615 A234.3918 B0.0272 
N580 X-205.492 Y14.715 Z-21.866 A240.0794 B0.1286 
N581 X-205.491 Y16.245 Z-21.927 A245.6842 B0.2129 
N582 X-205.491 Y17.728 Z-21.771 A251.0062 B0.2792 
N583 X-205.491 Y19.051 Z-21.382 A255.6540 B0.3250 
N584 X-205.491 Y20.061 Z-20.767 A259.0601 B0.3471 
N585 X-205.491 Y20.706 Z-19.974 A261.0308 B0.3481 
N586 X-205.491 Y21.063 Z-19.051 A261.8427 B0.3341 
N587 X-205.491 Y21.266 Z-18.034 A262.0091 B0.3118 
N588 X-205.491 Y21.439 Z-16.950 A262.0159 B0.2866 
N589 X-205.491 Y21.619 Z-15.817 B0.2601 
N590 X-205.491 Y21.803 Z-14.647 B0.2328 
N591 X-205.491 Y21.991 Z-13.458 A262.0159 B0.2051 
N592 X-205.492 Y22.180 Z-12.268 B0.1773 
N593 X-205.492 Y22.365 Z-11.096 A262.0169 B0.1499 
N594 X-205.492 Y22.551 Z-9.958 A262.0430 B0.1227 
N595 X-205.492 Y22.753 Z-8.876 A262.1704 B0.0924 
N596 X-205.492 Y22.988 Z-7.863 A262.4937 B0.0582 
N597 X-205.492 Y23.253 Z-6.931 A263.0169 B0.0286 
N598 X-205.492 Y23.528 Z-6.082 A263.6618 B0.0106 
N599 X-205.492 Y23.858 Z-5.323 A264.6215 B0.0027 
N600 X-205.492 Y24.333 Z-4.657 A266.2768 B0.0004 
N601 X-205.492 Y25.009 Z-4.068 A268.8687 B0.0000 
N602 X-205.492 Y25.900 Z-3.518 A272.4742 B0.0000 
N603 X-205.492 Y26.965 Z-2.959 A276.9367 
N604 X-205.492 Y28.126 Z-2.353 A281.9617 
N605 X-205.492 Y29.322 Z-1.672 A287.3377 
N606 X-205.492 Y30.532 Z-0.891 A293.0200 
N607 X-205.492 Y31.780 Z0.040 A299.2193 
N608 X-205.492 Y32.943 Z1.092 A305.4812 
N609 X-205.492 Y33.964 Z2.238 A311.6100 
N610 X-205.492 Y34.890 Z3.532 A317.9667 
N611 X-205.492 Y35.668 Z4.950 A324.4215 
N612 X-205.492 Y36.257 Z6.465 A330.8819 
N613 X-205.492 Y36.625 Z8.042 A337.2785 
N614 X-205.492 Y36.747 Z9.631 A343.5040 
N615 X-205.492 Y36.604 Z11.147 A349.3220 
N616 X-205.492 Y36.197 Z12.459 A354.3319 
N617 X-205.492 Y35.560 Z13.417 A358.0009 
N618 X-205.492 Y34.742 Z13.947 A0.0464 
N619 X-205.492 Y33.772 Z14.155 A0.8600 
N620 X-205.492 Y32.650 Z14.200 A1.0438 
N621 X-205.492 Y31.368 Z14.202 A1.0534 
N622 X-205.492 Y29.921 Z14.200 
N623 X-205.492 Y28.313 Z14.199 
N624 X-205.492 Y26.553 Z14.197 
N625 X-205.492 Y24.656 Z14.195 
N626 X-205.492 Y22.644 Z14.193 
N627 X-205.492 Y20.542 Z14.192 
N628 X-205.492 Y18.381 Z14.190 
N629 X-205.492 Y16.195 Z14.187 A1.0534 
N630 X-205.492 Y14.016 Z14.189 A1.0679 
N631 X-205.492 Y11.876 Z14.241 A1.3003 
N632 X-205.492 Y9.798 Z14.496 A2.4526 
N633 X-205.492 Y7.798 Z14.904 A4.4468 
N634 X-205.492 Y5.897 Z15.271 A6.5380 
N635 X-205.492 Y4.116 Z15.574 A8.5890 B0.0022 
N636 X-205.492 Y2.467 Z15.810 A10.5329 B0.0229 
N637 X-205.492 Y0.965 Z15.950 A12.1937 B0.0753 
N638 X-205.492 Y-0.395 Z16.041 A13.6955 B0.1354 
N639 X-205.492 Y-1.648 Z16.197 A15.5033 B0.1768 
N640 X-205.491 Y-2.849 Z16.533 A18.1383 B0.2037 
N641 X-205.491 Y-4.062 Z17.102 A21.9223 B0.2180 
N642 X-205.491 Y-5.344 Z17.862 A26.8193 B0.2168 
N643 X-205.491 Y-6.709 Z18.688 A32.4197 B0.1985 
N644 X-205.492 Y-8.116 Z19.425 A38.1139 B0.1652 
N645 X-205.492 Y-9.494 Z19.977 A43.4220 B0.1208 
N646 X-205.492 Y-10.823 Z20.346 A48.2971 B0.0662 
N647 X-205.492 Y-12.144 Z20.582 A53.0073 B-0.0001 
N648 X-205.493 Y-13.543 Z20.739 A58.0064 B-0.0794 
N649 X-205.493 Y-15.051 Z20.801 A63.4252 B-0.1715 
N650 X-205.493 Y-16.590 Z20.697 A68.9273 B-0.2705 
N651 X-205.494 Y-18.010 Z20.375 A73.9316 B-0.3662 
N652 X-205.494 Y-19.146 Z19.831 A77.8191 B-0.4478 
N653 X-205.495 Y-19.948 Z19.115 A80.4143 B-0.5118 
N654 X-205.495 Y-20.451 Z18.277 A81.8528 B-0.5584 
N655 X-205.495 Y-20.746 Z17.357 A82.4635 B-0.5911 
N656 X-205.495 Y-20.931 Z16.381 A82.6253 B-0.6159 
N657 X-205.495 Y-21.083 Z15.369 A82.6388 B-0.6384 
N658 X-205.495 Y-21.235 Z14.337 A82.6397 B-0.6610 
N659 X-205.495 Y-21.392 Z13.300 A82.6586 B-0.6839 
N660 X-205.495 Y-21.571 Z12.274 A82.7771 B-0.7069 
N661 X-205.495 Y-21.823 Z11.280 A83.2273 B-0.7337 
N662 X-205.496 Y-22.191 Z10.333 A84.2189 B-0.7704 
N663 X-205.496 Y-22.641 Z9.438 A85.6514 B-0.8171 
N664 X-205.496 Y-23.058 Z8.589 A87.0613 B-0.8634 
N665 X-205.496 Y-23.350 Z7.794 A88.0544 B-0.8993 
N666 X-205.496 Y-23.523 Z7.063 A88.6181 B-0.9241 
N667 X-205.496 Y-23.692 Z6.404 A89.2076 B-0.9494 
N668 X-205.497 Y-24.007 Z5.815 A90.4325 B-0.9906 
N669 X-205.497 Y-24.565 Z5.278 A92.7154 B-1.0592 
N670 X-205.497 Y-25.394 Z4.754 A96.2029 B-1.1594 
N671 X-205.498 Y-26.433 Z4.194 A100.6838 B-1.2861 
N672 X-205.498 Y-27.613 Z3.552 A105.9214 B-1.4319 
N673 X-205.499 Y-28.868 Z2.792 A111.7213 B-1.5867 
N674 X-205.500 Y-30.136 Z1.892 A117.9118 B-1.7358 
N675 X-205.500 Y-31.358 Z0.843 A124.3499 B-1.8605 
N676 X-205.501 Y-32.481 Z-0.348 A130.8988 B-1.9392 
N677 X-205.501 Y-33.483 Z-1.691 A137.6061 B-1.9582 
N678 X-205.501 Y-34.316 Z-3.163 A144.3688 B-1.9229 
N679 X-205.500 Y-34.945 Z-4.739 A151.1276 B-1.8490 
N680 X-205.500 Y-35.342 Z-6.394 A157.8740 B-1.7502 
N681 X-205.499 Y-35.475 Z-8.066 A164.4534 B-1.6375 
N682 X-205.499 Y-35.319 Z-9.639 A170.5283 B-1.5224 
N683 X-205.498 Y-34.888 Z-10.961 A175.6142 B-1.4202 
N684 X-205.498 Y-34.228 Z-11.845 A179.0379 B-1.3489 
N685 X-205.498 Y-33.400 Z-12.271 A180.7116 B-1.3140 
N686 X-205.498 Y-32.424 Z-12.396 A181.2221 B-1.3040 
N687 X-205.498 Y-31.294 Z-12.405 A181.2767 B-1.3036 
N688 X-205.498 Y-30.001 Z-12.399 A181.2807 B-1.3043 
N689 X-205.498 Y-28.543 Z-12.394 A181.2903 B-1.3055 
N690 X-205.498 Y-26.923 Z-12.388 A181.2986 B-1.3075 
N691 X-205.498 Y-25.151 Z-12.380 A181.3016 B-1.3100 
N692 X-205.498 Y-23.247 Z-12.370 A181.3019 B-1.3128 
N693 X-205.498 Y-21.232 Z-12.359 B-1.3158 
N694 X-205.498 Y-19.137 Z-12.348 B-1.3188 
N695 X-205.498 Y-16.994 Z-12.337 B-1.3220 
N696 X-205.498 Y-14.839 Z-12.325 B-1.3252 
N697 X-205.498 Y-12.707 Z-12.314 A181.3019 B-1.3283 
N698 X-205.498 Y-10.632 Z-12.306 A181.3121 B-1.3312 
N699 X-205.498 Y-8.644 Z-12.336 A181.4893 B-1.3318 
N700 X-205.498 Y-6.763 Z-12.503 A182.2731 B-1.3256 
N701 X-205.498 Y-5.004 Z-12.790 A183.6809 B-1.3156 
N702 X-205.498 Y-3.378 Z-13.068 A185.2036 B-1.3114 
N703 X-205.498 Y-1.897 Z-13.292 A186.6264 B-1.3114 
N704 X-205.498 Y-0.560 Z-13.476 A187.9634 B-1.2941 
N705 X-205.498 Y0.648 Z-13.683 A189.4500 B-1.2343 
N706 X-205.497 Y1.776 Z-14.084 A191.8151 B-1.1382 
N707 X-205.497 Y2.919 Z-14.863 A195.9214 B-1.0071 
N708 X-205.496 Y4.213 Z-16.064 A202.1794 B-0.8324 
N709 X-205.495 Y5.749 Z-17.477 A210.0254 B-0.6202 
N710 X-205.494 Y7.435 Z-18.714 A217.9760 B-0.4039 
N711 X-205.493 Y9.059 Z-19.532 A224.7933 B-0.2179 
N712 X-205.493 Y10.545 Z-19.985 A230.4494 B-0.0656 
N713 X-205.492 Y11.962 Z-20.207 A235.5453 B0.0616 
N714 X-205.492 Y13.417 Z-20.288 A240.6921 B0.1729 
N715 X-205.491 Y14.885 Z-20.200 A245.8048 B0.2665 
N716 X-205.491 Y16.269 Z-19.906 A250.5312 B0.3376 
N717 X-205.491 Y17.412 Z-19.382 A254.2629 B0.3791 
N718 X-205.491 Y18.212 Z-18.655 A256.6079 B0.3905 
N719 X-205.491 Y18.690 Z-17.776 A257.6424 B0.3782 
N720 X-205.491 Y18.974 Z-16.794 A257.8566 B0.3522 
N721 X-205.491 Y19.219 Z-15.755 A257.8647 B0.3221 
N722 X-205.491 Y19.470 Z-14.680 B0.2909 
N723 X-205.491 Y19.725 Z-13.584 A257.8647 B0.2590 
N724 X-205.491 Y19.983 Z-12.481 B0.2269 
N725 X-205.491 Y20.238 Z-11.388 B0.1951 
N726 X-205.492 Y20.487 Z-10.322 A257.8675 B0.1641 
N727 X-205.492 Y20.739 Z-9.299 A257.9200 B0.1343 
N728 X-205.492 Y21.016 Z-8.338 A258.1395 B0.1055 
N729 X-205.492 Y21.339 Z-7.455 A258.6366 B0.0764 
N730 X-205.492 Y21.702 Z-6.655 A259.4014 B0.0467 
N731 X-205.492 Y22.082 Z-5.936 A260.3507 B0.0215 
N732 X-205.492 Y22.523 Z-5.304 A261.6654 B0.0068 
N733 X-205.492 Y23.106 Z-4.761 A263.6862 B0.0014 
N734 X-205.492 Y23.875 Z-4.288 A266.5942 B0.0002 
N735 X-205.492 Y24.837 Z-3.846 A270.4195 B0.0000 
N736 X-205.492 Y25.957 Z-3.389 A275.0209 B0.0000 
N737 X-205.492 Y27.155 Z-2.878 A280.0916 
N738 X-205.492 Y28.364 Z-2.292 A285.3885 
N739 X-205.492 Y29.559 Z-1.619 A290.8313 
N740 X-205.492 Y30.779 Z-0.819 A296.6607 
N741 X-205.492 Y31.969 Z0.119 A302.7351 
N742 X-205.492 Y32.980 Z1.108 A308.4020 
N743 X-205.492 Y33.917 Z2.223 A314.2351 
N744 X-205.492 Y34.778 Z3.497 A320.3987 
N745 X-205.492 Y35.498 Z4.900 A326.7065 
N746 X-205.492 Y36.035 Z6.402 A333.0616 
N747 X-205.492 Y36.352 Z7.954 A339.3301 
N748 X-205.492 Y36.424 Z9.498 A345.3741 
N749 X-205.492 Y36.240 Z10.939 A350.9259 
N750 X-205.492 Y35.811 Z12.147 A355.5589 
N751 X-205.492 Y35.174 Z12.977 A358.7610 
N752 X-205.492 Y34.378 Z13.393 A0.3757 
N753 X-205.492 Y33.442 Z13.537 A0.9422 
N754 X-205.492 Y32.362 Z13.566 A1.0611 
N755 X-205.492 Y31.131 Z13.566 A1.0671 
N756 X-205.492 Y29.748 Z13.564 
N757 X-205.492 Y28.216 Z13.562 
N758 X-205.492 Y26.545 Z13.560 
N759 X-205.492 Y24.752 Z13.558 
N760 X-205.492 Y22.856 Z13.556 
N761 X-205.492 Y20.884 Z13.554 
N762 X-205.492 Y18.862 Z13.551 
N763 X-205.492 Y16.822 Z13.549 
N764 X-205.492 Y14.792 Z13.548 A1.0714 
N765 X-205.492 Y12.801 Z13.570 A1.1784 
N766 X-205.492 Y10.869 Z13.757 A2.0047 
N767 X-205.492 Y9.001 Z14.230 A4.1859 
N768 X-205.492 Y7.198 Z14.804 A7.1025 
N769 X-205.492 Y5.477 Z15.322 A10.1098 B0.0004 
N770 X-205.492 Y3.850 Z15.757 A13.0624 B0.0155 
N771 X-205.492 Y2.339 Z16.072 A15.7324 B0.0686 
N772 X-205.492 Y0.951 Z16.272 A18.0553 B0.1288 
N773 X-205.492 Y-0.336 Z16.440 A20.3345 B0.1740 
N774 X-205.491 Y-1.577 Z16.684 A23.0391 B0.2049 
N775 X-205.491 Y-2.832 Z17.073 A26.5354 B0.2216 
N776 X-205.491 Y-4.154 Z17.603 A30.9361 B0.2204 
N777 X-205.491 Y-5.558 Z18.191 A36.0094 B0.1990 
N778 X-205.492 Y-6.991 Z18.696 A41.1908 B0.1599 
N779 X-205.492 Y-8.361 Z19.010 A45.8975 B0.1097 
N780 X-205.492 Y-9.637 Z19.133 A50.0289 B0.0514 
N781 X-205.492 Y-10.893 Z19.147 A54.0329 B-0.0194 
N782 X-205.493 Y-12.256 Z19.130 A58.5473 B-0.1105 
N783 X-205.493 Y-13.739 Z19.048 A63.6008 B-0.2221 
N784 X-205.494 Y-15.211 Z18.811 A68.6246 B-0.3421 
N785 X-205.494 Y-16.478 Z18.362 A72.8285 B-0.4522 
N786 X-205.495 Y-17.429 Z17.723 A75.7922 B-0.5411 
N787 X-205.495 Y-18.071 Z16.948 A77.5489 B-0.6072 
N788 X-205.495 Y-18.474 Z16.087 A78.3566 B-0.6532 
N789 X-205.495 Y-18.735 Z15.176 A78.5897 B-0.6844 
N790 X-205.495 Y-18.948 Z14.245 A78.6232 B-0.7090 
N791 X-205.495 Y-19.154 Z13.312 A78.6291 B-0.7322 
N792 X-205.496 Y-19.365 Z12.393 A78.6696 B-0.7556 
N793 X-205.496 Y-19.616 Z11.504 A78.9002 B-0.7818 
N794 X-205.496 Y-19.984 Z10.671 A79.6717 B-0.8202 
N795 X-205.496 Y-20.503 Z9.904 A81.1683 B-0.8781 
N796 X-205.496 Y-21.102 Z9.188 A83.1259 B-0.9495 
N797 X-205.497 Y-21.641 Z8.507 A84.9651 B-1.0174 
N798 X-205.497 Y-22.036 Z7.865 A86.3192 B-1.0700 
N799 X-205.497 Y-22.310 Z7.274 A87.2524 B-1.1094 
N800 X-205.497 Y-22.584 Z6.743 A88.2436 B-1.1508 
N801 X-205.498 Y-23.000 Z6.270 A89.8626 B-1.2117 
N802 X-205.498 Y-23.639 Z5.834 A92.4585 B-1.3030 
N803 X-205.498 Y-24.521 Z5.397 A96.1365 B-1.4274 
N804 X-205.499 Y-25.589 Z4.911 A100.6949 B-1.5775 
N805 X-205.500 Y-26.775 Z4.336 A105.8971 B-1.7437 
N806 X-205.501 Y-28.023 Z3.643 A111.5893 B-1.9153 
N807 X-205.501 Y-29.274 Z2.814 A117.5939 B-2.0756 
N808 X-205.502 Y-30.465 Z1.852 A123.7372 B-2.2052 
N809 X-205.502 Y-31.546 Z0.776 A129.8598 B-2.2884 
N810 X-205.502 Y-32.544 Z-0.457 A136.2263 B-2.3200 
N811 X-205.502 Y-33.418 Z-1.843 A142.8019 B-2.3007 
N812 X-205.502 Y-34.115 Z-3.352 A149.4556 B-2.2388 
N813 X-205.502 Y-34.601 Z-4.959 A156.1497 B-2.1446 
N814 X-205.501 Y-34.841 Z-6.613 A162.7631 B-2.0278 
N815 X-205.500 Y-34.805 Z-8.207 A168.9826 B-1.9003 
N816 X-205.500 Y-34.495 Z-9.603 A174.3854 B-1.7783 
N817 X-205.500 Y-33.949 Z-10.615 A178.3151 B-1.6839 
N818 X-205.499 Y-33.230 Z-11.151 A180.4135 B-1.6321 
N819 X-205.499 Y-32.371 Z-11.340 A181.1745 B-1.6138 
N820 X-205.499 Y-31.371 Z-11.368 A181.3091 B-1.6113 
N821 X-205.499 Y-30.221 Z-11.363 A181.3157 B-1.6121 
N822 X-205.499 Y-28.916 Z-11.359 A181.3277 B-1.6132 
N823 X-205.499 Y-27.457 Z-11.353 A181.3394 B-1.6150 
N824 X-205.499 Y-25.852 Z-11.344 A181.3419 B-1.6175 
N825 X-205.499 Y-24.115 Z-11.334 A181.3419 B-1.6204 
N826 X-205.499 Y-22.267 Z-11.323 B-1.6234 
N827 X-205.499 Y-20.331 Z-11.312 B-1.6266 
N828 X-205.499 Y-18.339 Z-11.300 B-1.6299 
N829 X-205.499 Y-16.322 Z-11.288 A181.3419 B-1.6332 
N830 X-205.499 Y-14.312 Z-11.276 B-1.6365 
N831 X-205.499 Y-12.342 Z-11.264 A181.3419 B-1.6398 
N832 X-205.499 Y-10.440 Z-11.259 A181.3670 B-1.6424 
N833 X-205.499 Y-8.629 Z-11.316 A181.6586 B-1.6404 
N834 X-205.499 Y-6.921 Z-11.566 A182.8120 B-1.6242 
N835 X-205.499 Y-5.318 Z-11.984 A184.8249 B-1.5971 
N836 X-205.499 Y-3.826 Z-12.398 A187.0184 B-1.5740 
N837 X-205.499 Y-2.455 Z-12.733 A189.0528 B-1.5548 
N838 X-205.499 Y-1.194 Z-13.050 A191.1298 B-1.5036 
N839 X-205.498 Y-0.006 Z-13.461 A193.7134 B-1.3881 
N840 X-205.498 Y1.194 Z-14.137 A197.5947 B-1.2206 
N841 X-205.497 Y2.540 Z-15.190 A203.4443 B-1.0014 
N842 X-205.495 Y4.167 Z-16.529 A211.2467 B-0.7283 
N843 X-205.494 Y6.004 Z-17.754 A219.5803 B-0.4425 
N844 X-205.493 Y7.724 Z-18.474 A226.4425 B-0.2110 
N845 X-205.493 Y9.163 Z-18.716 A231.4516 B-0.0479 
N846 X-205.492 Y10.474 Z-18.719 A235.6880 B0.0779 
N847 X-205.492 Y11.823 Z-18.619 A240.0584 B0.1898 
N848 X-205.491 Y13.191 Z-18.389 A244.4860 B0.2857 
N849 X-205.491 Y14.445 Z-17.972 A248.4209 B0.3540 
N850 X-205.491 Y15.424 Z-17.340 A251.2129 B0.3857 
N851 X-205.491 Y16.075 Z-16.525 A252.6386 B0.3835 
N852 X-205.491 Y16.476 Z-15.582 A252.9934 B0.3585 
N853 X-205.491 Y16.805 Z-14.583 A253.0117 B0.3264 
N854 X-205.491 Y17.137 Z-13.561 B0.2933 
N855 X-205.491 Y17.471 Z-12.531 A253.0117 B0.2599 
N856 X-205.491 Y17.804 Z-11.507 B0.2267 
N857 X-205.491 Y18.130 Z-10.503 B0.1942 
N858 X-205.492 Y18.446 Z-9.533 A253.0159 B0.1628 
N859 X-205.492 Y18.762 Z-8.615 A253.0874 B0.1335 
N860 X-205.492 Y19.108 Z-7.769 A253.3754 B0.1077 
N861 X-205.492 Y19.511 Z-7.011 A254.0206 B0.0839 
N862 X-205.492 Y19.966 Z-6.343 A255.0239 B0.0584 
N863 X-205.492 Y20.449 Z-5.757 A256.2841 B0.0332 
N864 X-205.492 Y20.992 Z-5.254 A257.9308 B0.0152 
N865 X-205.492 Y21.666 Z-4.839 A260.2609 B0.0058 
N866 X-205.492 Y22.510 Z-4.490 A263.4155 B0.0018 
N867 X-205.492 Y23.524 Z-4.168 A267.3857 B0.0004 
N868 X-205.492 Y24.685 Z-3.828 A272.0688 B0.0001 
N869 X-205.492 Y25.923 Z-3.430 A277.1930 B0.0000 
N870 X-205.492 Y27.164 Z-2.954 A282.4694 
N871 X-205.492 Y28.365 Z-2.396 A287.7546 
N872 X-205.492 Y29.551 Z-1.738 A293.1931 
N873 X-205.492 Y30.781 Z-0.928 A299.1143 
N874 X-205.492 Y31.848 Z-0.057 A304.6568 
N875 X-205.492 Y32.765 Z0.861 A309.8667 
N876 X-205.492 Y33.665 Z1.941 A315.5173 
N877 X-205.492 Y34.504 Z3.190 A321.5671 
N878 X-205.492 Y35.213 Z4.579 A327.8216 
N879 X-205.492 Y35.742 Z6.067 A334.1377 
N880 X-205.492 Y36.049 Z7.593 A340.3176 
N881 X-205.492 Y36.116 Z9.092 A346.2090 
N882 X-205.492 Y35.937 Z10.477 A351.5643 
N883 X-205.492 Y35.529 Z11.623 A355.9837 
N884 X-205.492 Y34.929 Z12.404 A359.0097 
N885 X-205.492 Y34.182 Z12.783 A0.4902 
N886 X-205.492 Y33.303 Z12.905 A0.9716 
N887 X-205.492 Y32.289 Z12.930 A1.0750 
N888 X-205.492 Y31.134 Z12.930 A1.0829 
N889 X-205.492 Y29.836 Z12.928 
N890 X-205.492 Y28.401 Z12.926 
N891 X-205.492 Y26.837 Z12.924 
N892 X-205.492 Y25.161 Z12.922 
N893 X-205.492 Y23.393 Z12.919 
N894 X-205.492 Y21.555 Z12.916 
N895 X-205.492 Y19.674 Z12.914 
N896 X-205.492 Y17.777 Z12.911 
N897 X-205.492 Y15.891 Z12.908 A1.0829 
N898 X-205.492 Y14.040 Z12.910 A1.1040 
N899 X-205.492 Y12.246 Z12.970 A1.3721 
N900 X-205.492 Y10.516 Z13.292 A2.7924 
N901 X-205.492 Y8.833 Z13.942 A5.8072 
N902 X-205.492 Y7.179 Z14.718 A9.7247 
N903 X-205.492 Y5.559 Z15.457 A13.9062 B0.0010 
N904 X-205.492 Y3.989 Z16.080 A18.0012 B0.0258 
N905 X-205.492 Y2.501 Z16.535 A21.7056 B0.0900 
N906 X-205.492 Y1.107 Z16.832 A24.9751 B0.1418 
N907 X-205.492 Y-0.213 Z17.043 A28.0573 B0.1743 
N908 X-205.491 Y-1.507 Z17.243 A31.2911 B0.1939 
N909 X-205.491 Y-2.824 Z17.480 A34.9485 B0.1978 
N910 X-205.492 Y-4.199 Z17.749 A39.1146 B0.1817 
N911 X-205.492 Y-5.605 Z17.972 A43.5003 B0.1456 
N912 X-205.492 Y-6.946 Z18.038 A47.5173 B0.0969 
N913 X-205.492 Y-8.157 Z17.914 A50.8537 B0.0431 
N914 X-205.492 Y-9.314 Z17.688 A53.9510 B-0.0211 
N915 X-205.493 Y-10.571 Z17.466 A57.5996 B-0.1099 
N916 X-205.493 Y-11.951 Z17.230 A61.8948 B-0.2269 
N917 X-205.494 Y-13.308 Z16.879 A66.1650 B-0.3555 
N918 X-205.494 Y-14.450 Z16.351 A69.5949 B-0.4716 
N919 X-205.495 Y-15.295 Z15.667 A71.8598 B-0.5623 
N920 X-205.495 Y-15.862 Z14.875 A73.0260 B-0.6246 
N921 X-205.495 Y-16.233 Z14.026 A73.4092 B-0.6630 
N922 X-205.495 Y-16.522 Z13.165 A73.4756 B-0.6893 
N923 X-205.495 Y-16.791 Z12.321 A73.4868 B-0.7124 
N924 X-205.495 Y-17.065 Z11.510 A73.5576 B-0.7364 
N925 X-205.496 Y-17.394 Z10.754 A73.9195 B-0.7678 
N926 X-205.496 Y-17.870 Z10.085 A74.9935 B-0.8215 
N927 X-205.496 Y-18.519 Z9.504 A76.9257 B-0.9046 
N928 X-205.497 Y-19.255 Z8.979 A79.3662 B-1.0061 
N929 X-205.497 Y-19.935 Z8.477 A81.7130 B-1.1039 
N930 X-205.497 Y-20.481 Z7.995 A83.6232 B-1.1847 
N931 X-205.498 Y-20.915 Z7.546 A85.1678 B-1.2515 
N932 X-205.498 Y-21.339 Z7.141 A86.7363 B-1.3197 
N933 X-205.498 Y-21.871 Z6.781 A88.8085 B-1.4067 
N934 X-205.499 Y-22.580 Z6.444 A91.6695 B-1.5224 
N935 X-205.499 Y-23.486 Z6.096 A95.4078 B-1.6685 
N936 X-205.500 Y-24.554 Z5.695 A99.9047 B-1.8387 
N937 X-205.501 Y-25.720 Z5.208 A104.9413 B-2.0223 
N938 X-205.502 Y-26.948 Z4.605 A110.4261 B-2.2106 
N939 X-205.503 Y-28.188 Z3.870 A116.2229 B-2.3870 
N940 X-205.503 Y-29.375 Z3.007 A122.1316 B-2.5298 
N941 X-205.504 Y-30.431 Z2.059 A127.8425 B-2.6238 
N942 X-205.504 Y-31.417 Z0.976 A133.7398 B-2.6732 
N943 X-205.504 Y-32.342 Z-0.289 A140.0508 B-2.6781 
N944 X-205.504 Y-33.133 Z-1.701 A146.5593 B-2.6384 
N945 X-205.503 Y-33.740 Z-3.231 A153.1587 B-2.5594 
N946 X-205.503 Y-34.126 Z-4.836 A159.7459 B-2.4486 
N947 X-205.502 Y-34.257 Z-6.435 A166.0954 B-2.3161 
N948 X-205.502 Y-34.121 Z-7.912 A171.8545 B-2.1773 
N949 X-205.501 Y-33.739 Z-9.120 A176.5546 B-2.0528 
N950 X-205.501 Y-33.163 Z-9.890 A179.5652 B-1.9684 
N951 X-205.501 Y-32.444 Z-10.233 A180.9269 B-1.9296 
N952 X-205.501 Y-31.597 Z-10.327 A181.3206 B-1.9191 
N953 X-205.501 Y-30.615 Z-10.332 A181.3647 B-1.9189 
N954 X-205.501 Y-29.489 Z-10.326 A181.3684 B-1.9201 
N955 X-205.501 Y-28.217 Z-10.319 A181.3766 B-1.9217 
N956 X-205.501 Y-26.805 Z-10.311 A181.3818 B-1.9239 
N957 X-205.501 Y-25.260 Z-10.301 A181.3825 B-1.9267 
N958 X-205.501 Y-23.599 Z-10.290 B-1.9298 
N959 X-205.501 Y-21.841 Z-10.278 B-1.9330 
N960 X-205.501 Y-20.013 Z-10.266 A181.3825 B-1.9363 
N961 X-205.501 Y-18.143 Z-10.254 B-1.9398 
N962 X-205.501 Y-16.259 Z-10.241 B-1.9432 
N963 X-205.501 Y-14.393 Z-10.229 A181.3825 B-1.9466 
N964 X-205.501 Y-12.572 Z-10.217 A181.3825 B-1.9500 
N965 X-205.501 Y-10.819 Z-10.209 A181.4015 B-1.9527 
N966 X-205.501 Y-9.154 Z-10.258 A181.6545 B-1.9502 
N967 X-205.501 Y-7.582 Z-10.521 A182.8502 B-1.9272 
N968 X-205.500 Y-6.089 Z-11.062 A185.3638 B-1.8765 
N969 X-205.500 Y-4.665 Z-11.688 A188.4853 B-1.8163 
N970 X-205.500 Y-3.319 Z-12.240 A191.5589 B-1.7577 
N971 X-205.499 Y-2.028 Z-12.789 A194.8414 B-1.6566 
N972 X-205.499 Y-0.733 Z-13.453 A198.8662 B-1.4604 
N973 X-205.497 Y0.685 Z-14.380 A204.4105 B-1.1899 
N974 X-205.496 Y2.369 Z-15.566 A211.8123 B-0.8602 
N975 X-205.494 Y4.327 Z-16.740 A220.2932 B-0.5024 
N976 X-205.493 Y6.197 Z-17.417 A227.4958 B-0.2101 
N977 X-205.492 Y7.623 Z-17.472 A232.0125 B-0.0360 
N978 X-205.492 Y8.799 Z-17.227 A235.2056 B0.0751 
N979 X-205.492 Y9.993 Z-16.908 A238.4922 B0.1729 
N980 X-205.491 Y11.215 Z-16.512 A241.9354 B0.2592 
N981 X-205.491 Y12.316 Z-15.961 A244.8685 B0.3160 
N982 X-205.491 Y13.154 Z-15.222 A246.6774 B0.3334 
N983 X-205.491 Y13.719 Z-14.326 A247.2994 B0.3179 
N984 X-205.491 Y14.159 Z-13.357 A247.3553 B0.2885 
N985 X-205.491 Y14.588 Z-12.376 A247.3553 B0.2578 
N986 X-205.491 Y15.016 Z-11.400 B0.2273 
N987 X-205.491 Y15.435 Z-10.442 B0.1973 
N988 X-205.492 Y15.841 Z-9.515 A247.3553 B0.1683 
N989 X-205.492 Y16.229 Z-8.632 A247.3593 B0.1407 
N990 X-205.492 Y16.609 Z-7.808 A247.4326 B0.1154 
N991 X-205.492 Y17.013 Z-7.066 A247.7432 B0.0938 
N992 X-205.492 Y17.482 Z-6.429 A248.4890 B0.0756 
N993 X-205.492 Y18.022 Z-5.896 A249.7140 B0.0574 
N994 X-205.492 Y18.602 Z-5.451 A251.2835 B0.0385 
N995 X-205.492 Y19.235 Z-5.088 A253.2437 B0.0224 
N996 X-205.492 Y19.983 Z-4.811 A255.8383 B0.0113 
N997 X-205.492 Y20.883 Z-4.599 A259.1886 B0.0048 
N998 X-205.492 Y21.930 Z-4.413 A263.2525 B0.0015 
N999 X-205.492 Y23.111 Z-4.211 A267.9490 B0.0003 
N1000 X-205.492 Y24.381 Z-3.950 A273.1015 B0.0000 
N1001 X-205.492 Y25.665 Z-3.606 A278.4184 B0.0000 
N1002 X-205.492 Y26.900 Z-3.177 A283.6622 
N1003 X-205.492 Y28.080 Z-2.663 A288.8382 
N1004 X-205.492 Y29.293 Z-2.023 A294.3681 
N1005 X-205.492 Y30.503 Z-1.243 A300.1801 
N1006 X-205.492 Y31.451 Z-0.474 A305.1004 
N1007 X-205.492 Y32.321 Z0.369 A309.9830 
N1008 X-205.492 Y33.217 Z1.399 A315.4858 
N1009 X-205.492 Y34.074 Z2.616 A321.4863 
N1010 X-205.492 Y34.816 Z3.987 A327.7639 
N1011 X-205.492 Y35.383 Z5.467 A334.1272 
N1012 X-205.492 Y35.726 Z6.974 A340.2970 
N1013 X-205.492 Y35.830 Z8.435 A346.0816 
N1014 X-205.492 Y35.698 Z9.777 A351.2994 
N1015 X-205.492 Y35.350 Z10.896 A355.6290 
N1016 X-205.492 Y34.819 Z11.692 A358.7178 
N1017 X-205.492 Y34.145 Z12.115 A0.3703 
N1018 X-205.492 Y33.347 Z12.261 A0.9485 
N1019 X-205.492 Y32.422 Z12.293 A1.0841 
N1020 X-205.492 Y31.364 Z12.296 A1.1022 
N1021 X-205.492 Y30.172 Z12.294 A1.1024 
N1022 X-205.492 Y28.849 Z12.292 
N1023 X-205.492 Y27.405 Z12.289 
N1024 X-205.492 Y25.854 Z12.286 
N1025 X-205.492 Y24.213 Z12.283 
N1026 X-205.492 Y22.506 Z12.280 
N1027 X-205.492 Y20.756 Z12.277 
N1028 X-205.492 Y18.990 Z12.274 
N1029 X-205.492 Y17.233 Z12.271 
N1030 X-205.492 Y15.507 Z12.268 A1.1029 
N1031 X-205.492 Y13.832 Z12.272 A1.1344 
N1032 X-205.492 Y12.222 Z12.347 A1.4663 
N1033 X-205.492 Y10.674 Z12.717 A3.0893 
N1034 X-205.492 Y9.154 Z13.483 A6.5943 
N1035 X-205.492 Y7.608 Z14.490 A11.5170 B0.0000 
N1036 X-205.492 Y6.009 Z15.538 A17.1527 B0.0011 
N1037 X-205.492 Y4.376 Z16.459 A22.8527 B0.0208 
N1038 X-205.492 Y2.766 Z17.143 A28.0960 B0.0774 
N1039 X-205.492 Y1.229 Z17.569 A32.6755 B0.1193 
N1040 X-205.492 Y-0.212 Z17.767 A36.5912 B0.1366 
N1041 X-205.492 Y-1.555 Z17.779 A39.9354 B0.1414 
N1042 X-205.492 Y-2.836 Z17.672 A42.9841 B0.1346 
N1043 X-205.492 Y-4.112 Z17.510 A46.0752 B0.1120 
N1044 X-205.492 Y-5.359 Z17.267 A49.0775 B0.0746 
N1045 X-205.492 Y-6.491 Z16.878 A51.5406 B0.0321 
N1046 X-205.492 Y-7.521 Z16.375 A53.5467 B-0.0136 
N1047 X-205.493 Y-8.588 Z15.874 A55.8307 B-0.0776 
N1048 X-205.493 Y-9.763 Z15.413 A58.7620 B-0.1716 
N1049 X-205.494 Y-10.945 Z14.920 A61.8695 B-0.2839 
N1050 X-205.494 Y-11.970 Z14.319 A64.4150 B-0.3891 
N1051 X-205.494 Y-12.749 Z13.604 A66.0064 B-0.4688 
N1052 X-205.495 Y-13.288 Z12.810 A66.6527 B-0.5167 
N1053 X-205.495 Y-13.686 Z11.996 A66.7716 B-0.5430 
N1054 X-205.495 Y-14.042 Z11.215 A66.7857 B-0.5631 
N1055 X-205.495 Y-14.394 Z10.491 A66.8869 B-0.5853 
N1056 X-205.495 Y-14.810 Z9.856 A67.3873 B-0.6221 
N1057 X-205.495 Y-15.373 Z9.345 A68.6787 B-0.6905 
N1058 X-205.496 Y-16.104 Z8.951 A70.8626 B-0.7968 
N1059 X-205.496 Y-16.931 Z8.630 A73.6225 B-0.9284 
N1060 X-205.497 Y-17.748 Z8.333 A76.4825 B-1.0639 
N1061 X-205.497 Y-18.492 Z8.046 A79.1588 B-1.1899 
N1062 X-205.498 Y-19.171 Z7.772 A81.6686 B-1.3074 
N1063 X-205.498 Y-19.836 Z7.518 A84.1982 B-1.4256 
N1064 X-205.499 Y-20.555 Z7.284 A87.0160 B-1.5563 
N1065 X-205.500 Y-21.380 Z7.054 A90.3240 B-1.7071 
N1066 X-205.500 Y-22.324 Z6.800 A94.1817 B-1.8786 
N1067 X-205.501 Y-23.376 Z6.494 A98.5509 B-2.0668 
N1068 X-205.502 Y-24.498 Z6.108 A103.3144 B-2.2644 
N1069 X-205.503 Y-25.671 Z5.620 A108.4296 B-2.4661 
N1070 X-205.504 Y-26.889 Z5.002 A113.9432 B-2.6629 
N1071 X-205.504 Y-28.092 Z4.249 A119.6778 B-2.8292 
N1072 X-205.505 Y-29.153 Z3.426 A125.1010 B-2.9413 
N1073 X-205.505 Y-30.107 Z2.522 A130.4065 B-3.0083 
N1074 X-205.505 Y-31.061 Z1.428 A136.2692 B-3.0409 
N1075 X-205.505 Y-31.958 Z0.138 A142.6116 B-3.0332 
N1076 X-205.505 Y-32.710 Z-1.296 A149.1378 B-2.9818 
N1077 X-205.505 Y-33.266 Z-2.827 A155.6873 B-2.8901 
N1078 X-205.504 Y-33.590 Z-4.391 A162.0720 B-2.7661 
N1079 X-205.504 Y-33.663 Z-5.894 A168.0329 B-2.6229 
N1080 X-205.503 Y-33.491 Z-7.236 A173.2763 B-2.4777 
N1081 X-205.502 Y-33.105 Z-8.297 A177.4187 B-2.3521 
N1082 X-205.502 Y-32.552 Z-8.948 A179.9756 B-2.2705 
N1083 X-205.502 Y-31.872 Z-9.227 A181.0948 B-2.2347 
N1084 X-205.502 Y-31.072 Z-9.298 A181.3970 B-2.2263 
N1085 X-205.502 Y-30.143 Z-9.298 A181.4254 B-2.2271 
N1086 X-205.502 Y-29.080 Z-9.290 A181.4254 B-2.2292 
N1087 X-205.502 Y-27.880 Z-9.281 B-2.2315 
N1088 X-205.502 Y-26.549 Z-9.271 B-2.2340 
N1089 X-205.502 Y-25.097 Z-9.260 A181.4254 B-2.2368 
N1090 X-205.502 Y-23.539 Z-9.249 B-2.2397 
N1091 X-205.502 Y-21.894 Z-9.237 B-2.2429 
N1092 X-205.502 Y-20.186 Z-9.224 A181.4254 B-2.2461 
N1093 X-205.502 Y-18.443 Z-9.211 B-2.2494 
N1094 X-205.502 Y-16.691 Z-9.198 B-2.2528 
N1095 X-205.502 Y-14.957 Z-9.185 A181.4254 B-2.2561 
N1096 X-205.502 Y-13.265 Z-9.173 B-2.2593 
N1097 X-205.502 Y-11.636 Z-9.162 A181.4292 B-2.2623 
N1098 X-205.502 Y-10.084 Z-9.175 A181.5350 B-2.2625 
N1099 X-205.502 Y-8.614 Z-9.338 A182.2802 B-2.2456 
N1100 X-205.502 Y-7.208 Z-9.874 A184.6856 B-2.1834 
N1101 X-205.501 Y-5.817 Z-10.734 A188.7125 B-2.0743 
N1102 X-205.501 Y-4.411 Z-11.677 A193.4837 B-1.9383 
N1103 X-205.500 Y-2.959 Z-12.641 A198.7991 B-1.7487 
N1104 X-205.498 Y-1.403 Z-13.649 A204.8729 B-1.4291 
N1105 X-205.497 Y0.366 Z-14.750 A212.1556 B-1.0216 
N1106 X-205.495 Y2.374 Z-15.791 A220.3210 B-0.5972 
N1107 X-205.493 Y4.378 Z-16.430 A227.7894 B-0.2345 
N1108 X-205.492 Y5.885 Z-16.387 A232.3231 B-0.0288 
N1109 X-205.492 Y6.925 Z-15.893 A234.4525 B0.0578 
N1110 X-205.492 Y7.880 Z-15.292 A236.1811 B0.1169 
N1111 X-205.492 Y8.878 Z-14.672 A238.1460 B0.1735 
N1112 X-205.491 Y9.805 Z-13.965 A239.8215 B0.2097 
N1113 X-205.491 Y10.543 Z-13.120 A240.6448 B0.2130 
N1114 X-205.491 Y11.138 Z-12.184 A240.8191 B0.1960 
N1115 X-205.492 Y11.694 Z-11.231 A240.8244 B0.1746 
N1116 X-205.492 Y12.239 Z-10.293 B0.1533 
N1117 X-205.492 Y12.769 Z-9.382 B0.1327 
N1118 X-205.492 Y13.276 Z-8.510 B0.1130 
N1119 X-205.492 Y13.754 Z-7.688 A240.8250 B0.0944 
N1120 X-205.492 Y14.204 Z-6.928 A240.8559 B0.0774 
N1121 X-205.492 Y14.650 Z-6.251 A241.0452 B0.0634 
N1122 X-205.492 Y15.149 Z-5.692 A241.6802 B0.0534 
N1123 X-205.492 Y15.745 Z-5.273 A242.9857 B0.0458 
N1124 X-205.492 Y16.411 Z-4.966 A244.8254 B0.0372 
N1125 X-205.492 Y17.126 Z-4.746 A247.0723 B0.0273 
N1126 X-205.492 Y17.924 Z-4.608 A249.8504 B0.0176 
N1127 X-205.492 Y18.846 Z-4.538 A253.2863 B0.0096 
N1128 X-205.492 Y19.895 Z-4.502 A257.3489 B0.0041 
N1129 X-205.492 Y21.057 Z-4.458 A261.9446 B0.0013 
N1130 X-205.492 Y22.320 Z-4.368 A266.9983 B0.0002 
N1131 X-205.492 Y23.638 Z-4.198 A272.3377 B0.0000 
N1132 X-205.492 Y24.942 Z-3.931 A277.7010 B0.0000 
N1133 X-205.492 Y26.180 Z-3.573 A282.9010 
N1134 X-205.492 Y27.391 Z-3.117 A288.1265 
N1135 X-205.492 Y28.729 Z-2.486 A294.1170 
N1136 X-205.492 Y29.895 Z-1.782 A299.6307 
N1137 X-205.492 Y30.764 Z-1.125 A304.0300 
N1138 X-205.492 Y31.628 Z-0.360 A308.6921 
N1139 X-205.492 Y32.549 Z0.601 A314.0754 
N1140 X-205.492 Y33.458 Z1.766 A320.0490 
N1141 X-205.492 Y34.271 Z3.101 A326.3650 
N1142 X-205.492 Y34.922 Z4.561 A332.8066 
N1143 X-205.492 Y35.354 Z6.057 A339.0636 
N1144 X-205.492 Y35.545 Z7.495 A344.8441 
N1145 X-205.492 Y35.506 Z8.809 A350.0008 
N1146 X-205.492 Y35.260 Z9.933 A354.3647 
N1147 X-205.492 Y34.836 Z10.790 A357.6893 
N1148 X-205.492 Y34.268 Z11.330 A359.7952 
N1149 X-205.492 Y33.578 Z11.575 A0.7634 
N1150 X-205.492 Y32.769 Z11.649 A1.0591 
N1151 X-205.492 Y31.834 Z11.663 A1.1211 
N1152 X-205.492 Y30.771 Z11.662 A1.1267 
N1153 X-205.492 Y29.581 Z11.659 
N1154 X-205.492 Y28.271 Z11.656 
N1155 X-205.492 Y26.851 Z11.653 
N1156 X-205.492 Y25.338 Z11.650 
N1157 X-205.492 Y23.753 Z11.646 
N1158 X-205.492 Y22.119 Z11.642 
N1159 X-205.492 Y20.461 Z11.639 
N1160 X-205.492 Y18.803 Z11.635 
N1161 X-205.492 Y17.169 Z11.632 
N1162 X-205.492 Y15.578 Z11.628 A1.1270 
N1163 X-205.492 Y14.045 Z11.629 A1.1464 
N1164 X-205.492 Y12.580 Z11.678 A1.3675 
N1165 X-205.492 Y11.179 Z11.983 A2.6918 
N1166 X-205.492 Y9.799 Z12.753 A6.1301 
N1167 X-205.492 Y8.348 Z13.944 A11.7213 
N1168 X-205.492 Y6.719 Z15.380 A19.0076 B0.0009 
N1169 X-205.492 Y4.882 Z16.774 A27.0627 B0.0127 
N1170 X-205.492 Y2.967 Z17.810 A34.5927 B0.0514 
N1171 X-205.492 Y1.128 Z18.394 A40.9819 B0.0744 
N1172 X-205.492 Y-0.511 Z18.539 A45.9217 B0.0656 
N1173 X-205.492 Y-1.828 Z18.262 A49.0391 B0.0490 
N1174 X-205.492 Y-2.848 Z17.677 A50.6008 B0.0375 
N1175 X-205.492 Y-3.798 Z17.004 A51.8158 B0.0225 
N1176 X-205.492 Y-4.719 Z16.284 A52.9142 B0.0019 
N1177 X-205.492 Y-5.576 Z15.499 A53.7242 B-0.0188 
N1178 X-205.493 Y-6.396 Z14.684 A54.3961 B-0.0411 
N1179 X-205.493 Y-7.236 Z13.892 A55.2493 B-0.0735 
N1180 X-205.493 Y-8.091 Z13.132 A56.3028 B-0.1181 
N1181 X-205.493 Y-8.899 Z12.376 A57.2949 B-0.1661 
N1182 X-205.493 Y-9.587 Z11.597 A57.8859 B-0.2018 
N1183 X-205.493 Y-10.148 Z10.806 A58.0471 B-0.2197 
N1184 X-205.493 Y-10.640 Z10.052 A58.0597 B-0.2304 
N1185 X-205.493 Y-11.092 Z9.361 A58.0764 B-0.2405 
N1186 X-205.493 Y-11.558 Z8.773 A58.3712 B-0.2631 
N1187 X-205.494 Y-12.125 Z8.338 A59.3804 B-0.3205 
N1188 X-205.494 Y-12.823 Z8.063 A61.2446 B-0.4216 
N1189 X-205.495 Y-13.627 Z7.908 A63.8103 B-0.5601 
N1190 X-205.495 Y-14.496 Z7.826 A66.8474 B-0.7240 
N1191 X-205.496 Y-15.415 Z7.788 A70.2387 B-0.9062 
N1192 X-205.497 Y-16.381 Z7.771 A73.9251 B-1.1021 
N1193 X-205.498 Y-17.388 Z7.753 A77.8581 B-1.3087 
N1194 X-205.499 Y-18.431 Z7.714 A81.9853 B-1.5229 
N1195 X-205.500 Y-19.504 Z7.639 A86.2773 B-1.7426 
N1196 X-205.501 Y-20.615 Z7.513 A90.7632 B-1.9673 
N1197 X-205.502 Y-21.759 Z7.319 A95.4377 B-2.1948 
N1198 X-205.503 Y-22.914 Z7.045 A100.2300 B-2.4203 
N1199 X-205.504 Y-24.075 Z6.681 A105.1509 B-2.6435 
N1200 X-205.505 Y-25.290 Z6.195 A110.4517 B-2.8707 
N1201 X-205.506 Y-26.594 Z5.537 A116.3681 B-3.0871 
N1202 X-205.506 Y-27.756 Z4.792 A121.9640 B-3.2367 
N1203 X-205.507 Y-28.692 Z4.045 A126.8099 B-3.3227 
N1204 X-205.507 Y-29.614 Z3.167 A131.9627 B-3.3785 
N1205 X-205.507 Y-30.575 Z2.061 A137.8950 B-3.4058 
N1206 X-205.507 Y-31.472 Z0.754 A144.3112 B-3.3926 
N1207 X-205.507 Y-32.208 Z-0.678 A150.8169 B-3.3342 
N1208 X-205.506 Y-32.736 Z-2.170 A157.1970 B-3.2344 
N1209 X-205.506 Y-33.033 Z-3.644 A163.2300 B-3.1038 
N1210 X-205.505 Y-33.094 Z-5.013 A168.6697 B-2.9581 
N1211 X-205.504 Y-32.941 Z-6.207 A173.3424 B-2.8138 
N1212 X-205.504 Y-32.606 Z-7.169 A177.0982 B-2.6869 
N1213 X-205.503 Y-32.120 Z-7.821 A179.6591 B-2.5957 
N1214 X-205.503 Y-31.513 Z-8.154 A180.9903 B-2.5479 
N1215 X-205.503 Y-30.792 Z-8.258 A181.4252 B-2.5333 
N1216 X-205.503 Y-29.952 Z-8.265 A181.4798 B-2.5332 
N1217 X-205.503 Y-28.985 Z-8.257 A181.4802 B-2.5352 
N1218 X-205.503 Y-27.890 Z-8.247 B-2.5376 
N1219 X-205.503 Y-26.671 Z-8.237 B-2.5402 
N1220 X-205.503 Y-25.336 Z-8.226 A181.4802 B-2.5431 
N1221 X-205.503 Y-23.899 Z-8.214 B-2.5462 
N1222 X-205.503 Y-22.378 Z-8.201 B-2.5494 
N1223 X-205.503 Y-20.795 Z-8.188 A181.4802 B-2.5529 
N1224 X-205.503 Y-19.173 Z-8.174 B-2.5563 
N1225 X-205.503 Y-17.538 Z-8.161 A181.4802 B-2.5599 
N1226 X-205.503 Y-15.914 Z-8.147 B-2.5634 
N1227 X-205.503 Y-14.322 Z-8.134 A181.4802 B-2.5668 
N1228 X-205.503 Y-12.779 Z-8.121 A181.4802 B-2.5701 
N1229 X-205.503 Y-11.300 Z-8.111 A181.4919 B-2.5729 
N1230 X-205.503 Y-9.889 Z-8.142 A181.6729 B-2.5705 
N1231 X-205.503 Y-8.537 Z-8.438 A182.9838 B-2.5320 
N1232 X-205.503 Y-7.185 Z-9.320 A186.9127 B-2.4042 
N1233 X-205.502 Y-5.700 Z-10.727 A193.5079 B-2.1676 
N1234 X-205.500 Y-3.913 Z-12.466 A202.3707 B-1.7918 
N1235 X-205.498 Y-1.763 Z-14.153 A212.4096 B-1.2225 
N1236 X-205.495 Y0.469 Z-15.267 A221.4133 B-0.6539 
N1237 X-205.493 Y2.485 Z-15.716 A228.4263 B-0.2431 
N1238 X-205.492 Y4.039 Z-15.545 A232.8086 B-0.0096 
N1239 X-205.492 Y4.849 Z-14.737 A233.4077 B0.0189 
N1240 X-205.492 Y5.551 Z-13.826 B0.0175 
N1241 X-205.492 Y6.263 Z-12.901 B0.0160 
N1242 X-205.492 Y6.981 Z-11.968 B0.0146 
N1243 X-205.492 Y7.701 Z-11.033 B0.0131 
N1244 X-205.492 Y8.415 Z-10.105 B0.0116 
N1245 X-205.492 Y9.115 Z-9.197 B0.0102 
N1246 X-205.492 Y9.791 Z-8.319 B0.0088 
N1247 X-205.492 Y10.435 Z-7.482 B0.0075 
N1248 X-205.492 Y11.039 Z-6.697 B0.0063 
N1249 X-205.492 Y11.598 Z-5.973 A233.4132 B0.0052 
N1250 X-205.492 Y12.122 Z-5.325 A233.4927 B0.0050 
N1251 X-205.492 Y12.651 Z-4.789 A233.8807 B0.0070 
N1252 X-205.492 Y13.266 Z-4.420 A234.9893 B0.0123 
N1253 X-205.492 Y13.992 Z-4.221 A236.9371 B0.0181 
N1254 X-205.492 Y14.798 Z-4.143 A239.5168 B0.0210 
N1255 X-205.492 Y15.666 Z-4.149 A242.5832 B0.0194 
N1256 X-205.492 Y16.604 Z-4.215 A246.1086 B0.0144 
N1257 X-205.492 Y17.621 Z-4.313 A250.0686 B0.0084 
N1258 X-205.492 Y18.707 Z-4.412 A254.3758 B0.0037 
N1259 X-205.492 Y19.853 Z-4.483 A258.9575 B0.0011 
N1260 X-205.492 Y21.055 Z-4.504 A263.7854 B0.0002 
N1261 X-205.492 Y22.297 Z-4.451 A268.7959 B0.0000 
N1262 X-205.492 Y23.543 Z-4.311 A273.8632 B0.0000 
N1263 X-205.492 Y24.773 Z-4.077 A278.9280 
N1264 X-205.492 Y26.134 Z-3.708 A284.6436 
N1265 X-205.492 Y27.875 Z-3.048 A292.2022 
N1266 X-205.492 Y29.007 Z-2.445 A297.4008 
N1267 X-205.492 Y29.885 Z-1.865 A301.6604 
N1268 X-205.492 Y30.785 Z-1.169 A306.2702 
N1269 X-205.492 Y31.742 Z-0.291 A311.5315 
N1270 X-205.492 Y32.705 Z0.785 A317.3796 
N1271 X-205.492 Y33.597 Z2.041 A323.6160 
N1272 X-205.492 Y34.345 Z3.428 A329.9903 
N1273 X-205.492 Y34.895 Z4.877 A336.2417 
N1274 X-205.492 Y35.216 Z6.294 A342.0766 
N1275 X-205.492 Y35.311 Z7.605 A347.3011 
N1276 X-205.492 Y35.203 Z8.762 A351.8269 
N1277 X-205.492 Y34.918 Z9.721 A355.5478 
N1278 X-205.492 Y34.480 Z10.431 A358.3015 
N1279 X-205.492 Y33.912 Z10.852 A359.9404 
N1280 X-205.492 Y33.228 Z11.022 A0.5995 
N1281 X-205.492 Y32.426 Z11.065 A0.7580 
N1282 X-205.492 Y31.499 Z11.075 A0.7839 
N1283 X-205.492 Y30.447 Z11.079 A0.7858 
N1284 X-205.492 Y29.270 Z11.084 
N1285 X-205.492 Y27.977 Z11.089 
N1286 X-205.492 Y26.580 Z11.094 
N1287 X-205.492 Y25.096 Z11.099 
N1288 X-205.492 Y23.546 Z11.105 
N1289 X-205.492 Y21.953 Z11.111 
N1290 X-205.492 Y20.341 Z11.117 
N1291 X-205.492 Y18.735 Z11.123 
N1292 X-205.492 Y17.156 Z11.129 
N1293 X-205.492 Y15.623 Z11.135 A0.7859 
N1294 X-205.492 Y14.148 Z11.143 A0.7990 
N1295 X-205.492 Y12.739 Z11.189 A0.9694 
N1296 X-205.492 Y11.393 Z11.477 A2.1781 
N1297 X-205.492 Y10.064 Z12.274 A5.6704 
N1298 X-205.492 Y8.634 Z13.600 A11.7678 
N1299 X-205.492 Y6.929 Z15.317 A20.2961 B0.0009 
N1300 X-205.492 Y4.873 Z17.033 A30.0862 B0.0128 
N1301 X-205.492 Y2.707 Z18.218 A38.9800 B0.0437 
N1302 X-205.492 Y0.705 Z18.765 A46.0523 B0.0475 
N1303 X-205.492 Y-0.937 Z18.733 A50.8984 B0.0215 
N1304 X-205.492 Y-2.054 Z18.176 A53.0165 B-0.0002 
N1305 X-205.492 Y-2.803 Z17.306 A53.2571 B-0.0043 
N1306 X-205.492 Y-3.516 Z16.386 A53.2571 B-0.0052 
N1307 X-205.492 Y-4.236 Z15.455 B-0.0061 
N1308 X-205.492 Y-4.960 Z14.521 B-0.0069 
N1309 X-205.492 Y-5.680 Z13.591 B-0.0078 
N1310 X-205.492 Y-6.387 Z12.676 B-0.0087 
N1311 X-205.492 Y-7.074 Z11.789 B-0.0095 
N1312 X-205.492 Y-7.731 Z10.941 B-0.0103 
N1313 X-205.492 Y-8.350 Z10.141 B-0.0110 
N1314 X-205.492 Y-8.924 Z9.400 B-0.0117 
N1315 X-205.492 Y-9.448 Z8.722 A53.2581 B-0.0124 
N1316 X-205.492 Y-9.950 Z8.135 A53.4114 B-0.0208 
N1317 X-205.493 Y-10.538 Z7.720 A54.2928 B-0.0674 
N1318 X-205.493 Y-11.240 Z7.482 A56.0347 B-0.1616 
N1319 X-205.494 Y-12.022 Z7.376 A58.4371 B-0.2939 
N1320 X-205.494 Y-12.866 Z7.362 A61.3405 B-0.4560 
N1321 X-205.495 Y-13.775 Z7.414 A64.6999 B-0.6445 
N1322 X-205.496 Y-14.766 Z7.511 A68.5278 B-0.8585 
N1323 X-205.497 Y-15.843 Z7.623 A72.7853 B-1.0944 
N1324 X-205.498 Y-16.996 Z7.716 A77.3965 B-1.3467 
N1325 X-205.499 Y-18.201 Z7.760 A82.2331 B-1.6073 
N1326 X-205.500 Y-19.438 Z7.734 A87.2181 B-1.8702 
N1327 X-205.501 Y-20.702 Z7.622 A92.3440 B-2.1325 
N1328 X-205.503 Y-21.970 Z7.413 A97.5416 B-2.3889 
N1329 X-205.504 Y-23.201 Z7.106 A102.6819 B-2.6337 
N1330 X-205.505 Y-24.418 Z6.693 A107.8887 B-2.8738 
N1331 X-205.506 Y-25.750 Z6.109 A113.7861 B-3.1191 
N1332 X-205.506 Y-27.045 Z5.376 A119.8238 B-3.3055 
N1333 X-205.507 Y-28.002 Z4.689 A124.5970 B-3.4060 
N1334 X-205.507 Y-28.889 Z3.924 A129.3386 B-3.4718 
N1335 X-205.507 Y-29.833 Z2.955 A134.8207 B-3.5153 
N1336 X-205.507 Y-30.781 Z1.756 A141.0120 B-3.5253 
N1337 X-205.507 Y-31.614 Z0.392 A147.4807 B-3.4911 
N1338 X-205.507 Y-32.259 Z-1.059 A153.8972 B-3.4122 
N1339 X-205.506 Y-32.682 Z-2.522 A160.0297 B-3.2965 
N1340 X-205.506 Y-32.871 Z-3.909 A165.6288 B-3.1583 
N1341 X-205.505 Y-32.840 Z-5.143 A170.4906 B-3.0146 
N1342 X-205.505 Y-32.621 Z-6.187 A174.5598 B-2.8793 
N1343 X-205.504 Y-32.240 Z-6.995 A177.7035 B-2.7665 
N1344 X-205.504 Y-31.724 Z-7.513 A179.7268 B-2.6906 
N1345 X-205.504 Y-31.090 Z-7.753 A180.6681 B-2.6546 
N1346 X-205.504 Y-30.341 Z-7.811 A180.8977 B-2.6454 
N1347 X-205.504 Y-29.470 Z-7.816 A180.9120 B-2.6442 
N1348 X-205.504 Y-28.472 Z-7.818 B-2.6434 
N1349 X-205.504 Y-27.348 Z-7.820 B-2.6426 
N1350 X-205.504 Y-26.102 Z-7.822 B-2.6416 
N1351 X-205.504 Y-24.746 Z-7.824 B-2.6406 
N1352 X-205.504 Y-23.296 Z-7.826 B-2.6394 
N1353 X-205.504 Y-21.770 Z-7.828 B-2.6382 
N1354 X-205.504 Y-20.193 Z-7.831 A180.9120 B-2.6370 
N1355 X-205.504 Y-18.589 Z-7.833 B-2.6358 
N1356 X-205.504 Y-16.986 Z-7.836 B-2.6345 
N1357 X-205.504 Y-15.408 Z-7.838 B-2.6333 
N1358 X-205.504 Y-13.878 Z-7.841 B-2.6321 
N1359 X-205.504 Y-12.416 Z-7.843 A180.9122 B-2.6310 
N1360 X-205.504 Y-11.037 Z-7.850 A180.9330 B-2.6293 
N1361 X-205.504 Y-9.748 Z-7.906 A181.1606 B-2.6214 
N1362 X-205.503 Y-8.547 Z-8.212 A182.4589 B-2.5795 
N1363 X-205.503 Y-7.395 Z-8.968 A185.7681 B-2.4694 
N1364 X-205.502 Y-6.220 Z-10.078 A190.8355 B-2.2896 
N1365 X-205.501 Y-4.951 Z-11.376 A197.1288 B-2.0421 
N1366 X-205.500 Y-3.533 Z-12.740 A204.2832 B-1.7085 
N1367 X-205.498 Y-2.045 Z-13.890 A211.1839 B-1.3040 
N1368 X-205.496 Y-0.612 Z-14.702 A217.1335 B-0.9204 
N1369 X-205.495 Y0.722 Z-15.231 A222.2035 B-0.6040 
N1370 X-205.494 Y1.895 Z-15.490 A226.2369 B-0.3650 
N1371 X-205.493 Y2.904 Z-15.544 A229.3800 B-0.1885 
N1372 X-205.493 Y3.751 Z-15.435 A231.7137 B-0.0646 
N1373 X-205.492 Y4.385 Z-15.149 A233.0040 B0.0002 
N1374 X-205.492 Y4.832 Z-14.721 A233.3740 B0.0174 
N1375 G00 X-205.477 Y44.959 Z-44.550 
;RAPORT("TD123456","Spiral Rough Rhombic:105 End")
;trailer : concat=None
; points cnt = 1330
N1377 MSG (" --- GROUPED OF SUBPROGRAM --- ")
N1378 FGROUP()
N1379 TRAFOOF
; PROGRAM NAME: D12345614
; ORDER       : D123456
; OPER. NAME  : Spiral Finish Rhombic:106
; OPER. DESCR.: Spiral Finish rhombic shroud
; OPER. TYPE  : rhombMillFinish
; GEO. OPTION : 2
; MACHINE     : HSTM_300HD_SIM840D_Py
;             : HSTM300/500 - HAMUEL: 5-axis milling machine-SIM840D Traori PP_Script
; CONTROL     : SINUMERIK 840D
; created:   2023-06-05 09:19:05.940572
;-------DODATKOWE DANE-------------------
; PROGRAMISTA : Mariusz Malec
; PARTID      : 301T002184P1010_-
;  ae         : 24.0
;  lean_angle : 1.0
;  pln_offset : 0.25
;----------------------------------------
;RAPORT("TD123456","Spiral Finish Rhombic:106")
N10 TRAFOOF
N11 D0
N12 G90 G94
N13 G0 G53 D0 Z550
N14 STOPRE
M9 ; chlodziwo wyl
; --- Spiral Finish Rhombic:106 - Spiral Finish rhombic shroud ---
N16 ;ToolChange : concat=None ,current_tdmid=None, PP.tdmId=941293
N17 TRAFOOF
N18 G0 G53 D0 Z550 B0
N19 STOPRE
N20 MSG(" TLID=941293 D=40.0 R=6.0 Ang=0.0 Len=90.0 ")
N21 S2148 M03
N22 STOPRE
N23 CYCLE832(0.01,1,1)
N24 G0 G53 A1.0000 B-0.0000
N25 TRAORI
N26 G54 D1
N27 D1 
N28 X-205.492 Y55.560 Z59.925 A1.0000 
N29 M346 ; chlodziwo mgla
N30 X-205.492 Y56.432 Z9.932 
N31 G01 X-205.492 Y46.432 Z9.932 F800 
N32 X-205.492 Y41.432 Z9.932 
N33 X-205.492 Y41.166 Z9.932 
N34 X-205.492 Y40.899 Z9.932 
N35 X-205.492 Y40.632 Z9.932 
N36 X-205.492 Y40.366 Z9.932 
N37 X-205.492 Y40.099 Z9.932 
N38 X-205.492 Y39.832 Z9.932 
N39 X-205.492 Y39.566 Z9.932 
N40 X-205.492 Y39.299 Z9.932 
N41 X-205.492 Y39.032 Z9.932 
N42 X-205.492 Y38.766 Z9.932 
N43 X-205.492 Y38.499 Z9.932 
N44 X-205.492 Y38.232 Z9.932 
N45 X-205.492 Y37.966 Z9.932 
N46 X-205.492 Y37.699 Z9.932 
N47 X-205.492 Y37.432 Z9.932 
N48 X-205.492 Y37.166 Z9.932 
N49 X-205.492 Y36.899 Z9.932 
N50 X-205.492 Y36.632 Z9.932 
N51 X-205.492 Y36.366 Z9.932 
N52 X-205.492 Y36.099 Z9.932 
N53 X-205.492 Y35.832 Z9.932 
N54 X-205.492 Y35.566 Z9.932 
N55 X-205.492 Y35.299 Z9.932 
N56 X-205.492 Y35.032 Z9.932 
N57 X-205.492 Y34.766 Z9.932 
N58 X-205.492 Y34.499 Z9.932 
N59 X-205.492 Y34.232 Z9.932 
N60 X-205.492 Y33.966 Z9.932 
N61 X-205.492 Y33.699 Z9.932 
N62 X-205.492 Y33.432 Z9.932 
N63 X-205.492 Y33.166 Z9.932 
N64 X-205.492 Y32.899 Z9.932 
N65 X-205.492 Y32.632 Z9.932 
N66 X-205.492 Y32.366 Z9.932 
N67 X-205.492 Y32.099 Z9.932 
N68 X-205.492 Y31.832 Z9.932 
N69 X-205.492 Y31.566 Z9.932 
N70 X-205.492 Y31.299 Z9.932 
N71 X-205.492 Y31.032 Z9.932 
N72 X-205.492 Y30.766 Z9.932 
N73 X-205.492 Y30.499 Z9.932 
N74 X-205.492 Y30.232 Z9.932 
N75 X-205.492 Y29.966 Z9.932 
N76 X-205.492 Y29.699 Z9.932 
N77 X-205.492 Y29.432 Z9.932 
N78 X-205.492 Y29.166 Z9.932 
N79 X-205.492 Y28.899 Z9.932 
N80 X-205.492 Y28.632 Z9.932 
N81 X-205.492 Y28.366 Z9.932 
N82 X-205.492 Y28.099 Z9.932 
N83 X-205.492 Y27.832 Z9.932 
N84 X-205.492 Y27.566 Z9.932 
N85 X-205.492 Y27.299 Z9.932 
N86 X-205.492 Y27.032 Z9.932 
N87 X-205.492 Y26.766 Z9.932 
N88 X-205.492 Y26.499 Z9.932 
N89 X-205.492 Y26.232 Z9.932 
N90 X-205.492 Y25.966 Z9.932 
N91 X-205.492 Y25.699 Z9.932 
N92 X-205.492 Y25.432 Z9.932 
N93 X-205.492 Y25.166 Z9.932 
N94 X-205.492 Y24.899 Z9.932 
N95 X-205.492 Y24.632 Z9.932 
N96 X-205.492 Y24.366 Z9.932 
N97 X-205.492 Y24.099 Z9.932 
N98 X-205.492 Y23.832 Z9.932 
N99 X-205.492 Y23.566 Z9.932 
N100 X-205.492 Y23.299 Z9.932 
N101 X-205.492 Y23.032 Z9.932 
N102 X-205.492 Y22.766 Z9.932 
N103 X-205.492 Y22.499 Z9.932 
N104 X-205.492 Y22.232 Z9.932 
N105 X-205.492 Y21.966 Z9.932 
N106 X-205.492 Y21.699 Z9.932 
N107 X-205.492 Y21.432 Z9.932 
N108 X-205.492 Y-6.486 Z9.932 
N109 X-205.492 Y-6.753 Z9.932 
N110 X-205.492 Y-7.019 Z9.932 
N111 X-205.492 Y-7.286 Z9.932 
N112 X-205.492 Y-7.553 Z9.932 
N113 X-205.492 Y-7.819 Z9.932 
N114 X-205.492 Y-8.086 Z9.932 
N115 X-205.492 Y-8.353 Z9.932 
N116 X-205.492 Y-8.619 Z9.932 
N117 X-205.492 Y-8.886 Z9.932 
N118 X-205.492 Y-9.153 Z9.932 
N119 X-205.492 Y-9.419 Z9.932 
N120 X-205.492 Y-9.686 Z9.932 
N121 X-205.492 Y-9.953 Z9.932 
N122 X-205.492 Y-10.219 Z9.932 
N123 X-205.492 Y-10.486 Z9.932 
N124 X-205.492 Y-10.753 Z9.932 
N125 X-205.492 Y-11.019 Z9.932 
N126 X-205.492 Y-11.286 Z9.932 
N127 X-205.492 Y-11.553 Z9.932 
N128 X-205.492 Y-11.819 Z9.932 
N129 X-205.492 Y-12.086 Z9.932 
N130 X-205.492 Y-12.353 Z9.932 
N131 X-205.492 Y-12.619 Z9.932 
N132 X-205.492 Y-12.886 Z9.932 
N133 X-205.492 Y-13.153 Z9.932 
N134 X-205.492 Y-13.419 Z9.932 
N135 X-205.492 Y-13.686 Z9.932 
N136 X-205.492 Y-13.953 Z9.932 
N137 X-205.492 Y-14.219 Z9.932 
N138 X-205.492 Y-14.486 Z9.932 
N139 X-205.492 Y-14.753 Z9.932 
N140 X-205.492 Y-15.019 Z9.932 
N141 X-205.492 Y-15.286 Z9.932 
N142 X-205.492 Y-15.553 Z9.932 
N143 X-205.492 Y-15.819 Z9.932 
N144 X-205.492 Y-16.086 Z9.932 
N145 X-205.492 Y-16.353 Z9.932 
N146 X-205.492 Y-16.619 Z9.932 
N147 X-205.492 Y-16.886 Z9.932 
N148 X-205.492 Y-17.153 Z9.932 
N149 X-205.492 Y-17.419 Z9.932 
N150 X-205.492 Y-17.686 Z9.932 
N151 X-205.492 Y-17.953 Z9.932 
N152 X-205.492 Y-18.219 Z9.932 
N153 X-205.492 Y-18.486 Z9.932 
N154 X-205.492 Y-18.753 Z9.932 
N155 X-205.492 Y-19.019 Z9.932 
N156 X-205.492 Y-19.286 Z9.932 
N157 X-205.492 Y-19.553 Z9.932 
N158 X-205.492 Y-19.819 Z9.932 
N159 X-205.492 Y-20.086 Z9.932 
N160 X-205.492 Y-20.353 Z9.932 
N161 X-205.492 Y-20.619 Z9.932 
N162 X-205.492 Y-20.886 Z9.932 
N163 X-205.492 Y-21.153 Z9.932 
N164 X-205.492 Y-21.419 Z9.932 
N165 X-205.492 Y-21.686 Z9.932 
N166 X-205.492 Y-21.953 Z9.932 
N167 X-205.492 Y-22.219 Z9.932 
N168 X-205.492 Y-22.486 Z9.932 
N169 X-205.492 Y-22.753 Z9.932 
N170 X-205.492 Y-23.019 Z9.932 
N171 X-205.492 Y-23.286 Z9.932 
N172 X-205.492 Y-23.553 Z9.932 
N173 X-205.492 Y-23.819 Z9.932 
N174 X-205.492 Y-24.086 Z9.932 
N175 X-205.492 Y-24.353 Z9.932 
N176 X-205.492 Y-24.619 Z9.932 
N177 X-205.492 Y-24.886 Z9.932 
N178 X-205.492 Y-25.153 Z9.932 
N179 X-205.492 Y-25.419 Z9.932 
N180 X-205.492 Y-25.686 Z9.932 
N181 X-205.492 Y-25.953 Z9.932 
N182 X-205.492 Y-26.219 Z9.932 
N183 X-205.492 Y-26.486 Z9.932 
N184 X-205.492 Y-26.660 Z19.931 
N185 G00 X-205.492 Y-27.533 Z69.923 
N186 ; DELTA A > 40.1
N187 TRAFOOF
N188 D1
N189 STOPRE
N190 G00 G54 Z296.000
N191 G01 A53.0000 F10000
N192 TRAORI
N193 G54 D1
N194 STOPRE
N195 TRANS 
N196 G00 X-205.492 Y-39.442 Z65.632 A53.0000 
N197 X-205.492 Y0.490 Z35.541 
N198 G01 X-205.492 Y8.476 Z29.523 F800 
N199 X-205.492 Y5.398 Z25.583 
N200 X-205.492 Y5.233 Z25.373 
N201 X-205.492 Y5.069 Z25.163 
N202 X-205.492 Y4.905 Z24.953 
N203 X-205.492 Y4.741 Z24.743 
N204 X-205.492 Y4.577 Z24.532 
N205 X-205.492 Y4.413 Z24.322 
N206 X-205.492 Y4.248 Z24.112 
N207 X-205.492 Y4.084 Z23.902 
N208 X-205.492 Y3.920 Z23.692 
N209 X-205.492 Y3.756 Z23.482 
N210 X-205.492 Y3.592 Z23.272 
N211 X-205.492 Y3.427 Z23.061 
N212 X-205.492 Y3.263 Z22.851 
N213 X-205.492 Y3.099 Z22.641 
N214 X-205.492 Y2.935 Z22.431 
N215 X-205.492 Y2.771 Z22.221 
N216 X-205.492 Y2.607 Z22.011 
N217 X-205.492 Y2.442 Z21.801 
N218 X-205.492 Y2.278 Z21.591 
N219 X-205.492 Y2.114 Z21.380 
N220 X-205.492 Y1.950 Z21.170 
N221 X-205.492 Y1.786 Z20.960 
N222 X-205.492 Y1.622 Z20.750 
N223 X-205.492 Y1.457 Z20.540 
N224 X-205.492 Y1.293 Z20.330 
N225 X-205.492 Y1.129 Z20.120 
N226 X-205.492 Y0.965 Z19.909 
N227 X-205.492 Y0.801 Z19.699 
N228 X-205.492 Y0.636 Z19.489 
N229 X-205.492 Y0.472 Z19.279 
N230 X-205.492 Y0.308 Z19.069 
N231 X-205.492 Y0.144 Z18.859 
N232 X-205.492 Y-0.020 Z18.649 
N233 X-205.492 Y-0.184 Z18.438 
N234 X-205.492 Y-0.349 Z18.228 
N235 X-205.492 Y-0.513 Z18.018 
N236 X-205.492 Y-0.677 Z17.808 
N237 X-205.492 Y-0.841 Z17.598 
N238 X-205.492 Y-1.005 Z17.388 
N239 X-205.492 Y-1.169 Z17.178 
N240 X-205.492 Y-1.334 Z16.968 
N241 X-205.492 Y-1.498 Z16.757 
N242 X-205.492 Y-1.662 Z16.547 
N243 X-205.492 Y-1.826 Z16.337 
N244 X-205.492 Y-1.990 Z16.127 
N245 X-205.492 Y-2.155 Z15.917 
N246 X-205.492 Y-2.319 Z15.707 
N247 X-205.492 Y-2.483 Z15.497 
N248 X-205.492 Y-2.647 Z15.286 
N249 X-205.492 Y-2.811 Z15.076 
N250 X-205.492 Y-2.975 Z14.866 
N251 X-205.492 Y-3.140 Z14.656 
N252 X-205.492 Y-3.304 Z14.446 
N253 X-205.492 Y-3.468 Z14.236 
N254 X-205.492 Y-3.632 Z14.026 
N255 X-205.492 Y-3.796 Z13.815 
N256 X-205.492 Y-3.960 Z13.605 
N257 X-205.492 Y-4.125 Z13.395 
N258 X-205.492 Y-4.289 Z13.185 
N259 X-205.492 Y-4.453 Z12.975 
N260 X-205.492 Y-4.617 Z12.765 
N261 X-205.492 Y-4.781 Z12.555 
N262 X-205.492 Y-4.946 Z12.345 
N263 X-205.492 Y-5.110 Z12.134 
N264 X-205.492 Y-5.274 Z11.924 
N265 X-205.492 Y-5.438 Z11.714 
N266 X-205.492 Y-5.602 Z11.504 
N267 X-205.492 Y-5.766 Z11.294 
N268 X-205.492 Y-5.931 Z11.084 
N269 X-205.492 Y-6.095 Z10.874 
N270 X-205.492 Y-6.259 Z10.663 
N271 X-205.492 Y-6.423 Z10.453 
N272 X-205.492 Y-6.587 Z10.243 
N273 X-205.492 Y-6.751 Z10.033 
N274 X-205.492 Y-6.916 Z9.823 
N275 X-205.492 Y-19.087 Z-5.756 
N276 X-205.492 Y-19.251 Z-5.966 
N277 X-205.492 Y-19.415 Z-6.176 
N278 X-205.492 Y-19.579 Z-6.386 
N279 X-205.492 Y-19.744 Z-6.596 
N280 X-205.492 Y-19.908 Z-6.806 
N281 X-205.492 Y-20.072 Z-7.016 
N282 X-205.492 Y-20.236 Z-7.227 
N283 X-205.492 Y-20.400 Z-7.437 
N284 X-205.492 Y-20.564 Z-7.647 
N285 X-205.492 Y-20.729 Z-7.857 
N286 X-205.492 Y-20.893 Z-8.067 
N287 X-205.492 Y-21.057 Z-8.277 
N288 X-205.492 Y-21.221 Z-8.487 
N289 X-205.492 Y-21.385 Z-8.698 
N290 X-205.492 Y-21.550 Z-8.908 
N291 X-205.492 Y-21.714 Z-9.118 
N292 X-205.492 Y-21.878 Z-9.328 
N293 X-205.492 Y-22.042 Z-9.538 
N294 X-205.492 Y-22.206 Z-9.748 
N295 X-205.492 Y-22.370 Z-9.958 
N296 X-205.492 Y-22.535 Z-10.168 
N297 X-205.492 Y-22.699 Z-10.379 
N298 X-205.492 Y-22.863 Z-10.589 
N299 X-205.492 Y-23.027 Z-10.799 
N300 X-205.492 Y-23.191 Z-11.009 
N301 X-205.492 Y-23.355 Z-11.219 
N302 X-205.492 Y-23.520 Z-11.429 
N303 X-205.492 Y-23.684 Z-11.639 
N304 X-205.492 Y-23.848 Z-11.850 
N305 X-205.492 Y-24.012 Z-12.060 
N306 X-205.492 Y-24.176 Z-12.270 
N307 X-205.492 Y-24.341 Z-12.480 
N308 X-205.492 Y-24.505 Z-12.690 
N309 X-205.492 Y-24.669 Z-12.900 
N310 X-205.492 Y-24.833 Z-13.110 
N311 X-205.492 Y-24.997 Z-13.321 
N312 X-205.492 Y-25.161 Z-13.531 
N313 X-205.492 Y-25.326 Z-13.741 
N314 X-205.492 Y-25.490 Z-13.951 
N315 X-205.492 Y-25.654 Z-14.161 
N316 X-205.492 Y-25.818 Z-14.371 
N317 X-205.492 Y-25.982 Z-14.581 
N318 X-205.492 Y-26.146 Z-14.791 
N319 X-205.492 Y-26.311 Z-15.002 
N320 X-205.492 Y-26.475 Z-15.212 
N321 X-205.492 Y-26.639 Z-15.422 
N322 X-205.492 Y-26.803 Z-15.632 
N323 X-205.492 Y-26.967 Z-15.842 
N324 X-205.492 Y-27.132 Z-16.052 
N325 X-205.492 Y-27.296 Z-16.262 
N326 X-205.492 Y-27.460 Z-16.473 
N327 X-205.492 Y-27.624 Z-16.683 
N328 X-205.492 Y-27.788 Z-16.893 
N329 X-205.492 Y-27.952 Z-17.103 
N330 X-205.492 Y-28.117 Z-17.313 
N331 X-205.492 Y-28.281 Z-17.523 
N332 X-205.492 Y-28.445 Z-17.733 
N333 X-205.492 Y-28.609 Z-17.944 
N334 X-205.492 Y-28.773 Z-18.154 
N335 X-205.492 Y-28.937 Z-18.364 
N336 X-205.492 Y-29.102 Z-18.574 
N337 X-205.492 Y-29.266 Z-18.784 
N338 X-205.492 Y-29.430 Z-18.994 
N339 X-205.492 Y-29.594 Z-19.204 
N340 X-205.492 Y-29.758 Z-19.414 
N341 X-205.492 Y-29.923 Z-19.625 
N342 X-205.492 Y-30.087 Z-19.835 
N343 X-205.492 Y-30.251 Z-20.045 
N344 X-205.492 Y-30.415 Z-20.255 
N345 X-205.492 Y-30.579 Z-20.465 
N346 X-205.492 Y-30.743 Z-20.675 
N347 X-205.492 Y-30.908 Z-20.885 
N348 X-205.492 Y-31.072 Z-21.096 
N349 X-205.492 Y-31.236 Z-21.306 
N350 X-205.492 Y-31.400 Z-21.516 
N351 X-205.492 Y-39.386 Z-15.498 
N352 G00 X-205.492 Y-79.318 Z14.593 
N353 ; DELTA A > 40.1
N354 TRAFOOF
N355 D1
N356 STOPRE
N357 G00 G54 Z296.000
N358 G01 A181.0583 F10000
N359 TRAORI
N360 G54 D1
N361 STOPRE
N362 TRANS 
N363 G00 X-208.542 Y-42.755 Z-66.574 A181.0583 B-2.8894 
N364 X-206.021 Y-43.677 Z-16.647 
N365 G01 X-205.517 Y-43.862 Z-6.661 F800 
N366 X-205.517 Y-38.862 Z-6.656 
N367 X-205.517 Y-38.595 Z-6.656 
N368 X-205.517 Y-38.329 Z-6.655 
N369 X-205.517 Y-38.062 Z-6.655 
N370 X-205.517 Y-37.795 Z-6.655 
N371 X-205.517 Y-37.529 Z-6.655 
N372 X-205.517 Y-37.262 Z-6.654 
N373 X-205.517 Y-36.995 Z-6.654 
N374 X-205.517 Y-36.729 Z-6.654 
N375 X-205.517 Y-36.462 Z-6.654 
N376 X-205.517 Y-36.195 Z-6.653 
N377 X-205.517 Y-35.929 Z-6.653 
N378 X-205.517 Y-35.662 Z-6.653 
N379 X-205.517 Y-35.395 Z-6.653 
N380 X-205.517 Y-35.129 Z-6.652 
N381 X-205.517 Y-34.862 Z-6.652 
N382 X-205.517 Y-34.595 Z-6.652 
N383 X-205.517 Y-34.329 Z-6.651 
N384 X-205.517 Y-34.062 Z-6.651 
N385 X-205.517 Y-33.795 Z-6.651 
N386 X-205.517 Y-33.529 Z-6.651 
N387 X-205.517 Y-33.262 Z-6.650 
N388 X-205.517 Y-32.995 Z-6.650 
N389 X-205.517 Y-32.729 Z-6.650 
N390 X-205.517 Y-32.462 Z-6.650 
N391 X-205.517 Y-32.195 Z-6.649 
N392 X-205.517 Y-31.929 Z-6.649 
N393 X-205.517 Y-31.662 Z-6.649 
N394 X-205.517 Y-31.395 Z-6.649 
N395 X-205.517 Y-31.129 Z-6.648 
N396 X-205.517 Y-30.862 Z-6.648 
N397 X-205.517 Y-30.595 Z-6.648 
N398 X-205.517 Y-30.329 Z-6.647 
N399 X-205.517 Y-30.062 Z-6.647 
N400 X-205.517 Y-29.795 Z-6.647 
N401 X-205.517 Y-29.529 Z-6.647 
N402 X-205.517 Y-29.262 Z-6.646 
N403 X-205.517 Y-28.995 Z-6.646 
N404 X-205.517 Y-28.729 Z-6.646 
N405 X-205.517 Y-28.462 Z-6.646 
N406 X-205.517 Y-28.195 Z-6.645 
N407 X-205.517 Y-27.929 Z-6.645 
N408 X-205.517 Y-27.662 Z-6.645 
N409 X-205.517 Y-27.395 Z-6.645 
N410 X-205.517 Y-27.129 Z-6.644 
N411 X-205.517 Y-26.862 Z-6.644 
N412 X-205.517 Y-26.595 Z-6.644 
N413 X-205.517 Y-26.329 Z-6.644 
N414 X-205.517 Y-26.062 Z-6.643 
N415 X-205.517 Y-25.795 Z-6.643 
N416 X-205.517 Y-25.529 Z-6.643 
N417 X-205.517 Y-25.262 Z-6.642 
N418 X-205.517 Y-24.995 Z-6.642 
N419 X-205.517 Y-24.729 Z-6.642 
N420 X-205.517 Y-24.462 Z-6.642 
N421 X-205.517 Y-24.195 Z-6.641 
N422 X-205.517 Y-23.929 Z-6.641 
N423 X-205.517 Y-23.662 Z-6.641 
N424 X-205.517 Y-23.395 Z-6.641 
N425 X-205.517 Y-23.129 Z-6.640 
N426 X-205.517 Y-22.862 Z-6.640 
N427 X-205.517 Y-22.595 Z-6.640 
N428 X-205.517 Y-22.329 Z-6.640 
N429 X-205.517 Y-22.062 Z-6.639 
N430 X-205.517 Y-21.795 Z-6.639 
N431 X-205.517 Y-21.529 Z-6.639 
N432 X-205.517 Y-21.262 Z-6.638 
N433 X-205.517 Y-20.995 Z-6.638 
N434 X-205.517 Y-20.729 Z-6.638 
N435 X-205.517 Y-20.462 Z-6.638 
N436 X-205.517 Y-20.195 Z-6.637 
N437 X-205.517 Y-19.929 Z-6.637 
N438 X-205.517 Y-19.662 Z-6.637 
N439 X-205.517 Y-19.395 Z-6.637 
N440 X-205.517 Y-19.129 Z-6.636 
N441 X-205.517 Y-18.862 Z-6.636 
N442 X-205.517 Y9.078 Z-6.608 
N443 X-205.517 Y9.345 Z-6.608 
N444 X-205.517 Y9.612 Z-6.608 
N445 X-205.517 Y9.878 Z-6.607 
N446 X-205.517 Y10.145 Z-6.607 
N447 X-205.517 Y10.412 Z-6.607 
N448 X-205.517 Y10.678 Z-6.607 
N449 X-205.517 Y10.945 Z-6.606 
N450 X-205.517 Y11.212 Z-6.606 
N451 X-205.517 Y11.478 Z-6.606 
N452 X-205.517 Y11.745 Z-6.606 
N453 X-205.517 Y12.012 Z-6.605 
N454 X-205.517 Y12.278 Z-6.605 
N455 X-205.517 Y12.545 Z-6.605 
N456 X-205.517 Y12.812 Z-6.605 
N457 X-205.517 Y13.078 Z-6.604 
N458 X-205.517 Y13.345 Z-6.604 
N459 X-205.517 Y13.612 Z-6.604 
N460 X-205.517 Y13.878 Z-6.603 
N461 X-205.517 Y14.145 Z-6.603 
N462 X-205.517 Y14.412 Z-6.603 
N463 X-205.517 Y14.678 Z-6.603 
N464 X-205.517 Y14.945 Z-6.602 
N465 X-205.517 Y15.212 Z-6.602 
N466 X-205.517 Y15.478 Z-6.602 
N467 X-205.517 Y15.745 Z-6.602 
N468 X-205.517 Y16.012 Z-6.601 
N469 X-205.517 Y16.278 Z-6.601 
N470 X-205.517 Y16.545 Z-6.601 
N471 X-205.517 Y16.812 Z-6.601 
N472 X-205.517 Y17.078 Z-6.600 
N473 X-205.517 Y17.345 Z-6.600 
N474 X-205.517 Y17.612 Z-6.600 
N475 X-205.517 Y17.878 Z-6.600 
N476 X-205.517 Y18.145 Z-6.599 
N477 X-205.517 Y18.412 Z-6.599 
N478 X-205.517 Y18.678 Z-6.599 
N479 X-205.517 Y18.945 Z-6.598 
N480 X-205.517 Y19.212 Z-6.598 
N481 X-205.517 Y19.478 Z-6.598 
N482 X-205.517 Y19.745 Z-6.598 
N483 X-205.517 Y20.012 Z-6.597 
N484 X-205.517 Y20.278 Z-6.597 
N485 X-205.517 Y20.545 Z-6.597 
N486 X-205.517 Y20.812 Z-6.597 
N487 X-205.517 Y21.078 Z-6.596 
N488 X-205.517 Y21.345 Z-6.596 
N489 X-205.517 Y21.612 Z-6.596 
N490 X-205.517 Y21.878 Z-6.596 
N491 X-205.517 Y22.145 Z-6.595 
N492 X-205.517 Y22.412 Z-6.595 
N493 X-205.517 Y22.678 Z-6.595 
N494 X-205.517 Y22.945 Z-6.594 
N495 X-205.517 Y23.212 Z-6.594 
N496 X-205.517 Y23.478 Z-6.594 
N497 X-205.517 Y23.745 Z-6.594 
N498 X-205.517 Y24.012 Z-6.593 
N499 X-205.517 Y24.278 Z-6.593 
N500 X-205.517 Y24.545 Z-6.593 
N501 X-205.517 Y24.812 Z-6.593 
N502 X-205.517 Y25.078 Z-6.592 
N503 X-205.517 Y25.345 Z-6.592 
N504 X-205.517 Y25.612 Z-6.592 
N505 X-205.517 Y25.878 Z-6.592 
N506 X-205.517 Y26.145 Z-6.591 
N507 X-205.517 Y26.412 Z-6.591 
N508 X-205.517 Y26.678 Z-6.591 
N509 X-205.517 Y26.945 Z-6.590 
N510 X-205.517 Y27.212 Z-6.590 
N511 X-205.517 Y27.478 Z-6.590 
N512 X-205.517 Y27.745 Z-6.590 
N513 X-205.517 Y28.012 Z-6.589 
N514 X-205.517 Y28.278 Z-6.589 
N515 X-205.517 Y28.545 Z-6.589 
N516 X-205.517 Y28.812 Z-6.589 
N517 X-205.517 Y29.078 Z-6.588 
N518 X-206.021 Y29.263 Z-16.574 
N519 G00 X-208.542 Y30.185 Z-66.502 
N520 ; DELTA A > 40.1
N521 TRAFOOF
N522 D1
N523 STOPRE
N524 G00 G54 Z296.000
N525 G01 A233.0000 F10000
N526 TRAORI
N527 G54 D1
N528 STOPRE
N529 TRANS 
N530 G00 X-205.492 Y42.034 Z-62.308 A233.0000 B-0.0000 
N531 X-205.492 Y2.102 Z-32.218 
N532 G01 X-205.492 Y-5.884 Z-26.200 F800 
N533 X-205.492 Y-2.806 Z-22.260 
N534 X-205.492 Y-2.642 Z-22.049 
N535 X-205.492 Y-2.477 Z-21.839 
N536 X-205.492 Y-2.313 Z-21.629 
N537 X-205.492 Y-2.149 Z-21.419 
N538 X-205.492 Y-1.985 Z-21.209 
N539 X-205.492 Y-1.821 Z-20.999 
N540 X-205.492 Y-1.657 Z-20.789 
N541 X-205.492 Y-1.492 Z-20.578 
N542 X-205.492 Y-1.328 Z-20.368 
N543 X-205.492 Y-1.164 Z-20.158 
N544 X-205.492 Y-1.000 Z-19.948 
N545 X-205.492 Y-0.836 Z-19.738 
N546 X-205.492 Y-0.671 Z-19.528 
N547 X-205.492 Y-0.507 Z-19.318 
N548 X-205.492 Y-0.343 Z-19.107 
N549 X-205.492 Y-0.179 Z-18.897 
N550 X-205.492 Y-0.015 Z-18.687 
N551 X-205.492 Y0.149 Z-18.477 
N552 X-205.492 Y0.314 Z-18.267 
N553 X-205.492 Y0.478 Z-18.057 
N554 X-205.492 Y0.642 Z-17.847 
N555 X-205.492 Y0.806 Z-17.637 
N556 X-205.492 Y0.970 Z-17.426 
N557 X-205.492 Y1.134 Z-17.216 
N558 X-205.492 Y1.299 Z-17.006 
N559 X-205.492 Y1.463 Z-16.796 
N560 X-205.492 Y1.627 Z-16.586 
N561 X-205.492 Y1.791 Z-16.376 
N562 X-205.492 Y1.955 Z-16.166 
N563 X-205.492 Y2.120 Z-15.955 
N564 X-205.492 Y2.284 Z-15.745 
N565 X-205.492 Y2.448 Z-15.535 
N566 X-205.492 Y2.612 Z-15.325 
N567 X-205.492 Y2.776 Z-15.115 
N568 X-205.492 Y2.940 Z-14.905 
N569 X-205.492 Y3.105 Z-14.695 
N570 X-205.492 Y3.269 Z-14.484 
N571 X-205.492 Y3.433 Z-14.274 
N572 X-205.492 Y3.597 Z-14.064 
N573 X-205.492 Y3.761 Z-13.854 
N574 X-205.492 Y3.925 Z-13.644 
N575 X-205.492 Y4.090 Z-13.434 
N576 X-205.492 Y4.254 Z-13.224 
N577 X-205.492 Y4.418 Z-13.014 
N578 X-205.492 Y4.582 Z-12.803 
N579 X-205.492 Y4.746 Z-12.593 
N580 X-205.492 Y4.911 Z-12.383 
N581 X-205.492 Y5.075 Z-12.173 
N582 X-205.492 Y5.239 Z-11.963 
N583 X-205.492 Y5.403 Z-11.753 
N584 X-205.492 Y5.567 Z-11.543 
N585 X-205.492 Y5.731 Z-11.332 
N586 X-205.492 Y5.896 Z-11.122 
N587 X-205.492 Y6.060 Z-10.912 
N588 X-205.492 Y6.224 Z-10.702 
N589 X-205.492 Y6.388 Z-10.492 
N590 X-205.492 Y6.552 Z-10.282 
N591 X-205.492 Y6.716 Z-10.072 
N592 X-205.492 Y6.881 Z-9.861 
N593 X-205.492 Y7.045 Z-9.651 
N594 X-205.492 Y7.209 Z-9.441 
N595 X-205.492 Y7.373 Z-9.231 
N596 X-205.492 Y7.537 Z-9.021 
N597 X-205.492 Y7.702 Z-8.811 
N598 X-205.492 Y7.866 Z-8.601 
N599 X-205.492 Y8.030 Z-8.391 
N600 X-205.492 Y8.194 Z-8.180 
N601 X-205.492 Y8.358 Z-7.970 
N602 X-205.492 Y8.522 Z-7.760 
N603 X-205.492 Y8.687 Z-7.550 
N604 X-205.492 Y8.851 Z-7.340 
N605 X-205.492 Y9.015 Z-7.130 
N606 X-205.492 Y9.179 Z-6.920 
N607 X-205.492 Y9.343 Z-6.709 
N608 X-205.492 Y9.507 Z-6.499 
N609 X-205.492 Y21.657 Z9.051 
N610 X-205.492 Y21.821 Z9.262 
N611 X-205.492 Y21.985 Z9.472 
N612 X-205.492 Y22.150 Z9.682 
N613 X-205.492 Y22.314 Z9.892 
N614 X-205.492 Y22.478 Z10.102 
N615 X-205.492 Y22.642 Z10.312 
N616 X-205.492 Y22.806 Z10.522 
N617 X-205.492 Y22.970 Z10.732 
N618 X-205.492 Y23.135 Z10.943 
N619 X-205.492 Y23.299 Z11.153 
N620 X-205.492 Y23.463 Z11.363 
N621 X-205.492 Y23.627 Z11.573 
N622 X-205.492 Y23.791 Z11.783 
N623 X-205.492 Y23.955 Z11.993 
N624 X-205.492 Y24.120 Z12.203 
N625 X-205.492 Y24.284 Z12.414 
N626 X-205.492 Y24.448 Z12.624 
N627 X-205.492 Y24.612 Z12.834 
N628 X-205.492 Y24.776 Z13.044 
N629 X-205.492 Y24.941 Z13.254 
N630 X-205.492 Y25.105 Z13.464 
N631 X-205.492 Y25.269 Z13.674 
N632 X-205.492 Y25.433 Z13.885 
N633 X-205.492 Y25.597 Z14.095 
N634 X-205.492 Y25.761 Z14.305 
N635 X-205.492 Y25.926 Z14.515 
N636 X-205.492 Y26.090 Z14.725 
N637 X-205.492 Y26.254 Z14.935 
N638 X-205.492 Y26.418 Z15.145 
N639 X-205.492 Y26.582 Z15.355 
N640 X-205.492 Y26.746 Z15.566 
N641 X-205.492 Y26.911 Z15.776 
N642 X-205.492 Y27.075 Z15.986 
N643 X-205.492 Y27.239 Z16.196 
N644 X-205.492 Y27.403 Z16.406 
N645 X-205.492 Y27.567 Z16.616 
N646 X-205.492 Y27.732 Z16.826 
N647 X-205.492 Y27.896 Z17.037 
N648 X-205.492 Y28.060 Z17.247 
N649 X-205.492 Y28.224 Z17.457 
N650 X-205.492 Y28.388 Z17.667 
N651 X-205.492 Y28.552 Z17.877 
N652 X-205.492 Y28.717 Z18.087 
N653 X-205.492 Y28.881 Z18.297 
N654 X-205.492 Y29.045 Z18.508 
N655 X-205.492 Y29.209 Z18.718 
N656 X-205.492 Y29.373 Z18.928 
N657 X-205.492 Y29.537 Z19.138 
N658 X-205.492 Y29.702 Z19.348 
N659 X-205.492 Y29.866 Z19.558 
N660 X-205.492 Y30.030 Z19.768 
N661 X-205.492 Y30.194 Z19.978 
N662 X-205.492 Y30.358 Z20.189 
N663 X-205.492 Y30.523 Z20.399 
N664 X-205.492 Y30.687 Z20.609 
N665 X-205.492 Y30.851 Z20.819 
N666 X-205.492 Y31.015 Z21.029 
N667 X-205.492 Y31.179 Z21.239 
N668 X-205.492 Y31.343 Z21.449 
N669 X-205.492 Y31.508 Z21.660 
N670 X-205.492 Y31.672 Z21.870 
N671 X-205.492 Y31.836 Z22.080 
N672 X-205.492 Y32.000 Z22.290 
N673 X-205.492 Y32.164 Z22.500 
N674 X-205.492 Y32.328 Z22.710 
N675 X-205.492 Y32.493 Z22.920 
N676 X-205.492 Y32.657 Z23.131 
N677 X-205.492 Y32.821 Z23.341 
N678 X-205.492 Y32.985 Z23.551 
N679 X-205.492 Y33.149 Z23.761 
N680 X-205.492 Y33.314 Z23.971 
N681 X-205.492 Y33.478 Z24.181 
N682 X-205.492 Y33.642 Z24.391 
N683 X-205.492 Y33.806 Z24.601 
N684 X-205.492 Y33.970 Z24.812 
N685 X-205.492 Y40.127 Z32.692 
N686 G00 X-205.492 Y80.059 Z2.601 
;RAPORT("TD123456","Spiral Finish Rhombic:106 End")
;trailer : concat=None
; points cnt = 616
N688 M347 ; mgla wyl
N689 MSG (" --- KONIEC PODPROGRAMU --- ")
N690 FGROUP()
N691 TRAFOOF
N692 STOPRE
N693 G0 G53 D0 Z550.0 M9 M5
N694 G0 G53 Y150 A0 B0
N695 M17
