; PROGRAM NAME: D12345613
; ORDER       : D123456
; OPER. NAME  : Spiral Rough Airfoil:104
; OPER. DESCR.: spiral roughing airfoil/pioro_zgr
; OPER. TYPE  : rouAirfoil
; GEO. OPTION : 6
; MACHINE     : HSTM_300HD_SIM840D_Py
;             : HSTM300/500 - HAMUEL: 5-axis milling machine-SIM840D Traori PP_Script
; CONTROL     : SINUMERIK 840D
; created:   2023-06-05 09:18:51.798446
;-------DODATKOWE DANE-------------------
; PROGRAMISTA : Mariusz Malec
; PARTID      : 301T002184P1010_-
;  ap         : 1.5
;  ae         : 17.0
;  lean_angle : 1.0
;  airf_offset: 1.0
;----------------------------------------
;RAPORT("TD123456","Spiral Rough Airfoil:104")
N10 TRAFOOF
N11 D0
N12 G90 G94
N13 G0 G53 D0 Z550
N14 STOPRE
M9 ; chlodziwo wyl
; --- Spiral Rough Airfoil:104 - spiral roughing airfoil/pioro_zgr ---
N16 ;ToolChange : concat=None ,current_tdmid=None, PP.tdmId=941294
N17 TRAFOOF
N18 G0 G53 D0 X-200 Y150 Z550 B0
N19 T="7741294"
;RAPORT("TD123456","ToolChangeStart 7741294")
N20 M6
;RAPORT("TD123456","ToolChangeEnd")
N21 STOPRE
N22 MSG(" TLID=941294 D=32.0 R=5.0 Ang=0.0 Len=105.0 ")
N23 ; (Preloading tool)
N24 T="7741293"
N25 S2685 M03
N26 STOPRE
N27 CYCLE832(0.1,1,1)
N28 G0 G53 A0.8267 B-0.0000
N29 TRAORI
N30 G54 D1
N31 D1 
N32 X-184.969 Y47.895 Z76.300 A0.8267 
N33 M346 ; chlodziwo mgla
N34 X-184.969 Y48.616 Z26.305 
N35 G01 X-184.969 Y48.118 Z23.216 F2792 
N36 X-184.969 Y46.689 Z20.433 
N37 X-184.969 Y44.470 Z18.227 
N38 X-184.969 Y41.678 Z16.815 
N39 X-184.969 Y38.586 Z16.335 
N40 X-184.969 Y33.154 Z16.356 A0.8572 
N41 X-184.969 Y27.809 Z16.369 A0.8523 
N42 X-184.969 Y22.633 Z16.384 A0.8522 
N43 X-184.969 Y17.698 Z16.399 
N44 X-184.969 Y13.069 Z16.412 A0.8531 
N45 X-184.969 Y8.795 Z16.424 A0.8522 
N46 X-184.969 Y4.909 Z16.436 A0.8534 
N47 X-184.969 Y1.433 Z16.448 A0.8675 
N48 X-184.969 Y-1.631 Z16.461 A0.8912 
N49 X-184.969 Y-4.291 Z16.472 A0.9135 
N50 X-184.969 Y-6.570 Z16.475 A0.8918 
N51 X-184.969 Y-8.497 Z16.477 A0.8532 
N52 X-184.969 Y-10.116 Z16.487 
N53 X-184.969 Y-11.478 Z16.542 A1.1094 
N54 X-184.969 Y-12.619 Z16.788 A2.4380 
N55 X-184.969 Y-13.626 Z17.455 A6.1438 
N56 X-184.969 Y-14.802 Z19.193 A15.9991 
N57 X-184.969 Y-17.026 Z22.179 A34.8409 
N58 X-184.969 Y-20.503 Z24.622 A56.5874 
N59 X-184.969 Y-23.850 Z25.422 A74.0734 
N60 X-184.969 Y-25.903 Z25.110 A84.1840 
N61 X-184.969 Y-26.778 Z24.417 A88.4212 
N62 X-184.969 Y-27.127 Z23.596 A90.1061 
N63 X-184.969 Y-27.262 Z22.673 A90.7608 
N64 X-184.969 Y-27.305 Z21.639 A90.9751 
N65 X-184.969 Y-27.312 Z20.488 A91.0058 
N66 X-184.969 Y-27.308 Z19.218 A90.9761 
N67 X-184.969 Y-27.308 Z17.834 A90.9566 
N68 X-184.969 Y-27.313 Z16.347 
N69 X-184.969 Y-27.318 Z14.774 
N70 X-184.969 Y-27.325 Z13.137 
N71 X-184.969 Y-27.332 Z11.467 A90.9614 
N72 X-184.969 Y-27.339 Z9.791 A90.9696 
N73 X-184.969 Y-27.346 Z8.141 A90.9761 
N74 X-184.969 Y-27.352 Z6.542 A90.9788 
N75 X-184.969 Y-27.357 Z5.021 A90.9765 
N76 X-184.969 Y-27.360 Z3.598 A90.9652 
N77 X-184.969 Y-27.365 Z2.286 A90.9566 
N78 X-184.969 Y-27.372 Z1.092 
N79 X-184.969 Y-27.377 Z0.010 
N80 X-184.969 Y-27.445 Z-0.956 A91.2988 
N81 X-184.969 Y-27.681 Z-1.823 A92.5743 
N82 X-184.969 Y-28.304 Z-2.640 A96.0084 
N83 X-184.969 Y-29.663 Z-3.584 A103.6690 
N84 X-184.969 Y-31.894 Z-5.112 A117.1659 
N85 X-184.969 Y-34.410 Z-7.763 A135.7772 
N86 X-184.969 Y-35.969 Z-11.160 A154.8399 
N87 X-184.969 Y-36.152 Z-13.970 A168.9536 
N88 X-184.969 Y-35.563 Z-15.520 A176.4904 
N89 X-184.969 Y-34.693 Z-16.211 A179.8555 
N90 X-184.969 Y-33.658 Z-16.446 A181.0275 
N91 X-184.969 Y-32.455 Z-16.492 A181.2849 
N92 X-184.969 Y-31.062 Z-16.483 A181.2682 
N93 X-184.969 Y-29.460 Z-16.473 A181.2362 
N94 X-184.969 Y-27.640 Z-16.470 
N95 X-184.969 Y-25.599 Z-16.468 
N96 X-184.969 Y-23.347 Z-16.466 
N97 X-184.969 Y-20.905 Z-16.464 
N98 X-184.969 Y-18.302 Z-16.462 A181.2371 
N99 X-184.969 Y-15.575 Z-16.459 A181.2373 
N100 X-184.969 Y-12.770 Z-16.456 A181.2370 
N101 X-184.969 Y-9.935 Z-16.453 A181.2363 
N102 X-184.969 Y-7.120 Z-16.450 A181.2362 
N103 X-184.969 Y-4.375 Z-16.447 
N104 X-184.969 Y-1.746 Z-16.445 A181.2395 
N105 X-184.969 Y0.728 Z-16.444 A181.2501 
N106 X-184.969 Y3.016 Z-16.444 A181.2674 
N107 X-184.969 Y5.097 Z-16.445 A181.2840 
N108 X-184.969 Y6.958 Z-16.443 A181.2813 
N109 X-184.969 Y8.600 Z-16.435 A181.2362 
N110 X-184.969 Y10.029 Z-16.437 
N111 X-184.969 Y11.283 Z-16.442 A181.2487 
N112 X-184.969 Y12.359 Z-16.618 A182.1982 
N113 X-184.969 Y13.318 Z-17.127 A185.0237 
N114 X-184.969 Y14.297 Z-18.276 A191.5151 
N115 X-184.969 Y15.754 Z-20.449 A204.4303 
N116 X-184.969 Y18.269 Z-23.041 A222.7827 
N117 X-184.969 Y21.509 Z-24.753 A241.4679 
N118 X-184.969 Y24.333 Z-25.161 A255.8314 
N119 X-184.969 Y26.111 Z-24.771 A264.5236 
N120 X-184.969 Y26.964 Z-24.070 A268.6639 
N121 X-184.969 Y27.319 Z-23.238 A270.3977 
N122 X-184.969 Y27.452 Z-22.300 A271.0644 
N123 X-184.969 Y27.491 Z-21.249 A271.2859 
N124 X-184.969 Y27.494 Z-20.081 A271.3330 
N125 X-184.969 Y27.485 Z-18.795 A271.3205 
N126 X-184.969 Y27.476 Z-17.397 A271.2994 
N127 X-184.969 Y27.470 Z-15.902 
N128 X-184.969 Y27.466 Z-14.324 
N129 X-184.969 Y27.461 Z-12.690 
N130 X-184.969 Y27.457 Z-11.026 A271.3025 
N131 X-184.969 Y27.455 Z-9.363 A271.3153 
N132 X-184.969 Y27.452 Z-7.729 A271.3273 
N133 X-184.969 Y27.448 Z-6.153 A271.3328 
N134 X-184.969 Y27.442 Z-4.658 A271.3242 
N135 X-184.969 Y27.435 Z-3.263 A271.2994 
N136 X-184.969 Y27.433 Z-1.981 
N137 X-184.969 Y27.432 Z-0.811 
N138 X-184.969 Y27.456 Z0.245 A271.4344 
N139 X-184.969 Y27.562 Z1.186 A272.0355 
N140 X-184.969 Y27.825 Z2.034 A273.5145 
N141 X-184.969 Y28.449 Z2.843 A277.0238 
N142 X-184.969 Y29.865 Z3.817 A285.0773 
N143 X-184.969 Y32.243 Z5.494 A299.6871 
N144 X-184.969 Y34.947 Z8.615 A320.8071 
N145 X-184.969 Y36.261 Z12.327 A340.9406 
N146 X-184.969 Y36.104 Z14.891 A353.7110 
N147 X-184.969 Y35.367 Z15.962 A358.9573 
N148 X-184.969 Y34.444 Z16.301 A0.6231 
N149 X-184.969 Y33.370 Z16.379 A1.0130 
N150 X-184.969 Y32.121 Z16.385 A1.0447 
N151 X-184.969 Y30.676 Z16.380 A1.0205 
N152 X-184.969 Y29.020 Z16.381 A1.0161 
N153 X-184.969 Y27.145 Z16.383 
N154 X-184.969 Y25.053 Z16.385 
N155 X-184.969 Y22.758 Z16.388 
N156 X-184.969 Y20.282 Z16.392 A1.0165 
N157 X-184.969 Y17.657 Z16.396 A1.0165 
N158 X-184.969 Y14.922 Z16.401 A1.0161 
N159 X-184.969 Y12.124 Z16.406 A1.0162 
N160 X-184.969 Y9.313 Z16.411 A1.0178 
N161 X-184.969 Y6.537 Z16.418 A1.0211 
N162 X-184.969 Y3.846 Z16.424 A1.0245 
N163 X-184.969 Y1.283 Z16.430 A1.0258 
N164 X-184.969 Y-1.116 Z16.435 A1.0229 
N165 X-184.969 Y-3.325 Z16.440 A1.0161 
N166 X-184.969 Y-5.325 Z16.447 
N167 X-184.969 Y-7.111 Z16.453 
N168 X-184.969 Y-8.689 Z16.460 A1.0307 
N169 X-184.969 Y-10.062 Z16.515 A1.3201 
N170 X-184.969 Y-11.251 Z16.657 A2.1157 
N171 X-184.969 Y-12.291 Z16.980 A3.9623 
N172 X-184.969 Y-13.255 Z17.690 A8.0238 
N173 X-184.969 Y-14.398 Z19.242 A17.0265 
N174 X-184.969 Y-16.316 Z21.704 A32.6873 
N175 X-184.969 Y-19.156 Z23.886 A50.8905 
N176 X-184.969 Y-22.125 Z24.916 A66.7874 
N177 X-184.969 Y-24.384 Z24.926 A77.9148 
N178 X-184.969 Y-25.689 Z24.402 A84.1128 
N179 X-184.969 Y-26.397 Z23.662 A87.4231 
N180 X-184.969 Y-26.786 Z22.795 A89.2306 
N181 X-184.969 Y-26.992 Z21.816 A90.1881 
N182 X-184.969 Y-27.094 Z20.725 A90.6583 
N183 X-184.969 Y-27.138 Z19.521 A90.8613 
N184 X-184.969 Y-27.154 Z18.208 A90.9323 
N185 X-184.969 Y-27.158 Z16.795 A90.9453 
N186 X-184.969 Y-27.159 Z15.297 A90.9380 
N187 X-184.969 Y-27.160 Z13.734 A90.9308 
N188 X-184.969 Y-27.164 Z12.132 A90.9326 
N189 X-184.969 Y-27.170 Z10.515 A90.9417 
N190 X-184.969 Y-27.176 Z8.913 A90.9499 
N191 X-184.969 Y-27.179 Z7.350 A90.9405 
N192 X-184.969 Y-27.183 Z5.852 A90.9284 
N193 X-184.969 Y-27.190 Z4.436 
N194 X-184.969 Y-27.196 Z3.109 
N195 X-184.969 Y-27.258 Z1.894 A91.2444 
N196 X-184.969 Y-27.393 Z0.787 A91.9886 
N197 X-184.969 Y-27.637 Z-0.217 A93.3948 
N198 X-184.969 Y-28.042 Z-1.143 A95.7703 
N199 X-184.969 Y-28.706 Z-2.042 A99.7108 
N200 X-184.969 Y-29.799 Z-3.047 A106.2971 
N201 X-184.969 Y-31.471 Z-4.447 A116.9202 
N202 X-184.969 Y-33.399 Z-6.554 A131.2423 
N203 X-184.969 Y-34.880 Z-9.288 A146.9195 
N204 X-184.969 Y-35.430 Z-12.021 A160.8483 
N205 X-184.969 Y-35.128 Z-13.953 A170.0938 
N206 X-184.969 Y-34.390 Z-15.092 A175.4020 
N207 X-184.969 Y-33.421 Z-15.738 A178.3892 
N208 X-184.969 Y-32.270 Z-16.094 A180.0555 
N209 X-184.969 Y-30.937 Z-16.272 A180.9193 
N210 X-184.969 Y-29.412 Z-16.339 A181.2804 
N211 X-184.969 Y-27.685 Z-16.346 A181.3679 
N212 X-184.969 Y-25.754 Z-16.332 A181.3478 
N213 X-184.969 Y-23.624 Z-16.319 A181.3285 
N214 X-184.969 Y-21.311 Z-16.310 
N215 X-184.969 Y-18.838 Z-16.302 
N216 X-184.969 Y-16.240 Z-16.293 
N217 X-184.969 Y-13.557 Z-16.283 
N218 X-184.969 Y-10.834 Z-16.274 A181.3306 
N219 X-184.969 Y-8.119 Z-16.265 A181.3383 
N220 X-184.969 Y-5.459 Z-16.257 A181.3517 
N221 X-184.969 Y-2.896 Z-16.248 A181.3628 
N222 X-184.969 Y-0.469 Z-16.239 A181.3622 
N223 X-184.969 Y1.793 Z-16.225 A181.3311 
N224 X-184.969 Y3.866 Z-16.220 A181.3285 
N225 X-184.969 Y5.745 Z-16.217 
N226 X-184.969 Y7.430 Z-16.233 A181.4385 
N227 X-184.969 Y8.914 Z-16.330 A182.0165 
N228 X-184.969 Y10.222 Z-16.561 A183.3926 
N229 X-184.969 Y11.394 Z-17.040 A186.2427 
N230 X-184.969 Y12.520 Z-17.890 A191.3626 
N231 X-184.969 Y13.755 Z-19.128 A199.1225 
N232 X-184.969 Y15.297 Z-20.651 A209.4952 
N233 X-184.969 Y17.269 Z-22.170 A221.7607 
N234 X-184.969 Y19.538 Z-23.283 A234.2901 
N235 X-184.969 Y21.763 Z-23.779 A245.4889 
N236 X-184.969 Y23.611 Z-23.697 A254.2686 
N237 X-184.969 Y24.980 Z-23.225 A260.5934 
N238 X-184.969 Y25.966 Z-22.518 A265.1368 
N239 X-184.969 Y26.638 Z-21.650 A268.2720 
N240 X-184.969 Y27.038 Z-20.657 A270.1927 
N241 X-184.969 Y27.233 Z-19.559 A271.1744 
N242 X-184.969 Y27.300 Z-18.364 A271.5646 
N243 X-184.969 Y27.305 Z-17.077 A271.6608 
N244 X-184.969 Y27.289 Z-15.709 A271.6576 
N245 X-184.969 Y27.271 Z-14.273 A271.6408 
N246 X-184.969 Y27.256 Z-12.790 
N247 X-184.969 Y27.242 Z-11.280 A271.6441 
N248 X-184.969 Y27.230 Z-9.769 A271.6603 
N249 X-184.969 Y27.219 Z-8.280 A271.6738 
N250 X-184.969 Y27.204 Z-6.835 A271.6638 
N251 X-184.969 Y27.188 Z-5.455 A271.6408 
N252 X-184.969 Y27.179 Z-4.154 
N253 X-184.969 Y27.183 Z-2.929 A271.7137 
N254 X-184.969 Y27.303 Z-1.803 A272.4226 
N255 X-184.969 Y27.596 Z-0.759 A274.1344 
N256 X-184.969 Y28.133 Z0.231 A277.3041 
N257 X-184.969 Y28.942 Z1.232 A282.2115 
N258 X-184.969 Y30.040 Z2.353 A289.1598 
N259 X-184.969 Y31.304 Z3.704 A297.8653 
N260 X-184.969 Y32.596 Z5.390 A308.1505 
N261 X-184.969 Y33.688 Z7.420 A319.4372 
N262 X-184.969 Y34.348 Z9.655 A330.8243 
N263 X-184.969 Y34.440 Z11.807 A341.1282 
N264 X-184.969 Y34.024 Z13.711 A350.0753 
N265 X-184.969 Y33.183 Z14.968 A355.9359 
N266 X-184.969 Y32.085 Z15.616 A358.9530 
N267 X-184.969 Y30.802 Z15.915 A0.3549 
N268 X-184.969 Y29.339 Z16.024 A0.8707 
N269 X-184.969 Y27.688 Z16.046 A0.9661 
N270 X-184.969 Y25.845 Z16.042 A0.9238 
N271 X-184.969 Y23.813 Z16.046 A0.9022 
N272 X-184.969 Y21.603 Z16.057 
N273 X-184.969 Y19.234 Z16.070 
N274 X-184.969 Y16.739 Z16.083 
N275 X-184.969 Y14.155 Z16.098 A0.9041 
N276 X-184.969 Y11.523 Z16.112 A0.9059 
N277 X-184.969 Y8.889 Z16.128 A0.9110 
N278 X-184.969 Y6.297 Z16.144 A0.9189 
N279 X-184.969 Y3.789 Z16.159 A0.9244 
N280 X-184.969 Y1.403 Z16.173 A0.9197 
N281 X-184.969 Y-0.832 Z16.184 A0.9022 
N282 X-184.969 Y-2.892 Z16.200 
N283 X-184.969 Y-4.769 Z16.214 
N284 X-184.969 Y-6.463 Z16.238 A0.9763 
N285 X-184.969 Y-7.962 Z16.347 A1.5422 
N286 X-184.969 Y-9.291 Z16.609 A3.0234 
N287 X-184.969 Y-10.491 Z17.151 A6.1851 
N288 X-184.969 Y-11.656 Z18.066 A11.6760 
N289 X-184.969 Y-12.935 Z19.322 A19.6136 
N290 X-184.969 Y-14.473 Z20.753 A29.5700 
N291 X-184.969 Y-16.299 Z22.067 A40.4889 
N292 X-184.969 Y-18.327 Z23.040 A51.4724 
N293 X-184.969 Y-20.335 Z23.529 A61.4766 
N294 X-184.969 Y-22.155 Z23.558 A70.0658 
N295 X-184.969 Y-23.664 Z23.211 A76.9872 
N296 X-184.969 Y-24.819 Z22.590 A82.2195 
N297 X-184.969 Y-25.632 Z21.777 A85.8925 
N298 X-184.969 Y-26.148 Z20.824 A88.2265 
N299 X-184.969 Y-26.448 Z19.761 A89.5814 
N300 X-184.969 Y-26.610 Z18.600 A90.3115 
N301 X-184.969 Y-26.690 Z17.352 A90.6732 
N302 X-184.969 Y-26.725 Z16.026 A90.8255 
N303 X-184.969 Y-26.737 Z14.636 A90.8642 
N304 X-184.969 Y-26.740 Z13.199 A90.8532 
N305 X-184.969 Y-26.741 Z11.736 A90.8255 
N306 X-184.969 Y-26.749 Z10.270 A90.8206 
N307 X-184.969 Y-26.758 Z8.818 
N308 X-184.969 Y-26.767 Z7.399 
N309 X-184.969 Y-26.788 Z6.033 A90.8915 
N310 X-184.969 Y-26.852 Z4.740 A91.2146 
N311 X-184.969 Y-26.982 Z3.528 A91.9428 
N312 X-184.969 Y-27.220 Z2.398 A93.3290 
N313 X-184.969 Y-27.604 Z1.338 A95.6328 
N314 X-184.969 Y-28.168 Z0.316 A99.1016 
N315 X-184.969 Y-28.939 Z-0.723 A103.9948 
N316 X-184.969 Y-29.914 Z-1.863 A110.4703 
N317 X-184.969 Y-30.978 Z-3.170 A118.1899 
N318 X-184.969 Y-32.040 Z-4.711 A127.0422 
N319 X-184.969 Y-32.966 Z-6.513 A136.7683 
N320 X-184.969 Y-33.579 Z-8.488 A146.6927 
N321 X-184.969 Y-33.758 Z-10.465 A156.0510 
N322 X-184.969 Y-33.488 Z-12.260 A164.2484 
N323 X-184.969 Y-32.825 Z-13.721 A170.8152 
N324 X-184.969 Y-31.854 Z-14.748 A175.4045 
N325 X-184.969 Y-30.655 Z-15.402 A178.3488 
N326 X-184.969 Y-29.263 Z-15.776 A180.0690 
N327 X-184.969 Y-27.688 Z-15.954 A180.9257 
N328 X-184.969 Y-25.931 Z-16.015 A181.2621 
N329 X-184.969 Y-23.995 Z-16.021 A181.3486 
N330 X-184.969 Y-21.889 Z-16.009 A181.3509 
N331 X-184.969 Y-19.629 Z-15.994 A181.3375 
N332 X-184.969 Y-17.243 Z-15.982 A181.3359 
N333 X-184.969 Y-14.761 Z-15.970 
N334 X-184.969 Y-12.221 Z-15.958 
N335 X-184.969 Y-9.664 Z-15.947 A181.3450 
N336 X-184.969 Y-7.133 Z-15.938 A181.3626 
N337 X-184.969 Y-4.667 Z-15.929 A181.3781 
N338 X-184.969 Y-2.305 Z-15.917 A181.3774 
N339 X-184.969 Y-0.074 Z-15.901 A181.3359 
N340 X-184.969 Y1.998 Z-15.896 
N341 X-184.969 Y3.914 Z-15.892 A181.3451 
N342 X-184.969 Y5.648 Z-15.989 A181.9193 
N343 X-184.969 Y7.213 Z-16.224 A183.3391 
N344 X-184.969 Y8.631 Z-16.643 A185.9426 
N345 X-184.969 Y9.950 Z-17.265 A189.9412 
N346 X-184.969 Y11.247 Z-18.100 A195.5126 
N347 X-184.969 Y12.601 Z-19.075 A202.4577 
N348 X-184.969 Y14.066 Z-20.068 A210.3358 
N349 X-184.969 Y15.667 Z-20.978 A218.8329 
N350 X-184.969 Y17.381 Z-21.695 A227.5378 
N351 X-184.969 Y19.130 Z-22.131 A235.9720 
N352 X-184.969 Y20.818 Z-22.249 A243.7673 
N353 X-184.969 Y22.367 Z-22.063 A250.7202 
N354 X-184.969 Y23.721 Z-21.611 A256.7213 
N355 X-184.969 Y24.862 Z-20.940 A261.7977 
N356 X-184.969 Y25.747 Z-20.090 A265.7978 
N357 X-184.969 Y26.351 Z-19.101 A268.5810 
N358 X-184.969 Y26.711 Z-18.009 A270.2980 
N359 X-184.969 Y26.901 Z-16.834 A271.2608 
N360 X-184.969 Y26.983 Z-15.591 A271.7443 
N361 X-184.969 Y27.002 Z-14.290 A271.9411 
N362 X-184.969 Y26.988 Z-12.947 A271.9805 
N363 X-184.969 Y26.962 Z-11.578 A271.9556 
N364 X-184.969 Y26.936 Z-10.202 A271.9224 
N365 X-184.969 Y26.918 Z-8.838 A271.9195 
N366 X-184.969 Y26.903 Z-7.503 
N367 X-184.969 Y26.888 Z-6.214 
N368 X-184.969 Y26.875 Z-4.980 
N369 X-184.969 Y26.895 Z-3.812 A272.1064 
N370 X-184.969 Y27.036 Z-2.721 A272.9663 
N371 X-184.969 Y27.383 Z-1.692 A275.0150 
N372 X-184.969 Y28.017 Z-0.685 A278.7916 
N373 X-184.969 Y28.907 Z0.367 A284.3008 
N374 X-184.969 Y29.943 Z1.532 A291.1550 
N375 X-184.969 Y31.016 Z2.866 A299.0316 
N376 X-184.969 Y32.026 Z4.406 A307.7040 
N377 X-184.969 Y32.857 Z6.149 A316.8884 
N378 X-184.969 Y33.375 Z8.006 A326.0058 
N379 X-184.969 Y33.526 Z9.891 A334.8089 
N380 X-184.969 Y33.273 Z11.653 A342.7606 
N381 X-184.969 Y32.653 Z13.212 A349.7558 
N382 X-184.969 Y31.704 Z14.385 A355.0432 
N383 X-184.969 Y30.506 Z15.125 A358.4188 
N384 X-184.969 Y29.113 Z15.484 A0.0684 
N385 X-184.969 Y27.543 Z15.607 A0.6159 
N386 X-184.969 Y25.798 Z15.631 A0.6845 
N387 X-184.969 Y23.878 Z15.637 A0.6414 
N388 X-184.969 Y21.796 Z15.652 A0.6303 
N389 X-184.969 Y19.566 Z15.672 
N390 X-184.969 Y17.214 Z15.695 
N391 X-184.969 Y14.773 Z15.718 
N392 X-184.969 Y12.281 Z15.743 A0.6356 
N393 X-184.969 Y9.779 Z15.769 A0.6489 
N394 X-184.969 Y7.306 Z15.796 A0.6632 
N395 X-184.969 Y4.903 Z15.821 A0.6717 
N396 X-184.969 Y2.604 Z15.840 A0.6465 
N397 X-184.969 Y0.438 Z15.863 A0.6303 
N398 X-184.969 Y-1.578 Z15.888 
N399 X-184.969 Y-3.441 Z15.923 A0.6999 
N400 X-184.969 Y-5.124 Z16.056 A1.3570 
N401 X-184.969 Y-6.642 Z16.318 A2.8373 
N402 X-184.969 Y-8.020 Z16.784 A5.6174 
N403 X-184.969 Y-9.319 Z17.513 A10.1377 
N404 X-184.969 Y-10.624 Z18.459 A16.3350 
N405 X-184.969 Y-11.992 Z19.465 A23.5393 
N406 X-184.969 Y-13.477 Z20.460 A31.5665 
N407 X-184.969 Y-15.092 Z21.342 A40.0777 
N408 X-184.969 Y-16.792 Z22.000 A48.5898 
N409 X-184.969 Y-18.490 Z22.364 A56.6483 
N410 X-184.969 Y-20.097 Z22.420 A63.9456 
N411 X-184.969 Y-21.548 Z22.191 A70.3392 
N412 X-184.969 Y-22.811 Z21.720 A75.8070 
N413 X-184.969 Y-23.867 Z21.050 A80.3675 
N414 X-184.969 Y-24.691 Z20.215 A83.9184 
N415 X-184.969 Y-25.292 Z19.250 A86.5158 
N416 X-184.969 Y-25.708 Z18.183 A88.3239 
N417 X-184.969 Y-25.976 Z17.033 A89.4954 
N418 X-184.969 Y-26.131 Z15.815 A90.1739 
N419 X-184.969 Y-26.210 Z14.543 A90.5091 
N420 X-184.969 Y-26.245 Z13.231 A90.6429 
N421 X-184.969 Y-26.263 Z11.896 A90.6915 
N422 X-184.969 Y-26.279 Z10.555 A90.7416 
N423 X-184.969 Y-26.309 Z9.225 A90.8731 
N424 X-184.969 Y-26.367 Z7.923 A91.1733 
N425 X-184.969 Y-26.469 Z6.662 A91.7488 
N426 X-184.969 Y-26.637 Z5.453 A92.7457 
N427 X-184.969 Y-26.899 Z4.297 A94.3578 
N428 X-184.969 Y-27.284 Z3.186 A96.7922 
N429 X-184.969 Y-27.799 Z2.101 A100.1513 
N430 X-184.969 Y-28.419 Z1.014 A104.3872 
N431 X-184.969 Y-29.119 Z-0.108 A109.4494 
N432 X-184.969 Y-29.874 Z-1.308 A115.3432 
N433 X-184.969 Y-30.636 Z-2.620 A121.9788 
N434 X-184.969 Y-31.343 Z-4.072 A129.2465 
N435 X-184.969 Y-31.912 Z-5.659 A136.9358 
N436 X-184.969 Y-32.259 Z-7.342 A144.7480 
N437 X-184.969 Y-32.317 Z-9.044 A152.3425 
N438 X-184.969 Y-32.052 Z-10.674 A159.3985 
N439 X-184.969 Y-31.470 Z-12.153 A165.7122 
N440 X-184.969 Y-30.593 Z-13.414 A171.0996 
N441 X-184.969 Y-29.459 Z-14.410 A175.4307 
N442 X-184.969 Y-28.103 Z-15.089 A178.4524 
N443 X-184.969 Y-26.560 Z-15.470 A180.2042 
N444 X-184.969 Y-24.849 Z-15.645 A181.0589 
N445 X-184.969 Y-22.979 Z-15.703 A181.4046 
N446 X-184.969 Y-20.960 Z-15.707 A181.5050 
N447 X-184.969 Y-18.809 Z-15.689 A181.5039 
N448 X-184.969 Y-16.547 Z-15.667 A181.4803 
N449 X-184.969 Y-14.204 Z-15.651 
N450 X-184.969 Y-11.812 Z-15.635 
N451 X-184.969 Y-9.409 Z-15.621 A181.4922 
N452 X-184.969 Y-7.032 Z-15.607 A181.5022 
N453 X-184.969 Y-4.717 Z-15.592 A181.4987 
N454 X-184.969 Y-2.495 Z-15.575 A181.4803 
N455 X-184.969 Y-0.393 Z-15.564 
N456 X-184.969 Y1.578 Z-15.558 A181.5054 
N457 X-184.969 Y3.394 Z-15.637 A182.0171 
N458 X-184.969 Y5.060 Z-15.857 A183.3854 
N459 X-184.969 Y6.592 Z-16.271 A186.0116 
N460 X-184.969 Y8.028 Z-16.861 A189.9227 
N461 X-184.969 Y9.415 Z-17.571 A194.9254 
N462 X-184.969 Y10.799 Z-18.348 A200.8387 
N463 X-184.969 Y12.215 Z-19.121 A207.3808 
N464 X-184.969 Y13.692 Z-19.845 A214.4285 
N465 X-184.969 Y15.237 Z-20.458 A221.7717 
N466 X-184.969 Y16.828 Z-20.896 A229.1529 
N467 X-184.969 Y18.420 Z-21.116 A236.3245 
N468 X-184.969 Y19.963 Z-21.096 A243.0940 
N469 X-184.969 Y21.408 Z-20.838 A249.3223 
N470 X-184.969 Y22.718 Z-20.357 A254.9325 
N471 X-184.969 Y23.882 Z-19.682 A259.9693 
N472 X-184.969 Y24.839 Z-18.834 A264.1880 
N473 X-184.969 Y25.530 Z-17.847 A267.2860 
N474 X-184.969 Y25.971 Z-16.757 A269.3061 
N475 X-184.969 Y26.225 Z-15.594 A270.5103 
N476 X-184.969 Y26.351 Z-14.376 A271.1497 
N477 X-184.969 Y26.397 Z-13.116 A271.4182 
N478 X-184.969 Y26.399 Z-11.830 A271.4692 
N479 X-184.969 Y26.384 Z-10.535 A271.4267 
N480 X-184.969 Y26.368 Z-9.244 A271.3644 
N481 X-184.969 Y26.367 Z-7.978 
N482 X-184.969 Y26.369 Z-6.745 
N483 X-184.969 Y26.371 Z-5.553 
N484 X-184.969 Y26.391 Z-4.415 A271.4754 
N485 X-184.969 Y26.506 Z-3.351 A272.1236 
N486 X-184.969 Y26.780 Z-2.350 A273.6932 
N487 X-184.969 Y27.316 Z-1.389 A276.8022 
N488 X-184.969 Y28.134 Z-0.406 A281.7039 
N489 X-184.969 Y29.097 Z0.653 A287.8334 
N490 X-184.969 Y30.083 Z1.821 A294.7032 
N491 X-184.969 Y31.059 Z3.148 A302.3467 
N492 X-184.969 Y31.960 Z4.672 A310.7205 
N493 X-184.969 Y32.685 Z6.391 A319.6100 
N494 X-184.969 Y33.122 Z8.240 A328.6172 
N495 X-184.969 Y33.184 Z10.088 A337.2111 
N496 X-184.969 Y32.867 Z11.847 A345.2271 
N497 X-184.969 Y32.181 Z13.363 A352.1543 
N498 X-184.969 Y31.177 Z14.348 A356.6389 
N499 X-184.969 Y29.957 Z14.890 A359.1088 
N500 X-184.969 Y28.561 Z15.133 A0.2071 
N501 X-184.969 Y26.997 Z15.211 A0.5208 
N502 X-184.969 Y25.264 Z15.226 A0.5117 
N503 X-184.969 Y23.365 Z15.238 A0.4595 
N504 X-184.969 Y21.314 Z15.264 
N505 X-184.969 Y19.125 Z15.294 
N506 X-184.969 Y16.826 Z15.325 
N507 X-184.969 Y14.453 Z15.359 A0.4668 
N508 X-184.969 Y12.042 Z15.393 A0.4750 
N509 X-184.969 Y9.632 Z15.428 A0.4852 
N510 X-184.969 Y7.260 Z15.462 A0.4950 
N511 X-184.969 Y4.962 Z15.494 A0.4904 
N512 X-184.969 Y2.769 Z15.521 A0.4595 
N513 X-184.969 Y0.707 Z15.555 
N514 X-184.969 Y-1.226 Z15.586 
N515 X-184.969 Y-2.994 Z15.728 A1.1111 
N516 X-184.969 Y-4.610 Z16.031 A2.7778 
N517 X-184.969 Y-6.093 Z16.528 A5.7543 
N518 X-184.969 Y-7.489 Z17.200 A10.0498 
N519 X-184.969 Y-8.855 Z18.007 A15.5603 
N520 X-184.969 Y-10.241 Z18.866 A21.9713 
N521 X-184.969 Y-11.680 Z19.701 A28.9717 
N522 X-184.969 Y-13.188 Z20.450 A36.3597 
N523 X-184.969 Y-14.746 Z21.040 A43.8078 
N524 X-184.969 Y-16.310 Z21.415 A51.0034 
N525 X-184.969 Y-17.824 Z21.552 A57.7122 
N526 X-184.969 Y-19.242 Z21.453 A63.7941 
N527 X-184.969 Y-20.531 Z21.139 A69.1915 
N528 X-184.969 Y-21.668 Z20.636 A73.8727 
N529 X-184.969 Y-22.647 Z19.970 A77.8644 
N530 X-184.969 Y-23.464 Z19.167 A81.1813 
N531 X-184.969 Y-24.125 Z18.252 A83.8704 
N532 X-184.969 Y-24.645 Z17.243 A85.9965 
N533 X-184.969 Y-25.037 Z16.160 A87.6135 
N534 X-184.969 Y-25.321 Z15.018 A88.7925 
N535 X-184.969 Y-25.522 Z13.833 A89.6434 
N536 X-184.969 Y-25.668 Z12.620 A90.2895 
N537 X-184.969 Y-25.786 Z11.393 A90.8502 
N538 X-184.969 Y-25.898 Z10.165 A91.4441 
N539 X-184.969 Y-26.028 Z8.949 A92.2062 
N540 X-184.969 Y-26.198 Z7.754 A93.2677 
N541 X-184.969 Y-26.422 Z6.589 A94.7327 
N542 X-184.969 Y-26.705 Z5.454 A96.6682 
N543 X-184.969 Y-27.053 Z4.346 A99.1381 
N544 X-184.969 Y-27.470 Z3.255 A102.2009 
N545 X-184.969 Y-27.948 Z2.164 A105.8784 
N546 X-184.969 Y-28.478 Z1.053 A110.1729 
N547 X-184.969 Y-29.043 Z-0.104 A115.0898 
N548 X-184.969 Y-29.614 Z-1.332 A120.5816 
N549 X-184.969 Y-30.152 Z-2.650 A126.5937 
N550 X-184.969 Y-30.608 Z-4.067 A133.0254 
N551 X-184.969 Y-30.926 Z-5.577 A139.7361 
N552 X-184.969 Y-31.049 Z-7.146 A146.5344 
N553 X-184.969 Y-30.928 Z-8.724 A153.2000 
N554 X-184.969 Y-30.535 Z-10.242 A159.4972 
N555 X-184.969 Y-29.866 Z-11.639 A165.2438 
N556 X-184.969 Y-28.936 Z-12.879 A170.3986 
N557 X-184.969 Y-27.763 Z-13.905 A174.7740 
N558 X-184.969 Y-26.375 Z-14.633 A177.9652 
N559 X-184.969 Y-24.808 Z-15.072 A179.9551 
N560 X-184.969 Y-23.088 Z-15.296 A181.0465 
N561 X-184.969 Y-21.230 Z-15.382 A181.5454 
N562 X-184.969 Y-19.247 Z-15.390 A181.6965 
N563 X-184.969 Y-17.157 Z-15.365 A181.6871 
N564 X-184.969 Y-14.983 Z-15.336 A181.6546 
N565 X-184.969 Y-12.752 Z-15.316 
N566 X-184.969 Y-10.494 Z-15.298 A181.6597 
N567 X-184.969 Y-8.245 Z-15.281 A181.6695 
N568 X-184.969 Y-6.035 Z-15.261 A181.6546 
N569 X-184.969 Y-3.897 Z-15.246 
N570 X-184.969 Y-1.849 Z-15.232 
N571 X-184.969 Y0.089 Z-15.240 A181.7874 
N572 X-184.969 Y1.893 Z-15.334 A182.4217 
N573 X-184.969 Y3.566 Z-15.563 A183.9089 
N574 X-184.969 Y5.124 Z-15.984 A186.6612 
N575 X-184.969 Y6.603 Z-16.572 A190.6765 
N576 X-184.969 Y8.033 Z-17.231 A195.5458 
N577 X-184.969 Y9.441 Z-17.901 A201.0123 
N578 X-184.969 Y10.861 Z-18.561 A207.0164 
N579 X-184.969 Y12.316 Z-19.172 A213.4404 
N580 X-184.969 Y13.812 Z-19.687 A220.1204 
N581 X-184.969 Y15.339 Z-20.061 A226.8781 
N582 X-184.969 Y16.871 Z-20.254 A233.5329 
N583 X-184.969 Y18.375 Z-20.245 A239.9331 
N584 X-184.969 Y19.809 Z-20.025 A245.9469 
N585 X-184.969 Y21.139 Z-19.598 A251.4798 
N586 X-184.969 Y22.340 Z-18.983 A256.4920 
N587 X-184.969 Y23.392 Z-18.201 A260.9510 
N588 X-184.969 Y24.227 Z-17.270 A264.5389 
N589 X-184.969 Y24.808 Z-16.226 A267.0507 
N590 X-184.969 Y25.172 Z-15.104 A268.6157 
N591 X-184.969 Y25.382 Z-13.927 A269.4997 
N592 X-184.969 Y25.494 Z-12.715 A269.9384 
N593 X-184.969 Y25.547 Z-11.482 A270.0974 
N594 X-184.969 Y25.571 Z-10.244 A270.1046 
N595 X-184.969 Y25.583 Z-9.018 A270.0371 
N596 X-184.969 Y25.603 Z-7.818 A269.9905 
N597 X-184.969 Y25.635 Z-6.655 
N598 X-184.969 Y25.666 Z-5.526 
N599 X-184.969 Y25.734 Z-4.446 A270.2091 
N600 X-184.969 Y25.920 Z-3.440 A271.1129 
N601 X-184.969 Y26.258 Z-2.496 A272.9234 
N602 X-184.969 Y26.825 Z-1.591 A276.1218 
N603 X-184.969 Y27.661 Z-0.666 A281.0195 
N604 X-184.969 Y28.647 Z0.336 A287.1566 
N605 X-184.969 Y29.614 Z1.430 A293.7510 
N606 X-184.969 Y30.566 Z2.662 A300.9893 
N607 X-184.969 Y31.463 Z4.075 A308.9156 
N608 X-184.969 Y32.230 Z5.689 A317.4641 
N609 X-184.969 Y32.767 Z7.478 A326.3988 
N610 X-184.969 Y32.966 Z9.336 A335.2346 
N611 X-184.969 Y32.786 Z11.153 A343.6371 
N612 X-184.969 Y32.231 Z12.826 A351.4043 
N613 X-184.969 Y31.319 Z13.908 A356.4035 
N614 X-184.969 Y30.181 Z14.447 A358.8571 
N615 X-184.969 Y28.873 Z14.686 A359.9116 
N616 X-184.969 Y27.401 Z14.776 A0.2557 
N617 X-184.969 Y25.764 Z14.804 A0.2893 
N618 X-184.969 Y23.964 Z14.820 A0.2367 
N619 X-184.969 Y22.013 Z14.848 A0.2258 
N620 X-184.969 Y19.924 Z14.883 
N621 X-184.969 Y17.720 Z14.920 
N622 X-184.969 Y15.434 Z14.960 A0.2389 
N623 X-184.969 Y13.101 Z15.001 A0.2509 
N624 X-184.969 Y10.758 Z15.040 A0.2543 
N625 X-184.969 Y8.441 Z15.078 A0.2454 
N626 X-184.969 Y6.184 Z15.114 A0.2258 
N627 X-184.969 Y4.019 Z15.153 
N628 X-184.969 Y1.963 Z15.191 
N629 X-184.969 Y0.037 Z15.257 A0.4083 
N630 X-184.969 Y-1.739 Z15.431 A1.2494 
N631 X-184.969 Y-3.374 Z15.779 A3.1969 
N632 X-184.969 Y-4.894 Z16.337 A6.5874 
N633 X-184.969 Y-6.343 Z17.042 A11.2128 
N634 X-184.969 Y-7.761 Z17.809 A16.7093 
N635 X-184.969 Y-9.186 Z18.588 A22.8878 
N636 X-184.969 Y-10.640 Z19.320 A29.5052 
N637 X-184.969 Y-12.125 Z19.948 A36.3178 
N638 X-184.969 Y-13.620 Z20.420 A43.0558 
N639 X-184.969 Y-15.090 Z20.703 A49.4892 
N640 X-184.969 Y-16.501 Z20.786 A55.4691 
N641 X-184.969 Y-17.826 Z20.677 A60.9220 
N642 X-184.969 Y-19.044 Z20.391 A65.8236 
N643 X-184.969 Y-20.148 Z19.948 A70.1823 
N644 X-184.969 Y-21.130 Z19.365 A74.0168 
N645 X-184.969 Y-21.993 Z18.662 A77.3624 
N646 X-184.969 Y-22.738 Z17.857 A80.2512 
N647 X-184.969 Y-23.373 Z16.964 A82.7284 
N648 X-184.969 Y-23.908 Z15.999 A84.8481 
N649 X-184.969 Y-24.354 Z14.977 A86.6640 
N650 X-184.969 Y-24.726 Z13.911 A88.2455 
N651 X-184.969 Y-25.042 Z12.813 A89.6747 
N652 X-184.969 Y-25.318 Z11.696 A91.0379 
N653 X-184.969 Y-25.571 Z10.571 A92.4193 
N654 X-184.969 Y-25.817 Z9.445 A93.9066 
N655 X-184.969 Y-26.069 Z8.326 A95.5847 
N656 X-184.969 Y-26.339 Z7.219 A97.5259 
N657 X-184.969 Y-26.634 Z6.124 A99.7838 
N658 X-184.969 Y-26.957 Z5.039 A102.4075 
N659 X-184.969 Y-27.310 Z3.958 A105.4344 
N660 X-184.969 Y-27.691 Z2.870 A108.8839 
N661 X-184.969 Y-28.091 Z1.763 A112.7699 
N662 X-184.969 Y-28.501 Z0.622 A117.0963 
N663 X-184.969 Y-28.902 Z-0.570 A121.8517 
N664 X-184.969 Y-29.270 Z-1.827 A127.0163 
N665 X-184.969 Y-29.573 Z-3.158 A132.5490 
N666 X-184.969 Y-29.773 Z-4.565 A138.3839 
N667 X-184.969 Y-29.828 Z-6.035 A144.4199 
N668 X-184.969 Y-29.693 Z-7.538 A150.5166 
N669 X-184.969 Y-29.334 Z-9.027 A156.4937 
N670 X-184.969 Y-28.729 Z-10.446 A162.1639 
N671 X-184.969 Y-27.879 Z-11.750 A167.4210 
N672 X-184.969 Y-26.793 Z-12.906 A172.2030 
N673 X-184.969 Y-25.486 Z-13.816 A176.0849 
N674 X-184.969 Y-23.993 Z-14.435 A178.8156 
N675 X-184.969 Y-22.349 Z-14.800 A180.5181 
N676 X-184.969 Y-20.578 Z-14.974 A181.4171 
N677 X-184.969 Y-18.696 Z-15.020 A181.7590 
N678 X-184.969 Y-16.720 Z-15.002 A181.8025 
N679 X-184.969 Y-14.670 Z-14.969 A181.7615 
N680 X-184.969 Y-12.571 Z-14.943 A181.7468 
N681 X-184.969 Y-10.449 Z-14.924 A181.7605 
N682 X-184.969 Y-8.334 Z-14.904 A181.7642 
N683 X-184.969 Y-6.256 Z-14.883 A181.7468 
N684 X-184.969 Y-4.240 Z-14.869 
N685 X-184.969 Y-2.294 Z-14.854 
N686 X-184.969 Y-0.456 Z-14.912 A182.1663 
N687 X-184.969 Y1.269 Z-15.068 A183.2086 
N688 X-184.969 Y2.884 Z-15.369 A185.2021 
N689 X-184.969 Y4.409 Z-15.843 A188.4164 
N690 X-184.969 Y5.878 Z-16.446 A192.7407 
N691 X-184.969 Y7.311 Z-17.073 A197.6955 
N692 X-184.969 Y8.728 Z-17.683 A203.0977 
N693 X-184.969 Y10.158 Z-18.268 A208.9564 
N694 X-184.969 Y11.617 Z-18.789 A215.1560 
N695 X-184.969 Y13.107 Z-19.207 A221.5458 
N696 X-184.969 Y14.617 Z-19.483 A227.9774 
N697 X-184.969 Y16.124 Z-19.586 A234.3001 
N698 X-184.969 Y17.596 Z-19.497 A240.3827 
N699 X-184.969 Y18.996 Z-19.210 A246.1005 
N700 X-184.969 Y20.292 Z-18.729 A251.3678 
N701 X-184.969 Y21.453 Z-18.070 A256.0904 
N702 X-184.969 Y22.457 Z-17.255 A260.2211 
N703 X-184.969 Y23.256 Z-16.306 A263.5295 
N704 X-184.969 Y23.813 Z-15.254 A265.8025 
N705 X-184.969 Y24.157 Z-14.134 A267.1200 
N706 X-184.969 Y24.354 Z-12.969 A267.7673 
N707 X-184.969 Y24.471 Z-11.781 A268.0380 
N708 X-184.969 Y24.549 Z-10.584 A268.1196 
N709 X-184.969 Y24.611 Z-9.395 A268.1169 
N710 X-184.969 Y24.663 Z-8.228 A268.0503 
N711 X-184.969 Y24.722 Z-7.101 A268.0095 
N712 X-184.969 Y24.789 Z-6.015 
N713 X-184.969 Y24.853 Z-4.956 
N714 X-184.969 Y25.057 Z-3.978 A268.8017 
N715 X-184.969 Y25.421 Z-3.064 A270.5452 
N716 X-184.969 Y25.977 Z-2.201 A273.4815 
N717 X-184.969 Y26.729 Z-1.349 A277.6933 
N718 X-184.969 Y27.658 Z-0.453 A283.1820 
N719 X-184.969 Y28.651 Z0.529 A289.4757 
N720 X-184.969 Y29.616 Z1.614 A296.1920 
N721 X-184.969 Y30.553 Z2.848 A303.5122 
N722 X-184.969 Y31.414 Z4.264 A311.4469 
N723 X-184.969 Y32.130 Z5.879 A319.9532 
N724 X-184.969 Y32.604 Z7.659 A328.8119 
N725 X-184.969 Y32.740 Z9.500 A337.5701 
N726 X-184.969 Y32.507 Z11.317 A346.0562 
N727 X-184.969 Y31.887 Z12.892 A353.4423 
N728 X-184.969 Y30.943 Z13.783 A357.5911 
N729 X-184.969 Y29.803 Z14.169 A359.3422 
N730 X-184.969 Y28.504 Z14.321 A359.9754 
N731 X-184.969 Y27.046 Z14.378 A0.1454 
N732 X-184.969 Y25.426 Z14.403 A0.1443 
N733 X-184.969 Y23.648 Z14.426 A0.1079 
N734 X-184.969 Y21.725 Z14.460 
N735 X-184.969 Y19.672 Z14.498 
N736 X-184.969 Y17.513 Z14.538 A0.1104 
N737 X-184.969 Y15.281 Z14.583 A0.1330 
N738 X-184.969 Y13.010 Z14.627 A0.1484 
N739 X-184.969 Y10.734 Z14.668 A0.1493 
N740 X-184.969 Y8.488 Z14.704 A0.1126 
N741 X-184.969 Y6.307 Z14.747 A0.1079 
N742 X-184.969 Y4.209 Z14.791 
N743 X-184.969 Y2.215 Z14.852 A0.2265 
N744 X-184.969 Y0.355 Z15.002 A0.8959 
N745 X-184.969 Y-1.371 Z15.285 A2.4341 
N746 X-184.969 Y-2.979 Z15.765 A5.3050 
N747 X-184.969 Y-4.507 Z16.424 A9.5550 
N748 X-184.969 Y-5.988 Z17.148 A14.6940 
N749 X-184.969 Y-7.447 Z17.861 A20.3681 
N750 X-184.969 Y-8.904 Z18.532 A26.4403 
N751 X-184.969 Y-10.362 Z19.112 A32.6712 
N752 X-184.969 Y-11.807 Z19.558 A38.8242 
N753 X-184.969 Y-13.218 Z19.847 A44.7208 
N754 X-184.969 Y-14.572 Z19.972 A50.2452 
N755 X-184.969 Y-15.854 Z19.940 A55.3496 
N756 X-184.969 Y-17.054 Z19.761 A60.0304 
N757 X-184.969 Y-18.169 Z19.449 A64.3066 
N758 X-184.969 Y-19.198 Z19.020 A68.2102 
N759 X-184.969 Y-20.141 Z18.484 A71.7737 
N760 X-184.969 Y-21.002 Z17.854 A75.0324 
N761 X-184.969 Y-21.783 Z17.140 A78.0202 
N762 X-184.969 Y-22.488 Z16.353 A80.7725 
N763 X-184.969 Y-23.122 Z15.503 A83.3277 
N764 X-184.969 Y-23.691 Z14.600 A85.7252 
N765 X-184.969 Y-24.202 Z13.654 A88.0077 
N766 X-184.969 Y-24.662 Z12.672 A90.2204 
N767 X-184.969 Y-25.080 Z11.663 A92.4087 
N768 X-184.969 Y-25.463 Z10.635 A94.6171 
N769 X-184.969 Y-25.817 Z9.592 A96.8874 
N770 X-184.969 Y-26.149 Z8.541 A99.2585 
N771 X-184.969 Y-26.463 Z7.483 A101.7635 
N772 X-184.969 Y-26.763 Z6.420 A104.4312 
N773 X-184.969 Y-27.052 Z5.352 A107.2873 
N774 X-184.969 Y-27.330 Z4.276 A110.3529 
N775 X-184.969 Y-27.595 Z3.188 A113.6484 
N776 X-184.969 Y-27.846 Z2.081 A117.1937 
N777 X-184.969 Y-28.078 Z0.946 A121.0087 
N778 X-184.969 Y-28.281 Z-0.226 A125.1155 
N779 X-184.969 Y-28.445 Z-1.446 A129.5318 
N780 X-184.969 Y-28.550 Z-2.725 A134.2691 
N781 X-184.969 Y-28.572 Z-4.068 A139.3236 
N782 X-184.969 Y-28.479 Z-5.472 A144.6621 
N783 X-184.969 Y-28.235 Z-6.920 A150.2054 
N784 X-184.969 Y-27.803 Z-8.377 A155.8116 
N785 X-184.969 Y-27.154 Z-9.794 A161.3078 
N786 X-184.969 Y-26.278 Z-11.125 A166.5634 
N787 X-184.969 Y-25.179 Z-12.324 A171.4556 
N788 X-184.969 Y-23.866 Z-13.292 A175.5449 
N789 X-184.969 Y-22.376 Z-13.978 A178.5699 
N790 X-184.969 Y-20.747 Z-14.398 A180.5392 
N791 X-184.969 Y-19.009 Z-14.595 A181.5783 
N792 X-184.969 Y-17.182 Z-14.642 A181.9547 
N793 X-184.969 Y-15.282 Z-14.619 A181.9957 
N794 X-184.969 Y-13.328 Z-14.581 A181.9630 
N795 X-184.969 Y-11.342 Z-14.551 A181.9560 
N796 X-184.969 Y-9.350 Z-14.525 A181.9673 
N797 X-184.969 Y-7.377 Z-14.496 A181.9451 
N798 X-184.969 Y-5.450 Z-14.474 
N799 X-184.969 Y-3.577 Z-14.454 
N800 X-184.969 Y-1.783 Z-14.487 A182.2546 
N801 X-184.969 Y-0.086 Z-14.631 A183.2337 
N802 X-184.969 Y1.514 Z-14.902 A185.0654 
N803 X-184.969 Y3.033 Z-15.323 A187.9663 
N804 X-184.969 Y4.498 Z-15.877 A191.9610 
N805 X-184.969 Y5.933 Z-16.485 A196.7226 
N806 X-184.969 Y7.351 Z-17.074 A201.9115 
N807 X-184.969 Y8.779 Z-17.638 A207.5447 
N808 X-184.969 Y10.234 Z-18.148 A213.5433 
N809 X-184.969 Y11.720 Z-18.564 A219.7701 
N810 X-184.969 Y13.229 Z-18.849 A226.0791 
N811 X-184.969 Y14.740 Z-18.970 A232.3199 
N812 X-184.969 Y16.221 Z-18.905 A238.3477 
N813 X-184.969 Y17.637 Z-18.645 A244.0366 
N814 X-184.969 Y18.956 Z-18.194 A249.2943 
N815 X-184.969 Y20.144 Z-17.564 A254.0166 
N816 X-184.969 Y21.159 Z-16.774 A258.0364 
N817 X-184.969 Y21.981 Z-15.854 A261.2723 
N818 X-184.969 Y22.593 Z-14.832 A263.6251 
N819 X-184.969 Y22.998 Z-13.740 A265.0554 
N820 X-184.969 Y23.239 Z-12.604 A265.7264 
N821 X-184.969 Y23.382 Z-11.446 A265.9161 
N822 X-184.969 Y23.485 Z-10.285 A265.9017 
N823 X-184.969 Y23.579 Z-9.136 A265.8333 
N824 X-184.969 Y23.685 Z-8.016 A265.8206 
N825 X-184.969 Y23.791 Z-6.930 
N826 X-184.969 Y23.894 Z-5.880 
N827 X-184.969 Y24.034 Z-4.885 A266.0535 
N828 X-184.969 Y24.295 Z-3.967 A267.0064 
N829 X-184.969 Y24.735 Z-3.119 A269.0322 
N830 X-184.969 Y25.402 Z-2.319 A272.4501 
N831 X-184.969 Y26.252 Z-1.520 A277.0999 
N832 X-184.969 Y27.196 Z-0.680 A282.5822 
N833 X-184.969 Y28.185 Z0.239 A288.7257 
N834 X-184.969 Y29.168 Z1.266 A295.3740 
N835 X-184.969 Y30.126 Z2.440 A302.5947 
N836 X-184.969 Y31.018 Z3.794 A310.4176 
N837 X-184.969 Y31.780 Z5.350 A318.8242 
N838 X-184.969 Y32.322 Z7.087 A327.6479 
N839 X-184.969 Y32.539 Z8.907 A336.4366 
N840 X-184.969 Y32.391 Z10.711 A344.9286 
N841 X-184.969 Y31.867 Z12.349 A352.6579 
N842 X-184.969 Y31.001 Z13.330 A357.2552 
N843 X-184.969 Y29.932 Z13.751 A359.1795 
N844 X-184.969 Y28.707 Z13.911 A359.8500 
N845 X-184.969 Y27.325 Z13.972 A0.0292 
N846 X-184.969 Y25.785 Z14.000 A0.0361 
N847 X-184.969 Y24.089 Z14.024 A0.0021 
N848 X-184.969 Y22.249 Z14.059 A0.0006 
N849 X-184.969 Y20.275 Z14.098 
N850 X-184.969 Y18.193 Z14.140 A0.0022 
N851 X-184.969 Y16.032 Z14.187 A0.0279 
N852 X-184.969 Y13.823 Z14.233 A0.0477 
N853 X-184.969 Y11.600 Z14.277 A0.0518 
N854 X-184.969 Y9.397 Z14.313 A0.0067 
N855 X-184.969 Y7.248 Z14.358 A0.0006 
N856 X-184.969 Y5.170 Z14.405 
N857 X-184.969 Y3.186 Z14.486 A0.2197 
N858 X-184.969 Y1.325 Z14.668 A1.0720 
N859 X-184.969 Y-0.414 Z14.989 A2.8530 
N860 X-184.969 Y-2.045 Z15.495 A5.9420 
N861 X-184.969 Y-3.606 Z16.152 A10.2959 
N862 X-184.969 Y-5.117 Z16.837 A15.3557 
N863 X-184.969 Y-6.591 Z17.480 A20.7625 
N864 X-184.969 Y-8.040 Z18.060 A26.4021 
N865 X-184.969 Y-9.462 Z18.543 A32.0787 
N866 X-184.969 Y-10.846 Z18.905 A37.6196 
N867 X-184.969 Y-12.181 Z19.137 A42.9163 
N868 X-184.969 Y-13.457 Z19.240 A47.9117 
N869 X-184.969 Y-14.670 Z19.220 A52.5979 
N870 X-184.969 Y-15.820 Z19.089 A56.9925 
N871 X-184.969 Y-16.907 Z18.854 A61.1245 
N872 X-184.969 Y-17.936 Z18.526 A65.0261 
N873 X-184.969 Y-18.906 Z18.109 A68.7275 
N874 X-184.969 Y-19.821 Z17.612 A72.2548 
N875 X-184.969 Y-20.680 Z17.038 A75.6308 
N876 X-184.969 Y-21.483 Z16.393 A78.8751 
N877 X-184.969 Y-22.232 Z15.682 A82.0055 
N878 X-184.969 Y-22.924 Z14.912 A85.0387 
N879 X-184.969 Y-23.562 Z14.087 A87.9907 
N880 X-184.969 Y-24.144 Z13.214 A90.8767 
N881 X-184.969 Y-24.672 Z12.298 A93.7114 
N882 X-184.969 Y-25.146 Z11.345 A96.5088 
N883 X-184.969 Y-25.567 Z10.361 A99.2817 
N884 X-184.969 Y-25.937 Z9.352 A102.0423 
N885 X-184.969 Y-26.257 Z8.322 A104.8023 
N886 X-184.969 Y-26.529 Z7.277 A107.5744 
N887 X-184.969 Y-26.755 Z6.220 A110.3725 
N888 X-184.969 Y-26.938 Z5.152 A113.2148 
N889 X-184.969 Y-27.081 Z4.075 A116.1260 
N890 X-184.969 Y-27.187 Z2.987 A119.1396 
N891 X-184.969 Y-27.261 Z1.881 A122.3018 
N892 X-184.969 Y-27.304 Z0.750 A125.6697 
N893 X-184.969 Y-27.316 Z-0.417 A129.3061 
N894 X-184.969 Y-27.292 Z-1.634 A133.2739 
N895 X-184.969 Y-27.217 Z-2.912 A137.6250 
N896 X-184.969 Y-27.069 Z-4.260 A142.3828 
N897 X-184.969 Y-26.816 Z-5.674 A147.5189 
N898 X-184.969 Y-26.416 Z-7.130 A152.9347 
N899 X-184.969 Y-25.833 Z-8.589 A158.4663 
N900 X-184.969 Y-25.038 Z-9.993 A163.9090 
N901 X-184.969 Y-24.025 Z-11.290 A169.0930 
N902 X-184.969 Y-22.800 Z-12.392 A173.6670 
N903 X-184.969 Y-21.393 Z-13.238 A177.3332 
N904 X-184.969 Y-19.846 Z-13.801 A179.9249 
N905 X-184.969 Y-18.194 Z-14.096 A181.4144 
N906 X-184.969 Y-16.465 Z-14.195 A182.0488 
N907 X-184.969 Y-14.675 Z-14.191 A182.2128 
N908 X-184.969 Y-12.839 Z-14.156 A182.2234 
N909 X-184.969 Y-10.978 Z-14.118 A182.2192 
N910 X-184.969 Y-9.113 Z-14.081 A182.2075 
N911 X-184.969 Y-7.267 Z-14.044 A182.1789 
N912 X-184.969 Y-5.461 Z-14.016 
N913 X-184.969 Y-3.695 Z-13.989 A182.1845 
N914 X-184.969 Y-2.010 Z-14.064 A182.7687 
N915 X-184.969 Y-0.404 Z-14.253 A184.0695 
N916 X-184.969 Y1.124 Z-14.575 A186.2845 
N917 X-184.969 Y2.591 Z-15.025 A189.4882 
N918 X-184.969 Y4.021 Z-15.577 A193.6386 
N919 X-184.969 Y5.435 Z-16.162 A198.4459 
N920 X-184.969 Y6.849 Z-16.730 A203.7067 
N921 X-184.969 Y8.285 Z-17.267 A209.4098 
N922 X-184.969 Y9.754 Z-17.737 A215.4445 
N923 X-184.969 Y11.257 Z-18.101 A221.6651 
N924 X-184.969 Y12.775 Z-18.318 A227.9131 
N925 X-184.969 Y14.283 Z-18.362 A234.0281 
N926 X-184.969 Y15.743 Z-18.213 A239.8549 
N927 X-184.969 Y17.118 Z-17.868 A245.2626 
N928 X-184.969 Y18.379 Z-17.341 A250.1755 
N929 X-184.969 Y19.489 Z-16.647 A254.4695 
N930 X-184.969 Y20.396 Z-15.805 A257.8960 
N931 X-184.969 Y21.089 Z-14.849 A260.3953 
N932 X-184.969 Y21.595 Z-13.814 A262.0751 
N933 X-184.969 Y21.949 Z-12.729 A263.0620 
N934 X-184.969 Y22.187 Z-11.616 A263.5077 
N935 X-184.969 Y22.354 Z-10.496 A263.6026 
N936 X-184.969 Y22.488 Z-9.386 A263.5220 
N937 X-184.969 Y22.619 Z-8.302 A263.4246 
N938 X-184.969 Y22.768 Z-7.257 
N939 X-184.969 Y22.915 Z-6.237 
N940 X-184.969 Y23.113 Z-5.268 A263.7546 
N941 X-184.969 Y23.432 Z-4.382 A264.8283 
N942 X-184.969 Y23.880 Z-3.568 A266.7367 
N943 X-184.969 Y24.494 Z-2.814 A269.7019 
N944 X-184.969 Y25.286 Z-2.083 A273.8400 
N945 X-184.969 Y26.218 Z-1.330 A278.9995 
N946 X-184.969 Y27.190 Z-0.519 A284.7190 
N947 X-184.969 Y28.177 Z0.380 A290.9473 
N948 X-184.969 Y29.158 Z1.401 A297.6927 
N949 X-184.969 Y30.103 Z2.576 A304.9804 
N950 X-184.969 Y30.966 Z3.936 A312.8196 
N951 X-184.969 Y31.680 Z5.488 A321.1639 
N952 X-184.969 Y32.158 Z7.202 A329.8183 
N953 X-184.969 Y32.310 Z8.972 A338.3488 
N954 X-184.969 Y32.112 Z10.725 A346.6282 
N955 X-184.969 Y31.546 Z12.240 A353.7989 
N956 X-184.969 Y30.672 Z13.081 A357.7419 
N957 X-184.969 Y29.615 Z13.438 A359.3651 
N958 X-184.969 Y28.404 Z13.576 A359.9335 
N959 X-184.969 Y27.040 Z13.627 A0.0782 
N960 X-184.969 Y25.521 Z13.652 A0.0715 
N961 X-184.969 Y23.851 Z13.676 A0.0409 
N962 X-184.969 Y22.038 Z13.710 
N963 X-184.969 Y20.098 Z13.748 
N964 X-184.969 Y18.054 Z13.789 A0.0506 
N965 X-184.969 Y15.937 Z13.834 A0.0787 
N966 X-184.969 Y13.775 Z13.879 A0.0985 
N967 X-184.969 Y11.604 Z13.918 A0.0888 
N968 X-184.969 Y9.455 Z13.953 A0.0409 
N969 X-184.969 Y7.359 Z13.999 
N970 X-184.969 Y5.324 Z14.043 
N971 X-184.969 Y3.397 Z14.174 A0.5549 
N972 X-184.969 Y1.582 Z14.413 A1.7878 
N973 X-184.969 Y-0.119 Z14.802 A4.0717 
N974 X-184.969 Y-1.726 Z15.351 A7.5785 
N975 X-184.969 Y-3.267 Z15.984 A12.0178 
N976 X-184.969 Y-4.749 Z16.595 A16.8612 
N977 X-184.969 Y-6.184 Z17.157 A21.9551 
N978 X-184.969 Y-7.579 Z17.655 A27.1979 
N979 X-184.969 Y-8.934 Z18.069 A32.4471 
N980 X-184.969 Y-10.245 Z18.385 A37.5905 
N981 X-184.969 Y-11.509 Z18.598 A42.5653 
N982 X-184.969 Y-12.724 Z18.710 A47.3416 
N983 X-184.969 Y-13.891 Z18.724 A51.9173 
N984 X-184.969 Y-15.010 Z18.647 A56.3062 
N985 X-184.969 Y-16.085 Z18.481 A60.5285 
N986 X-184.969 Y-17.117 Z18.231 A64.6047 
N987 X-184.969 Y-18.106 Z17.900 A68.5525 
N988 X-184.969 Y-19.052 Z17.488 A72.3853 
N989 X-184.969 Y-19.952 Z16.999 A76.1112 
N990 X-184.969 Y-20.802 Z16.435 A79.7347 
N991 X-184.969 Y-21.599 Z15.798 A83.2565 
N992 X-184.969 Y-22.339 Z15.093 A86.6758 
N993 X-184.969 Y-23.016 Z14.324 A89.9902 
N994 X-184.969 Y-23.628 Z13.498 A93.1980 
N995 X-184.969 Y-24.171 Z12.620 A96.2981 
N996 X-184.969 Y-24.644 Z11.697 A99.2918 
N997 X-184.969 Y-25.047 Z10.737 A102.1832 
N998 X-184.969 Y-25.380 Z9.747 A104.9794 
N999 X-184.969 Y-25.646 Z8.733 A107.6926 
N1000 X-184.969 Y-25.849 Z7.702 A110.3395 
N1001 X-184.969 Y-25.994 Z6.658 A112.9433 
N1002 X-184.969 Y-26.087 Z5.603 A115.5369 
N1003 X-184.969 Y-26.136 Z4.539 A118.1625 
N1004 X-184.969 Y-26.148 Z3.461 A120.8765 
N1005 X-184.969 Y-26.132 Z2.365 A123.7487 
N1006 X-184.969 Y-26.092 Z1.240 A126.8545 
N1007 X-184.969 Y-26.030 Z0.075 A130.2667 
N1008 X-184.969 Y-25.939 Z-1.142 A134.0521 
N1009 X-184.969 Y-25.806 Z-2.422 A138.2583 
N1010 X-184.969 Y-25.607 Z-3.771 A142.8984 
N1011 X-184.969 Y-25.308 Z-5.183 A147.9337 
N1012 X-184.969 Y-24.871 Z-6.633 A153.2552 
N1013 X-184.969 Y-24.259 Z-8.079 A158.6954 
N1014 X-184.969 Y-23.446 Z-9.466 A164.0395 
N1015 X-184.969 Y-22.429 Z-10.732 A169.0749 
N1016 X-184.969 Y-21.217 Z-11.813 A173.5373 
N1017 X-184.969 Y-19.841 Z-12.661 A177.2158 
N1018 X-184.969 Y-18.338 Z-13.233 A179.8519 
N1019 X-184.969 Y-16.745 Z-13.539 A181.3871 
N1020 X-184.969 Y-15.089 Z-13.654 A182.1027 
N1021 X-184.969 Y-13.387 Z-13.668 A182.3665 
N1022 X-184.969 Y-11.654 Z-13.641 A182.4358 
N1023 X-184.969 Y-9.908 Z-13.598 A182.4284 
N1024 X-184.969 Y-8.167 Z-13.549 A182.3693 
N1025 X-184.969 Y-6.454 Z-13.514 
N1026 X-184.969 Y-4.770 Z-13.482 
N1027 X-184.969 Y-3.141 Z-13.526 A182.7991 
N1028 X-184.969 Y-1.579 Z-13.687 A183.9431 
N1029 X-184.969 Y-0.081 Z-13.977 A185.9547 
N1030 X-184.969 Y1.363 Z-14.385 A188.8691 
N1031 X-184.969 Y2.772 Z-14.889 A192.6586 
N1032 X-184.969 Y4.169 Z-15.447 A197.1922 
N1033 X-184.969 Y5.571 Z-16.008 A202.2583 
N1034 X-184.969 Y6.999 Z-16.548 A207.8069 
N1035 X-184.969 Y8.465 Z-17.032 A213.7371 
N1036 X-184.969 Y9.970 Z-17.417 A219.9076 
N1037 X-184.969 Y11.500 Z-17.664 A226.1490 
N1038 X-184.969 Y13.025 Z-17.737 A232.2835 
N1039 X-184.969 Y14.506 Z-17.617 A238.1372 
N1040 X-184.969 Y15.904 Z-17.299 A243.5644 
N1041 X-184.969 Y17.179 Z-16.792 A248.4359 
N1042 X-184.969 Y18.306 Z-16.119 A252.6886 
N1043 X-184.969 Y19.240 Z-15.300 A256.1127 
N1044 X-184.969 Y19.941 Z-14.361 A258.4952 
N1045 X-184.969 Y20.433 Z-13.342 A259.9126 
N1046 X-184.969 Y20.777 Z-12.275 A260.6383 
N1047 X-184.969 Y21.033 Z-11.187 A260.9428 
N1048 X-184.969 Y21.242 Z-10.098 A261.0162 
N1049 X-184.969 Y21.425 Z-9.024 A260.9705 
N1050 X-184.969 Y21.600 Z-7.980 A260.8911 
N1051 X-184.969 Y21.785 Z-6.981 
N1052 X-184.969 Y21.966 Z-6.011 
N1053 X-184.969 Y22.227 Z-5.111 A261.3966 
N1054 X-184.969 Y22.630 Z-4.298 A262.7807 
N1055 X-184.969 Y23.201 Z-3.561 A265.2328 
N1056 X-184.969 Y23.932 Z-2.875 A268.7460 
N1057 X-184.969 Y24.791 Z-2.202 A273.1795 
N1058 X-184.969 Y25.752 Z-1.501 A278.4255 
N1059 X-184.969 Y26.753 Z-0.738 A284.2212 
N1060 X-184.969 Y27.756 Z0.112 A290.4342 
N1061 X-184.969 Y28.747 Z1.080 A297.0930 
N1062 X-184.969 Y29.701 Z2.197 A304.2337 
N1063 X-184.969 Y30.579 Z3.492 A311.8960 
N1064 X-184.969 Y31.327 Z4.982 A320.0817 
N1065 X-184.969 Y31.863 Z6.652 A328.6739 
N1066 X-184.969 Y32.094 Z8.410 A337.2636 
N1067 X-184.969 Y31.979 Z10.172 A345.6618 
N1068 X-184.969 Y31.495 Z11.746 A353.1542 
N1069 X-184.969 Y30.690 Z12.669 A357.5172 
N1070 X-184.969 Y29.694 Z13.056 A359.2995 
N1071 X-184.969 Y28.547 Z13.198 A359.8950 
N1072 X-184.969 Y27.251 Z13.251 A0.0448 
N1073 X-184.969 Y25.802 Z13.276 A0.0470 
N1074 X-184.969 Y24.202 Z13.299 A0.0174 
N1075 X-184.969 Y22.462 Z13.332 
N1076 X-184.969 Y20.592 Z13.368 
N1077 X-184.969 Y18.615 Z13.407 A0.0229 
N1078 X-184.969 Y16.560 Z13.451 A0.0508 
N1079 X-184.969 Y14.456 Z13.495 A0.0731 
N1080 X-184.969 Y12.336 Z13.535 A0.0724 
N1081 X-184.969 Y10.229 Z13.566 A0.0174 
N1082 X-184.969 Y8.173 Z13.611 
N1083 X-184.969 Y6.173 Z13.655 
N1084 X-184.969 Y4.270 Z13.772 A0.4522 
N1085 X-184.969 Y2.479 Z13.999 A1.5988 
N1086 X-184.969 Y0.799 Z14.366 A3.7229 
N1087 X-184.969 Y-0.784 Z14.885 A7.0016 
N1088 X-184.969 Y-2.294 Z15.495 A11.2118 
N1089 X-184.969 Y-3.741 Z16.092 A15.8433 
N1090 X-184.969 Y-5.133 Z16.646 A20.7105 
N1091 X-184.969 Y-6.481 Z17.152 A25.7633 
N1092 X-184.969 Y-7.791 Z17.590 A30.8811 
N1093 X-184.969 Y-9.062 Z17.947 A35.9612 
N1094 X-184.969 Y-10.294 Z18.218 A40.9427 
N1095 X-184.969 Y-11.487 Z18.398 A45.7889 
N1096 X-184.969 Y-12.642 Z18.490 A50.4870 
N1097 X-184.969 Y-13.760 Z18.494 A55.0388 
N1098 X-184.969 Y-14.841 Z18.413 A59.4548 
N1099 X-184.969 Y-15.888 Z18.247 A63.7477 
N1100 X-184.969 Y-16.898 Z17.998 A67.9279 
N1101 X-184.969 Y-17.870 Z17.666 A72.0020 
N1102 X-184.969 Y-18.800 Z17.251 A75.9714 
N1103 X-184.969 Y-19.682 Z16.756 A79.8332 
N1104 X-184.969 Y-20.510 Z16.182 A83.5805 
N1105 X-184.969 Y-21.278 Z15.533 A87.2055 
N1106 X-184.969 Y-21.980 Z14.813 A90.6989 
N1107 X-184.969 Y-22.610 Z14.030 A94.0540 
N1108 X-184.969 Y-23.164 Z13.189 A97.2653 
N1109 X-184.969 Y-23.641 Z12.299 A100.3318 
N1110 X-184.969 Y-24.039 Z11.367 A103.2561 
N1111 X-184.969 Y-24.360 Z10.401 A106.0451 
N1112 X-184.969 Y-24.606 Z9.410 A108.7118 
N1113 X-184.969 Y-24.781 Z8.398 A111.2742 
N1114 X-184.969 Y-24.893 Z7.372 A113.7590 
N1115 X-184.969 Y-24.950 Z6.334 A116.2050 
N1116 X-184.969 Y-24.959 Z5.285 A118.6623 
N1117 X-184.969 Y-24.932 Z4.222 A121.1963 
N1118 X-184.969 Y-24.878 Z3.140 A123.8860 
N1119 X-184.969 Y-24.805 Z2.028 A126.8128 
N1120 X-184.969 Y-24.714 Z0.878 A130.0493 
N1121 X-184.969 Y-24.599 Z-0.323 A133.6596 
N1122 X-184.969 Y-24.450 Z-1.583 A137.6887 
N1123 X-184.969 Y-24.243 Z-2.908 A142.1483 
N1124 X-184.969 Y-23.949 Z-4.293 A147.0029 
N1125 X-184.969 Y-23.531 Z-5.716 A152.1559 
N1126 X-184.969 Y-22.956 Z-7.141 A157.4573 
N1127 X-184.969 Y-22.197 Z-8.517 A162.7047 
N1128 X-184.969 Y-21.247 Z-9.787 A167.6887 
N1129 X-184.969 Y-20.115 Z-10.892 A172.1814 
N1130 X-184.969 Y-18.825 Z-11.792 A176.0098 
N1131 X-184.969 Y-17.411 Z-12.444 A178.9333 
N1132 X-184.969 Y-15.909 Z-12.840 A180.8415 
N1133 X-184.969 Y-14.349 Z-13.035 A181.9137 
N1134 X-184.969 Y-12.749 Z-13.100 A182.4199 
N1135 X-184.969 Y-11.126 Z-13.091 A182.5912 
N1136 X-184.969 Y-9.493 Z-13.045 A182.5757 
N1137 X-184.969 Y-7.869 Z-12.996 A182.5367 
N1138 X-184.969 Y-6.263 Z-12.958 
N1139 X-184.969 Y-4.686 Z-12.953 A182.7170 
N1140 X-184.969 Y-3.161 Z-13.048 A183.4809 
N1141 X-184.969 Y-1.687 Z-13.263 A185.0040 
N1142 X-184.969 Y-0.262 Z-13.600 A187.3969 
N1143 X-184.969 Y1.128 Z-14.033 A190.6027 
N1144 X-184.969 Y2.501 Z-14.537 A194.5740 
N1145 X-184.969 Y3.878 Z-15.082 A199.2229 
N1146 X-184.969 Y5.279 Z-15.629 A204.4344 
N1147 X-184.969 Y6.721 Z-16.146 A210.1291 
N1148 X-184.969 Y8.211 Z-16.590 A216.1710 
N1149 X-184.969 Y9.740 Z-16.917 A222.3901 
N1150 X-184.969 Y11.281 Z-17.083 A228.5897 
N1151 X-184.969 Y12.797 Z-17.060 A234.5729 
N1152 X-184.969 Y14.243 Z-16.835 A240.1571 
N1153 X-184.969 Y15.580 Z-16.416 A245.2205 
N1154 X-184.969 Y16.757 Z-15.814 A249.5546 
N1155 X-184.969 Y17.743 Z-15.056 A253.0397 
N1156 X-184.969 Y18.527 Z-14.177 A255.6270 
N1157 X-184.969 Y19.109 Z-13.210 A257.2899 
N1158 X-184.969 Y19.519 Z-12.184 A258.1392 
N1159 X-184.969 Y19.815 Z-11.131 A258.4243 
N1160 X-184.969 Y20.053 Z-10.076 A258.4264 
N1161 X-184.969 Y20.270 Z-9.034 A258.3181 
N1162 X-184.969 Y20.501 Z-8.033 A258.3115 
N1163 X-184.969 Y20.729 Z-7.060 
N1164 X-184.969 Y20.956 Z-6.118 A258.3513 
N1165 X-184.969 Y21.268 Z-5.262 A258.9554 
N1166 X-184.969 Y21.677 Z-4.487 A260.2200 
N1167 X-184.969 Y22.240 Z-3.797 A262.4750 
N1168 X-184.969 Y22.983 Z-3.170 A265.8937 
N1169 X-184.969 Y23.879 Z-2.565 A270.3604 
N1170 X-184.969 Y24.852 Z-1.940 A275.4885 
N1171 X-184.969 Y25.861 Z-1.262 A281.1048 
N1172 X-184.969 Y26.884 Z-0.505 A287.1448 
N1173 X-184.969 Y27.899 Z0.356 A293.5696 
N1174 X-184.969 Y28.884 Z1.348 A300.3951 
N1175 X-184.969 Y29.815 Z2.501 A307.6822 
N1176 X-184.969 Y30.653 Z3.842 A315.4824 
N1177 X-184.969 Y31.335 Z5.380 A323.7880 
N1178 X-184.969 Y31.776 Z7.075 A332.3913 
N1179 X-184.969 Y31.893 Z8.829 A340.9134 
N1180 X-184.969 Y31.661 Z10.553 A349.1652 
N1181 X-184.969 Y31.061 Z11.881 A355.5127 
N1182 X-184.969 Y30.205 Z12.533 A358.5947 
N1183 X-184.969 Y29.188 Z12.777 A359.6929 
N1184 X-184.969 Y28.025 Z12.859 A359.9980 
N1185 X-184.969 Y26.713 Z12.891 A0.0474 
N1186 X-184.969 Y25.251 Z12.913 A0.0287 
N1187 X-184.969 Y23.643 Z12.940 A0.0168 
N1188 X-184.969 Y21.899 Z12.973 
N1189 X-184.969 Y20.036 Z13.008 
N1190 X-184.969 Y18.077 Z13.047 A0.0301 
N1191 X-184.969 Y16.051 Z13.089 A0.0545 
N1192 X-184.969 Y13.989 Z13.130 A0.0715 
N1193 X-184.969 Y11.922 Z13.166 A0.0564 
N1194 X-184.969 Y9.882 Z13.199 A0.0168 
N1195 X-184.969 Y7.898 Z13.241 
N1196 X-184.969 Y5.981 Z13.289 A0.0643 
N1197 X-184.969 Y4.172 Z13.426 A0.6387 
N1198 X-184.969 Y2.476 Z13.673 A1.9398 
N1199 X-184.969 Y0.892 Z14.079 A4.3171 
N1200 X-184.969 Y-0.604 Z14.639 A7.8744 
N1201 X-184.969 Y-2.032 Z15.269 A12.2402 
N1202 X-184.969 Y-3.401 Z15.876 A16.9464 
N1203 X-184.969 Y-4.724 Z16.451 A21.9252 
N1204 X-184.969 Y-6.014 Z16.981 A27.0944 
N1205 X-184.969 Y-7.273 Z17.446 A32.3282 
N1206 X-184.969 Y-8.503 Z17.830 A37.5238 
N1207 X-184.969 Y-9.702 Z18.127 A42.6210 
N1208 X-184.969 Y-10.869 Z18.334 A47.5843 
N1209 X-184.969 Y-12.003 Z18.448 A52.3970 
N1210 X-184.969 Y-13.104 Z18.472 A57.0596 
N1211 X-184.969 Y-14.171 Z18.407 A61.5803 
N1212 X-184.969 Y-15.205 Z18.254 A65.9686 
N1213 X-184.969 Y-16.202 Z18.012 A70.2317 
N1214 X-184.969 Y-17.158 Z17.685 A74.3725 
N1215 X-184.969 Y-18.069 Z17.271 A78.3893 
N1216 X-184.969 Y-18.927 Z16.775 A82.2769 
N1217 X-184.969 Y-19.727 Z16.198 A86.0283 
N1218 X-184.969 Y-20.462 Z15.547 A89.6357 
N1219 X-184.969 Y-21.126 Z14.825 A93.0928 
N1220 X-184.969 Y-21.714 Z14.041 A96.3953 
N1221 X-184.969 Y-22.225 Z13.201 A99.5418 
N1222 X-184.969 Y-22.655 Z12.313 A102.5350 
N1223 X-184.969 Y-23.007 Z11.386 A105.3799 
N1224 X-184.969 Y-23.280 Z10.427 A108.0870 
N1225 X-184.969 Y-23.480 Z9.443 A110.6712 
N1226 X-184.969 Y-23.611 Z8.440 A113.1531 
N1227 X-184.969 Y-23.680 Z7.423 A115.5663 
N1228 X-184.969 Y-23.696 Z6.394 A117.9556 
N1229 X-184.969 Y-23.670 Z5.351 A120.3800 
N1230 X-184.969 Y-23.612 Z4.292 A122.9139 
N1231 X-184.969 Y-23.532 Z3.208 A125.6389 
N1232 X-184.969 Y-23.433 Z2.091 A128.6308 
N1233 X-184.969 Y-23.316 Z0.931 A131.9561 
N1234 X-184.969 Y-23.173 Z-0.281 A135.6687 
N1235 X-184.969 Y-22.988 Z-1.552 A139.7947 
N1236 X-184.969 Y-22.737 Z-2.881 A144.3233 
N1237 X-184.969 Y-22.390 Z-4.258 A149.1933 
N1238 X-184.969 Y-21.913 Z-5.654 A154.2896 
N1239 X-184.969 Y-21.278 Z-7.031 A159.4470 
N1240 X-184.969 Y-20.469 Z-8.337 A164.4652 
N1241 X-184.969 Y-19.485 Z-9.515 A169.1301 
N1242 X-184.969 Y-18.341 Z-10.520 A173.2463 
N1243 X-184.969 Y-17.066 Z-11.315 A176.6500 
N1244 X-184.969 Y-15.692 Z-11.880 A179.1962 
N1245 X-184.969 Y-14.250 Z-12.234 A180.9077 
N1246 X-184.969 Y-12.765 Z-12.419 A181.9264 
N1247 X-184.969 Y-11.253 Z-12.481 A182.4134 
N1248 X-184.969 Y-9.730 Z-12.470 A182.5647 
N1249 X-184.969 Y-8.208 Z-12.437 A182.6108 
N1250 X-184.969 Y-6.700 Z-12.424 A182.7696 
N1251 X-184.969 Y-5.217 Z-12.462 A183.2285 
N1252 X-184.969 Y-3.770 Z-12.579 A184.1799 
N1253 X-184.969 Y-2.360 Z-12.797 A185.8027 
N1254 X-184.969 Y-0.983 Z-13.117 A188.1844 
N1255 X-184.969 Y0.371 Z-13.522 A191.3067 
N1256 X-184.969 Y1.718 Z-13.992 A195.1486 
N1257 X-184.969 Y3.079 Z-14.504 A199.6711 
N1258 X-184.969 Y4.473 Z-15.026 A204.7882 
N1259 X-184.969 Y5.917 Z-15.521 A210.4153 
N1260 X-184.969 Y7.415 Z-15.945 A216.4126 
N1261 X-184.969 Y8.955 Z-16.248 A222.5985 
N1262 X-184.969 Y10.508 Z-16.388 A228.7580 
N1263 X-184.969 Y12.027 Z-16.333 A234.6597 
N1264 X-184.969 Y13.461 Z-16.071 A240.0877 
N1265 X-184.969 Y14.766 Z-15.613 A244.8922 
N1266 X-184.969 Y15.890 Z-14.976 A248.8575 
N1267 X-184.969 Y16.786 Z-14.186 A251.7576 
N1268 X-184.969 Y17.469 Z-13.285 A253.6531 
N1269 X-184.969 Y17.986 Z-12.316 A254.7674 
N1270 X-184.969 Y18.383 Z-11.310 A255.3095 
N1271 X-184.969 Y18.702 Z-10.291 A255.4729 
N1272 X-184.969 Y18.976 Z-9.282 A255.4245 
N1273 X-184.969 Y19.237 Z-8.300 A255.3226 
N1274 X-184.969 Y19.508 Z-7.362 
N1275 X-184.969 Y19.774 Z-6.449 
N1276 X-184.969 Y20.105 Z-5.605 A255.7804 
N1277 X-184.969 Y20.557 Z-4.858 A257.0431 
N1278 X-184.969 Y21.138 Z-4.198 A259.1970 
N1279 X-184.969 Y21.850 Z-3.609 A262.2650 
N1280 X-184.969 Y22.682 Z-3.060 A266.1963 
N1281 X-184.969 Y23.622 Z-2.515 A270.9288 
N1282 X-184.969 Y24.623 Z-1.936 A276.2291 
N1283 X-184.969 Y25.650 Z-1.295 A281.9503 
N1284 X-184.969 Y26.685 Z-0.568 A288.0498 
N1285 X-184.969 Y27.705 Z0.269 A294.4951 
N1286 X-184.969 Y28.690 Z1.240 A301.3066 
N1287 X-184.969 Y29.613 Z2.371 A308.5351 
N1288 X-184.969 Y30.438 Z3.684 A316.2246 
N1289 X-184.969 Y31.105 Z5.184 A324.3579 
N1290 X-184.969 Y31.534 Z6.833 A332.7502 
N1291 X-184.969 Y31.653 Z8.534 A341.0373 
N1292 X-184.969 Y31.439 Z10.225 A349.1562 
N1293 X-184.969 Y30.870 Z11.551 A355.5154 
N1294 X-184.969 Y30.045 Z12.205 A358.6147 
N1295 X-184.969 Y29.062 Z12.455 A359.7541 
N1296 X-184.969 Y27.936 Z12.541 A0.0951 
N1297 X-184.969 Y26.664 Z12.573 A0.1578 
N1298 X-184.969 Y25.244 Z12.591 A0.1377 
N1299 X-184.969 Y23.682 Z12.615 A0.1241 
N1300 X-184.969 Y21.987 Z12.643 
N1301 X-184.969 Y20.174 Z12.675 
N1302 X-184.969 Y18.268 Z12.709 A0.1338 
N1303 X-184.969 Y16.296 Z12.745 A0.1519 
N1304 X-184.969 Y14.289 Z12.781 A0.1624 
N1305 X-184.969 Y12.278 Z12.813 A0.1533 
N1306 X-184.969 Y10.295 Z12.842 A0.1241 
N1307 X-184.969 Y8.369 Z12.878 
N1308 X-184.969 Y6.514 Z12.912 
N1309 X-184.969 Y4.765 Z13.004 A0.4647 
N1310 X-184.969 Y3.131 Z13.199 A1.4485 
N1311 X-184.969 Y1.611 Z13.569 A3.5400 
N1312 X-184.969 Y0.185 Z14.126 A6.9407 
N1313 X-184.969 Y-1.174 Z14.778 A11.2568 
N1314 X-184.969 Y-2.479 Z15.429 A16.0095 
N1315 X-184.969 Y-3.748 Z16.064 A21.1114 
N1316 X-184.969 Y-4.995 Z16.664 A26.4631 
N1317 X-184.969 Y-6.224 Z17.204 A31.9247 
N1318 X-184.969 Y-7.435 Z17.662 A37.3640 
N1319 X-184.969 Y-8.624 Z18.029 A42.7052 
N1320 X-184.969 Y-9.787 Z18.297 A47.9010 
N1321 X-184.969 Y-10.922 Z18.466 A52.9223 
N1322 X-184.969 Y-12.024 Z18.536 A57.7645 
N1323 X-184.969 Y-13.093 Z18.510 A62.4345 
N1324 X-184.969 Y-14.125 Z18.388 A66.9413 
N1325 X-184.969 Y-15.118 Z18.174 A71.2921 
N1326 X-184.969 Y-16.067 Z17.869 A75.4899 
N1327 X-184.969 Y-16.965 Z17.476 A79.5345 
N1328 X-184.969 Y-17.808 Z16.997 A83.4223 
N1329 X-184.969 Y-18.588 Z16.438 A87.1495 
N1330 X-184.969 Y-19.301 Z15.804 A90.7126 
N1331 X-184.969 Y-19.941 Z15.100 A94.1112 
N1332 X-184.969 Y-20.505 Z14.335 A97.3467 
N1333 X-184.969 Y-20.992 Z13.514 A100.4247 
N1334 X-184.969 Y-21.402 Z12.646 A103.3537 
N1335 X-184.969 Y-21.735 Z11.738 A106.1447 
N1336 X-184.969 Y-21.995 Z10.796 A108.8122 
N1337 X-184.969 Y-22.184 Z9.829 A111.3721 
N1338 X-184.969 Y-22.306 Z8.840 A113.8459 
N1339 X-184.969 Y-22.370 Z7.834 A116.2647 
N1340 X-184.969 Y-22.382 Z6.815 A118.6685 
N1341 X-184.969 Y-22.351 Z5.781 A121.1129 
N1342 X-184.969 Y-22.288 Z4.728 A123.6679 
N1343 X-184.969 Y-22.201 Z3.651 A126.4081 
N1344 X-184.969 Y-22.093 Z2.542 A129.4040 
N1345 X-184.969 Y-21.964 Z1.391 A132.7184 
N1346 X-184.969 Y-21.807 Z0.193 A136.3960 
N1347 X-184.969 Y-21.606 Z-1.058 A140.4537 
N1348 X-184.969 Y-21.340 Z-2.359 A144.8730 
N1349 X-184.969 Y-20.981 Z-3.696 A149.5892 
N1350 X-184.969 Y-20.501 Z-5.046 A154.4909 
N1351 X-184.969 Y-19.876 Z-6.368 A159.4216 
N1352 X-184.969 Y-19.093 Z-7.618 A164.1972 
N1353 X-184.969 Y-18.154 Z-8.746 A168.6206 
N1354 X-184.969 Y-17.074 Z-9.710 A172.5195 
N1355 X-184.969 Y-15.879 Z-10.485 A175.7685 
N1356 X-184.969 Y-14.597 Z-11.062 A178.2907 
N1357 X-184.969 Y-13.255 Z-11.457 A180.1215 
N1358 X-184.969 Y-11.876 Z-11.701 A181.3546 
N1359 X-184.969 Y-10.475 Z-11.830 A182.1197 
N1360 X-184.969 Y-9.067 Z-11.891 A182.6136 
N1361 X-184.969 Y-7.662 Z-11.936 A183.0744 
N1362 X-184.969 Y-6.269 Z-12.000 A183.7062 
N1363 X-184.969 Y-4.897 Z-12.113 A184.6782 
N1364 X-184.969 Y-3.547 Z-12.295 A186.1472 
N1365 X-184.969 Y-2.219 Z-12.559 A188.2384 
N1366 X-184.969 Y-0.905 Z-12.901 A190.9950 
N1367 X-184.969 Y0.408 Z-13.309 A194.4303 
N1368 X-184.969 Y1.739 Z-13.768 A198.5471 
N1369 X-184.969 Y3.105 Z-14.250 A203.2913 
N1370 X-184.969 Y4.523 Z-14.723 A208.5974 
N1371 X-184.969 Y6.001 Z-15.143 A214.3398 
N1372 X-184.969 Y7.531 Z-15.461 A220.3481 
N1373 X-184.969 Y9.084 Z-15.628 A226.4004 
N1374 X-184.969 Y10.615 Z-15.607 A232.2431 
N1375 X-184.969 Y12.069 Z-15.381 A237.6361 
N1376 X-184.969 Y13.384 Z-14.950 A242.3178 
N1377 X-184.969 Y14.519 Z-14.338 A246.1393 
N1378 X-184.969 Y15.446 Z-13.577 A248.9819 
N1379 X-184.969 Y16.156 Z-12.701 A250.7825 
N1380 X-184.969 Y16.686 Z-11.752 A251.7024 
N1381 X-184.969 Y17.096 Z-10.767 A252.0350 
N1382 X-184.969 Y17.443 Z-9.777 A252.0623 
N1383 X-184.969 Y17.760 Z-8.803 A251.9589 
N1384 X-184.969 Y18.086 Z-7.873 
N1385 X-184.969 Y18.405 Z-6.966 
N1386 X-184.969 Y18.769 Z-6.129 A252.3221 
N1387 X-184.969 Y19.209 Z-5.378 A253.2546 
N1388 X-184.969 Y19.750 Z-4.717 A254.9248 
N1389 X-184.969 Y20.420 Z-4.145 A257.5111 
N1390 X-184.969 Y21.219 Z-3.635 A261.0139 
N1391 X-184.969 Y22.112 Z-3.151 A265.2406 
N1392 X-184.969 Y23.062 Z-2.662 A269.9894 
N1393 X-184.969 Y24.058 Z-2.138 A275.2101 
N1394 X-184.969 Y25.078 Z-1.556 A280.8053 
N1395 X-184.969 Y26.105 Z-0.892 A286.7415 
N1396 X-184.969 Y27.122 Z-0.124 A292.9993 
N1397 X-184.969 Y28.113 Z0.772 A299.6137 
N1398 X-184.969 Y29.058 Z1.823 A306.6421 
N1399 X-184.969 Y29.923 Z3.055 A314.1460 
N1400 X-184.969 Y30.656 Z4.480 A322.1302 
N1401 X-184.969 Y31.182 Z6.078 A330.4776 
N1402 X-184.969 Y31.415 Z7.756 A338.7944 
N1403 X-184.969 Y31.324 Z9.446 A346.9576 
N1404 X-184.969 Y30.885 Z10.940 A354.1643 
N1405 X-184.969 Y30.151 Z11.762 A358.1025 
N1406 X-184.969 Y29.248 Z12.092 A359.6458 
N1407 X-184.969 Y28.204 Z12.209 A0.1479 
N1408 X-184.969 Y27.019 Z12.248 A0.2647 
N1409 X-184.969 Y25.690 Z12.264 A0.2553 
N1410 X-184.969 Y24.219 Z12.281 A0.2330 
N1411 X-184.969 Y22.614 Z12.305 
N1412 X-184.969 Y20.889 Z12.332 
N1413 X-184.969 Y19.064 Z12.360 A0.2335 
N1414 X-184.969 Y17.168 Z12.391 A0.2456 
N1415 X-184.969 Y15.227 Z12.421 A0.2547 
N1416 X-184.969 Y13.275 Z12.451 A0.2585 
N1417 X-184.969 Y11.341 Z12.479 A0.2540 
N1418 X-184.969 Y9.455 Z12.504 A0.2330 
N1419 X-184.969 Y7.646 Z12.534 
N1420 X-184.969 Y5.923 Z12.562 
N1421 X-184.969 Y4.317 Z12.665 A0.6646 
N1422 X-184.969 Y2.830 Z12.917 A1.9894 
N1423 X-184.969 Y1.451 Z13.378 A4.6360 
N1424 X-184.969 Y0.152 Z14.004 A8.4973 
N1425 X-184.969 Y-1.094 Z14.701 A13.1353 
N1426 X-184.969 Y-2.311 Z15.418 A18.3105 
N1427 X-184.969 Y-3.515 Z16.118 A23.8405 
N1428 X-184.969 Y-4.719 Z16.773 A29.5914 
N1429 X-184.969 Y-5.922 Z17.353 A35.3925 
N1430 X-184.969 Y-7.117 Z17.833 A41.1088 
N1431 X-184.969 Y-8.294 Z18.204 A46.6560 
N1432 X-184.969 Y-9.446 Z18.462 A51.9907 
N1433 X-184.969 Y-10.565 Z18.608 A57.0944 
N1434 X-184.969 Y-11.647 Z18.646 A61.9671 
N1435 X-184.969 Y-12.688 Z18.580 A66.6206 
N1436 X-184.969 Y-13.684 Z18.415 A71.0684 
N1437 X-184.969 Y-14.631 Z18.154 A75.3205 
N1438 X-184.969 Y-15.525 Z17.803 A79.3844 
N1439 X-184.969 Y-16.361 Z17.365 A83.2644 
N1440 X-184.969 Y-17.134 Z16.846 A86.9644 
N1441 X-184.969 Y-17.839 Z16.252 A90.4886 
N1442 X-184.969 Y-18.475 Z15.588 A93.8433 
N1443 X-184.969 Y-19.038 Z14.862 A97.0375 
N1444 X-184.969 Y-19.528 Z14.079 A100.0832 
N1445 X-184.969 Y-19.946 Z13.246 A102.9951 
N1446 X-184.969 Y-20.293 Z12.370 A105.7901 
N1447 X-184.969 Y-20.571 Z11.457 A108.4849 
N1448 X-184.969 Y-20.783 Z10.512 A111.0944 
N1449 X-184.969 Y-20.931 Z9.542 A113.6342 
N1450 X-184.969 Y-21.019 Z8.552 A116.1235 
N1451 X-184.969 Y-21.052 Z7.545 A118.5874 
N1452 X-184.969 Y-21.037 Z6.523 A121.0687 
N1453 X-184.969 Y-20.984 Z5.484 A123.6276 
N1454 X-184.969 Y-20.900 Z4.423 A126.3318 
N1455 X-184.969 Y-20.792 Z3.335 A129.2497 
N1456 X-184.969 Y-20.659 Z2.211 A132.4428 
N1457 X-184.969 Y-20.497 Z1.046 A135.9527 
N1458 X-184.969 Y-20.295 Z-0.162 A139.7963 
N1459 X-184.969 Y-20.035 Z-1.412 A143.9596 
N1460 X-184.969 Y-19.695 Z-2.694 A148.3913 
N1461 X-184.969 Y-19.251 Z-3.986 A153.0025 
N1462 X-184.969 Y-18.684 Z-5.259 A157.6653 
N1463 X-184.969 Y-17.981 Z-6.474 A162.2221 
N1464 X-184.969 Y-17.140 Z-7.589 A166.5083 
N1465 X-184.969 Y-16.171 Z-8.569 A170.3703 
N1466 X-184.969 Y-15.095 Z-9.391 A173.7040 
N1467 X-184.969 Y-13.935 Z-10.043 A176.4452 
N1468 X-184.969 Y-12.715 Z-10.536 A178.6101 
N1469 X-184.969 Y-11.455 Z-10.891 A180.2731 
N1470 X-184.969 Y-10.173 Z-11.138 A181.5418 
N1471 X-184.969 Y-8.880 Z-11.314 A182.5750 
N1472 X-184.969 Y-7.585 Z-11.458 A183.5600 
N1473 X-184.969 Y-6.297 Z-11.602 A184.6648 
N1474 X-184.969 Y-5.019 Z-11.773 A186.0420 
N1475 X-184.969 Y-3.751 Z-11.991 A187.8343 
N1476 X-184.969 Y-2.489 Z-12.267 A190.1488 
N1477 X-184.969 Y-1.225 Z-12.600 A193.0401 
N1478 X-184.969 Y0.055 Z-12.987 A196.5493 
N1479 X-184.969 Y1.366 Z-13.410 A200.6810 
N1480 X-184.969 Y2.726 Z-13.845 A205.3979 
N1481 X-184.969 Y4.145 Z-14.257 A210.6268 
N1482 X-184.969 Y5.624 Z-14.603 A216.2311 
N1483 X-184.969 Y7.146 Z-14.831 A222.0185 
N1484 X-184.969 Y8.674 Z-14.901 A227.7556 
N1485 X-184.969 Y10.157 Z-14.779 A233.1783 
N1486 X-184.969 Y11.540 Z-14.459 A238.0579 
N1487 X-184.969 Y12.758 Z-13.944 A242.0990 
N1488 X-184.969 Y13.773 Z-13.262 A245.1442 
N1489 X-184.969 Y14.590 Z-12.456 A247.2348 
N1490 X-184.969 Y15.228 Z-11.565 A248.4586 
N1491 X-184.969 Y15.723 Z-10.623 A248.9840 
N1492 X-184.969 Y16.130 Z-9.669 A249.0796 
N1493 X-184.969 Y16.490 Z-8.724 A248.9640 
N1494 X-184.969 Y16.853 Z-7.826 A248.9303 
N1495 X-184.969 Y17.211 Z-6.960 
N1496 X-184.969 Y17.593 Z-6.140 A249.1455 
N1497 X-184.969 Y18.070 Z-5.429 A250.0823 
N1498 X-184.969 Y18.643 Z-4.811 A251.7560 
N1499 X-184.969 Y19.323 Z-4.286 A254.2529 
N1500 X-184.969 Y20.111 Z-3.828 A257.5637 
N1501 X-184.969 Y21.005 Z-3.410 A261.6616 
N1502 X-184.969 Y21.972 Z-2.995 A266.3613 
N1503 X-184.969 Y22.979 Z-2.552 A271.4766 
N1504 X-184.969 Y24.011 Z-2.058 A276.9446 
N1505 X-184.969 Y25.045 Z-1.493 A282.6723 
N1506 X-184.969 Y26.067 Z-0.841 A288.6394 
N1507 X-184.969 Y27.065 Z-0.082 A294.8502 
N1508 X-184.969 Y28.026 Z0.803 A301.3591 
N1509 X-184.969 Y28.935 Z1.841 A308.2518 
N1510 X-184.969 Y29.764 Z3.058 A315.6159 
N1511 X-184.969 Y30.465 Z4.470 A323.4899 
N1512 X-184.969 Y30.964 Z6.058 A331.7718 
N1513 X-184.969 Y31.177 Z7.735 A340.0995 
N1514 X-184.969 Y31.071 Z9.454 A348.4674 
N1515 X-184.969 Y30.607 Z10.889 A355.4404 
N1516 X-184.969 Y29.873 Z11.595 A358.8484 
N1517 X-184.969 Y28.985 Z11.844 A0.0166 
N1518 X-184.969 Y27.963 Z11.917 A0.3223 
N1519 X-184.969 Y26.803 Z11.939 A0.3638 
N1520 X-184.969 Y25.502 Z11.950 A0.3404 
N1521 X-184.969 Y24.065 Z11.966 A0.3300 
N1522 X-184.969 Y22.498 Z11.987 
N1523 X-184.969 Y20.817 Z12.010 
N1524 X-184.969 Y19.042 Z12.034 
N1525 X-184.969 Y17.201 Z12.060 A0.3358 
N1526 X-184.969 Y15.323 Z12.086 A0.3450 
N1527 X-184.969 Y13.437 Z12.113 A0.3586 
N1528 X-184.969 Y11.576 Z12.140 A0.3735 
N1529 X-184.969 Y9.767 Z12.163 A0.3656 
N1530 X-184.969 Y8.038 Z12.181 A0.3300 
N1531 X-184.969 Y6.406 Z12.207 
N1532 X-184.969 Y4.874 Z12.263 A0.5071 
N1533 X-184.969 Y3.470 Z12.477 A1.5971 
N1534 X-184.969 Y2.176 Z12.895 A3.9417 
N1535 X-184.969 Y0.967 Z13.508 A7.6031 
N1536 X-184.969 Y-0.197 Z14.248 A12.3067 
N1537 X-184.969 Y-1.349 Z15.049 A17.7594 
N1538 X-184.969 Y-2.506 Z15.836 A23.6028 
N1539 X-184.969 Y-3.684 Z16.583 A29.7141 
N1540 X-184.969 Y-4.881 Z17.251 A35.9090 
N1541 X-184.969 Y-6.081 Z17.805 A41.9829 
N1542 X-184.969 Y-7.267 Z18.229 A47.8170 
N1543 X-184.969 Y-8.427 Z18.526 A53.3784 
N1544 X-184.969 Y-9.550 Z18.696 A58.6393 
N1545 X-184.969 Y-10.627 Z18.747 A63.6004 
N1546 X-184.969 Y-11.655 Z18.687 A68.2829 
N1547 X-184.969 Y-12.630 Z18.524 A72.7099 
N1548 X-184.969 Y-13.549 Z18.264 A76.9010 
N1549 X-184.969 Y-14.410 Z17.915 A80.8728 
N1550 X-184.969 Y-15.208 Z17.481 A84.6390 
N1551 X-184.969 Y-15.943 Z16.969 A88.2134 
N1552 X-184.969 Y-16.611 Z16.385 A91.6098 
N1553 X-184.969 Y-17.211 Z15.734 A94.8443 
N1554 X-184.969 Y-17.745 Z15.023 A97.9353 
N1555 X-184.969 Y-18.211 Z14.257 A100.9036 
N1556 X-184.969 Y-18.613 Z13.441 A103.7710 
N1557 X-184.969 Y-18.952 Z12.579 A106.5589 
N1558 X-184.969 Y-19.229 Z11.679 A109.2823 
N1559 X-184.969 Y-19.443 Z10.745 A111.9489 
N1560 X-184.969 Y-19.596 Z9.783 A114.5642 
N1561 X-184.969 Y-19.688 Z8.799 A117.1332 
N1562 X-184.969 Y-19.722 Z7.798 A119.6717 
N1563 X-184.969 Y-19.706 Z6.783 A122.2186 
N1564 X-184.969 Y-19.647 Z5.750 A124.8312 
N1565 X-184.969 Y-19.554 Z4.697 A127.5742 
N1566 X-184.969 Y-19.431 Z3.617 A130.5125 
N1567 X-184.969 Y-19.280 Z2.507 A133.6972 
N1568 X-184.969 Y-19.095 Z1.362 A137.1551 
N1569 X-184.969 Y-18.866 Z0.183 A140.8913 
N1570 X-184.969 Y-18.578 Z-1.025 A144.8833 
N1571 X-184.969 Y-18.213 Z-2.251 A149.0806 
N1572 X-184.969 Y-17.754 Z-3.476 A153.4018 
N1573 X-184.969 Y-17.188 Z-4.673 A157.7372 
N1574 X-184.969 Y-16.505 Z-5.813 A161.9585 
N1575 X-184.969 Y-15.708 Z-6.862 A165.9389 
N1576 X-184.969 Y-14.805 Z-7.795 A169.5699 
N1577 X-184.969 Y-13.813 Z-8.597 A172.7828 
N1578 X-184.969 Y-12.750 Z-9.262 A175.5465 
N1579 X-184.969 Y-11.636 Z-9.799 A177.8857 
N1580 X-184.969 Y-10.486 Z-10.224 A179.8639 
N1581 X-184.969 Y-9.315 Z-10.560 A181.5750 
N1582 X-184.969 Y-8.133 Z-10.836 A183.1461 
N1583 X-184.969 Y-6.945 Z-11.079 A184.7154 
N1584 X-184.969 Y-5.756 Z-11.314 A186.4128 
N1585 X-184.969 Y-4.566 Z-11.561 A188.3643 
N1586 X-184.969 Y-3.370 Z-11.837 A190.6822 
N1587 X-184.969 Y-2.163 Z-12.146 A193.4475 
N1588 X-184.969 Y-0.933 Z-12.492 A196.7236 
N1589 X-184.969 Y0.335 Z-12.867 A200.5493 
N1590 X-184.969 Y1.654 Z-13.253 A204.9246 
N1591 X-184.969 Y3.037 Z-13.623 A209.8106 
N1592 X-184.969 Y4.484 Z-13.938 A215.1012 
N1593 X-184.969 Y5.982 Z-14.152 A220.6318 
N1594 X-184.969 Y7.496 Z-14.219 A226.1672 
N1595 X-184.969 Y8.975 Z-14.105 A231.4395 
N1596 X-184.969 Y10.355 Z-13.792 A236.1513 
N1597 X-184.969 Y11.580 Z-13.287 A240.0581 
N1598 X-184.969 Y12.589 Z-12.607 A242.8712 
N1599 X-184.969 Y13.374 Z-11.791 A244.5534 
N1600 X-184.969 Y13.989 Z-10.896 A245.3798 
N1601 X-184.969 Y14.495 Z-9.968 A245.6778 
N1602 X-184.969 Y14.940 Z-9.039 A245.6944 
N1603 X-184.969 Y15.352 Z-8.134 A245.5996 
N1604 X-184.969 Y15.763 Z-7.278 
N1605 X-184.969 Y16.161 Z-6.451 
N1606 X-184.969 Y16.609 Z-5.713 A246.0552 
N1607 X-184.969 Y17.139 Z-5.078 A247.1814 
N1608 X-184.969 Y17.788 Z-4.556 A249.2155 
N1609 X-184.969 Y18.564 Z-4.131 A252.2129 
N1610 X-184.969 Y19.443 Z-3.765 A256.0064 
N1611 X-184.969 Y20.394 Z-3.422 A260.4006 
N1612 X-184.969 Y21.403 Z-3.071 A265.3021 
N1613 X-184.969 Y22.443 Z-2.684 A270.5619 
N1614 X-184.969 Y23.494 Z-2.242 A276.0838 
N1615 X-184.969 Y24.537 Z-1.727 A281.7900 
N1616 X-184.969 Y25.559 Z-1.128 A287.6571 
N1617 X-184.969 Y26.550 Z-0.429 A293.7015 
N1618 X-184.969 Y27.506 Z0.388 A299.9901 
N1619 X-184.969 Y28.418 Z1.347 A306.6253 
N1620 X-184.969 Y29.266 Z2.478 A313.7227 
N1621 X-184.969 Y30.013 Z3.804 A321.3599 
N1622 X-184.969 Y30.594 Z5.328 A329.5186 
N1623 X-184.969 Y30.915 Z6.974 A337.8542 
N1624 X-184.969 Y30.931 Z8.687 A346.2668 
N1625 X-184.969 Y30.597 Z10.258 A353.9326 
N1626 X-184.969 Y29.957 Z11.152 A358.2768 
N1627 X-184.969 Y29.149 Z11.489 A359.8911 
N1628 X-184.969 Y28.210 Z11.590 A0.3440 
N1629 X-184.969 Y27.139 Z11.618 A0.4264 
N1630 X-184.969 Y25.932 Z11.628 A0.4127 
N1631 X-184.969 Y24.591 Z11.640 A0.3965 
N1632 X-184.969 Y23.121 Z11.658 
N1633 X-184.969 Y21.535 Z11.678 
N1634 X-184.969 Y19.852 Z11.699 
N1635 X-184.969 Y18.096 Z11.720 A0.3968 
N1636 X-184.969 Y16.295 Z11.743 A0.4029 
N1637 X-184.969 Y14.478 Z11.768 A0.4192 
N1638 X-184.969 Y12.676 Z11.793 A0.4409 
N1639 X-184.969 Y10.919 Z11.818 A0.4611 
N1640 X-184.969 Y9.231 Z11.831 A0.4209 
N1641 X-184.969 Y7.638 Z11.849 A0.3965 
N1642 X-184.969 Y6.145 Z11.872 
N1643 X-184.969 Y4.762 Z11.971 A0.8243 
N1644 X-184.969 Y3.502 Z12.250 A2.3086 
N1645 X-184.969 Y2.343 Z12.740 A5.1004 
N1646 X-184.969 Y1.246 Z13.439 A9.2867 
N1647 X-184.969 Y0.160 Z14.290 A14.6656 
N1648 X-184.969 Y-0.944 Z15.174 A20.6733 
N1649 X-184.969 Y-2.080 Z16.027 A27.0119 
N1650 X-184.969 Y-3.259 Z16.819 A33.5683 
N1651 X-184.969 Y-4.469 Z17.503 A40.0954 
N1652 X-184.969 Y-5.679 Z18.045 A46.3747 
N1653 X-184.969 Y-6.864 Z18.435 A52.2918 
N1654 X-184.969 Y-8.009 Z18.681 A57.8342 
N1655 X-184.969 Y-9.105 Z18.796 A63.0154 
N1656 X-184.969 Y-10.145 Z18.789 A67.8488 
N1657 X-184.969 Y-11.124 Z18.672 A72.3663 
N1658 X-184.969 Y-12.043 Z18.456 A76.6017 
N1659 X-184.969 Y-12.899 Z18.148 A80.5836 
N1660 X-184.969 Y-13.691 Z17.756 A84.3358 
N1661 X-184.969 Y-14.420 Z17.286 A87.8811 
N1662 X-184.969 Y-15.083 Z16.745 A91.2421 
N1663 X-184.969 Y-15.683 Z16.138 A94.4426 
N1664 X-184.969 Y-16.220 Z15.469 A97.5094 
N1665 X-184.969 Y-16.696 Z14.744 A100.4705 
N1666 X-184.969 Y-17.114 Z13.966 A103.3535 
N1667 X-184.969 Y-17.475 Z13.140 A106.1830 
N1668 X-184.969 Y-17.780 Z12.270 A108.9743 
N1669 X-184.969 Y-18.025 Z11.361 A111.7301 
N1670 X-184.969 Y-18.210 Z10.420 A114.4464 
N1671 X-184.969 Y-18.332 Z9.452 A117.1172 
N1672 X-184.969 Y-18.393 Z8.465 A119.7451 
N1673 X-184.969 Y-18.396 Z7.461 A122.3569 
N1674 X-184.969 Y-18.349 Z6.441 A125.0000 
N1675 X-184.969 Y-18.261 Z5.404 A127.7300 
N1676 X-184.969 Y-18.136 Z4.346 A130.6030 
N1677 X-184.969 Y-17.977 Z3.264 A133.6607 
N1678 X-184.969 Y-17.779 Z2.158 A136.9215 
N1679 X-184.969 Y-17.538 Z1.030 A140.3874 
N1680 X-184.969 Y-17.242 Z-0.114 A144.0419 
N1681 X-184.969 Y-16.882 Z-1.267 A147.8494 
N1682 X-184.969 Y-16.447 Z-2.414 A151.7553 
N1683 X-184.969 Y-15.927 Z-3.538 A155.6870 
N1684 X-184.969 Y-15.317 Z-4.618 A159.5622 
N1685 X-184.969 Y-14.617 Z-5.634 A163.3025 
N1686 X-184.969 Y-13.832 Z-6.570 A166.8417 
N1687 X-184.969 Y-12.971 Z-7.414 A170.1375 
N1688 X-184.969 Y-12.046 Z-8.160 A173.1727 
N1689 X-184.969 Y-11.071 Z-8.812 A175.9565 
N1690 X-184.969 Y-10.056 Z-9.376 A178.5244 
N1691 X-184.969 Y-9.011 Z-9.865 A180.9301 
N1692 X-184.969 Y-7.944 Z-10.292 A183.2453 
N1693 X-184.969 Y-6.860 Z-10.675 A185.5511 
N1694 X-184.969 Y-5.760 Z-11.027 A187.9301 
N1695 X-184.969 Y-4.643 Z-11.362 A190.4627 
N1696 X-184.969 Y-3.506 Z-11.688 A193.2238 
N1697 X-184.969 Y-2.343 Z-12.012 A196.2765 
N1698 X-184.969 Y-1.145 Z-12.334 A199.6752 
N1699 X-184.969 Y0.098 Z-12.650 A203.4580 
N1700 X-184.969 Y1.395 Z-12.948 A207.6399 
N1701 X-184.969 Y2.751 Z-13.207 A212.2021 
N1702 X-184.969 Y4.164 Z-13.399 A217.0719 
N1703 X-184.969 Y5.617 Z-13.489 A222.1207 
N1704 X-184.969 Y7.075 Z-13.441 A227.1447 
N1705 X-184.969 Y8.488 Z-13.225 A231.8855 
N1706 X-184.969 Y9.774 Z-12.815 A235.9124 
N1707 X-184.969 Y10.873 Z-12.221 A238.9592 
N1708 X-184.969 Y11.775 Z-11.484 A240.9960 
N1709 X-184.969 Y12.492 Z-10.646 A242.0958 
N1710 X-184.969 Y13.068 Z-9.755 A242.4912 
N1711 X-184.969 Y13.562 Z-8.853 A242.4923 
N1712 X-184.969 Y14.017 Z-7.972 A242.3514 
N1713 X-184.969 Y14.474 Z-7.151 
N1714 X-184.969 Y14.919 Z-6.356 
N1715 X-184.969 Y15.400 Z-5.634 A242.7256 
N1716 X-184.969 Y15.966 Z-5.035 A243.8536 
N1717 X-184.969 Y16.619 Z-4.544 A245.7481 
N1718 X-184.969 Y17.373 Z-4.156 A248.4913 
N1719 X-184.969 Y18.231 Z-3.844 A252.0660 
N1720 X-184.969 Y19.180 Z-3.573 A256.3508 
N1721 X-184.969 Y20.177 Z-3.301 A261.0854 
N1722 X-184.969 Y21.208 Z-3.003 A266.1716 
N1723 X-184.969 Y22.259 Z-2.658 A271.5342 
N1724 X-184.969 Y23.313 Z-2.248 A277.0918 
N1725 X-184.969 Y24.354 Z-1.761 A282.8000 
N1726 X-184.969 Y25.373 Z-1.183 A288.6553 
N1727 X-184.969 Y26.364 Z-0.502 A294.6948 
N1728 X-184.969 Y27.323 Z0.305 A301.0000 
N1729 X-184.969 Y28.240 Z1.261 A307.6818 
N1730 X-184.969 Y29.094 Z2.396 A314.8475 
N1731 X-184.969 Y29.839 Z3.729 A322.5375 
N1732 X-184.969 Y30.406 Z5.247 A330.6766 
N1733 X-184.969 Y30.707 Z6.867 A338.8864 
N1734 X-184.969 Y30.705 Z8.526 A347.0506 
N1735 X-184.969 Y30.370 Z10.028 A354.3972 
N1736 X-184.969 Y29.749 Z10.852 A358.4078 
N1737 X-184.969 Y28.971 Z11.170 A359.9314 
N1738 X-184.969 Y28.068 Z11.273 A0.4018 
N1739 X-184.969 Y27.036 Z11.302 A0.5009 
N1740 X-184.969 Y25.872 Z11.311 A0.4863 
N1741 X-184.969 Y24.579 Z11.320 A0.4676 
N1742 X-184.969 Y23.163 Z11.336 
N1743 X-184.969 Y21.634 Z11.353 
N1744 X-184.969 Y20.014 Z11.372 
N1745 X-184.969 Y18.324 Z11.390 
N1746 X-184.969 Y16.593 Z11.410 A0.4736 
N1747 X-184.969 Y14.850 Z11.432 A0.4911 
N1748 X-184.969 Y13.123 Z11.455 A0.5137 
N1749 X-184.969 Y11.442 Z11.475 A0.5308 
N1750 X-184.969 Y9.830 Z11.486 A0.4918 
N1751 X-184.969 Y8.313 Z11.501 A0.4676 
N1752 X-184.969 Y6.895 Z11.521 
N1753 X-184.969 Y5.583 Z11.593 A0.7647 
N1754 X-184.969 Y4.395 Z11.813 A1.9173 
N1755 X-184.969 Y3.311 Z12.236 A4.2878 
N1756 X-184.969 Y2.290 Z12.927 A8.3180 
N1757 X-184.969 Y1.267 Z13.841 A13.8853 
N1758 X-184.969 Y0.213 Z14.796 A20.1278 
N1759 X-184.969 Y-0.891 Z15.725 A26.7393 
N1760 X-184.969 Y-2.059 Z16.596 A33.6169 
N1761 X-184.969 Y-3.274 Z17.353 A40.4767 
N1762 X-184.969 Y-4.501 Z17.955 A47.0674 
N1763 X-184.969 Y-5.701 Z18.387 A53.2236 
N1764 X-184.969 Y-6.852 Z18.660 A58.9124 
N1765 X-184.969 Y-7.946 Z18.791 A64.1703 
N1766 X-184.969 Y-8.978 Z18.796 A69.0414 
N1767 X-184.969 Y-9.944 Z18.691 A73.5608 
N1768 X-184.969 Y-10.843 Z18.485 A77.7658 
N1769 X-184.969 Y-11.677 Z18.189 A81.6950 
N1770 X-184.969 Y-12.445 Z17.812 A85.3801 
N1771 X-184.969 Y-13.149 Z17.359 A88.8509 
N1772 X-184.969 Y-13.789 Z16.838 A92.1366 
N1773 X-184.969 Y-14.367 Z16.253 A95.2685 
N1774 X-184.969 Y-14.888 Z15.609 A98.2814 
N1775 X-184.969 Y-15.353 Z14.910 A101.2099 
N1776 X-184.969 Y-15.766 Z14.158 A104.0861 
N1777 X-184.969 Y-16.128 Z13.356 A106.9353 
N1778 X-184.969 Y-16.437 Z12.510 A109.7675 
N1779 X-184.969 Y-16.690 Z11.623 A112.5781 
N1780 X-184.969 Y-16.884 Z10.702 A115.3544 
N1781 X-184.969 Y-17.013 Z9.756 A118.0805 
N1782 X-184.969 Y-17.079 Z8.790 A120.7568 
N1783 X-184.969 Y-17.086 Z7.808 A123.4091 
N1784 X-184.969 Y-17.042 Z6.812 A126.0801 
N1785 X-184.969 Y-16.954 Z5.801 A128.8199 
N1786 X-184.969 Y-16.827 Z4.772 A131.6740 
N1787 X-184.969 Y-16.662 Z3.727 A134.6675 
N1788 X-184.969 Y-16.457 Z2.668 A137.8075 
N1789 X-184.969 Y-16.207 Z1.597 A141.0917 
N1790 X-184.969 Y-15.907 Z0.520 A144.5077 
N1791 X-184.969 Y-15.552 Z-0.556 A148.0341 
N1792 X-184.969 Y-15.135 Z-1.624 A151.6406 
N1793 X-184.969 Y-14.653 Z-2.671 A155.2904 
N1794 X-184.969 Y-14.101 Z-3.688 A158.9435 
N1795 X-184.969 Y-13.480 Z-4.664 A162.5618 
N1796 X-184.969 Y-12.790 Z-5.587 A166.1126 
N1797 X-184.969 Y-12.035 Z-6.450 A169.5719 
N1798 X-184.969 Y-11.221 Z-7.248 A172.9253 
N1799 X-184.969 Y-10.354 Z-7.978 A176.1690 
N1800 X-184.969 Y-9.438 Z-8.638 A179.3082 
N1801 X-184.969 Y-8.481 Z-9.231 A182.3579 
N1802 X-184.969 Y-7.486 Z-9.759 A185.3410 
N1803 X-184.969 Y-6.456 Z-10.227 A188.2886 
N1804 X-184.969 Y-5.395 Z-10.641 A191.2383 
N1805 X-184.969 Y-4.301 Z-11.006 A194.2340 
N1806 X-184.969 Y-3.173 Z-11.326 A197.3239 
N1807 X-184.969 Y-2.007 Z-11.607 A200.5596 
N1808 X-184.969 Y-0.800 Z-11.850 A203.9912 
N1809 X-184.969 Y0.453 Z-12.053 A207.6639 
N1810 X-184.969 Y1.757 Z-12.210 A211.6053 
N1811 X-184.969 Y3.110 Z-12.309 A215.8123 
N1812 X-184.969 Y4.503 Z-12.329 A220.2281 
N1813 X-184.969 Y5.911 Z-12.241 A224.7095 
N1814 X-184.969 Y7.286 Z-12.013 A228.9940 
N1815 X-184.969 Y8.563 Z-11.620 A232.7395 
N1816 X-184.969 Y9.666 Z-11.050 A235.5418 
N1817 X-184.969 Y10.569 Z-10.333 A237.2850 
N1818 X-184.969 Y11.303 Z-9.523 A238.1659 
N1819 X-184.969 Y11.919 Z-8.673 A238.4708 
N1820 X-184.969 Y12.457 Z-7.818 A238.4272 
N1821 X-184.969 Y12.968 Z-7.008 A238.3762 
N1822 X-184.969 Y13.465 Z-6.240 
N1823 X-184.969 Y13.978 Z-5.541 A238.6574 
N1824 X-184.969 Y14.551 Z-4.960 A239.5702 
N1825 X-184.969 Y15.201 Z-4.494 A241.2266 
N1826 X-184.969 Y15.949 Z-4.145 A243.7574 
N1827 X-184.969 Y16.787 Z-3.883 A247.0717 
N1828 X-184.969 Y17.696 Z-3.671 A251.0179 
N1829 X-184.969 Y18.669 Z-3.480 A255.5046 
N1830 X-184.969 Y19.695 Z-3.279 A260.4374 
N1831 X-184.969 Y20.755 Z-3.043 A265.6903 
N1832 X-184.969 Y21.827 Z-2.750 A271.1609 
N1833 X-184.969 Y22.891 Z-2.387 A276.7489 
N1834 X-184.969 Y23.932 Z-1.944 A282.4119 
N1835 X-184.969 Y24.940 Z-1.414 A288.1404 
N1836 X-184.969 Y25.913 Z-0.789 A293.9744 
N1837 X-184.969 Y26.849 Z-0.052 A299.9947 
N1838 X-184.969 Y27.746 Z0.818 A306.3136 
N1839 X-184.969 Y28.590 Z1.848 A313.0511 
N1840 X-184.969 Y29.351 Z3.060 A320.2852 
N1841 X-184.969 Y29.975 Z4.461 A328.0187 
N1842 X-184.969 Y30.383 Z6.002 A336.0202 
N1843 X-184.969 Y30.516 Z7.611 A344.0418 
N1844 X-184.969 Y30.349 Z9.222 A351.9733 
N1845 X-184.969 Y29.862 Z10.319 A357.3532 
N1846 X-184.969 Y29.188 Z10.809 A359.7455 
N1847 X-184.969 Y28.389 Z10.999 A0.6782 
N1848 X-184.969 Y27.472 Z11.071 A1.0413 
N1849 X-184.969 Y26.431 Z11.095 A1.1733 
N1850 X-184.969 Y25.267 Z11.097 A1.1996 
N1851 X-184.969 Y23.985 Z11.092 A1.1806 
N1852 X-184.969 Y22.592 Z11.086 A1.1497 
N1853 X-184.969 Y21.105 Z11.086 A1.1355 
N1854 X-184.969 Y19.543 Z11.094 A1.1475 
N1855 X-184.969 Y17.929 Z11.108 A1.1765 
N1856 X-184.969 Y16.291 Z11.124 A1.1991 
N1857 X-184.969 Y14.656 Z11.139 A1.2030 
N1858 X-184.969 Y13.052 Z11.155 A1.1851 
N1859 X-184.969 Y11.503 Z11.170 A1.1340 
N1860 X-184.969 Y10.034 Z11.200 A1.1331 
N1861 X-184.969 Y8.652 Z11.232 
N1862 X-184.969 Y7.354 Z11.263 
N1863 X-184.969 Y6.133 Z11.302 A1.2183 
N1864 X-184.969 Y5.043 Z11.549 A2.4920 
N1865 X-184.969 Y4.044 Z12.038 A5.2115 
N1866 X-184.969 Y3.096 Z12.786 A9.5698 
N1867 X-184.969 Y2.146 Z13.683 A15.0655 
N1868 X-184.969 Y1.152 Z14.647 A21.3379 
N1869 X-184.969 Y0.089 Z15.605 A28.0761 
N1870 X-184.969 Y-1.046 Z16.494 A35.0190 
N1871 X-184.969 Y-2.233 Z17.261 A41.8980 
N1872 X-184.969 Y-3.436 Z17.872 A48.4967 
N1873 X-184.969 Y-4.617 Z18.313 A54.6645 
N1874 X-184.969 Y-5.748 Z18.591 A60.3386 
N1875 X-184.969 Y-6.817 Z18.727 A65.5453 
N1876 X-184.969 Y-7.824 Z18.739 A70.3615 
N1877 X-184.969 Y-8.768 Z18.643 A74.8386 
N1878 X-184.969 Y-9.647 Z18.449 A79.0026 
N1879 X-184.969 Y-10.459 Z18.168 A82.8832 
N1880 X-184.969 Y-11.205 Z17.808 A86.5153 
N1881 X-184.969 Y-11.887 Z17.376 A89.9305 
N1882 X-184.969 Y-12.507 Z16.878 A93.1610 
N1883 X-184.969 Y-13.069 Z16.320 A96.2439 
N1884 X-184.969 Y-13.575 Z15.705 A99.2185 
N1885 X-184.969 Y-14.032 Z15.036 A102.1242 
N1886 X-184.969 Y-14.440 Z14.316 A104.9959 
N1887 X-184.969 Y-14.802 Z13.548 A107.8538 
N1888 X-184.969 Y-15.114 Z12.736 A110.7018 
N1889 X-184.969 Y-15.371 Z11.885 A113.5281 
N1890 X-184.969 Y-15.568 Z11.004 A116.3083 
N1891 X-184.969 Y-15.702 Z10.099 A119.0264 
N1892 X-184.969 Y-15.774 Z9.177 A121.6880 
N1893 X-184.969 Y-15.790 Z8.242 A124.3203 
N1894 X-184.969 Y-15.758 Z7.293 A126.9731 
N1895 X-184.969 Y-15.687 Z6.329 A129.7016 
N1896 X-184.969 Y-15.581 Z5.350 A132.5427 
N1897 X-184.969 Y-15.439 Z4.355 A135.5136 
N1898 X-184.969 Y-15.260 Z3.348 A138.6216 
N1899 X-184.969 Y-15.041 Z2.331 A141.8639 
N1900 X-184.969 Y-14.777 Z1.308 A145.2326 
N1901 X-184.969 Y-14.464 Z0.284 A148.7140 
N1902 X-184.969 Y-14.097 Z-0.735 A152.2894 
N1903 X-184.969 Y-13.672 Z-1.742 A155.9358 
N1904 X-184.969 Y-13.185 Z-2.728 A159.6284 
N1905 X-184.969 Y-12.632 Z-3.686 A163.3417 
N1906 X-184.969 Y-12.014 Z-4.607 A167.0518 
N1907 X-184.969 Y-11.330 Z-5.483 A170.7368 
N1908 X-184.969 Y-10.581 Z-6.306 A174.3779 
N1909 X-184.969 Y-9.769 Z-7.069 A177.9596 
N1910 X-184.969 Y-8.899 Z-7.768 A181.4707 
N1911 X-184.969 Y-7.972 Z-8.397 A184.9036 
N1912 X-184.969 Y-6.995 Z-8.953 A188.2563 
N1913 X-184.969 Y-5.969 Z-9.434 A191.5326 
N1914 X-184.969 Y-4.900 Z-9.840 A194.7452 
N1915 X-184.969 Y-3.790 Z-10.171 A197.9157 
N1916 X-184.969 Y-2.641 Z-10.432 A201.0803 
N1917 X-184.969 Y-1.453 Z-10.628 A204.2888 
N1918 X-184.969 Y-0.226 Z-10.764 A207.6038 
N1919 X-184.969 Y1.043 Z-10.845 A211.0838 
N1920 X-184.969 Y2.352 Z-10.867 A214.7591 
N1921 X-184.969 Y3.691 Z-10.819 A218.5915 
N1922 X-184.969 Y5.035 Z-10.678 A222.4555 
N1923 X-184.969 Y6.337 Z-10.412 A226.0670 
N1924 X-184.969 Y7.541 Z-10.001 A229.1355 
N1925 X-184.969 Y8.602 Z-9.448 A231.4339 
N1926 X-184.969 Y9.495 Z-8.772 A232.8437 
N1927 X-184.969 Y10.241 Z-8.017 A233.4976 
N1928 X-184.969 Y10.885 Z-7.235 A233.6901 
N1929 X-184.969 Y11.473 Z-6.472 A233.7207 
N1930 X-184.969 Y12.042 Z-5.765 A233.8499 
N1931 X-184.969 Y12.627 Z-5.146 A234.3458 
N1932 X-184.969 Y13.259 Z-4.639 A235.4317 
N1933 X-184.969 Y13.951 Z-4.247 A237.2171 
N1934 X-184.969 Y14.704 Z-3.957 A239.6886 
N1935 X-184.969 Y15.522 Z-3.750 A242.8232 
N1936 X-184.969 Y16.407 Z-3.605 A246.5898 
N1937 X-184.969 Y17.354 Z-3.489 A250.8879 
N1938 X-184.969 Y18.351 Z-3.375 A255.6170 
N1939 X-184.969 Y19.388 Z-3.237 A260.6837 
N1940 X-184.969 Y20.443 Z-3.051 A265.9563 
N1941 X-184.969 Y21.494 Z-2.804 A271.3351 
N1942 X-184.969 Y22.522 Z-2.489 A276.7251 
N1943 X-184.969 Y23.510 Z-2.104 A282.0715 
N1944 X-184.969 Y24.449 Z-1.650 A287.3439 
N1945 X-184.969 Y25.335 Z-1.128 A292.5479 
N1946 X-184.969 Y26.166 Z-0.539 A297.7148 
N1947 X-184.969 Y26.945 Z0.121 A302.8983 
N1948 X-184.969 Y27.673 Z0.861 A308.1678 
N1949 X-184.969 Y28.348 Z1.691 A313.6001 
N1950 X-184.969 Y28.961 Z2.623 A319.2538 
N1951 X-184.969 Y29.488 Z3.657 A325.1329 
N1952 X-184.969 Y29.909 Z4.796 A331.2622 
N1953 X-184.969 Y30.188 Z6.018 A337.5570 
N1954 X-184.969 Y30.291 Z7.276 A343.8487 
N1955 X-184.969 Y30.198 Z8.505 A349.8952 
N1956 X-184.969 Y29.906 Z9.617 A355.3720 
N1957 X-184.969 Y29.439 Z10.539 A359.9973 
N1958 X-184.969 Y28.833 Z11.234 A3.6383 
N1959 X-184.969 Y28.124 Z11.692 A6.2533 
N1960 X-184.969 Y27.338 Z11.917 A7.8237 
N1961 X-184.969 Y26.488 Z11.953 A8.5073 
N1962 X-184.969 Y25.575 Z11.859 A8.5451 
N1963 X-184.969 Y24.593 Z11.700 A8.1927 
N1964 X-184.969 Y23.527 Z11.538 A7.7136 
N1965 X-184.969 Y22.382 Z11.478 A7.6086 
N1966 X-184.969 Y21.139 Z11.467 
N1967 X-184.969 Y19.804 Z11.480 
N1968 X-184.969 Y18.405 Z11.512 
N1969 X-184.969 Y16.983 Z11.575 A7.6927 
N1970 X-184.969 Y15.570 Z11.645 A7.7604 
N1971 X-184.969 Y14.189 Z11.699 A7.6768 
N1972 X-184.969 Y12.862 Z11.770 A7.6086 
N1973 X-184.969 Y11.592 Z11.867 
N1974 X-184.969 Y10.372 Z11.969 
N1975 X-184.969 Y9.192 Z12.067 
N1976 X-184.969 Y8.039 Z12.148 
N1977 X-184.969 Y6.907 Z12.197 
N1978 X-184.969 Y5.820 Z12.270 A7.9728 
N1979 X-184.969 Y4.835 Z12.570 A9.7606 
N1980 X-184.969 Y3.918 Z13.031 A12.6806 
N1981 X-184.969 Y3.043 Z13.674 A16.8506 
N1982 X-184.969 Y2.161 Z14.445 A22.0132 
N1983 X-184.969 Y1.236 Z15.276 A27.8630 
N1984 X-184.969 Y0.249 Z16.099 A34.0937 
N1985 X-184.969 Y-0.793 Z16.841 A40.3716 
N1986 X-184.969 Y-1.869 Z17.464 A46.5004 
N1987 X-184.969 Y-2.955 Z17.954 A52.3857 
N1988 X-184.969 Y-4.029 Z18.309 A57.9643 
N1989 X-184.969 Y-5.071 Z18.532 A63.1965 
N1990 X-184.969 Y-6.071 Z18.633 A68.0885 
N1991 X-184.969 Y-7.022 Z18.624 A72.6754 
N1992 X-184.969 Y-7.920 Z18.514 A76.9793 
N1993 X-184.969 Y-8.761 Z18.314 A81.0147 
N1994 X-184.969 Y-9.540 Z18.030 A84.7968 
N1995 X-184.969 Y-10.256 Z17.672 A88.3469 
N1996 X-184.969 Y-10.910 Z17.245 A91.6902 
N1997 X-184.969 Y-11.503 Z16.757 A94.8574 
N1998 X-184.969 Y-12.040 Z16.211 A97.8865 
N1999 X-184.969 Y-12.526 Z15.611 A100.8187 
N2000 X-184.969 Y-12.963 Z14.961 A103.6912 
N2001 X-184.969 Y-13.354 Z14.262 A106.5341 
N2002 X-184.969 Y-13.699 Z13.519 A109.3617 
N2003 X-184.969 Y-13.995 Z12.736 A112.1682 
N2004 X-184.969 Y-14.235 Z11.919 A114.9375 
N2005 X-184.969 Y-14.418 Z11.076 A117.6538 
N2006 X-184.969 Y-14.541 Z10.213 A120.3092 
N2007 X-184.969 Y-14.609 Z9.336 A122.9233 
N2008 X-184.969 Y-14.631 Z8.444 A125.5417 
N2009 X-184.969 Y-14.613 Z7.537 A128.2141 
N2010 X-184.969 Y-14.561 Z6.614 A130.9816 
N2011 X-184.969 Y-14.479 Z5.674 A133.8745 
N2012 X-184.969 Y-14.365 Z4.719 A136.9081 
N2013 X-184.969 Y-14.216 Z3.749 A140.0856 
N2014 X-184.969 Y-14.030 Z2.767 A143.4059 
N2015 X-184.969 Y-13.801 Z1.777 A146.8617 
N2016 X-184.969 Y-13.525 Z0.782 A150.4405 
N2017 X-184.969 Y-13.194 Z-0.212 A154.1253 
N2018 X-184.969 Y-12.805 Z-1.199 A157.8955 
N2019 X-184.969 Y-12.351 Z-2.170 A161.7286 
N2020 X-184.969 Y-11.830 Z-3.117 A165.6006 
N2021 X-184.969 Y-11.237 Z-4.032 A169.4869 
N2022 X-184.969 Y-10.572 Z-4.904 A173.3631 
N2023 X-184.969 Y-9.834 Z-5.725 A177.2054 
N2024 X-184.969 Y-9.024 Z-6.485 A180.9911 
N2025 X-184.969 Y-8.146 Z-7.173 A184.6980 
N2026 X-184.969 Y-7.204 Z-7.784 A188.3067 
N2027 X-184.969 Y-6.204 Z-8.308 A191.8004 
N2028 X-184.969 Y-5.151 Z-8.742 A195.1692 
N2029 X-184.969 Y-4.052 Z-9.083 A198.4107 
N2030 X-184.969 Y-2.915 Z-9.332 A201.5410 
N2031 X-184.969 Y-1.743 Z-9.495 A204.5959 
N2032 X-184.969 Y-0.540 Z-9.580 A207.6361 
N2033 X-184.969 Y0.694 Z-9.598 A210.7311 
N2034 X-184.969 Y1.956 Z-9.555 A213.9303 
N2035 X-184.969 Y3.235 Z-9.446 A217.2167 
N2036 X-184.969 Y4.504 Z-9.250 A220.4461 
N2037 X-184.969 Y5.726 Z-8.949 A223.4109 
N2038 X-184.969 Y6.855 Z-8.527 A225.8653 
N2039 X-184.969 Y7.856 Z-7.986 A227.6246 
N2040 X-184.969 Y8.728 Z-7.358 A228.7232 
N2041 X-184.969 Y9.494 Z-6.686 A229.3480 
N2042 X-184.969 Y10.186 Z-6.013 A229.7260 
N2043 X-184.969 Y10.836 Z-5.378 A230.1008 
N2044 X-184.969 Y11.480 Z-4.817 A230.7430 
N2045 X-184.969 Y12.146 Z-4.356 A231.8637 
N2046 X-184.969 Y12.847 Z-4.000 A233.5628 
N2047 X-184.969 Y13.588 Z-3.742 A235.8599 
N2048 X-184.969 Y14.380 Z-3.571 A238.7709 
N2049 X-184.969 Y15.230 Z-3.468 A242.2817 
N2050 X-184.969 Y16.137 Z-3.407 A246.3255 
N2051 X-184.969 Y17.100 Z-3.362 A250.8375 
N2052 X-184.969 Y18.112 Z-3.305 A255.7286 
N2053 X-184.969 Y19.154 Z-3.211 A260.8752 
N2054 X-184.969 Y20.207 Z-3.062 A266.1721 
N2055 X-184.969 Y21.248 Z-2.847 A271.5101 
N2056 X-184.969 Y22.260 Z-2.561 A276.8158 
N2057 X-184.969 Y23.228 Z-2.206 A282.0315 
N2058 X-184.969 Y24.142 Z-1.786 A287.1344 
N2059 X-184.969 Y24.998 Z-1.305 A292.1229 
N2060 X-184.969 Y25.796 Z-0.767 A297.0160 
N2061 X-184.969 Y26.536 Z-0.172 A301.8477 
N2062 X-184.969 Y27.222 Z0.480 A306.6612 
N2063 X-184.969 Y27.853 Z1.193 A311.5032 
N2064 X-184.969 Y28.427 Z1.971 A316.4164 
N2065 X-184.969 Y28.938 Z2.818 A321.4376 
N2066 X-184.969 Y29.377 Z3.736 A326.5971 
N2067 X-184.969 Y29.729 Z4.724 A331.8965 
N2068 X-184.969 Y29.974 Z5.764 A337.2797 
N2069 X-184.969 Y30.096 Z6.843 A342.7127 
N2070 X-184.969 Y30.080 Z7.928 A348.0959 
N2071 X-184.969 Y29.916 Z8.975 A353.2732 
N2072 X-184.969 Y29.607 Z9.941 A358.1028 
N2073 X-184.969 Y29.167 Z10.781 A2.4168 
N2074 X-184.969 Y28.614 Z11.470 A6.1431 
N2075 X-184.969 Y27.971 Z11.985 A9.1726 
N2076 X-184.969 Y27.262 Z12.319 A11.4688 
N2077 X-184.969 Y26.506 Z12.482 A13.0435 
N2078 X-184.969 Y25.719 Z12.488 A13.9100 
N2079 X-184.969 Y24.905 Z12.375 A14.1935 
N2080 X-184.969 Y24.063 Z12.194 A14.0814 
N2081 X-184.969 Y23.185 Z11.988 A13.7489 
N2082 X-184.969 Y22.263 Z11.803 A13.3629 
N2083 X-184.969 Y21.292 Z11.669 A13.0480 
N2084 X-184.969 Y20.276 Z11.627 A12.9766 
N2085 X-184.969 Y19.213 Z11.644 
N2086 X-184.969 Y18.109 Z11.704 
N2087 X-184.969 Y16.975 Z11.805 
N2088 X-184.969 Y15.825 Z11.938 
N2089 X-184.969 Y14.672 Z12.094 
N2090 X-184.969 Y13.530 Z12.264 
N2091 X-184.969 Y12.408 Z12.436 
N2092 X-184.969 Y11.308 Z12.600 
N2093 X-184.969 Y10.231 Z12.746 
N2094 X-184.969 Y9.180 Z12.864 
N2095 X-184.969 Y8.152 Z12.944 
N2096 X-184.969 Y7.147 Z12.976 
N2097 X-184.969 Y6.170 Z12.964 A13.0371 
N2098 X-184.969 Y5.266 Z13.135 A14.2804 
N2099 X-184.969 Y4.414 Z13.431 A16.4493 
N2100 X-184.969 Y3.604 Z13.897 A19.7643 
N2101 X-184.969 Y2.800 Z14.519 A24.1518 
N2102 X-184.969 Y1.966 Z15.223 A29.2604 
N2103 X-184.969 Y1.082 Z15.950 A34.8308 
N2104 X-184.969 Y0.144 Z16.640 A40.5908 
N2105 X-184.969 Y-0.834 Z17.235 A46.2731 
N2106 X-184.969 Y-1.837 Z17.724 A51.8163 
N2107 X-184.969 Y-2.849 Z18.100 A57.1827 
N2108 X-184.969 Y-3.856 Z18.362 A62.3361 
N2109 X-184.969 Y-4.839 Z18.511 A67.2377 
N2110 X-184.969 Y-5.786 Z18.551 A71.8722 
N2111 X-184.969 Y-6.691 Z18.492 A76.2551 
N2112 X-184.969 Y-7.546 Z18.341 A80.3975 
N2113 X-184.969 Y-8.345 Z18.105 A84.3025 
N2114 X-184.969 Y-9.085 Z17.793 A87.9751 
N2115 X-184.969 Y-9.761 Z17.410 A91.4275 
N2116 X-184.969 Y-10.375 Z16.965 A94.6821 
N2117 X-184.969 Y-10.929 Z16.462 A97.7704 
N2118 X-184.969 Y-11.426 Z15.907 A100.7295 
N2119 X-184.969 Y-11.873 Z15.303 A103.5992 
N2120 X-184.969 Y-12.272 Z14.653 A106.4165 
N2121 X-184.969 Y-12.626 Z13.960 A109.2021 
N2122 X-184.969 Y-12.931 Z13.228 A111.9582 
N2123 X-184.969 Y-13.185 Z12.463 A114.6766 
N2124 X-184.969 Y-13.385 Z11.671 A117.3430 
N2125 X-184.969 Y-13.529 Z10.860 A119.9479 
N2126 X-184.969 Y-13.622 Z10.034 A122.5105 
N2127 X-184.969 Y-13.670 Z9.193 A125.0763 
N2128 X-184.969 Y-13.684 Z8.337 A127.6968 
N2129 X-184.969 Y-13.668 Z7.463 A130.4182 
N2130 X-184.969 Y-13.627 Z6.569 A133.2768 
N2131 X-184.969 Y-13.560 Z5.656 A136.2930 
N2132 X-184.969 Y-13.465 Z4.724 A139.4720 
N2133 X-184.969 Y-13.336 Z3.774 A142.8144 
N2134 X-184.969 Y-13.170 Z2.809 A146.3149 
N2135 X-184.969 Y-12.958 Z1.832 A149.9623 
N2136 X-184.969 Y-12.695 Z0.848 A153.7403 
N2137 X-184.969 Y-12.372 Z-0.136 A157.6279 
N2138 X-184.969 Y-11.984 Z-1.114 A161.6017 
N2139 X-184.969 Y-11.523 Z-2.076 A165.6356 
N2140 X-184.969 Y-10.986 Z-3.011 A169.7026 
N2141 X-184.969 Y-10.368 Z-3.910 A173.7754 
N2142 X-184.969 Y-9.669 Z-4.761 A177.8259 
N2143 X-184.969 Y-8.887 Z-5.550 A181.8257 
N2144 X-184.969 Y-8.026 Z-6.267 A185.7445 
N2145 X-184.969 Y-7.090 Z-6.899 A189.5522 
N2146 X-184.969 Y-6.087 Z-7.436 A193.2186 
N2147 X-184.969 Y-5.025 Z-7.869 A196.7178 
N2148 X-184.969 Y-3.916 Z-8.192 A200.0278 
N2149 X-184.969 Y-2.769 Z-8.404 A203.1384 
N2150 X-184.969 Y-1.596 Z-8.508 A206.0619 
N2151 X-184.969 Y-0.404 Z-8.514 A208.8349 
N2152 X-184.969 Y0.802 Z-8.437 A211.5259 
N2153 X-184.969 Y2.016 Z-8.288 A214.1877 
N2154 X-184.969 Y3.228 Z-8.074 A216.8222 
N2155 X-184.969 Y4.417 Z-7.789 A219.3552 
N2156 X-184.969 Y5.548 Z-7.417 A221.5924 
N2157 X-184.969 Y6.585 Z-6.949 A223.3319 
N2158 X-184.969 Y7.514 Z-6.401 A224.5324 
N2159 X-184.969 Y8.341 Z-5.805 A225.2809 
N2160 X-184.969 Y9.085 Z-5.198 A225.7361 
N2161 X-184.969 Y9.773 Z-4.618 A226.1288 
N2162 X-184.969 Y10.444 Z-4.110 A226.7539 
N2163 X-184.969 Y11.126 Z-3.704 A227.8494 
N2164 X-184.969 Y11.836 Z-3.410 A229.5352 
N2165 X-184.969 Y12.584 Z-3.221 A231.8463 
N2166 X-184.969 Y13.381 Z-3.127 A234.8064 
N2167 X-184.969 Y14.235 Z-3.108 A238.3926 
N2168 X-184.969 Y15.148 Z-3.135 A242.5247 
N2169 X-184.969 Y16.120 Z-3.180 A247.1302 
N2170 X-184.969 Y17.143 Z-3.214 A252.1191 
N2171 X-184.969 Y18.201 Z-3.208 A257.3617 
N2172 X-184.969 Y19.274 Z-3.145 A262.7450 
N2173 X-184.969 Y20.338 Z-3.010 A268.1510 
N2174 X-184.969 Y21.373 Z-2.800 A273.4983 
N2175 X-184.969 Y22.363 Z-2.517 A278.7253 
N2176 X-184.969 Y23.298 Z-2.167 A283.8038 
N2177 X-184.969 Y24.173 Z-1.757 A288.7271 
N2178 X-184.969 Y24.987 Z-1.291 A293.5069 
N2179 X-184.969 Y25.741 Z-0.775 A298.1655 
N2180 X-184.969 Y26.437 Z-0.211 A302.7329 
N2181 X-184.969 Y27.077 Z0.399 A307.2402 
N2182 X-184.969 Y27.663 Z1.055 A311.7171 
N2183 X-184.969 Y28.192 Z1.756 A316.1896 
N2184 X-184.969 Y28.663 Z2.503 A320.6854 
N2185 X-184.969 Y29.074 Z3.299 A325.2334 
N2186 X-184.969 Y29.418 Z4.143 A329.8538 
N2187 X-184.969 Y29.687 Z5.029 A334.5401 
N2188 X-184.969 Y29.871 Z5.954 A339.2930 
N2189 X-184.969 Y29.962 Z6.911 A344.1191 
N2190 X-184.969 Y29.950 Z7.885 A348.9823 
N2191 X-184.969 Y29.827 Z8.858 A353.8357 
N2192 X-184.969 Y29.588 Z9.804 A358.6106 
N2193 X-184.969 Y29.235 Z10.684 A3.1557 
N2194 X-184.969 Y28.779 Z11.466 A7.3691 
N2195 X-184.969 Y28.237 Z12.122 A11.1262 
N2196 X-184.969 Y27.628 Z12.631 A14.3468 
N2197 X-184.969 Y26.976 Z12.982 A16.9578 
N2198 X-184.969 Y26.305 Z13.168 A18.8854 
N2199 X-184.969 Y25.631 Z13.202 A20.1386 
N2200 X-184.969 Y24.964 Z13.114 A20.8133 
N2201 X-184.969 Y24.306 Z12.941 A21.0350 
N2202 X-184.969 Y23.653 Z12.720 A20.9305 
N2203 X-184.969 Y22.997 Z12.489 A20.6700 
N2204 X-184.969 Y22.325 Z12.284 A20.3973 
N2205 X-184.969 Y21.633 Z12.119 A20.1563 
N2206 X-184.969 Y20.921 Z12.000 A19.9589 
N2207 X-184.969 Y20.188 Z11.926 A19.7747 
N2208 X-184.969 Y19.438 Z11.917 A19.6823 
N2209 X-184.969 Y18.670 Z11.975 
N2210 X-184.969 Y17.876 Z12.079 
N2211 X-184.969 Y17.053 Z12.229 
N2212 X-184.969 Y16.199 Z12.420 
N2213 X-184.969 Y15.319 Z12.642 
N2214 X-184.969 Y14.415 Z12.884 
N2215 X-184.969 Y13.494 Z13.132 
N2216 X-184.969 Y12.563 Z13.372 
N2217 X-184.969 Y11.631 Z13.593 
N2218 X-184.969 Y10.702 Z13.781 
N2219 X-184.969 Y9.783 Z13.930 
N2220 X-184.969 Y8.879 Z14.031 
N2221 X-184.969 Y7.995 Z14.080 
N2222 X-184.969 Y7.133 Z14.074 
N2223 X-184.969 Y6.298 Z14.014 A19.7022 
N2224 X-184.969 Y5.504 Z14.063 A20.5142 
N2225 X-184.969 Y4.748 Z14.198 A22.0168 
N2226 X-184.969 Y4.020 Z14.465 A24.4139 
N2227 X-184.969 Y3.300 Z14.891 A27.8280 
N2228 X-184.969 Y2.560 Z15.419 A31.9952 
N2229 X-184.969 Y1.780 Z16.001 A36.7028 
N2230 X-184.969 Y0.950 Z16.586 A41.7312 
N2231 X-184.969 Y0.074 Z17.124 A46.8610 
N2232 X-184.969 Y-0.835 Z17.579 A51.9368 
N2233 X-184.969 Y-1.768 Z17.945 A56.9383 
N2234 X-184.969 Y-2.714 Z18.219 A61.8463 
N2235 X-184.969 Y-3.661 Z18.396 A66.6286 
N2236 X-184.969 Y-4.592 Z18.475 A71.2455 
N2237 X-184.969 Y-5.495 Z18.457 A75.6677 
N2238 X-184.969 Y-6.358 Z18.349 A79.8850 
N2239 X-184.969 Y-7.174 Z18.156 A83.8951 
N2240 X-184.969 Y-7.938 Z17.884 A87.7000 
N2241 X-184.969 Y-8.644 Z17.541 A91.3050 
N2242 X-184.969 Y-9.290 Z17.133 A94.7145 
N2243 X-184.969 Y-9.872 Z16.667 A97.9379 
N2244 X-184.969 Y-10.393 Z16.148 A100.9961 
N2245 X-184.969 Y-10.855 Z15.582 A103.9197 
N2246 X-184.969 Y-11.262 Z14.974 A106.7386 
N2247 X-184.969 Y-11.617 Z14.326 A109.4752 
N2248 X-184.969 Y-11.920 Z13.644 A112.1446 
N2249 X-184.969 Y-12.171 Z12.932 A114.7525 
N2250 X-184.969 Y-12.371 Z12.196 A117.2944 
N2251 X-184.969 Y-12.519 Z11.443 A119.7757 
N2252 X-184.969 Y-12.623 Z10.673 A122.2301 
N2253 X-184.969 Y-12.692 Z9.887 A124.7115 
N2254 X-184.969 Y-12.734 Z9.082 A127.2749 
N2255 X-184.969 Y-12.755 Z8.256 A129.9679 
N2256 X-184.969 Y-12.758 Z7.405 A132.8276 
N2257 X-184.969 Y-12.742 Z6.530 A135.8745 
N2258 X-184.969 Y-12.702 Z5.629 A139.1110 
N2259 X-184.969 Y-12.634 Z4.704 A142.5339 
N2260 X-184.969 Y-12.530 Z3.758 A146.1351 
N2261 X-184.969 Y-12.382 Z2.794 A149.9001 
N2262 X-184.969 Y-12.182 Z1.816 A153.8103 
N2263 X-184.969 Y-11.920 Z0.831 A157.8428 
N2264 X-184.969 Y-11.588 Z-0.154 A161.9728 
N2265 X-184.969 Y-11.179 Z-1.127 A166.1741 
N2266 X-184.969 Y-10.687 Z-2.080 A170.4199 
N2267 X-184.969 Y-10.106 Z-3.000 A174.6814 
N2268 X-184.969 Y-9.433 Z-3.873 A178.9277 
N2269 X-184.969 Y-8.669 Z-4.684 A183.1233 
N2270 X-184.969 Y-7.815 Z-5.417 A187.2296 
N2271 X-184.969 Y-6.877 Z-6.058 A191.2043 
N2272 X-184.969 Y-5.866 Z-6.593 A195.0054 
N2273 X-184.969 Y-4.793 Z-7.010 A198.5921 
N2274 X-184.969 Y-3.673 Z-7.302 A201.9286 
N2275 X-184.969 Y-2.520 Z-7.465 A204.9892 
N2276 X-184.969 Y-1.350 Z-7.506 A207.7778 
N2277 X-184.969 Y-0.171 Z-7.440 A210.3451 
N2278 X-184.969 Y1.009 Z-7.283 A212.7449 
N2279 X-184.969 Y2.176 Z-7.044 A214.9862 
N2280 X-184.969 Y3.316 Z-6.729 A217.0312 
N2281 X-184.969 Y4.399 Z-6.333 A218.7571 
N2282 X-184.969 Y5.392 Z-5.845 A219.9691 
N2283 X-184.969 Y6.275 Z-5.275 A220.5767 
N2284 X-184.969 Y7.059 Z-4.662 A220.7105 
N2285 X-184.969 Y7.766 Z-4.038 A220.5430 
N2286 X-184.969 Y8.439 Z-3.489 
N2287 X-184.969 Y9.084 Z-2.963 
N2288 X-184.969 Y9.775 Z-2.609 A221.4096 
N2289 X-184.969 Y10.536 Z-2.435 A223.3175 
N2290 X-184.969 Y11.374 Z-2.421 A226.2501 
N2291 X-184.969 Y12.273 Z-2.512 A229.9729 
N2292 X-184.969 Y13.223 Z-2.660 A234.2705 
N2293 X-184.969 Y14.209 Z-2.825 A238.9578 
N2294 X-184.969 Y15.212 Z-2.972 A243.8369 
N2295 X-184.969 Y16.227 Z-3.084 A248.8495 
N2296 X-184.969 Y17.251 Z-3.150 A253.9470 
N2297 X-184.969 Y18.270 Z-3.159 A259.0585 
N2298 X-184.969 Y19.274 Z-3.105 A264.1315 
N2299 X-184.969 Y20.249 Z-2.985 A269.1127 
N2300 X-184.969 Y21.189 Z-2.802 A273.9777 
N2301 X-184.969 Y22.085 Z-2.559 A278.7095 
N2302 X-184.969 Y22.936 Z-2.260 A283.3086 
N2303 X-184.969 Y23.740 Z-1.911 A287.7847 
N2304 X-184.969 Y24.497 Z-1.514 A292.1519 
N2305 X-184.969 Y25.209 Z-1.074 A296.4318 
N2306 X-184.969 Y25.877 Z-0.591 A300.6497 
N2307 X-184.969 Y26.504 Z-0.066 A304.8348 
N2308 X-184.969 Y27.092 Z0.503 A309.0225 
N2309 X-184.969 Y27.643 Z1.119 A313.2521 
N2310 X-184.969 Y28.157 Z1.788 A317.5708 
N2311 X-184.969 Y28.633 Z2.519 A322.0339 
N2312 X-184.969 Y29.069 Z3.320 A326.7021 
N2313 X-184.969 Y29.456 Z4.204 A331.6400 
N2314 X-184.969 Y29.780 Z5.177 A336.8852 
N2315 X-184.969 Y30.018 Z6.234 A342.4282 
N2316 X-184.969 Y30.149 Z7.381 A348.3235 
N2317 X-184.969 Y30.149 Z8.620 A354.6419 
N2318 X-184.969 Y29.986 Z9.879 A1.0948 
N2319 X-184.969 Y29.661 Z11.033 A7.1469 
N2320 X-184.969 Y29.209 Z12.016 A12.5349 
N2321 X-184.969 Y28.684 Z12.759 A16.9134 
N2322 X-184.969 Y28.140 Z13.242 A20.1425 
N2323 X-184.969 Y27.606 Z13.491 A22.3055 
N2324 X-184.969 Y27.094 Z13.539 A23.5177 
N2325 X-184.969 Y26.603 Z13.425 A23.9382 
N2326 X-184.969 Y26.110 Z13.213 A23.8807 
N2327 X-184.969 Y25.588 Z12.970 A23.6917 
N2328 X-184.969 Y25.019 Z12.745 A23.6205 
N2329 X-184.969 Y24.401 Z12.554 A23.7363 
N2330 X-184.969 Y23.745 Z12.391 A23.9780 
N2331 X-184.969 Y23.068 Z12.243 A24.2371 
N2332 X-184.969 Y22.387 Z12.100 A24.4132 
N2333 X-184.969 Y21.720 Z11.951 A24.4093 
N2334 X-184.969 Y21.074 Z11.796 A24.1812 
N2335 X-184.969 Y20.444 Z11.654 A23.8135 
N2336 X-184.969 Y19.818 Z11.551 A23.4197 
N2337 X-184.969 Y19.188 Z11.498 A23.0495 
N2338 X-184.969 Y18.548 Z11.496 A22.7046 
N2339 X-184.969 Y17.896 Z11.532 A22.3260 
N2340 X-184.969 Y17.225 Z11.618 A21.9617 
N2341 X-184.969 Y16.525 Z11.770 A21.7018 
N2342 X-184.969 Y15.796 Z11.985 A21.5587 
N2343 X-184.969 Y15.036 Z12.256 A21.5440 
N2344 X-184.969 Y14.251 Z12.576 A21.6753 
N2345 X-184.969 Y13.449 Z12.916 A21.8945 
N2346 X-184.969 Y12.637 Z13.242 A22.1038 
N2347 X-184.969 Y11.823 Z13.540 A22.2966 
N2348 X-184.969 Y11.012 Z13.802 A22.4695 
N2349 X-184.969 Y10.211 Z14.015 A22.5993 
N2350 X-184.969 Y9.424 Z14.173 A22.6817 
N2351 X-184.969 Y8.656 Z14.276 A22.7225 
N2352 X-184.969 Y7.908 Z14.317 A22.6991 
N2353 X-184.969 Y7.179 Z14.301 A22.6327 
N2354 X-184.969 Y6.465 Z14.273 A22.7545 
N2355 X-184.969 Y5.760 Z14.295 A23.3695 
N2356 X-184.969 Y5.059 Z14.418 A24.7564 
N2357 X-184.969 Y4.363 Z14.669 A27.0455 
N2358 X-184.969 Y3.668 Z15.062 A30.2897 
N2359 X-184.969 Y2.961 Z15.555 A34.2557 
N2360 X-184.969 Y2.223 Z16.102 A38.7351 
N2361 X-184.969 Y1.438 Z16.666 A43.5656 
N2362 X-184.969 Y0.600 Z17.204 A48.6004 
N2363 X-184.969 Y-0.286 Z17.675 A53.6760 
N2364 X-184.969 Y-1.216 Z18.067 A58.7833 
N2365 X-184.969 Y-2.186 Z18.372 A63.9211 
N2366 X-184.969 Y-3.177 Z18.578 A69.0225 
N2367 X-184.969 Y-4.153 Z18.675 A73.9487 
N2368 X-184.969 Y-5.078 Z18.663 A78.5591 
N2369 X-184.969 Y-5.926 Z18.549 A82.7662 
N2370 X-184.969 Y-6.685 Z18.349 A86.5547 
N2371 X-184.969 Y-7.364 Z18.077 A89.9968 
N2372 X-184.969 Y-7.984 Z17.744 A93.2169 
N2373 X-184.969 Y-8.558 Z17.353 A96.3101 
N2374 X-184.969 Y-9.088 Z16.909 A99.3068 
N2375 X-184.969 Y-9.572 Z16.414 A102.2043 
N2376 X-184.969 Y-10.004 Z15.874 A104.9932 
N2377 X-184.969 Y-10.380 Z15.295 A107.6636 
N2378 X-184.969 Y-10.701 Z14.682 A110.2153 
N2379 X-184.969 Y-10.967 Z14.041 A112.6661 
N2380 X-184.969 Y-11.186 Z13.374 A115.0458 
N2381 X-184.969 Y-11.363 Z12.686 A117.3892 
N2382 X-184.969 Y-11.504 Z11.977 A119.7323 
N2383 X-184.969 Y-11.616 Z11.249 A122.1125 
N2384 X-184.969 Y-11.706 Z10.500 A124.5732 
N2385 X-184.969 Y-11.779 Z9.728 A127.1619 
N2386 X-184.969 Y-11.840 Z8.931 A129.9201 
N2387 X-184.969 Y-11.888 Z8.107 A132.8741 
N2388 X-184.969 Y-11.922 Z7.253 A136.0335 
N2389 X-184.969 Y-11.936 Z6.371 A139.4013 
N2390 X-184.969 Y-11.922 Z5.460 A142.9730 
N2391 X-184.969 Y-11.873 Z4.522 A146.7369 
N2392 X-184.969 Y-11.779 Z3.561 A150.6779 
N2393 X-184.969 Y-11.629 Z2.580 A154.7764 
N2394 X-184.969 Y-11.414 Z1.586 A159.0110 
N2395 X-184.969 Y-11.124 Z0.588 A163.3576 
N2396 X-184.969 Y-10.748 Z-0.405 A167.7882 
N2397 X-184.969 Y-10.279 Z-1.379 A172.2709 
N2398 X-184.969 Y-9.711 Z-2.319 A176.7678 
N2399 X-184.969 Y-9.041 Z-3.206 A181.2331 
N2400 X-184.969 Y-8.269 Z-4.021 A185.6143 
